Assets/EldamarStudio/100 Retro LUTs Pack/LUTs/cube/Alexi LUT.cube
LUT_3D_SIZE 8
DOMAIN_MIN 0.000000 0.000000 0.000000
DOMAIN_MAX 0.903226 0.903226 0.903226
0.117647000 0.000000000 0.000000000
0.142694101 0.003542452 0.000000000
0.178747892 0.000000000 0.000000000
0.226944640 0.016318996 0.003922000
0.282732397 0.065780997 0.004807003
0.362302750 0.095888734 0.002024260
0.472106278 0.120556280 0.002277288
0.616318762 0.135989830 0.000000000
0.114484094 0.065401547 0.000758999
0.140796542 0.058317542 0.000000000
0.174825996 0.071221001 0.000379548
0.224920988 0.089184090 0.000379548
0.279696375 0.113092735 0.004807003
0.365085483 0.139025539 0.000000000
0.475648284 0.161416799 0.001644712
0.628209591 0.179633290 0.000000000
0.104490906 0.155851096 0.014168001
0.120430350 0.158633649 0.001138547
0.152941003 0.159772098 0.003922001
0.204933539 0.179000735 0.006325098
0.273498088 0.192662895 0.000000000
0.367868632 0.208728835 0.006325002
0.468184650 0.231119379 0.000000000
0.630866647 0.246047094 0.000759096
0.008349358 0.256166995 0.000000000
0.038836014 0.256166995 0.006325098
0.096900553 0.260847360 0.000759096
0.168626994 0.266793638 0.000000000
0.254269540 0.284376979 0.000000000
0.351802379 0.302846521 0.006831359
0.479949266 0.323466271 0.003921710
0.641745746 0.345097840 0.004807010
0.007843000 0.372928381 0.004807003
0.000000000 0.361796170 0.002403808
0.004680903 0.364959091 0.005566099
0.101201802 0.372042984 0.001138644
0.216066003 0.379886389 0.000000000
0.337128520 0.397343636 0.001518192
0.479569733 0.426059186 0.000759096
0.648450434 0.445161015 0.003035997
0.002024260 0.483364701 0.001897740
0.004554189 0.477672458 0.005060257
0.002277094 0.485515475 0.002276998
0.002276998 0.487286747 0.000759096
0.181024835 0.498798281 0.004048004
0.324604452 0.509044945 0.005945744
0.484756291 0.531435788 0.005439708
0.664769411 0.554965258 0.005692737
0.000000000 0.645287812 0.002277288
0.000379548 0.644528806 0.003289004
0.000000000 0.641998827 0.001644712
0.000000000 0.650347888 0.005060354
0.146236554 0.654648602 0.004933716
0.363693446 0.661353827 0.000000000
0.525616825 0.672738850 0.000000000
0.707020760 0.680328846 0.001644712
0.000000000 0.805818558 0.002656833
0.002277285 0.803921402 0.002277285
0.003794990 0.807843149 0.001897736
0.004301157 0.811258793 0.005060354
0.123466104 0.817457378 0.003035997
0.412144274 0.824161768 0.000000000
0.599494278 0.828083456 0.001644712
0.786717176 0.826691747 0.002656833
0.127514452 0.000000000 0.076027997
0.137634456 0.003922000 0.073244549
0.178747892 0.001138548 0.081087649
0.223782539 0.027324287 0.074762642
0.282100171 0.055154737 0.075648360
0.370145738 0.089183994 0.076027811
0.475015819 0.117520481 0.076786995
0.624161720 0.122074746 0.053763557
0.114484094 0.068564549 0.076786995
0.137254998 0.062618993 0.065781087
0.170145094 0.071220994 0.066160545
0.219355002 0.094370544 0.074383192
0.286021173 0.115116999 0.074889548
0.369386733 0.137128279 0.071220808
0.482226551 0.154712453 0.065022096
0.644654810 0.167488843 0.050727271
0.091461353 0.155471548 0.081594005
0.118153356 0.158633649 0.072106093
0.146616086 0.160151646 0.069702998
0.204680994 0.174193740 0.069702990
0.277925551 0.193422079 0.064642645
0.355976939 0.209487647 0.061480545
0.476786762 0.228716001 0.058190811
0.632131100 0.242884383 0.030739821
0.003922000 0.258570194 0.069702998
0.019481363 0.263630748 0.056799546
0.089563906 0.266793638 0.063504092
0.169765651 0.272232622 0.059962355
0.250221640 0.289943188 0.055661000
0.352435082 0.299304247 0.053763457
0.484250635 0.323592365 0.033523262
0.645414472 0.338899434 0.008981547
0.005819450 0.375584811 0.052877739
0.000758999 0.371284008 0.041998550
0.001138644 0.372042984 0.048197351
0.106135108 0.379127294 0.042125188
0.219228372 0.386970371 0.042378195
0.339658469 0.400252998 0.022770293
0.485262245 0.426565558 0.003036094
0.659582555 0.443643212 0.007969627
0.000000000 0.483364701 0.006198804
0.000000000 0.487160206 0.009867357
0.001518192 0.489436954 0.004301258
0.001897547 0.493737996 0.003415739
0.177103028 0.500695705 0.001138547
0.327767462 0.509677291 0.000000000
0.490069509 0.534598172 0.000000000
0.672991693 0.556862533 0.000000000
0.000000000 0.648576856 0.001644712
0.000000000 0.644908249 0.000000000
0.001644712 0.648956358 0.000000000
0.007211004 0.651359499 0.004174738
0.147375092 0.657305300 0.003542355
0.370777935 0.666034102 0.001644712
0.533459842 0.671094596 0.000000000
0.707526684 0.684250712 0.000758992
0.000000000 0.811511695 0.003795180
0.005312988 0.808854997 0.000379548
0.003794990 0.813662589 0.002403715
0.002277188 0.817836940 0.001265167
0.113978110 0.824541330 0.001518192
0.405818850 0.827956796 0.002909560
0.600126505 0.833523035 0.000000000
0.782669365 0.833269596 0.000000000
0.109803997 0.000000000 0.157369092
0.136875451 0.000000000 0.163314551
0.164706007 0.010120095 0.160531193
0.218722090 0.024541546 0.170019105
0.274130285 0.057938188 0.169260010
0.369386643 0.077166356 0.169512838
0.477672547 0.090195999 0.166097298
0.633902490 0.083112180 0.164958939
0.104364000 0.062998444 0.160531089
0.125869542 0.068944000 0.162176087
0.162302107 0.078304991 0.163314551
0.216698542 0.087666087 0.165970996
0.279823095 0.112460546 0.171536997
0.367489189 0.128399983 0.174699396
0.485768527 0.142694101 0.176596925
0.638077438 0.140290990 0.168880269
0.070841007 0.163694099 0.164579093
0.102593347 0.160531193 0.164958641
0.138013914 0.167615101 0.161290094
0.192789197 0.181784093 0.162176102
0.264010191 0.192789197 0.166856200
0.354712069 0.209235102 0.164453000
0.475901395 0.220999092 0.167615101
0.639974773 0.232511267 0.159645960
0.002656642 0.266414076 0.160910740
0.000000000 0.266793638 0.163440660
0.069955818 0.273118556 0.160531193
0.155977085 0.271853268 0.168501005
0.249209180 0.288298190 0.162935093
0.347248644 0.303731829 0.161796555
0.479316920 0.318911999 0.162302390
0.648450315 0.328526199 0.152688175
0.000759096 0.375205278 0.162049189
0.000758999 0.375205368 0.160531193
0.003795092 0.375964373 0.160531193
0.070967637 0.379127294 0.151802391
0.216192082 0.379886389 0.164579287
0.340544075 0.401012093 0.151043475
0.490069360 0.421379089 0.151296720
0.663504243 0.439595282 0.133586258
0.000000000 0.489436954 0.148893192
0.000758999 0.486274481 0.144971192
0.000000001 0.492473364 0.147375092
0.000759000 0.492852837 0.147375092
0.173940644 0.502846301 0.138773099
0.330550194 0.506894171 0.129411712
0.493232071 0.536116123 0.118026458
0.680075586 0.554206192 0.094623566
0.001644713 0.652245224 0.090449013
0.000000000 0.649209261 0.088298731
0.003035997 0.651612639 0.088931017
0.002024260 0.655407548 0.080708273
0.127387628 0.660974264 0.078178734
0.360404640 0.666034162 0.054775633
0.535736740 0.671979547 0.038077116
0.711701393 0.682226539 0.014547762
0.000000000 0.821378589 0.003289114
0.000379548 0.815939248 0.001265173
0.001265168 0.815053582 0.005692729
0.002656736 0.821505427 0.003035994
0.069070190 0.824541450 0.001138643
0.402150303 0.827577472 0.002024264
0.601012170 0.833016872 0.000759096
0.784313321 0.833775878 0.004680902
0.097407006 0.000000000 0.266287267
0.114231452 0.000758999 0.261226922
0.149019808 0.018342642 0.261606246
0.196204633 0.037570994 0.262365282
0.267425627 0.060721353 0.268311441
0.351169825 0.079064094 0.269702733
0.474383295 0.087919287 0.276407272
0.640733778 0.045414373 0.288298488
0.076660462 0.071600549 0.272232622
0.091840900 0.073624089 0.261606365
0.139152452 0.080202550 0.263124287
0.199493647 0.095129535 0.267552644
0.273877621 0.110436089 0.273371160
0.354712278 0.129285276 0.277292907
0.488298625 0.131309450 0.281087995
0.644275665 0.112333730 0.280202359
0.019481361 0.168374196 0.265275449
0.052877907 0.164832458 0.260467827
0.115369901 0.174319744 0.257178813
0.181404456 0.177355826 0.260847390
0.260088295 0.189120740 0.272359550
0.349525630 0.204047933 0.270209074
0.482099861 0.209361196 0.268311352
0.650221229 0.196457744 0.273244888
0.000000000 0.265148640 0.257811278
0.001517999 0.268311530 0.258949637
0.024541721 0.270714641 0.256166995
0.142314643 0.278052002 0.265148640
0.240480900 0.285136074 0.260088265
0.350663722 0.294117659 0.264010191
0.489057541 0.311574638 0.272991627
0.655154526 0.312966645 0.270208985
0.000000000 0.378368199 0.267932087
0.002656546 0.374825835 0.267425627
0.001897546 0.374825835 0.264389664
0.040733904 0.379506826 0.263630748
0.208222389 0.381404191 0.263377637
0.337760895 0.399873435 0.263124377
0.491461188 0.415433109 0.267678827
0.669323385 0.426945001 0.259582639
0.001897740 0.491714239 0.252878278
0.002277095 0.489816755 0.257305652
0.002783356 0.492979109 0.260088384
0.003922000 0.494497091 0.257178932
0.158507273 0.505123317 0.255028427
0.331688583 0.510942698 0.254522294
0.497153789 0.531815350 0.248323992
0.682732224 0.547121823 0.241745830
0.000000000 0.653763235 0.239216000
0.001138644 0.650347888 0.238709629
0.002276998 0.651865780 0.234282270
0.000000000 0.655407548 0.237065345
0.068690568 0.661733150 0.233016819
0.360531151 0.662871897 0.230360582
0.532827556 0.672738850 0.216824651
0.713219166 0.682099760 0.203795180
0.000000000 0.825679958 0.178621098
0.000758999 0.813915372 0.186970368
0.000000001 0.820493519 0.177862301
0.003668657 0.824035227 0.174446464
0.039342001 0.825679958 0.167488694
0.383554637 0.829474688 0.156862736
0.592409551 0.835546911 0.131309524
0.781277418 0.842504621 0.101834171
0.014421009 0.009361193 0.360910565
0.045920625 0.010878997 0.365464836
0.112333909 0.024921091 0.361923099
0.177735284 0.042631354 0.363061637
0.257685184 0.068184808 0.365718186
0.352434993 0.083364733 0.381530583
0.476154357 0.086274996 0.389374077
0.640101016 0.034788013 0.407590002
0.005566002 0.078937285 0.380518615
0.022644265 0.084250361 0.370145649
0.095761910 0.090828896 0.370904624
0.176343992 0.101834200 0.373181611
0.264010012 0.116761185 0.370904624
0.352814525 0.132321179 0.378620982
0.478178293 0.133333176 0.390512347
0.648703396 0.104744039 0.408855200
0.000759096 0.173814192 0.368880302
0.002403808 0.176596925 0.371916562
0.045667104 0.178621188 0.368121386
0.156356543 0.187223285 0.371030807
0.250853896 0.191018179 0.368121177
0.344844729 0.207210839 0.374446392
0.482099652 0.207843006 0.386843562
0.650853813 0.191903964 0.401517928
0.000000000 0.273497999 0.364959002
0.000379548 0.272991717 0.371537089
0.000000000 0.277293086 0.362302542
0.100695446 0.285136074 0.372802198
0.225553378 0.287033528 0.367109537
0.349146098 0.300569445 0.376596838
0.488424987 0.299304366 0.387602568
0.667678595 0.288424999 0.385958344
0.000000000 0.377482533 0.368754178
0.005060354 0.371284157 0.368627548
0.007210811 0.379886389 0.373813987
0.008222645 0.382289588 0.372422516
0.189500391 0.390765339 0.373561174
0.335863292 0.402530372 0.374446154
0.504617512 0.402656287 0.371916473
0.682605684 0.410752714 0.377103031
0.000379548 0.493991137 0.377356172
0.000758999 0.488678157 0.370272189
0.000000000 0.492852926 0.369892627
0.004427551 0.501834273 0.369386613
0.123339467 0.499683648 0.367741942
0.322454184 0.510942698 0.359013140
0.508538842 0.528905928 0.367994905
0.697533011 0.538520038 0.364579350
0.000000000 0.653763473 0.374320090
0.005186744 0.646426260 0.369386345
0.001644712 0.655281425 0.363440901
0.000000000 0.659329534 0.364326090
0.000000000 0.665654540 0.358128011
0.337507725 0.669576585 0.356609643
0.531941891 0.671094596 0.350158274
0.724225283 0.678557932 0.345351160
0.000000000 0.825300395 0.341682732
0.002276991 0.820746422 0.332447737
0.000000000 0.821758449 0.336748779
0.000000000 0.828083158 0.327134728
0.000000000 0.827197731 0.329538554
0.344465524 0.831372380 0.326249212
0.582795382 0.834282041 0.320809752
0.784566700 0.837444663 0.305123568
0.000000000 0.023529001 0.489563465
0.000000000 0.025426740 0.491460711
0.016824920 0.037950642 0.492219806
0.147374988 0.054142904 0.492599368
0.248703644 0.072612263 0.490069538
0.360025465 0.082353003 0.497280478
0.478937536 0.088298738 0.495889038
0.645034552 0.020620067 0.525489748
0.000000000 0.097153999 0.490196049
0.000000000 0.094117992 0.495888263
0.005186652 0.101454638 0.493484974
0.132700533 0.108918287 0.495382726
0.252245307 0.119417921 0.494496912
0.359519273 0.133333281 0.498165488
0.479822576 0.132700801 0.496015012
0.650221407 0.096901037 0.525743246
0.005566003 0.185325831 0.488678068
0.004048004 0.187223285 0.490448982
0.004680902 0.187476352 0.491840541
0.097659543 0.197470099 0.497533202
0.240101442 0.199367359 0.493738085
0.350284725 0.208981559 0.493484974
0.483112007 0.209361196 0.505123377
0.658950090 0.185958222 0.522327483
0.002656643 0.284756631 0.491587818
0.001897740 0.282858908 0.495129466
0.005186648 0.281593740 0.491587728
0.012018008 0.290322632 0.484250724
0.214927539 0.297406763 0.493485063
0.338899404 0.297280550 0.490701944
0.492220193 0.300569415 0.508791685
0.678178310 0.289563537 0.523339808
0.002024260 0.398228735 0.500442445
0.000759096 0.393168986 0.498798162
0.002783356 0.397090346 0.498165458
0.004807003 0.392030448 0.502593517
0.172548652 0.396331370 0.500189424
0.335989922 0.395951927 0.497659922
0.507020593 0.394433737 0.504743755
0.692093551 0.393422097 0.514611065
0.004048004 0.501201451 0.497153461
0.002403808 0.500695944 0.488677979
0.001138644 0.507906616 0.497153431
0.000000000 0.504237592 0.489057630
0.042505000 0.514990747 0.493105561
0.322580695 0.522833705 0.504996479
0.525616586 0.524731457 0.502719760
0.713092744 0.528779447 0.504490733
0.003922000 0.653130829 0.513472438
0.001138547 0.658696949 0.509803951
0.001644713 0.661733329 0.509930372
0.003289004 0.661227286 0.511068702
0.000758999 0.668311357 0.502213895
0.311195433 0.671094537 0.494749695
0.538646102 0.668311119 0.502719760
0.738519609 0.678811014 0.501707733
0.000000000 0.825426579 0.512207568
0.000379548 0.827197611 0.510942698
0.003036091 0.824288428 0.508159339
0.002276998 0.833902717 0.504870474
0.000000000 0.836179793 0.490322262
0.296141773 0.834534764 0.489310473
0.567994952 0.836305976 0.488298416
0.785831451 0.834028661 0.477419645
0.001644712 0.035926998 0.646932542
0.000000000 0.037571289 0.643263996
0.000000000 0.046173189 0.642757714
0.054901998 0.054901998 0.651359916
0.251233459 0.063630804 0.652371585
0.378368199 0.059961814 0.641872287
0.513219297 0.046173729 0.643643558
0.657811165 0.008349029 0.649335921
0.001897740 0.104237996 0.642378271
0.002024260 0.103352286 0.646426260
0.006451908 0.105755992 0.644023001
0.034534924 0.116002195 0.648323774
0.240354091 0.117899828 0.646046758
0.383428365 0.119923964 0.646679401
0.517773569 0.109550841 0.646046817
0.661859870 0.076787047 0.653257191
0.000000000 0.194054380 0.643769801
0.001518193 0.198102206 0.640986800
0.003289004 0.192410082 0.645287812
0.003795287 0.198481739 0.645540774
0.226945192 0.205439821 0.650094688
0.372928530 0.205060169 0.646805584
0.517267346 0.197596207 0.649968386
0.669955552 0.178494364 0.649715245
0.001138644 0.296015263 0.648197293
0.000379548 0.295256197 0.647438347
0.003668553 0.299683839 0.648450375
0.000000000 0.295383006 0.645793915
0.188741192 0.300442934 0.646046638
0.369006813 0.299683630 0.651992321
0.521062493 0.294244349 0.651486516
0.686021209 0.283364654 0.655913949
0.000000000 0.413535655 0.650600731
0.000000000 0.412776560 0.651612759
0.007337105 0.405566156 0.654648662
0.002277288 0.403415382 0.653004289
0.103099279 0.401897192 0.651359677
0.353447348 0.401771098 0.650221050
0.520177007 0.398734897 0.649968326
0.699177504 0.392915845 0.655155122
0.000000000 0.533586025 0.656799734
0.004680709 0.535610318 0.650853574
0.000000000 0.533586025 0.653004229
0.002783356 0.532574475 0.653130829
0.003922000 0.529917777 0.660594821
0.318406194 0.526755214 0.655028045
0.527514040 0.526502192 0.653510332
0.724351585 0.527387619 0.665148675
0.001644712 0.672359526 0.657684863
0.002024260 0.667046547 0.652751088
0.004807197 0.669576406 0.649209261
0.002277288 0.666540563 0.658190906
0.000759096 0.677419543 0.656040549
0.296521187 0.671094596 0.653889835
0.532827258 0.676660299 0.658064544
0.747122109 0.681467533 0.657431841
0.002277288 0.828083456 0.665401697
0.000000000 0.834282041 0.676786721
0.001518088 0.827577472 0.663630724
0.001138644 0.832763970 0.669829071
0.002783360 0.836432457 0.666666806
0.254775763 0.841113567 0.667046428
0.549905002 0.841493011 0.651865959
0.782795429 0.837191582 0.648576856
0.000000000 0.045793831 0.807083726
0.001644715 0.047438450 0.808728516
0.003922000 0.049715158 0.811005771
0.004048201 0.053004544 0.815939605
0.231246367 0.039848365 0.811511457
0.404174626 0.019102100 0.812397420
0.558633804 0.002530012 0.815939307
0.723719239 0.002656833 0.818848729
0.000379548 0.117393978 0.816192150
0.000000000 0.111574829 0.819481432
0.002530012 0.114737250 0.816445112
0.000000000 0.115875795 0.816571712
0.229475021 0.116508365 0.820746541
0.404048294 0.098292120 0.817710400
0.563061059 0.062618554 0.817330897
0.727766812 0.004174729 0.820746541
0.002656833 0.202403352 0.820872843
0.000000000 0.205186471 0.814927340
0.001897737 0.204807028 0.813156307
0.000000000 0.205945671 0.817078054
0.198861629 0.203795195 0.816824675
0.398355544 0.196331456 0.817583561
0.561796248 0.181024775 0.820493162
0.728779376 0.143327057 0.819101632
0.004301157 0.304364622 0.823402941
0.000379548 0.303858370 0.817204416
0.000000000 0.303478628 0.817583561
0.003542165 0.305882424 0.816698551
0.145477459 0.304996610 0.828209758
0.381783545 0.300695658 0.818342686
0.563567162 0.290449172 0.825426817
0.737001777 0.267931670 0.824667752
0.000000000 0.427198023 0.811132252
0.002276991 0.423276335 0.822390914
0.002277094 0.415812552 0.824414790
0.000000000 0.412397027 0.820999265
0.002403811 0.413535655 0.813662231
0.351043642 0.411258370 0.822391033
0.553320587 0.404680550 0.825426817
0.743959785 0.389373720 0.826565266
0.000759092 0.555218458 0.818342686
0.000379548 0.556356609 0.819860816
0.000000000 0.554079711 0.824794352
0.003794996 0.548513830 0.823529482
0.000000000 0.550031722 0.826818466
0.303731710 0.538646519 0.823402882
0.549778819 0.537254572 0.824920774
0.754332662 0.531688571 0.833143592
0.000379544 0.699304521 0.835926592
0.001644712 0.697027266 0.832131147
0.000000000 0.695382535 0.824920714
0.001138644 0.696521163 0.825300395
0.003035997 0.694876611 0.834534764
0.265401483 0.692852855 0.828842402
0.545730710 0.686401010 0.836053073
0.769132912 0.684756339 0.832004726
0.000000000 0.845161378 0.829348564
0.002277285 0.847691417 0.833649814
0.000000000 0.843769729 0.824161768
0.001138644 0.844402194 0.835420609
0.004174638 0.839468598 0.826565206
0.236052930 0.842504561 0.832764208
0.552814543 0.840607405 0.829348624
0.789247155 0.839848399 0.842631340
