Assets/EldamarStudio/100 Retro LUTs Pack/LUTs/cube/Alexi LUT.cube
DOMAIN_MIN 0 0 0
DOMAIN_MAX 1 1 1
LUT_3D_SIZE 32
0.117647000 0.000000000 0.000000000
0.120683387 0.000000000 0.000000000
0.130171001 0.002150774 0.000000000
0.138519838 0.003922000 0.000000000
0.142694101 0.003542452 0.000000000
0.154838875 0.000506065 0.000000000
0.161923006 0.000000000 0.002530322
0.169639707 0.000000000 0.002277292
0.178747892 0.000000000 0.000000000
0.187855527 0.000000002 0.000000000
0.199873745 0.002909871 0.000000000
0.214041740 0.007969996 0.002024256
0.226944640 0.016318996 0.003922000
0.236559033 0.028462999 0.003922000
0.251739413 0.040606987 0.003922000
0.264515996 0.055154793 0.006325191
0.282732397 0.065780997 0.004807003
0.305123568 0.072485566 0.000000001
0.320304006 0.081593975 0.000000003
0.341050386 0.087919004 0.002783357
0.362302750 0.095888734 0.002024260
0.383555144 0.103984997 0.000000000
0.405313462 0.109930478 0.000000000
0.438709915 0.112966098 0.000000000
0.472106278 0.120556280 0.002277288
0.505502641 0.126881674 0.005313317
0.538899183 0.129917935 0.006831001
0.572296262 0.132953539 0.000759007
0.616318762 0.135989830 0.000000000
0.658317566 0.140796974 0.001771217
0.699557543 0.144212395 0.004807382
0.745097995 0.141176000 0.007843000
0.120683387 0.000000000 0.000000000
0.123718992 0.003036387 0.000000000
0.133206606 0.000885613 0.000000000
0.142820939 0.000885613 0.000000000
0.146869227 0.001644613 0.000000000
0.145730481 0.006578065 0.000000000
0.162934601 0.003542323 0.005059999
0.172675312 0.004680675 0.005313324
0.181783706 0.007589999 0.003036387
0.190891907 0.012144003 0.003036386
0.197090387 0.017963000 0.000126517
0.206957862 0.027198121 0.000000000
0.221252382 0.037571386 0.000885613
0.236559033 0.049209386 0.001138645
0.251739413 0.055787373 0.003922000
0.266919792 0.060721189 0.001518196
0.284250587 0.070335187 0.001771000
0.304490983 0.079822563 0.000000000
0.317267627 0.093737982 0.000000001
0.335230619 0.102846362 0.000000001
0.358127683 0.105376385 0.000885613
0.383554846 0.110056996 0.000000000
0.411258966 0.116128989 0.000000000
0.441745520 0.122074485 0.000000000
0.470588446 0.127387375 0.000000000
0.503858328 0.134344980 0.000885613
0.539911211 0.139025673 0.001771000
0.578368247 0.142061934 0.000759007
0.614421546 0.142441392 0.002656833
0.655281484 0.143326998 0.003036387
0.697406769 0.145983607 0.003922000
0.745097995 0.147248775 0.004807387
0.115117222 0.017204547 0.002150774
0.128905609 0.013788613 0.004300999
0.127640769 0.018975774 0.002150774
0.138519600 0.013409386 0.000885613
0.146236554 0.011511773 0.000000000
0.152055830 0.017583771 0.000000000
0.158127770 0.020367097 0.000758999
0.173054755 0.020620061 0.003542000
0.181909993 0.025173869 0.001771227
0.189626709 0.032637551 0.001771226
0.197975993 0.040860318 0.003162903
0.208095998 0.044908062 0.000126518
0.220746517 0.054395996 0.001138644
0.238456771 0.064009994 0.002150774
0.251739413 0.070081994 0.003289416
0.266919792 0.080202572 0.003668970
0.283617973 0.081720769 0.000632582
0.302972794 0.088930957 0.000000000
0.316635042 0.101074979 0.000000000
0.340796798 0.108538590 0.000000000
0.360910505 0.115749709 0.000000000
0.384946227 0.117267646 0.000000000
0.413029969 0.122327499 0.000000000
0.443390012 0.130423769 0.000000000
0.473624080 0.136495769 0.002150774
0.505123496 0.142567754 0.003542091
0.541555882 0.148133829 0.003795065
0.579380274 0.151170224 0.002150774
0.620493591 0.153700009 0.000506059
0.662239075 0.151929244 0.003542443
0.704237759 0.151549771 0.003036392
0.751549780 0.153320998 0.001771226
0.111068837 0.041492999 0.002656839
0.124225155 0.036685709 0.004427614
0.131182775 0.037950546 0.004427613
0.133206829 0.038962997 0.002656839
0.141935095 0.031372704 0.000379548
0.152308881 0.036559321 0.001265161
0.159393013 0.041366480 0.003795161
0.168753996 0.043137610 0.000000000
0.180897996 0.047691222 0.000000000
0.187981993 0.056799486 0.000000001
0.196963876 0.062112708 0.001644709
0.209361166 0.067172900 0.001897744
0.223782152 0.073624156 0.000000000
0.240986839 0.079949155 0.002656839
0.251106828 0.086021155 0.002656839
0.265654624 0.091840439 0.005186839
0.282353133 0.101707995 0.002403808
0.301834106 0.103605561 0.000000000
0.318911999 0.112713352 0.000000000
0.342694372 0.117773160 0.000000000
0.364958882 0.123845316 0.000000000
0.389247149 0.129918098 0.001012128
0.414168328 0.133333310 0.001265161
0.443390012 0.141303062 0.001265161
0.475015730 0.146869004 0.001012127
0.510689437 0.152940989 0.004048479
0.545098126 0.159519076 0.006072097
0.578494668 0.164073452 0.003036294
0.625300467 0.164579481 0.001265167
0.668311059 0.165338397 0.000506056
0.712080777 0.163188159 0.002656839
0.756862998 0.163188159 0.000000000
0.114484094 0.065401547 0.000758999
0.119797774 0.062745385 0.000000000
0.124731459 0.064010322 0.000000000
0.132447824 0.064010091 0.000000000
0.140796542 0.058317542 0.000000000
0.146869317 0.061353929 0.003036387
0.153700456 0.066919997 0.007843452
0.162681997 0.069702998 0.006831295
0.174825996 0.071221001 0.000379548
0.186969995 0.080328621 0.000379548
0.196584329 0.081846550 0.000758999
0.209740698 0.083491258 0.000758999
0.224920988 0.089184090 0.000379548
0.243137002 0.100822091 0.000632516
0.249714985 0.106894083 0.000758999
0.262618363 0.108918093 0.004047996
0.279696375 0.113092735 0.004807003
0.298798501 0.121442117 0.000000000
0.323086590 0.130550504 0.000000000
0.344591945 0.134471729 0.000000000
0.365085483 0.139025539 0.000000000
0.386970550 0.145097718 0.000632580
0.417330533 0.151043966 0.003668964
0.444908023 0.156863004 0.003922000
0.475648284 0.161416799 0.001644712
0.512840211 0.165085092 0.001012124
0.554206550 0.171283618 0.003415936
0.578494549 0.180391997 0.000379552
0.628209591 0.179633290 0.000000000
0.676153898 0.178747997 0.000000000
0.718532264 0.179127544 0.000000000
0.758001447 0.179127544 0.000000000
0.120556869 0.086653933 0.006830999
0.120556869 0.086653933 0.000758999
0.119418226 0.088298768 0.000000000
0.124225065 0.090069868 0.000000000
0.134724542 0.088678315 0.000000000
0.137760937 0.085641928 0.000000000
0.148893073 0.091207996 0.000506065
0.158380762 0.093990996 0.001518066
0.168753996 0.094750091 0.000759096
0.180898011 0.098545395 0.003415937
0.193041995 0.107652992 0.006325063
0.206704304 0.109170929 0.006830999
0.219607696 0.111954279 0.005692645
0.230993003 0.119038865 0.003668902
0.249208957 0.125110865 0.006704512
0.260594606 0.131182864 0.002024004
0.277799100 0.136242867 0.001012001
0.298545539 0.142188504 0.000000000
0.320050955 0.145730913 0.000000000
0.341556311 0.152055949 0.000000000
0.366603643 0.155724138 0.000000000
0.392410129 0.160277933 0.000000000
0.420366913 0.166223571 0.000632577
0.450727731 0.169259965 0.003668969
0.476027876 0.177356288 0.001644712
0.508791685 0.181277871 0.000000000
0.548766375 0.183301866 0.000506065
0.587602913 0.189500377 0.000379552
0.630486667 0.193295091 0.000000000
0.677545547 0.195319280 0.000000000
0.722580492 0.197849602 0.000000000
0.767109036 0.200379938 0.000000000
0.119038679 0.105375998 0.005313323
0.119038679 0.105375998 0.004301323
0.125490457 0.105375998 0.004680548
0.127767324 0.108032838 0.003795160
0.135863319 0.109297998 0.002530322
0.136748940 0.108412385 0.002530322
0.144845322 0.110436641 0.005059999
0.155344605 0.114863925 0.001771002
0.163693681 0.118026413 0.000000000
0.172295690 0.124604799 0.001265163
0.184440315 0.123339444 0.001771130
0.202656567 0.128399581 0.006830997
0.216571674 0.133459643 0.006704646
0.226438746 0.142062023 0.003668968
0.244655311 0.145857319 0.002150578
0.255661100 0.149525523 0.002783001
0.270714998 0.155470997 0.000000000
0.291587651 0.160277992 0.000000000
0.314737350 0.161416650 0.000000000
0.335989743 0.169766009 0.000000000
0.362934828 0.172042996 0.001897740
0.388867795 0.175458312 0.002530322
0.413029671 0.181530312 0.002403810
0.438583463 0.186969906 0.000632582
0.471220940 0.194560289 0.003668966
0.503225565 0.202276990 0.001138650
0.542694211 0.205060050 0.000000000
0.582163274 0.209108308 0.000000000
0.626944721 0.207463473 0.000000000
0.672485530 0.210499525 0.000000000
0.715370178 0.211764708 0.000000000
0.755977333 0.211511672 0.000000000
0.114358000 0.128526121 0.008855285
0.114358000 0.128526121 0.007210997
0.119165070 0.128526121 0.004427937
0.125743464 0.129790962 0.004933550
0.130677000 0.132447690 0.002277292
0.130677000 0.132447690 0.002277292
0.143200606 0.133333310 0.003162680
0.150664285 0.134724990 0.006198711
0.158254102 0.138519689 0.000885613
0.163440719 0.146742478 0.000000002
0.178621024 0.149145827 0.003288997
0.193548545 0.150157958 0.004047996
0.212523937 0.153194338 0.005566002
0.223149747 0.163314402 0.002783292
0.239974827 0.167742118 0.003921581
0.257558823 0.169133604 0.000000000
0.269703180 0.175205216 0.000000000
0.287792683 0.181403846 0.000000001
0.310056746 0.183428124 0.000000003
0.339784801 0.185199052 0.003288997
0.361796170 0.190259412 0.003542029
0.389120817 0.192283407 0.003542291
0.410499662 0.198481888 0.002277292
0.434788078 0.206071705 0.000759096
0.464263260 0.211131990 0.000632580
0.500442624 0.218848690 0.002277292
0.540923178 0.224414751 0.000000000
0.582669258 0.227451146 0.000000000
0.625806451 0.226818576 0.000000000
0.666413546 0.228968903 0.000000000
0.715496540 0.230234087 0.000000000
0.757242262 0.227197692 0.000000000
0.104490906 0.155851096 0.014168001
0.107526898 0.155851096 0.011132388
0.110309906 0.155851096 0.006704905
0.117393963 0.155597940 0.003415935
0.120430350 0.158633649 0.001138547
0.120809905 0.159013197 0.001517998
0.134471908 0.159013197 0.002277094
0.146869004 0.158254102 0.000885612
0.152941003 0.159772098 0.003922001
0.155977413 0.165844098 0.000885615
0.172802001 0.171916097 0.007336996
0.188235164 0.176723450 0.007842999
0.204933539 0.179000735 0.006325098
0.219860971 0.182290092 0.000506064
0.234535411 0.188362092 0.005059995
0.255281687 0.191145092 0.003036004
0.273498088 0.192662895 0.000000000
0.289943457 0.201770663 0.000632576
0.308286041 0.207969949 0.000759101
0.339405656 0.207969740 0.004048006
0.367868632 0.208728835 0.006325002
0.389880121 0.212017998 0.005819003
0.411764950 0.218089998 0.000000000
0.438583016 0.226565182 0.000000001
0.468184650 0.231119379 0.000000000
0.501960635 0.236306176 0.000000000
0.540923119 0.242378190 0.000000000
0.585705221 0.245667547 0.000000000
0.630866647 0.246047094 0.000759096
0.669070244 0.248829976 0.000000000
0.710183680 0.253004491 0.000000000
0.767868102 0.249968097 0.000000000
0.083238505 0.183175504 0.008095996
0.095382504 0.183175504 0.005060385
0.098418511 0.183175504 0.002024224
0.103731506 0.181910336 0.001391676
0.114357561 0.179886043 0.004174933
0.117393956 0.182922438 0.007210546
0.127893507 0.183301985 0.010120318
0.138646200 0.181657284 0.006451776
0.146868989 0.181024507 0.000885612
0.152941003 0.187096491 0.003922002
0.167615369 0.193168491 0.012523607
0.180897981 0.199241012 0.011385000
0.196584135 0.202909991 0.006704643
0.216824561 0.203542501 0.003542450
0.228969336 0.209614500 0.000506067
0.250853986 0.215686485 0.000253000
0.270461708 0.216951311 0.000000001
0.286907077 0.216951072 0.000632578
0.308159500 0.226059482 0.003668966
0.329285383 0.232258022 0.001012129
0.354965240 0.236053228 0.000253002
0.381024748 0.239089370 0.000253002
0.405692935 0.242378011 0.000000002
0.442124993 0.248449996 0.000000003
0.475774854 0.252371788 0.000000001
0.510436416 0.258191168 0.000000001
0.546995103 0.266667008 0.000000002
0.583427846 0.272738963 0.000000002
0.633522928 0.273371488 0.002656834
0.674130082 0.275142252 0.002024269
0.712966263 0.277419001 0.000000001
0.764832497 0.277292520 0.000000000
0.064896002 0.204680875 0.002024001
0.068311132 0.207589984 0.001897516
0.082605906 0.205439776 0.001012129
0.087666169 0.205945715 0.000000000
0.094876871 0.206577867 0.001391677
0.105502933 0.207083941 0.004427935
0.108538672 0.210120320 0.002403549
0.117899828 0.213788867 0.003036130
0.127767116 0.215306729 0.000000001
0.138140142 0.217077747 0.000885617
0.155850887 0.214420855 0.006831128
0.169006974 0.220493376 0.005819005
0.183427989 0.225427225 0.002024001
0.202909157 0.227451026 0.001012129
0.223023087 0.230866864 0.000632583
0.239974856 0.236938864 0.000000000
0.264769197 0.241492674 0.001518192
0.286780566 0.242504448 0.003542285
0.308032990 0.247058839 0.006578093
0.329285383 0.253383875 0.004048482
0.350537747 0.257558614 0.002909871
0.377862126 0.260594726 0.002909871
0.408222586 0.263630390 0.003036351
0.441872001 0.266919732 0.005818998
0.476027846 0.272991747 0.001265003
0.510815978 0.280834854 0.001391672
0.549272299 0.289942980 0.002909871
0.595319569 0.291207969 0.002909871
0.639721453 0.294623822 0.005566025
0.681973338 0.296647638 0.005060364
0.718279421 0.299683481 0.002024262
0.761796117 0.301707745 0.000000000
0.034535505 0.229981244 0.000000000
0.039595373 0.233016849 0.000000000
0.047185540 0.229727745 0.000000000
0.062365606 0.229222149 0.002529999
0.069955789 0.232257947 0.004047996
0.083744496 0.233902231 0.005439675
0.096394688 0.236432567 0.005439674
0.101075009 0.236179531 0.000758999
0.112080939 0.241113171 0.000000000
0.126755282 0.243643492 0.000000002
0.144718498 0.242757887 0.001771003
0.162934721 0.241745755 0.003795004
0.176217377 0.247818246 0.000000000
0.193295032 0.251992494 0.000000000
0.211005419 0.256799668 0.000000000
0.237950593 0.258191228 0.000000000
0.257685184 0.264263242 0.000000000
0.283997536 0.267172515 0.001897746
0.308032990 0.268817246 0.003542040
0.331309110 0.276660502 0.009108349
0.348766446 0.280834734 0.004175000
0.371789873 0.284882963 0.004933870
0.403668225 0.288930774 0.005819260
0.444655180 0.291967154 0.005060358
0.482099593 0.299304485 0.007337000
0.515496731 0.303984821 0.004047996
0.551802635 0.313219249 0.005945740
0.595825553 0.316255242 0.005945740
0.645793974 0.318912089 0.002530159
0.687792361 0.321948022 0.005566220
0.728020132 0.324983865 0.003036392
0.770904243 0.328020245 0.000000000
0.008349358 0.256166995 0.000000000
0.012144359 0.258064240 0.000000000
0.016951494 0.256925642 0.001138644
0.024035852 0.253510147 0.001391646
0.038836014 0.256166995 0.006325098
0.053257301 0.258443713 0.005566002
0.071853042 0.259202957 0.006704646
0.087792359 0.262365580 0.004554003
0.096900553 0.260847360 0.000759096
0.115117349 0.266540617 0.001138644
0.134471998 0.266793638 0.000000000
0.149272352 0.267931998 0.000000000
0.168626994 0.266793638 0.000000000
0.184819445 0.272612602 0.000253032
0.203542054 0.277798980 0.001138644
0.226185948 0.281340986 0.000000000
0.254269540 0.284376979 0.000000000
0.276154488 0.290448993 0.000000000
0.302973002 0.291460991 0.000000007
0.329791009 0.296394706 0.004933720
0.351802379 0.302846521 0.006831359
0.371030778 0.306894273 0.002783356
0.398608118 0.312966287 0.005566002
0.440101057 0.317014545 0.003542259
0.479949266 0.323466271 0.003921710
0.520050347 0.329791605 0.005566002
0.553953469 0.333839208 0.006578001
0.592789412 0.340543628 0.007843000
0.641745746 0.345097840 0.004807010
0.687413096 0.346995413 0.001771217
0.728652537 0.350916862 0.003036392
0.776976347 0.354206264 0.000000000
0.000000000 0.280961066 0.000000000
0.000000000 0.280961066 0.000000000
0.000000000 0.280961066 0.001897742
0.001265161 0.280708015 0.003922000
0.004174967 0.281214088 0.003542452
0.016318968 0.281214088 0.000506065
0.036558971 0.278937370 0.002277290
0.057937641 0.280076027 0.002277292
0.080202162 0.284883082 0.000506064
0.098418951 0.287919462 0.003542450
0.120303802 0.288552016 0.001265161
0.134977728 0.290828794 0.000000000
0.148639634 0.291587651 0.000000000
0.170145050 0.289058030 0.000506000
0.197470188 0.292093635 0.003542384
0.217330992 0.297533065 0.001771228
0.240860209 0.303099036 0.000253032
0.267552108 0.309171051 0.000253032
0.291840941 0.315243065 0.000253032
0.320935994 0.316255063 0.000253032
0.348007441 0.319544464 0.000000000
0.373814136 0.325364023 0.000000000
0.401517987 0.331562519 0.000000000
0.435040921 0.337760985 0.000000000
0.470714569 0.343833029 0.000000000
0.509424269 0.348766685 0.000000000
0.551676095 0.352561980 0.000505999
0.588108838 0.361669600 0.006577993
0.634408534 0.367868036 0.007337000
0.680455327 0.370651066 0.005819203
0.723592579 0.371916234 0.003036392
0.769133031 0.377989024 0.000000000
0.000000000 0.311321825 0.000000000
0.000000000 0.311321825 0.000000000
0.000000000 0.311321825 0.000000000
0.001265161 0.310056657 0.001897745
0.003542452 0.308791488 0.003542452
0.001138594 0.314611226 0.000506065
0.003162596 0.314611226 0.000000000
0.011511616 0.312334090 0.000632584
0.029095508 0.311195314 0.000000000
0.065022603 0.309171051 0.000506069
0.094876617 0.315117300 0.003542454
0.121315420 0.319924414 0.001265160
0.142567635 0.321948171 0.000000000
0.164073080 0.319417983 0.000505999
0.188361809 0.322454393 0.006577994
0.206072390 0.327893823 0.004807387
0.232511386 0.330929816 0.003289416
0.264516383 0.333459795 0.003289416
0.288804561 0.339531809 0.003289416
0.310309976 0.345603794 0.003289416
0.339152485 0.346615821 0.001391676
0.369260132 0.348893106 0.000000000
0.401517987 0.352814853 0.000000000
0.437950820 0.361922503 0.000000000
0.473750979 0.368121564 0.000000000
0.510183334 0.374193788 0.000000000
0.549398780 0.379633397 0.000000000
0.594180882 0.385958344 0.000505999
0.633269787 0.389752954 0.001265006
0.683491290 0.393421590 0.001265006
0.732068598 0.394939810 0.000632584
0.775205851 0.396204978 0.000000000
0.004806995 0.344085783 0.004806995
0.000000000 0.339278787 0.000000000
0.000000000 0.339278787 0.000000000
0.000000000 0.336748779 0.001265161
0.001518196 0.333333135 0.003542452
0.000506065 0.337381661 0.000506065
0.000000000 0.340796977 0.000000000
0.001644708 0.339152694 0.003288997
0.005439812 0.337634504 0.003288997
0.023529891 0.337887108 0.000000001
0.056673221 0.341176510 0.000506066
0.095129721 0.343200773 0.001518196
0.122074649 0.347375154 0.000000000
0.144592077 0.347121775 0.000000000
0.177482828 0.348007411 0.001770998
0.199367806 0.351043791 0.003036004
0.225173980 0.354079783 0.001518196
0.259709090 0.354712188 0.002150772
0.285768837 0.359012961 0.003921998
0.312081188 0.365085602 0.001518196
0.337128520 0.373054862 0.001518196
0.365971118 0.375584900 0.000000000
0.396837473 0.379000753 0.000000000
0.435546994 0.390385687 0.000000000
0.476533741 0.397216588 0.002277288
0.516002476 0.401897669 0.001012132
0.555470943 0.406451702 0.000000000
0.599114299 0.410625964 0.000000000
0.639342427 0.418848753 0.000000000
0.685894668 0.421884805 0.001771217
0.737254977 0.424920976 0.001518196
0.781278014 0.426438779 0.000000000
0.007843000 0.372928381 0.004807003
0.001771000 0.369892389 0.003289192
0.003035997 0.365085393 0.000000000
0.000505998 0.366350234 0.000000000
0.000000000 0.361796170 0.002403808
0.000000000 0.363693923 0.000506065
0.000000000 0.365211874 0.000000000
0.003162513 0.367994905 0.001771192
0.004680903 0.364959091 0.005566099
0.003922013 0.366476715 0.000253000
0.020746496 0.369513065 0.000000000
0.058697309 0.372042984 0.000000000
0.101201802 0.372042984 0.001138644
0.126122713 0.374193221 0.001265160
0.161290601 0.372928381 0.000000000
0.190259412 0.378368199 0.000000000
0.216066003 0.379886389 0.000000000
0.250600547 0.380518794 0.000000000
0.277925551 0.383554429 0.002150774
0.306768179 0.389373720 0.001138643
0.337128520 0.397343636 0.001518192
0.368501186 0.405439377 0.002530062
0.398355633 0.408981681 0.003035997
0.437824100 0.416951388 0.003035997
0.479569733 0.426059186 0.000759096
0.520682812 0.430739880 0.002403808
0.563567162 0.434788257 0.000000000
0.607084036 0.439848125 0.000000000
0.648450434 0.445161015 0.003035997
0.690449238 0.452245206 0.000253025
0.743832886 0.454395980 0.002403808
0.791904151 0.456799179 0.000000000
0.006578009 0.399747103 0.000000000
0.003035991 0.398482114 0.002403811
0.003668584 0.394813538 0.001771226
0.005945576 0.391903967 0.000000001
0.000632576 0.394560128 0.000000001
0.000632576 0.394560128 0.000000001
0.000000000 0.395192713 0.000000000
0.002024006 0.395572245 0.001012132
0.006451521 0.397723019 0.004427894
0.003415909 0.394686639 0.001391507
0.005566137 0.397469997 0.000000001
0.025933061 0.401138425 0.000000000
0.067805439 0.403035700 0.000506068
0.111068547 0.403035700 0.003289424
0.146742672 0.400379539 0.000632584
0.179632992 0.405060321 0.000000001
0.209993392 0.409614533 0.000000001
0.240354121 0.409614533 0.000000001
0.267678618 0.412650168 0.000000001
0.299051136 0.418469131 0.000632577
0.330676734 0.426438898 0.001265164
0.366729796 0.434535146 0.003668879
0.406198889 0.440607131 0.006578009
0.445667505 0.444149435 0.006578009
0.487412959 0.451106846 0.003289004
0.529158592 0.459329218 0.000632576
0.569133103 0.462871522 0.000126512
0.614547670 0.471853375 0.000000000
0.658064544 0.475015700 0.004047996
0.702466905 0.479822516 0.004301019
0.746236742 0.484756112 0.000632576
0.803921998 0.484756112 0.000632576
0.000506003 0.436179966 0.000000000
0.006577997 0.430107981 0.000000000
0.005186772 0.426692188 0.000253032
0.004174964 0.424668014 0.000000001
0.003668965 0.424920976 0.000000003
0.003668965 0.424920976 0.000000003
0.001138645 0.427451283 0.000000001
0.000000000 0.426945239 0.000000000
0.000506000 0.425173998 0.001771030
0.000379516 0.425047487 0.007463513
0.000253032 0.427830845 0.001518007
0.004553992 0.432890952 0.000000003
0.029348340 0.436432928 0.000000000
0.077672064 0.436432928 0.000253032
0.129285187 0.436432928 0.000253032
0.169765770 0.436179966 0.000000005
0.203921348 0.436939001 0.000000006
0.234282106 0.436939001 0.000000004
0.264642984 0.436939001 0.000000007
0.300315946 0.442757964 0.002783360
0.332447499 0.450727731 0.001771231
0.367109239 0.458823979 0.000253035
0.409234524 0.464895964 0.000506000
0.448703766 0.470967978 0.000506002
0.490448952 0.476787001 0.000506001
0.532953322 0.485894948 0.001391672
0.575205147 0.496268004 0.003162904
0.617709875 0.502339959 0.000126520
0.663124502 0.503352046 0.000000000
0.711954534 0.507147014 0.000506003
0.760152102 0.512333632 0.000885614
0.803921998 0.515116990 0.003668968
0.002783357 0.450348020 0.000000000
0.003289354 0.449842006 0.000000000
0.002909579 0.448071003 0.000000000
0.001138643 0.446932375 0.001265161
0.001138643 0.446932375 0.002783357
0.001138643 0.446932375 0.002783357
0.001138643 0.446932375 0.000253035
0.000000000 0.451360017 0.000000000
0.000000000 0.452498376 0.000000001
0.000000000 0.452498376 0.002024000
0.000000000 0.449842274 0.007590003
0.000000000 0.450854391 0.001518008
0.004553994 0.456546724 0.000000000
0.031878348 0.461480021 0.000000000
0.098671466 0.461480021 0.000000000
0.150284648 0.463883847 0.004806995
0.189753354 0.465781182 0.004048199
0.223276526 0.466413587 0.002150782
0.255787611 0.464263380 0.000000007
0.288931012 0.472612709 0.005566005
0.329158425 0.474889725 0.004807391
0.365085244 0.481341243 0.001771229
0.403921455 0.489310533 0.000126512
0.443390012 0.498039365 0.002783356
0.485135853 0.504111409 0.000506069
0.527640224 0.508792043 0.001391672
0.570651174 0.516255677 0.003415936
0.615433216 0.524604380 0.000379552
0.665907800 0.528020203 0.000000000
0.708159447 0.531688750 0.003541982
0.755724370 0.535989761 0.004680622
0.803921998 0.537128389 0.003922000
0.002024260 0.483364701 0.001897740
0.002024260 0.479569733 0.000000000
0.001771226 0.481467456 0.000000000
0.003795161 0.478937447 0.002529999
0.004554189 0.477672458 0.005060257
0.000000000 0.477672458 0.002024260
0.005692737 0.477672458 0.005186674
0.000759032 0.480961472 0.003794996
0.002277094 0.485515475 0.002276998
0.005692734 0.485515475 0.000000002
0.000000000 0.488298625 0.002024003
0.000000000 0.487286747 0.005692744
0.002276998 0.487286747 0.000759096
0.011385061 0.493611485 0.000253032
0.066413455 0.495256215 0.001897740
0.129411653 0.495762289 0.001011999
0.181024835 0.498798281 0.004048004
0.219987527 0.501834035 0.002024260
0.255914003 0.501328409 0.000253035
0.289310366 0.501834333 0.001771008
0.324604452 0.509044945 0.005945744
0.366097391 0.510057092 0.002909872
0.403542191 0.517267466 0.000000000
0.443010658 0.524604678 0.001265164
0.484756291 0.531435788 0.005439708
