Assets/EldamarStudio/100 Retro LUTs Pack/LUTs/cube/Alexi LUT.cube
LUT_3D_SIZE 5
DOMAIN_MIN 0.000000 0.000000 0.000000
DOMAIN_MAX 0.903226 0.903226 0.903226
0.117647000 0.000000000 0.000000000
0.169639707 0.000000000 0.002277292
0.251739413 0.040606987 0.003922000
0.383555144 0.103984997 0.000000000
0.616318762 0.135989830 0.000000000
0.114358000 0.128526121 0.008855285
0.150664285 0.134724990 0.006198711
0.239974827 0.167742118 0.003921581
0.389120817 0.192283407 0.003542291
0.625806451 0.226818576 0.000000000
0.000000000 0.311321825 0.000000000
0.011511616 0.312334090 0.000632584
0.188361809 0.322454393 0.006577994
0.369260132 0.348893106 0.000000000
0.633269787 0.389752954 0.001265006
0.000000000 0.525869250 0.003922000
0.006831295 0.517394245 0.005819002
0.039721549 0.533080399 0.003289416
0.370145380 0.544465423 0.002909872
0.669323444 0.584060609 0.004933693
0.000000000 0.805818558 0.002656833
0.004301121 0.811385274 0.001644708
0.007969820 0.813662589 0.000632584
0.458696902 0.826438785 0.001012128
0.786717176 0.826691747 0.002656833
0.116635293 0.000000000 0.135357410
0.162428722 0.003288997 0.137001693
0.250474393 0.036306284 0.145856991
0.387856007 0.083997712 0.146742702
0.628083587 0.098545022 0.136369705
0.092093594 0.134092405 0.138013989
0.139531717 0.140290692 0.134724990
0.235167682 0.158254400 0.140670404
0.377735376 0.187729403 0.140923694
0.631625473 0.213788986 0.134092569
0.000632584 0.318532377 0.137001693
0.003795018 0.315875977 0.135736704
0.182416409 0.323719382 0.138013989
0.374193400 0.349525511 0.128526121
0.647311866 0.384187102 0.108538985
0.000000000 0.530170560 0.105882406
0.000000000 0.526881635 0.101328559
0.026059557 0.535104454 0.094370447
0.372043133 0.548133850 0.083365113
0.680329025 0.587603092 0.017963413
0.000000000 0.822896600 0.000000000
0.000000000 0.816318750 0.004933705
0.002909714 0.817963243 0.010625975
0.459329188 0.825806439 0.001265167
0.784313560 0.830992818 0.001644708
0.063251600 0.000000000 0.320429981
0.126122594 0.017330708 0.316255510
0.228842825 0.046426415 0.309929967
0.386337966 0.085642412 0.329664379
0.644402146 0.040101387 0.350663960
0.005692609 0.150410980 0.313598692
0.085515603 0.144844711 0.309297979
0.209234402 0.167742118 0.311321825
0.375078976 0.185705408 0.319418252
0.646046698 0.171157420 0.341050118
0.003289416 0.316508800 0.317267358
0.001644708 0.323718965 0.309677541
0.151675984 0.332194835 0.309929967
0.380518377 0.344971687 0.320429981
0.666666985 0.355723977 0.324984401
0.000632584 0.530170500 0.317900389
0.002023998 0.529790938 0.311195403
0.005186579 0.540291250 0.314864278
0.372422278 0.554965138 0.313472271
0.699177265 0.576850295 0.296521246
0.002656833 0.822264194 0.260847569
0.004554165 0.818975568 0.257684827
0.000000000 0.825553417 0.257684946
0.424288303 0.833269596 0.250727266
0.781277418 0.836558998 0.228083581
0.000000000 0.025553256 0.522960126
0.000632580 0.036938708 0.522580624
0.192915827 0.061479993 0.531815290
0.395446122 0.082353003 0.532701135
0.644781888 0.017583933 0.553067505
0.000000000 0.160278395 0.522580624
0.000632580 0.167741701 0.527514160
0.170777813 0.177229404 0.524857521
0.383427829 0.187982127 0.530170560
0.660215139 0.161669880 0.555724323
0.004680580 0.342694819 0.531562507
0.001644712 0.338140219 0.525490165
0.062112521 0.339152128 0.525995791
0.380897820 0.346616387 0.524351537
0.674889326 0.337760687 0.552687824
0.000000000 0.540670335 0.538646340
0.002909872 0.541302979 0.534345388
0.002277288 0.548766673 0.533080399
0.372169375 0.557242274 0.544465363
0.721441746 0.562176108 0.544212401
0.003542140 0.825426579 0.549652040
0.001264999 0.826818466 0.549399257
0.001012128 0.831372440 0.541935563
0.366223902 0.834029019 0.529791296
0.787349522 0.835546911 0.522201180
0.000000000 0.045793831 0.807083726
0.003922000 0.049715158 0.811005771
0.099177346 0.048323844 0.822896779
0.447944373 0.009234743 0.813409328
0.723719239 0.002656833 0.818848729
0.001644708 0.177861989 0.818595886
0.001644708 0.179506704 0.813662589
0.033902597 0.183428109 0.810752690
0.441366196 0.169259831 0.817583799
0.726755321 0.104111649 0.817077577
0.000000000 0.365591377 0.816318572
0.000000000 0.357368678 0.819228292
0.001265006 0.355091363 0.822896719
0.426059365 0.349525690 0.827450633
0.739405572 0.324224979 0.829474688
0.000000000 0.589879870 0.827956796
0.000000000 0.588741064 0.820240557
0.004933708 0.586717248 0.824161649
0.360404372 0.575585067 0.826691687
0.758127689 0.568374276 0.834661543
0.000000000 0.845161378 0.829348564
0.000000000 0.843769729 0.822137773
0.000632584 0.845793784 0.827450991
0.334218651 0.845034599 0.834028959
0.789247155 0.839848399 0.842631340
