Assets/EldamarStudio/100 Retro LUTs Pack/LUTs/cube/Angela LUT.cube
DOMAIN_MIN 0 0 0
DOMAIN_MAX 1 1 1
LUT_3D_SIZE 32
0.062744997 0.058823999 0.050980002
0.080961771 0.055787612 0.047944386
0.101328224 0.052751224 0.049209226
0.125110477 0.049715161 0.050980002
0.152814999 0.047059000 0.050600551
0.183174998 0.047059000 0.047564935
0.213535637 0.047059000 0.047059000
0.242251694 0.045414291 0.043770004
0.270335197 0.043136999 0.040733997
0.300696015 0.043136995 0.046805996
0.328146875 0.040227871 0.041239999
0.357495517 0.039216001 0.037191745
0.388994634 0.041492999 0.036432642
0.421885014 0.046805967 0.038456969
0.449209392 0.043769583 0.029348589
0.490954757 0.038330004 0.025047196
0.534977376 0.036812194 0.023529001
0.578747272 0.038583424 0.022264009
0.627324939 0.035547037 0.016192002
0.664768994 0.038077358 0.018469358
0.704996467 0.035421006 0.012018008
0.746489346 0.032384872 0.003922000
0.785958469 0.035294000 0.004048480
0.825426936 0.035294000 0.007084098
0.862618566 0.033017293 0.005566292
0.899051309 0.031373002 0.005313317
0.935484111 0.031373002 0.006831001
0.971916854 0.031373002 0.000759007
0.992409945 0.031373002 0.000000000
1.000000000 0.033143766 0.000000000
1.000000000 0.034408618 0.002656599
1.000000000 0.031373002 0.011765000
0.068816997 0.067931615 0.041872390
0.077925391 0.077040002 0.044907998
0.100442611 0.069702610 0.046173386
0.126375318 0.066160388 0.049209226
0.155850708 0.065654546 0.050221004
0.186211392 0.068311386 0.044528548
0.214041710 0.068311386 0.046552934
0.242251694 0.069955677 0.047059000
0.269576102 0.068184488 0.043010905
0.297659606 0.061353777 0.037697617
0.330929488 0.067172773 0.040860485
0.360531092 0.066540390 0.037191745
0.392030269 0.065401748 0.035294000
0.425679654 0.065022036 0.035926647
0.461353391 0.061986357 0.032384977
0.493484765 0.061353773 0.025679780
0.534977376 0.059582770 0.020493003
0.577482104 0.061733380 0.018721990
0.621252179 0.065907814 0.022263989
0.669829667 0.068437427 0.010625994
0.703478754 0.065781005 0.006704617
0.741429269 0.061733000 0.000885613
0.782922089 0.062744901 0.001012125
0.822391272 0.065654770 0.004048485
0.861859620 0.067931481 0.004807387
0.897659659 0.067805000 0.002530328
0.932953835 0.066793002 0.001771000
0.971916854 0.061733000 0.000759007
0.989753127 0.064389832 0.000000000
0.996963620 0.064769387 0.000000000
0.996963620 0.065654770 0.001770991
0.996963620 0.064769387 0.008728613
0.072738774 0.087792546 0.039216001
0.088298388 0.090449162 0.040101387
0.108159542 0.095255993 0.043136999
0.133712709 0.088677928 0.044908226
0.162049323 0.087792546 0.047058549
0.187096864 0.089057706 0.046299774
0.221379086 0.087412998 0.043516546
0.243769750 0.087412998 0.044908226
0.268817186 0.089942873 0.044908226
0.294750273 0.086401254 0.039974518
0.330043852 0.085388996 0.038203873
0.359392762 0.085389256 0.037191745
0.391903758 0.086401127 0.033017002
0.426565051 0.085641772 0.030993000
0.462997794 0.084503420 0.029854650
0.499177575 0.083871000 0.024415165
0.535609901 0.085389189 0.022896579
0.577482104 0.086654186 0.018722007
0.619987011 0.091208003 0.018721990
0.661606669 0.094497196 0.012396990
0.704490900 0.093737811 0.004048004
0.737634242 0.089942768 0.001012128
0.777861953 0.089942768 0.002024262
0.819354951 0.090954900 0.001012130
0.856673241 0.093991257 0.001771226
0.896141589 0.092852563 0.001771226
0.931562126 0.091840483 0.000000000
0.969386518 0.090701774 0.000000000
0.989753127 0.094749831 0.002150774
0.997849226 0.094244234 0.002150774
0.996457815 0.094750151 0.002150774
0.993927777 0.096014999 0.005692774
0.078305162 0.112080999 0.039216001
0.093991160 0.112080999 0.039216001
0.113978386 0.112966381 0.043896228
0.139531985 0.116002314 0.043136999
0.166097388 0.112587161 0.042757548
0.187349766 0.110816158 0.044022936
0.221252471 0.110815838 0.041998681
0.252878129 0.109424159 0.041872162
0.272612154 0.109424159 0.041113064
0.296900839 0.111954480 0.040606998
0.330297172 0.110436291 0.037697874
0.361922771 0.108665258 0.034661744
0.391524673 0.105629645 0.032763999
0.427577198 0.108665317 0.027197968
0.462997794 0.110689320 0.026185839
0.498165429 0.111954160 0.023908842
0.537381172 0.112207189 0.017330967
0.577482104 0.114611000 0.019101586
0.619987011 0.117014192 0.013661994
0.660973907 0.118785352 0.007589996
0.699177682 0.120556578 0.004048004
0.739658237 0.118532315 0.000000000
0.776723444 0.118785307 0.002656839
0.818089962 0.121062316 0.000759096
0.856040418 0.120809600 0.000000000
0.891334713 0.120936170 0.000000000
0.929285169 0.115876161 0.000000000
0.964199722 0.118152857 0.000000000
0.989753127 0.121315300 0.003921671
0.997849226 0.122074232 0.003922000
1.000000000 0.122580595 0.003036392
0.994686961 0.126375318 0.002656839
0.087413445 0.136369094 0.039216001
0.099178001 0.136748537 0.039216001
0.114863999 0.137128085 0.043769777
0.137254700 0.137634158 0.048450001
0.164579108 0.139911532 0.042378001
0.185831487 0.133839533 0.039342389
0.218595639 0.135736763 0.037444677
0.251359880 0.136748537 0.036938708
0.280961543 0.136748537 0.038456902
0.305249572 0.136748537 0.035420511
0.335357308 0.136748537 0.032764323
0.365338504 0.137128085 0.029728292
0.396458089 0.135989636 0.026691999
0.429854542 0.133206993 0.027197998
0.463250935 0.139025986 0.024541132
0.497406334 0.142694294 0.022770001
0.534977376 0.144971088 0.019354649
0.577482104 0.144971088 0.011132424
0.619987011 0.144971088 0.008096025
0.662491739 0.145730093 0.003035995
0.701201439 0.146868825 0.000000000
0.739278793 0.149272546 0.000000000
0.781783521 0.149146065 0.000000000
0.821505725 0.154459104 0.000000000
0.858317554 0.154838845 0.000000000
0.894117415 0.151802868 0.000000000
0.927767575 0.149272546 0.000000000
0.958127558 0.149272546 0.000000000
0.986970067 0.149272546 0.004553989
0.999620438 0.147880882 0.006072235
0.999620438 0.147248134 0.003415940
0.999620438 0.156356543 0.000379548
0.096521065 0.160657868 0.039216001
0.105629444 0.163693473 0.039216001
0.117394000 0.166223705 0.034915000
0.138140321 0.166223690 0.037697777
0.167615488 0.164199546 0.042378001
0.194939867 0.161163926 0.036306001
0.221252248 0.165211916 0.040860064
0.250094712 0.165844142 0.040480711
0.278684258 0.164072931 0.038456906
0.308285952 0.164072931 0.035420515
0.338393658 0.164072931 0.035294000
0.366730183 0.166097194 0.032764323
0.395698994 0.166350216 0.027451294
0.426818162 0.163566992 0.021126000
0.460215300 0.163566992 0.027197994
0.498418719 0.166982800 0.019734137
0.536875129 0.171536863 0.016698001
0.577482104 0.175331861 0.013915073
0.619987011 0.175331876 0.008096031
0.662491739 0.180897862 0.007842999
0.701201439 0.180265605 0.003036003
0.738646388 0.180265725 0.000000000
0.778747916 0.182542443 0.000000000
0.821252704 0.179506838 0.000000000
0.856420279 0.184819877 0.000000000
0.893105507 0.185199261 0.000000000
0.931056201 0.182668924 0.000000000
0.967235923 0.182668924 0.000000000
0.986969888 0.182668924 0.000000000
0.996584058 0.182668924 0.002783217
0.996584058 0.182162866 0.003922000
0.996584058 0.183680937 0.003415935
0.103098996 0.192536324 0.034156002
0.114737704 0.193042263 0.031625681
0.132448092 0.196078420 0.035926677
0.149525806 0.197849646 0.033902679
0.175711855 0.196078420 0.038077001
0.203036264 0.193042263 0.036306001
0.225300640 0.192536324 0.030234002
0.252625018 0.195319325 0.033017002
0.281467408 0.194686741 0.033143677
0.313599020 0.196457967 0.035420511
0.349019736 0.191397965 0.032764323
0.379380494 0.191397965 0.030740069
0.408349305 0.196204990 0.028842678
0.439468414 0.199240670 0.024162000
0.477419555 0.201517954 0.021125995
0.513219297 0.203921154 0.019987196
0.552561581 0.205439314 0.014168195
0.591397762 0.208854884 0.011258757
0.630107641 0.210752636 0.003289003
0.675142050 0.213788956 0.005313323
0.713851750 0.217963219 0.003415583
0.749272406 0.218216449 0.000000000
0.785705209 0.220999449 0.000000000
0.825806797 0.217963219 0.000000000
0.863757551 0.217204317 0.000000000
0.898798227 0.219987318 0.000000000
0.936622083 0.218595639 0.000000000
0.973054826 0.218595639 0.000000000
0.991018295 0.218595639 0.005059999
0.998608351 0.216824874 0.003289234
0.998608351 0.217836946 0.003036392
0.998608351 0.221125960 0.001391678
0.112460412 0.222643703 0.026439296
0.127893761 0.220999405 0.031625610
0.139911771 0.228083476 0.030107711
0.161164165 0.226059541 0.032384552
0.183175534 0.224541530 0.030487003
0.210499913 0.221505463 0.025427010
0.232764319 0.225932688 0.030234002
0.257305712 0.220999405 0.024162002
0.285389185 0.222517401 0.023402907
0.317900211 0.226439193 0.026818298
0.350917041 0.224035695 0.027451167
0.386590779 0.223655984 0.022770751
0.415812910 0.224794626 0.020873006
0.446426094 0.232384443 0.020873006
0.485895216 0.235420808 0.017584009
0.521315694 0.236812308 0.010626202
0.560784101 0.241366118 0.009108006
0.599747121 0.241619110 0.006831295
0.636179984 0.243643373 0.000759034
0.679317117 0.248324051 0.001138649
0.719164729 0.251359940 0.002024260
0.757621527 0.253383696 0.000000000
0.793042004 0.255660981 0.000000000
0.830993056 0.254142791 0.000000000
0.869829535 0.253383696 0.003288997
0.903478920 0.253383696 0.000506007
0.940417111 0.253383696 0.001011999
0.979126811 0.253383696 0.003288997
0.993674815 0.253383696 0.003668699
1.000000000 0.249968231 0.004427527
1.000000000 0.249588981 0.002277292
1.000000000 0.255660981 0.000000000
0.124605000 0.249209195 0.020366902
0.141302988 0.247691378 0.027956903
0.153826669 0.253131121 0.031625580
0.167995065 0.259456158 0.028589839
0.188867986 0.251486301 0.025174001
0.215053931 0.248830125 0.013789002
0.237318322 0.253636956 0.018089904
0.264136791 0.254395813 0.021126004
0.291461200 0.249083087 0.017330905
0.321822017 0.255155087 0.014294519
0.352182001 0.255408108 0.015559874
0.385072500 0.256672919 0.014042006
0.419607639 0.260467738 0.010247001
0.447438091 0.263504118 0.009993969
0.485895216 0.266540498 0.009487906
0.521315634 0.268691093 0.005313297
0.558507383 0.270967990 0.001517998
0.601012111 0.275775015 0.000253007
0.637697995 0.275775015 0.000000000
0.678937674 0.280582100 0.000000000
0.718406200 0.284756541 0.000000000
0.755344272 0.286780298 0.000000001
0.797469556 0.286780298 0.000000001
0.833269954 0.286780298 0.000000000
0.870461762 0.287539184 0.003795093
0.907274067 0.286780298 0.005060010
0.938140154 0.286274225 0.000000000
0.979885817 0.286021203 0.005565994
0.996204793 0.286021203 0.004427749
1.000000000 0.283997208 0.002150783
0.999240935 0.279949218 0.001517998
0.999240935 0.286021203 0.001517998
0.136748999 0.273497999 0.023402512
0.148892999 0.276533604 0.017330511
0.161290005 0.279316813 0.020619504
0.177102685 0.282732695 0.022517184
0.197975606 0.284883469 0.019101992
0.216192394 0.284883469 0.013029994
0.237318337 0.284756988 0.009234673
0.266793400 0.283491790 0.006831225
0.300569594 0.282479525 0.005186901
0.327894032 0.288551509 0.008222515
0.358254015 0.288804531 0.005186871
0.388614506 0.288804531 0.004428000
0.420366645 0.291207969 0.004174999
0.453510106 0.296900511 0.003921967
0.486907244 0.299936950 0.000885583
0.522960007 0.305376530 0.002783321
0.560784101 0.309677303 0.005313289
0.601012111 0.312207013 0.006325006
0.643517017 0.312207013 0.000253001
0.682985365 0.314990371 0.000000002
0.722580731 0.318153262 0.000000002
0.760910988 0.320177466 0.000000002
0.797469556 0.320177466 0.000000003
0.830866694 0.320177466 0.000000001
0.864389777 0.322454184 0.002277287
0.899430811 0.322580665 0.002656810
0.935104549 0.319671392 0.000000000
0.968500912 0.316635042 0.000000000
0.991650820 0.316381991 0.000253000
1.000000000 0.316381991 0.000126516
0.999114394 0.316128999 0.001770990
0.996204555 0.316381991 0.007589998
0.143074006 0.315243751 0.014800873
0.155218005 0.318279326 0.005819003
0.171663553 0.314863741 0.004048002
0.185325742 0.316887885 0.006072003
0.202782959 0.321188986 0.005060132
0.231119737 0.321188986 0.004048130
0.249335855 0.321188986 0.003036130
0.273497701 0.322833687 0.002024001
0.304617316 0.323086739 0.001012130
0.334092528 0.324857742 0.001897519
0.358507007 0.325110734 0.004933871
0.394939750 0.327134460 0.003922000
0.427957147 0.328019857 0.003922000
0.459582776 0.330296874 0.003668968
0.492979228 0.333333284 0.000632584
0.526375771 0.336369693 0.004806995
0.566856444 0.340417534 0.003795132
0.608475804 0.343453318 0.002024002
0.646426141 0.345730603 0.000506002
0.686148226 0.345730603 0.002783357
0.723719299 0.348639995 0.002909871
0.761164010 0.350663990 0.003921741
0.797469556 0.350790501 0.005566007
0.830866694 0.353573859 0.000000001
0.866540551 0.353573859 0.000000000
0.899177790 0.354585737 0.001012129
0.932068229 0.353067815 0.000000000
0.965464532 0.350031435 0.000000000
0.988234937 0.354964882 0.000000000
0.998861372 0.351928890 0.000000000
0.998229027 0.349651873 0.000885608
0.993168890 0.349651873 0.004933871
0.151170254 0.353700519 0.005692748
0.161289990 0.356736124 0.008728866
0.171663284 0.355344772 0.000000000
0.191144899 0.353067607 0.000000000
0.206704557 0.357242048 0.000000000
0.232131600 0.355597764 0.000000000
0.260468245 0.357621491 0.000000000
0.280328959 0.357621491 0.000000000
0.307653248 0.359519243 0.000000000
0.338013738 0.359519243 0.000000001
0.366603255 0.359519243 0.000885614
0.394939750 0.363567233 0.001897744
0.432131648 0.364326149 0.001897744
0.463630766 0.363693714 0.002150776
0.497027129 0.366729647 0.002656840
0.536495745 0.371789783 0.002783255
0.571410358 0.373307973 0.005819260
0.613535821 0.375837833 0.001391680
0.649968266 0.378874213 0.000000003
0.689183831 0.379127234 0.002783357
0.722960174 0.381024957 0.002024260
0.759140015 0.383048743 0.002909872
0.795572281 0.382922232 0.005692747
0.830866694 0.382163167 0.001517999
0.864516318 0.384946495 0.004047996
0.903732061 0.386337817 0.001265006
0.936622441 0.386464328 0.000000000
0.968500912 0.383428305 0.000000000
0.989247024 0.384313762 0.000000000
0.998102248 0.388614535 0.000000000
1.000000000 0.383301526 0.000000000
0.996204972 0.381024510 0.001897744
0.161416993 0.394687265 0.000000000
0.171663254 0.396584541 0.005692745
0.180771410 0.398735046 0.005313226
0.193801150 0.397090763 0.001138644
0.215433091 0.399367332 0.001138644
0.237444580 0.396331549 0.001138644
0.264010280 0.397216946 0.000000000
0.292852700 0.398608267 0.000000000
0.317141086 0.399367362 0.000759096
0.347880661 0.399746895 0.001138644
0.374825746 0.399746895 0.000000000
0.405186504 0.401517928 0.000000000
0.440101266 0.405312926 0.000000000
0.473244697 0.402783245 0.000000000
0.505755663 0.405818850 0.002150772
0.545224249 0.408981264 0.002783356
0.583554387 0.413155913 0.003922000
0.620619714 0.412523329 0.003289424
0.657558620 0.414547622 0.000253034
0.694497049 0.418216288 0.001644713
0.731688440 0.416698366 0.003162904
0.762049258 0.419734776 0.001138644
0.798482001 0.419861257 0.003795488
0.836938798 0.417837024 0.000759096
0.869955957 0.417077929 0.003415642
0.904111266 0.418975592 0.005060010
0.944592118 0.421505272 0.000000000
0.974952877 0.419102073 0.000000000
0.992409945 0.417583972 0.000000000
0.998861372 0.417078048 0.000000000
0.997976005 0.420999259 0.000000000
0.997722983 0.415939271 0.000000000
0.173560992 0.442252040 0.000000000
0.184692994 0.442252040 0.000000000
0.195698768 0.445794016 0.000000000
0.208349034 0.450095057 0.001518129
0.226818129 0.449715495 0.003668968
0.251106888 0.446679115 0.003668968
0.275901616 0.446426094 0.001644710
0.302467018 0.446426094 0.000505999
0.333839089 0.446932137 0.000506064
0.367235482 0.449968547 0.003542450
0.390005916 0.449842036 0.001012129
0.417077541 0.449589074 0.000000000
0.451486290 0.450348049 0.000000000
0.493232071 0.450095057 0.000000000
0.523592770 0.453130662 0.000000000
0.560910761 0.454269111 0.000253032
0.597849190 0.455281228 0.001265160
0.632510722 0.457305461 0.003289424
0.671979964 0.454269081 0.000253032
0.705123425 0.461859435 0.000253032
0.742314696 0.461986065 0.001897740
0.779253244 0.458950132 0.004174968
0.809867024 0.461733520 0.004048488
0.852118790 0.461607039 0.001012128
0.885515571 0.459582776 0.002024256
0.917014599 0.457938045 0.002530328
0.950411081 0.457685024 0.000000000
0.980771840 0.457685024 0.000000000
0.994939983 0.455281228 0.000000000
0.998481810 0.452245295 0.000000000
0.995698631 0.451613039 0.001011999
0.992662966 0.457685024 0.001011999
0.185704991 0.478684783 0.000000000
0.185704991 0.478684783 0.000000000
0.203288764 0.476534009 0.000000000
0.219481140 0.480455548 0.002529999
0.235673502 0.486148238 0.006451578
0.254143268 0.483111858 0.000632584
0.283491403 0.485136122 0.003162906
0.306008965 0.485895216 0.004933705
0.331309438 0.485895216 0.005059995
0.367235512 0.486401290 0.000506067
0.400632620 0.483617932 0.000632583
0.427451074 0.481214643 0.000000000
0.458823681 0.483365148 0.000000000
0.496268451 0.489563435 0.000000000
0.529664814 0.486527801 0.000000000
0.564832568 0.491967231 0.002403804
0.603415608 0.492220014 0.001771224
0.641619146 0.491081387 0.000632584
0.681088388 0.490701824 0.000253035
0.706641436 0.493232161 0.002783356
0.742314696 0.495635808 0.003289416
0.780771255 0.495382667 0.004933870
0.815939009 0.498165488 0.007084097
0.852371812 0.495129883 0.004048480
0.885515571 0.495003372 0.001012128
0.915875971 0.494370788 0.000632584
0.947880685 0.493864715 0.000000000
0.983807445 0.491081387 0.000000000
0.995572388 0.491081387 0.000000000
1.000000000 0.488678038 0.000000000
0.999367416 0.487413198 0.003541982
0.998735011 0.491081387 0.013155987
0.183428004 0.517520785 0.000000000
0.188235000 0.522327781 0.004806995
0.205439538 0.518026769 0.000505996
0.223149806 0.517267406 0.000000000
0.238330096 0.523339510 0.003036004
0.260594845 0.524351656 0.001012001
0.286527812 0.526375890 0.000126518
0.313598782 0.524478197 0.001518196
0.337128490 0.522960007 0.003036004
0.371916652 0.522960007 0.000253000
0.403035820 0.524857700 0.000000000
0.434408695 0.521821320 0.002024256
0.464389652 0.519923985 0.001265160
0.499304235 0.524730802 0.000253032
0.532700598 0.525996208 0.002403804
0.570904553 0.525363803 0.002403804
0.605819166 0.528399765 0.003922000
0.641619146 0.528146565 0.002403805
0.675775170 0.531688571 0.002403808
0.710942805 0.532068133 0.005186548
0.742820799 0.533206761 0.002530195
0.779759347 0.532194912 0.001518196
0.814800799 0.532194853 0.003036004
0.851233602 0.529158652 0.002277099
0.883111775 0.528399765 0.003795484
0.914863825 0.527008116 0.002403804
0.946742177 0.525490046 0.002909739
0.981277645 0.522454143 0.004806995
0.996204793 0.524477780 0.000000000
0.992916048 0.524477780 0.000000000
0.993042350 0.522074580 0.000000000
0.997596204 0.522074580 0.006072009
0.191018179 0.555471361 0.000000000
0.192536384 0.561543345 0.003036003
0.205439538 0.560531199 0.003542000
0.228463158 0.559519172 0.002529999
0.243263736 0.562048912 0.002276998
0.268690854 0.562808335 0.000000000
0.290955126 0.564326525 0.000000000
0.318152964 0.566982925 0.000000000
0.343959153 0.562428355 0.000000000
0.376597285 0.562428355 0.000000001
0.407084197 0.563820004 0.001518192
0.438962489 0.562808335 0.000506064
0.469323248 0.560910583 0.002403808
0.502593279 0.560657561 0.000000000
0.537254810 0.561163604 0.001771224
0.572422385 0.564832151 0.002403808
0.608855188 0.563314378 0.002403808
0.642251551 0.563946784 0.002403808
0.673497796 0.569133222 0.002403810
0.710942745 0.571157396 0.003668650
0.745857179 0.569639206 0.004048004
0.781277299 0.568627357 0.000000000
0.814547777 0.565718174 0.000000000
0.848197639 0.564073443 0.000000000
0.883112192 0.561796188 0.002277288
0.912080824 0.560404837 0.002530328
0.944718361 0.557874560 0.002403808
0.977103293 0.555850804 0.004427548
0.994939983 0.555091500 0.002530012
0.998988032 0.554838598 0.000000000
0.988615036 0.554838598 0.000000000
0.994560182 0.552435338 0.000000000
0.208475590 0.592536509 0.000632576
0.207337365 0.597343504 0.000000001
0.213788986 0.598228931 0.000000001
0.230993137 0.597722709 0.001897584
0.251866072 0.603415132 0.007210585
0.278431535 0.600885451 0.001644577
0.299430579 0.599747121 0.000632576
0.321947843 0.601391375 0.000632576
0.350031167 0.603668094 0.000000000
0.380391985 0.603668094 0.000000002
0.410120130 0.603035688 0.002277294
0.442504823 0.602276802 0.002530320
0.476660252 0.600379527 0.000632576
0.507273972 0.600379527 0.000632576
0.543327212 0.597722709 0.000632576
0.576091170 0.599999726 0.000000000
0.609487772 0.602782726 0.000000002
0.643516719 0.599747121 0.000000001
0.676913142 0.602782726 0.000000001
0.714611113 0.605818927 0.000000001
0.749652147 0.605059981 0.000000000
0.783681095 0.602656245 0.000000000
0.816950977 0.599747121 0.000000000
0.847311854 0.599747121 0.000000000
0.882226586 0.597469866 0.002277287
0.915749669 0.594433784 0.002530328
0.944086075 0.591398060 0.000506064
0.974573255 0.591271520 0.000632576
0.992409945 0.587982297 0.001264991
1.000000000 0.584946156 0.000632576
0.999494016 0.582163513 0.000632576
0.993421972 0.582163513 0.000632576
0.211511984 0.632005036 0.003668968
0.217583969 0.632005036 0.000632587
0.222897008 0.634661794 0.000000005
0.238330171 0.635926962 0.001265163
0.264010072 0.636812389 0.004174967
0.282226890 0.639847994 0.004174967
0.306261986 0.637318313 0.003668968
0.330044389 0.637824237 0.003668966
0.356103927 0.640100956 0.002909869
0.386464000 0.640100956 0.000000000
0.413914889 0.637191832 0.000000000
0.445540816 0.638456643 0.002277286
0.481214643 0.639847994 0.003668965
0.519418001 0.639847994 0.003668965
0.552814364 0.639847994 0.003668965
0.581656814 0.637191772 0.001265163
0.612523615 0.637950718 0.000000004
0.646553099 0.639215589 0.000000010
0.682985961 0.636179984 0.000000007
0.716382384 0.639215589 0.000000007
0.748386979 0.638456821 0.000000003
0.781024277 0.636432946 0.000000000
0.816950977 0.636179984 0.000000000
0.847311854 0.636179984 0.000000000
0.882226586 0.633902729 0.002277286
0.917267621 0.630866647 0.002530325
0.950158060 0.627830923 0.000506064
0.983554423 0.624794543 0.003542448
0.995445848 0.619355023 0.006325123
1.000000000 0.615306795 0.005566235
1.000000000 0.612270713 0.003668968
0.999494016 0.609488070 0.003668968
0.217331007 0.688172102 0.003922000
0.228969008 0.688172102 0.006451616
0.237191781 0.688172102 0.003415779
0.247691527 0.689310730 0.002783357
0.268943906 0.688931167 0.003922000
0.294370890 0.687159836 0.003922000
0.310057342 0.685136080 0.003922000
0.336875349 0.685389042 0.002277292
0.364199758 0.687665761 0.001138643
0.392536044 0.687665761 0.000126516
0.425553590 0.687539220 0.000000000
0.458950222 0.684503675 0.000000000
0.491967350 0.684883058 0.001138643
0.525996089 0.684630036 0.001138643
0.559392393 0.682099760 0.001138643
0.590385556 0.682099760 0.001138643
0.625679731 0.679443598 0.004554189
0.661606550 0.680582106 0.006451795
0.691587627 0.683997691 0.000000008
0.725237072 0.680961430 0.005566004
0.760531127 0.682099760 0.001771008
0.793674707 0.678937376 0.000000000
0.828210175 0.675395370 0.000000000
0.861227214 0.675395370 0.000000000
0.889310658 0.673118651 0.000000000
0.922833681 0.668690741 0.001138643
0.955218017 0.664263070 0.000506064
0.984060407 0.661227286 0.003542448
0.996204793 0.658190906 0.006578155
1.000000000 0.654016614 0.006072235
1.000000000 0.650095105 0.003922000
1.000000000 0.645161748 0.003922000
0.219607994 0.724983990 0.002024260
0.233649731 0.724983990 0.010752609
0.241745770 0.724983990 0.005692774
0.254649013 0.726249158 0.002656839
0.270461798 0.726881742 0.003162807
0.291714191 0.725363493 0.007716997
0.322201312 0.726122797 0.005819256
0.342314988 0.724731445 0.002530259
0.372169167 0.726755202 0.000000000
0.400632262 0.726755202 0.000000000
0.429980844 0.724857450 0.000000000
0.463504493 0.726628721 0.000000000
0.496521622 0.723592818 0.000000000
0.526881814 0.723086715 0.000505999
0.563567162 0.723339796 0.003794996
0.594560325 0.717014432 0.000000000
0.629474878 0.720050454 0.001518192
0.669070125 0.718785703 0.007337428
0.697659791 0.722327709 0.000759036
0.730550170 0.720050335 0.003668748
0.765844226 0.717014432 0.005945744
0.800253034 0.717014432 0.000885612
0.832637966 0.712839901 0.000126512
0.864263117 0.711068690 0.001897740
0.895003259 0.708791971 0.003794996
