Assets/EldamarStudio/100 Retro LUTs Pack/LUTs/cube/Angela LUT.cube
LUT_3D_SIZE 8
DOMAIN_MIN 0.000000 0.000000 0.000000
DOMAIN_MAX 0.903226 0.903226 0.903226
0.062744997 0.058823999 0.050980002
0.152814999 0.047059000 0.050600551
0.270335197 0.043136999 0.040733997
0.388994634 0.041492999 0.036432642
0.534977376 0.036812194 0.023529001
0.704996467 0.035421006 0.012018008
0.862618566 0.033017293 0.005566292
0.992409945 0.031373002 0.000000000
0.087413445 0.136369094 0.039216001
0.164579108 0.139911532 0.042378001
0.280961543 0.136748537 0.038456902
0.396458089 0.135989636 0.026691999
0.534977376 0.144971088 0.019354649
0.701201439 0.146868825 0.000000000
0.858317554 0.154838845 0.000000000
0.986970067 0.149272546 0.004553989
0.124605000 0.249209195 0.020366902
0.188867986 0.251486301 0.025174001
0.291461200 0.249083087 0.017330905
0.419607639 0.260467738 0.010247001
0.558507383 0.270967990 0.001517998
0.718406200 0.284756541 0.000000000
0.870461762 0.287539184 0.003795093
0.996204793 0.286021203 0.004427749
0.161416993 0.394687265 0.000000000
0.215433091 0.399367332 0.001138644
0.317141086 0.399367362 0.000759096
0.440101266 0.405312926 0.000000000
0.583554387 0.413155913 0.003922000
0.731688440 0.416698366 0.003162904
0.869955957 0.417077929 0.003415642
0.992409945 0.417583972 0.000000000
0.191018179 0.555471361 0.000000000
0.243263736 0.562048912 0.002276998
0.343959153 0.562428355 0.000000000
0.469323248 0.560910583 0.002403808
0.608855188 0.563314378 0.002403808
0.745857179 0.569639206 0.004048004
0.883112192 0.561796188 0.002277288
0.994939983 0.555091500 0.002530012
0.219607994 0.724983990 0.002024260
0.270461798 0.726881742 0.003162807
0.372169167 0.726755202 0.000000000
0.496521622 0.723592818 0.000000000
0.629474878 0.720050454 0.001518192
0.765844226 0.717014432 0.005945744
0.895003259 0.708791971 0.003794996
0.996204793 0.692725897 0.002783159
0.251612991 0.847944260 0.006198708
0.293358535 0.853763521 0.001897740
0.385578811 0.849335730 0.000759096
0.500442922 0.850221515 0.000000000
0.626945019 0.846299529 0.004553996
0.761416674 0.844022870 0.002024260
0.895003259 0.840733826 0.003922000
0.995825231 0.821378887 0.001265167
0.286400825 0.962555468 0.000000000
0.334218830 0.967615783 0.000000000
0.407969922 0.966350615 0.003794990
0.512080848 0.962428629 0.001138644
0.628463209 0.962175608 0.002530012
0.754079580 0.955850780 0.000000000
0.881467700 0.954965055 0.000000000
0.997469962 0.950663984 0.001265167
0.067046449 0.058064904 0.116002090
0.157115534 0.047059000 0.116761088
0.273497999 0.042757548 0.113598995
0.396458089 0.042378094 0.108538643
0.537760735 0.034282457 0.102213733
0.703858197 0.016698200 0.102340356
0.857179284 0.000379548 0.082859263
0.990765214 0.000000000 0.061227106
0.092852548 0.136369094 0.120683089
0.172042623 0.143832535 0.119164996
0.271853060 0.137128085 0.115622550
0.399999738 0.139911443 0.103858449
0.538899362 0.139531896 0.100822359
0.701960444 0.140670538 0.091840811
0.858950019 0.136748537 0.069829099
0.990132689 0.136369079 0.054143105
0.119164996 0.250727206 0.099177554
0.189247444 0.255028665 0.095256455
0.297406644 0.249083191 0.105882093
0.417963654 0.258570194 0.099936642
0.559266329 0.267173082 0.092979357
0.713978529 0.271473646 0.070588097
0.864263296 0.279316634 0.051107001
0.989120662 0.271094084 0.028209809
0.150410995 0.391524285 0.068311103
0.211511984 0.394307613 0.063251451
0.313725561 0.394307643 0.056926452
0.438583285 0.395825714 0.051106807
0.577988565 0.409234643 0.030234257
0.724604607 0.415939242 0.022011194
0.876786590 0.420366913 0.005313091
0.990891755 0.416066080 0.004174544
0.177482545 0.550790548 0.009487809
0.232890904 0.556989193 0.005819450
0.338393271 0.556609809 0.000379548
0.465780914 0.557368755 0.000000000
0.601265013 0.561796188 0.000000000
0.745983243 0.562934816 0.002024260
0.881973565 0.555471361 0.003162710
0.990638793 0.554206192 0.003162807
0.201518193 0.719291270 0.000000000
0.259329289 0.716888011 0.003035997
0.370398462 0.718532443 0.000000000
0.487666041 0.720809460 0.000000000
0.624541283 0.717393875 0.001518192
0.763946474 0.711068690 0.002024260
0.891840279 0.704870462 0.003162904
0.994939983 0.690701842 0.000000000
0.228336528 0.844781876 0.003794996
0.277166545 0.847058535 0.001897740
0.377735406 0.845540762 0.000379548
0.495256364 0.844655395 0.000000000
0.624288619 0.841872215 0.002783356
0.756103456 0.841999054 0.000000000
0.898544848 0.842758000 0.003289004
0.994939983 0.820493281 0.000000000
0.276533991 0.961543381 0.003795180
0.319544554 0.967362165 0.002277285
0.399620175 0.968753934 0.007463548
0.507779896 0.958886504 0.001265167
0.626059473 0.961290002 0.001897547
0.750031352 0.958633602 0.006451732
0.879317164 0.953700185 0.018722344
0.993674815 0.950284541 0.073371358
0.079949193 0.047817901 0.205313101
0.153953537 0.046679452 0.206831098
0.271094084 0.038456906 0.209108189
0.401897281 0.023656001 0.218596101
0.550664127 0.002403808 0.216319010
0.717520535 0.000000000 0.197849452
0.865654707 0.000000000 0.187982187
0.989879787 0.000000000 0.186717346
0.096774444 0.128146634 0.207210645
0.171663091 0.128905535 0.201265186
0.281720579 0.124984547 0.209614560
0.403035909 0.126249090 0.204047740
0.547501504 0.106388457 0.201391205
0.713219464 0.084503643 0.194307193
0.869196773 0.073118009 0.194560558
0.991397560 0.058064897 0.187096804
0.116887905 0.243643090 0.210753098
0.189373553 0.248324096 0.207590193
0.295383006 0.257811278 0.199747190
0.416318834 0.251865834 0.203668192
0.564073265 0.254649192 0.199873298
0.722707212 0.260594428 0.198229000
0.868058503 0.254649192 0.184187084
0.993547976 0.254649192 0.180139184
0.096773908 0.397469908 0.182163447
0.187349886 0.391144842 0.183302000
0.311828166 0.398228824 0.180518538
0.444149256 0.401391625 0.177482650
0.582289815 0.405312926 0.184566647
0.732321203 0.407337278 0.182416186
0.877925277 0.406704366 0.174067095
0.993295252 0.401517928 0.172296092
0.131941900 0.553194284 0.144338906
0.206957892 0.554965079 0.149399355
0.327514082 0.563314378 0.144971281
0.466160357 0.558633447 0.137887180
0.608855188 0.560151458 0.137128294
0.749272883 0.556609750 0.129791468
0.883871078 0.555471361 0.153447092
0.992915690 0.546995342 0.167362183
0.159645736 0.719797611 0.093232103
0.233649805 0.720177174 0.085641935
0.346363187 0.721189022 0.077545814
0.484376997 0.719797611 0.079822905
0.627324760 0.714990735 0.081846647
0.762808084 0.713092983 0.071347445
0.892979026 0.701328337 0.077166282
0.995445728 0.686021566 0.139152452
0.193548471 0.846299529 0.027704090
0.242757842 0.848197341 0.025047563
0.355724186 0.847944260 0.023529468
0.483491302 0.844781518 0.025174180
0.615053475 0.847058654 0.035926655
0.756989300 0.842884183 0.054902103
0.893358529 0.843137443 0.070967846
0.997216642 0.822897077 0.131056175
0.252371788 0.963946640 0.126122862
0.291334629 0.969892502 0.128779411
0.385072827 0.963946581 0.139784783
0.498419076 0.963314295 0.145857066
0.619102180 0.962428629 0.156103969
0.745603800 0.957748055 0.165971056
0.875142515 0.951802611 0.187222973
0.994813144 0.950537622 0.219354659
0.104743645 0.047059000 0.321189284
0.165338188 0.045540906 0.321189284
0.275775105 0.029095905 0.319923818
0.400758922 0.005566002 0.329032272
0.555471361 0.003542452 0.346615791
0.717394352 0.002024260 0.347881168
0.871600211 0.000000000 0.339658648
0.996204793 0.002403812 0.323212922
0.098798096 0.129791543 0.324730933
0.171663091 0.122707359 0.322707176
0.280834824 0.116002195 0.329032183
0.408601820 0.103479005 0.333333552
0.556989253 0.080455355 0.335231185
0.723466218 0.009361096 0.339911371
0.870335340 0.004427648 0.323466152
0.994939983 0.000379548 0.316382080
0.096141554 0.244149446 0.337634265
0.171663091 0.244908541 0.338013738
0.293864995 0.241745636 0.329664379
0.432890743 0.239342541 0.330929637
0.577735901 0.233523205 0.334092528
0.732194901 0.218216464 0.333839297
0.879063725 0.213535845 0.318785369
0.997216821 0.205692455 0.324730903
0.052878086 0.393042266 0.334092647
0.159266099 0.399494141 0.339531809
0.292726457 0.397469908 0.330170631
0.441745549 0.393548638 0.327387273
0.583933890 0.395066738 0.327766806
0.735104144 0.394434005 0.323086530
0.885515213 0.391777277 0.322327614
0.996204793 0.386590838 0.316888124
0.004174641 0.558254004 0.297026813
0.087160103 0.562555254 0.300063193
0.295509189 0.562934816 0.303605646
0.457178801 0.562175751 0.301201850
0.620113850 0.560151398 0.294244468
0.754965186 0.553953171 0.305629194
0.889816701 0.549652100 0.320430070
0.995825231 0.540923595 0.325110734
0.007337351 0.720936000 0.282732368
0.157874614 0.718532264 0.277672529
0.313092738 0.723718822 0.286654085
0.469829440 0.722074628 0.283997655
0.621125937 0.716888070 0.281973213
0.770651579 0.714990675 0.286274523
0.897026896 0.697026968 0.282226622
0.994180918 0.684882879 0.318405926
0.074003644 0.853636920 0.269070357
0.187096655 0.849082887 0.270967990
0.319671184 0.850221515 0.273118287
0.467425913 0.847944260 0.273118287
0.610119998 0.844655275 0.276281178
0.754332781 0.846299529 0.282099903
0.895635545 0.844655275 0.291714281
0.997469962 0.822517514 0.305376291
0.200759113 0.967868447 0.307400256
0.265148610 0.968247771 0.313851893
0.357874662 0.967109382 0.316002339
0.479569823 0.966603279 0.317267627
0.607463539 0.965970755 0.322580576
0.738519728 0.958507121 0.333586186
0.876154363 0.953067422 0.338519722
0.994686604 0.949525595 0.360657841
0.105881996 0.031373002 0.459835559
0.179886535 0.027957166 0.458317369
0.285895288 0.010373103 0.458950341
0.417204618 0.000379548 0.467678577
0.558507383 0.000000000 0.482479185
0.726628721 0.002024260 0.499810368
0.876154363 0.000759096 0.486527264
0.993801355 0.000000000 0.474257022
0.104364194 0.113092735 0.472232372
0.175584897 0.116381548 0.467172712
0.294497102 0.103858359 0.466413826
0.418722630 0.084756710 0.469955474
0.559645712 0.045161720 0.473244816
0.724604487 0.003922000 0.482479274
0.878684163 0.000000000 0.480329007
0.996204793 0.000000000 0.474257022
0.029475011 0.235040992 0.472106278
0.145098001 0.232384637 0.472991377
0.293991089 0.228716180 0.480202287
0.434155494 0.216571733 0.480961204
0.584440410 0.210879192 0.485009283
0.738519967 0.197849646 0.482099831
0.884630203 0.181783915 0.474763095
0.994180858 0.186211288 0.466793180
0.002276998 0.392156631 0.477672368
0.119165167 0.389626712 0.483617842
0.273371249 0.383301765 0.482479304
0.438583374 0.373940647 0.480835199
0.592915595 0.373561084 0.472106159
0.743453443 0.383048415 0.473118275
0.887413025 0.383048475 0.475015908
0.996204793 0.380139112 0.477166176
0.000000000 0.557874560 0.483365178
0.049336076 0.560531020 0.488804281
0.264136910 0.560151517 0.478431463
0.444275886 0.559392393 0.470714569
0.615812540 0.553953171 0.468311369
0.751296401 0.552814662 0.477039993
0.888678074 0.541429222 0.475522190
0.994686604 0.535863400 0.474636167
0.000758999 0.720936000 0.462998182
0.024541277 0.722454131 0.455407917
0.268437564 0.722454190 0.459709138
0.446173519 0.721315503 0.458950162
0.614421368 0.717773438 0.455534637
0.766350269 0.711827695 0.451612711
0.898418725 0.693358481 0.466666639
0.994307041 0.684882879 0.488425106
0.024288364 0.850980461 0.453257561
0.143706471 0.853384256 0.457052708
0.285262316 0.853384018 0.450348079
0.438077003 0.848703265 0.446805626
0.591650963 0.851866245 0.449335933
0.745983243 0.846299529 0.450980663
0.896521091 0.844655275 0.455661356
0.995445848 0.817204297 0.464389354
0.128526390 0.967741609 0.467552185
0.212144285 0.968374550 0.467551976
0.328272909 0.966350615 0.471347272
0.460341722 0.963567257 0.467931807
0.594560146 0.962555170 0.477166206
0.737760603 0.958506942 0.476280808
0.869576335 0.952561736 0.484883100
0.991903961 0.952434778 0.494370699
0.117520481 0.008096008 0.614800453
0.191650540 0.004427552 0.615812480
0.311448425 0.002024260 0.621631861
0.434281945 0.000000000 0.625553668
0.579000354 0.000000000 0.627071500
0.722580731 0.001897740 0.626565456
0.879949272 0.000000000 0.633902431
0.993674815 0.000759092 0.621378779
0.094117716 0.099683814 0.616571724
0.182796001 0.095762298 0.618089437
0.299936891 0.080582164 0.619481385
0.434408605 0.042631205 0.625426888
0.577229381 0.002276998 0.628969312
0.733333468 0.000000000 0.631372452
0.884123802 0.000000000 0.624667704
0.993168771 0.002783359 0.622390807
0.002024260 0.220999181 0.632131457
0.129664898 0.217077911 0.631119490
0.285009354 0.210246831 0.626059175
0.430740178 0.201770827 0.628715873
0.589120448 0.183048546 0.634029090
0.743959725 0.157115653 0.633017063
0.889690042 0.152688190 0.630613565
0.996204793 0.160404712 0.612523556
0.000000000 0.376723289 0.629981220
0.010626452 0.378368080 0.636432648
0.240607202 0.359392554 0.632764459
0.423782289 0.356356382 0.637444556
0.602909744 0.352814734 0.639468849
0.759519219 0.354838371 0.634281933
0.893738031 0.362681895 0.618848443
0.996204793 0.379380107 0.620999575
0.001138547 0.553067386 0.644275725
0.001897740 0.550790548 0.637824178
0.226565093 0.548640013 0.636938870
0.417584002 0.540923655 0.644781649
0.599747121 0.539025903 0.639848292
0.758380592 0.542567790 0.631625772
0.880076289 0.548640072 0.632511199
0.992156625 0.558127820 0.642631173
0.001897740 0.726881683 0.640607238
0.009867378 0.717393935 0.636432707
0.254522294 0.723845601 0.640607238
0.432763934 0.720050335 0.638709724
0.601644397 0.711068690 0.630487442
0.760151446 0.705123484 0.626312435
0.885515571 0.698924720 0.638835967
0.991777062 0.690701842 0.641619384
0.034914840 0.848323762 0.614800930
0.150411189 0.849842012 0.626692176
0.310562998 0.848956108 0.625932932
0.461859554 0.846299529 0.628083587
0.596584618 0.846299648 0.628463209
0.741682649 0.845414221 0.618722439
0.892093718 0.842631042 0.629601777
0.997469962 0.825553477 0.642630994
0.279949486 0.964326382 0.639468551
0.323845446 0.967868388 0.641366243
0.405313045 0.959645569 0.648197234
0.489437371 0.958380640 0.635800242
0.589120626 0.961163819 0.630740285
0.725363731 0.959266067 0.632764399
0.862998307 0.952687800 0.637824237
0.990512192 0.947501540 0.644908309
0.117014423 0.000000000 0.772422552
0.198734552 0.000000000 0.768247962
0.305629373 0.003162904 0.768627405
0.445540667 0.001138644 0.777482629
0.587476373 0.001644712 0.775585115
0.737760663 0.001897740 0.782036722
0.893990993 0.000000000 0.786464274
0.997469962 0.000000000 0.760531425
0.068564199 0.081594005 0.771031260
0.178241551 0.066287547 0.779506564
0.305756003 0.043263808 0.778367817
0.447817624 0.004174641 0.776217461
0.587855816 0.002783356 0.782416344
0.740670025 0.002024260 0.781024575
0.900822222 0.000000000 0.788108587
0.993674815 0.000379544 0.765844464
0.004553995 0.203921616 0.776976585
0.094244272 0.200506195 0.779506564
0.276027799 0.195066482 0.781151235
0.435041100 0.178873822 0.779126942
0.583554566 0.161417007 0.785705328
0.747501373 0.124984264 0.780898571
0.902593434 0.061985910 0.785578609
0.996204793 0.125742972 0.756483316
0.001138644 0.354838550 0.785325944
0.003415642 0.345097899 0.780771613
0.206704363 0.346363306 0.786464334
0.405819267 0.340797275 0.783048928
0.584313631 0.336749166 0.791777134
0.748640120 0.331309289 0.793674827
0.911954284 0.329032004 0.788235188
0.996331334 0.361796260 0.762555599
0.003289004 0.531056166 0.790512562
0.000759096 0.530044019 0.786084950
0.163187832 0.526502192 0.791144729
0.384440243 0.517773330 0.791524172
0.572043180 0.517773330 0.789626777
0.750031710 0.515876114 0.795951605
0.901834548 0.523213208 0.787349641
0.995445848 0.544718623 0.766350389
0.000379548 0.702087164 0.790132821
0.000000000 0.707147658 0.792536259
0.194181085 0.700821936 0.787096918
0.401897371 0.702087164 0.793801546
0.580897927 0.696774006 0.788362026
0.741303205 0.690955222 0.788235545
0.885895014 0.700442433 0.784187555
0.989120543 0.705503047 0.781910241
0.001644712 0.858696997 0.794307232
0.099683613 0.860088706 0.777735710
0.294876754 0.850853562 0.781151175
0.454775572 0.849082887 0.774699569
0.604680359 0.848703384 0.784313679
0.745730698 0.844781816 0.785452306
0.877672553 0.840101302 0.784819543
0.985072374 0.834535003 0.795572102
0.295761853 0.961796343 0.764452934
0.336369157 0.960151315 0.772422493
0.414927214 0.956989110 0.777482629
0.515875995 0.959519088 0.776470363
0.639089167 0.959645689 0.789753377
0.748766780 0.956609726 0.793042064
0.853510559 0.955850780 0.785199165
0.987855792 0.952308357 0.792409837
0.101961002 0.000000000 0.904996634
0.189373836 0.000000000 0.910689175
0.307147384 0.001265167 0.916761637
0.446299821 0.000000000 0.916761637
0.588108540 0.002403808 0.919165134
0.737128556 0.000000000 0.918279588
0.883491755 0.004933540 0.921695054
0.997343242 0.002656833 0.925995946
0.040480930 0.043516651 0.915876210
0.166603550 0.031372428 0.924351335
0.296774566 0.004933543 0.913852096
0.442125201 0.000379548 0.920556545
0.590006351 0.001265167 0.918153167
0.736115992 0.000000000 0.921568632
0.885009408 0.000000000 0.919797361
0.995446026 0.000379548 0.927134693
0.000000000 0.195825189 0.914357960
0.042631499 0.191904083 0.914358020
0.257811278 0.183428094 0.922707021
0.420872897 0.166097388 0.917014480
0.575838268 0.145604089 0.921315491
0.731562197 0.110815845 0.921694875
0.884250641 0.050474275 0.924351633
1.000000000 0.025806371 0.924477935
0.000000000 0.338013649 0.916888177
0.000000000 0.336875349 0.922706902
0.173434645 0.333206892 0.924983740
0.388994634 0.334092617 0.928272963
0.560784400 0.325489908 0.922960222
0.725996137 0.316129148 0.922833502
0.887160122 0.316508263 0.925489962
1.000000000 0.317773461 0.928778946
0.000000000 0.504617214 0.921821594
0.002403812 0.505882382 0.925363600
0.025806373 0.500316441 0.916381717
0.352055550 0.499430686 0.925363481
0.541429400 0.498292387 0.923339784
0.719418168 0.502719343 0.924983919
0.884756327 0.505123258 0.926628530
1.000000000 0.506388366 0.926755369
0.000000000 0.681214690 0.921694875
0.000759092 0.678684354 0.918785632
0.099304169 0.676533759 0.918026805
0.361796260 0.674130142 0.922074616
0.544971704 0.672485828 0.923086464
0.711954534 0.678051710 0.926628709
0.874889374 0.679190218 0.921442032
0.992915750 0.689310491 0.920556664
0.002909557 0.843010545 0.917773366
0.027704198 0.841998994 0.918911934
0.250600934 0.836432517 0.919038355
0.422517747 0.841745496 0.926628649
0.578874409 0.838456631 0.925490081
0.727514029 0.834661245 0.923466086
0.866034269 0.829222023 0.922960222
0.980518341 0.840354383 0.916508317
0.255660564 0.974319756 0.910183787
0.292220116 0.972928822 0.906009018
0.385072857 0.972928822 0.907020688
0.504743457 0.965211987 0.910689414
0.624288142 0.962302446 0.907526970
0.756736338 0.957241774 0.914231658
0.869829535 0.949778318 0.921695054
0.968753815 0.949398816 0.924730778
