Assets/EldamarStudio/100 Retro LUTs Pack/LUTs/cube/Angela LUT.cube
LUT_3D_SIZE 5
DOMAIN_MIN 0.000000 0.000000 0.000000
DOMAIN_MAX 0.903226 0.903226 0.903226
0.062744997 0.058823999 0.050980002
0.242251694 0.045414291 0.043770004
0.449209392 0.043769583 0.029348589
0.746489346 0.032384872 0.003922000
0.992409945 0.031373002 0.000000000
0.112460412 0.222643703 0.026439296
0.257305712 0.220999405 0.024162002
0.485895216 0.235420808 0.017584009
0.757621527 0.253383696 0.000000000
0.993674815 0.253383696 0.003668699
0.185704991 0.478684783 0.000000000
0.306008965 0.485895216 0.004933705
0.529664814 0.486527801 0.000000000
0.780771255 0.495382667 0.004933870
0.995572388 0.491081387 0.000000000
0.223655999 0.753320277 0.001012128
0.350410998 0.759139955 0.004554003
0.564326346 0.757495522 0.004553996
0.802277267 0.748387098 0.002909872
0.996457815 0.728399575 0.001265167
0.286400825 0.962555468 0.000000000
0.380139351 0.967362523 0.005312988
0.566856205 0.963061213 0.000000000
0.787476301 0.956862628 0.000000000
0.997469962 0.950663984 0.001265167
0.078431003 0.049335711 0.184060693
0.242251679 0.041492712 0.181783393
0.473118097 0.008096302 0.191271693
0.753952861 0.001012128 0.170018986
0.990385830 0.000000000 0.157621399
0.113092996 0.221631989 0.187982693
0.261227131 0.225932688 0.180771694
0.486907095 0.226565704 0.179506704
0.757874846 0.223908693 0.160784423
0.994560063 0.223276541 0.146236524
0.129032299 0.479949385 0.131056294
0.297533393 0.480961502 0.134345293
0.531309128 0.482605785 0.121568576
0.779127002 0.487159789 0.129791290
0.994307339 0.475015700 0.134471521
0.180392012 0.748387098 0.022138145
0.329664379 0.752561390 0.015306696
0.557368696 0.752941132 0.015939277
0.802276850 0.746742666 0.015939439
0.996204793 0.723466158 0.060467776
0.257684976 0.965717793 0.064389706
0.365338355 0.965971053 0.076027967
0.555091560 0.963693798 0.091334350
0.781277597 0.958506942 0.122200921
0.992283165 0.952055633 0.182921946
0.105249576 0.043769583 0.381909966
0.255028397 0.026438875 0.390765071
0.474130392 0.000000000 0.399620354
0.757874846 0.000000000 0.420493543
0.994307399 0.000632584 0.401517957
0.079949312 0.204680398 0.398608506
0.260214984 0.199114695 0.403162509
0.498924404 0.190258980 0.408095807
0.770651579 0.152688116 0.404174805
0.992915809 0.118785523 0.390385538
0.000000000 0.476027817 0.404174834
0.236306280 0.477040082 0.403162509
0.535610378 0.471473396 0.393674850
0.781404257 0.470840961 0.394687086
0.996204793 0.456419975 0.401644617
0.000000000 0.752308369 0.359139383
0.246046692 0.754838705 0.364326358
0.534850955 0.749652088 0.359139800
0.801265121 0.745097995 0.363947093
0.994813383 0.716634870 0.391777366
0.150663793 0.963820457 0.382795185
0.312966257 0.966729939 0.390891671
0.528272986 0.961796224 0.389247209
0.771536827 0.955850363 0.403036207
0.994307399 0.948007762 0.435926557
0.119544744 0.000000000 0.657305241
0.276280701 0.000000000 0.657305241
0.509424269 0.000000000 0.658949912
0.766097426 0.002909872 0.667046249
0.994939983 0.000000000 0.656546414
0.009108006 0.187349692 0.662744999
0.261733294 0.176849857 0.674636126
0.514611244 0.147375271 0.669956148
0.784440100 0.057937670 0.677545726
0.994939983 0.055154786 0.655534506
0.000000000 0.462998241 0.670967996
0.164579406 0.449968368 0.679696620
0.509045064 0.442378074 0.682732284
0.798482239 0.440100819 0.673244953
0.994180560 0.463757217 0.663124800
0.002909872 0.757242262 0.670967996
0.203162521 0.763061285 0.676534116
0.519544601 0.749652088 0.676407516
0.790512264 0.741556287 0.673877120
0.990006149 0.730423570 0.681847095
0.283997297 0.963820636 0.667046249
0.392662734 0.958886504 0.678304791
0.555977166 0.961796224 0.679570258
0.760531425 0.957495093 0.667172790
0.990765274 0.947754502 0.681594253
0.101961002 0.000000000 0.904996634
0.270714819 0.000000000 0.915496767
0.514611244 0.000632584 0.915496588
0.771537304 0.001012128 0.919038653
0.997343242 0.002656833 0.925995946
0.000000000 0.160151571 0.914863944
0.235040694 0.147754401 0.921441972
0.502466679 0.106894128 0.920050323
0.769007266 0.032384846 0.919165015
0.997469962 0.000000000 0.922960103
0.001265006 0.416571379 0.925869644
0.011131997 0.412017643 0.923339605
0.461606801 0.408095956 0.920682907
0.762049139 0.411132097 0.922327638
0.999367416 0.414041370 0.926628411
0.002023998 0.725743473 0.922201097
0.058570504 0.718532264 0.917773485
0.471853107 0.714990556 0.921568513
0.753194451 0.720556259 0.924604654
0.992915988 0.730803132 0.918279469
0.255660564 0.974319756 0.910183787
0.364579201 0.971663594 0.912080824
0.565844178 0.967741728 0.910942197
0.787602961 0.958506942 0.917773426
0.968753815 0.949398816 0.924730778
