Assets/EldamarStudio/100 Retro LUTs Pack/LUTs/cube/Anita LUT.cube
DOMAIN_MIN 0 0 0
DOMAIN_MAX 1 1 1
LUT_3D_SIZE 32
0.007843000 0.117647000 0.133332998
0.026059777 0.120683387 0.142441392
0.044275999 0.125870004 0.145098001
0.066287160 0.130676836 0.146363169
0.092852548 0.133712545 0.149399459
0.114104934 0.136748940 0.152435064
0.140417323 0.142315000 0.160531327
0.162808403 0.143453285 0.159772307
0.184820086 0.142694190 0.152182102
0.218216494 0.148766965 0.149146482
0.239974871 0.146110132 0.149020001
0.269323230 0.147122264 0.149020001
0.302719623 0.152435347 0.151297003
0.335610032 0.161290005 0.156863004
0.362934411 0.167361990 0.156863004
0.402276576 0.171030805 0.161669999
0.443263561 0.178620994 0.164706007
0.482732534 0.190132573 0.165338427
0.522201002 0.199240983 0.168374032
0.556103408 0.205566019 0.165844351
0.591397464 0.211638004 0.162808269
0.627830267 0.217709988 0.162808001
0.664515972 0.224161491 0.168880016
0.707020819 0.239341915 0.174952805
0.740417540 0.247690991 0.176470995
0.774952650 0.255154639 0.180645302
0.814421237 0.264263064 0.189246997
0.853890300 0.273371428 0.195318997
0.893358767 0.282479823 0.201391667
0.927514374 0.289816976 0.211005956
0.960531592 0.297659963 0.219607994
1.000000000 0.309803993 0.219607994
0.013915000 0.132827386 0.142441392
0.019987002 0.132827386 0.130297393
0.038203776 0.140164778 0.145857006
0.058950000 0.144592389 0.152435169
0.084882706 0.145477772 0.155092001
0.114104934 0.145857334 0.155471459
0.137887642 0.143833071 0.161037400
0.164706081 0.148387000 0.156483307
0.187856093 0.151043490 0.148387000
0.212144509 0.154838964 0.152182102
0.236811996 0.158001125 0.149146497
0.268311113 0.161289990 0.153068006
0.301581293 0.166476890 0.155092001
0.333080411 0.173181728 0.157115966
0.365970790 0.176470384 0.159898624
0.400505990 0.182542384 0.157495424
0.440227568 0.187728986 0.158634007
0.478431135 0.196204573 0.159266427
0.513092637 0.205312982 0.162302047
0.552561760 0.214421362 0.165338367
0.588361859 0.222644120 0.166603252
0.624794662 0.229854763 0.168880254
0.661353886 0.236053243 0.174826249
0.700948834 0.245413899 0.177988425
0.738899589 0.256040275 0.177229911
0.776344299 0.265654355 0.182036981
0.816951513 0.275901109 0.190765336
0.853890300 0.282479823 0.189246997
0.888045788 0.286274552 0.197975829
0.921441913 0.296394557 0.204427585
0.956229985 0.306767821 0.214927197
1.000000000 0.318912387 0.225679994
0.017836774 0.145857006 0.147248775
0.019607775 0.148007780 0.139405236
0.034281775 0.150158003 0.142315000
0.055028547 0.152941242 0.150411010
0.079696320 0.151549771 0.150790781
0.108285867 0.153320998 0.152562007
0.135736868 0.157242462 0.153320998
0.155091926 0.154206067 0.157748282
0.182669416 0.158759996 0.149398997
0.210879505 0.163187712 0.152687997
0.239341989 0.168374673 0.150031880
0.261606246 0.171410292 0.151043743
0.298545152 0.176217407 0.156989232
0.331942022 0.181277990 0.159519225
0.363440603 0.186211348 0.164452583
0.399240822 0.198102549 0.160531029
0.435673594 0.202656358 0.157495424
0.473877132 0.208095759 0.156863004
0.508791745 0.215685979 0.158380821
0.547754347 0.224794373 0.167868361
0.585325718 0.232005000 0.169007003
0.621758521 0.240860358 0.169765636
0.658570707 0.248071000 0.172548950
0.702087164 0.255154878 0.179633096
0.734977782 0.264263064 0.180265516
0.775585175 0.273371428 0.181404203
0.817837119 0.283744544 0.190512285
0.854269862 0.289816886 0.190765321
0.892346740 0.297533154 0.194054052
0.929285109 0.304111183 0.204933643
0.959012985 0.315875769 0.213535756
0.995698988 0.328020215 0.227450997
0.013282840 0.161796167 0.146489680
0.017078001 0.163567394 0.144212395
0.033776160 0.164073542 0.146362931
0.053257320 0.167109177 0.152941003
0.076786995 0.161796167 0.147627994
0.101454765 0.163946941 0.149778783
0.131309152 0.168248162 0.155344844
0.153320700 0.170651615 0.153194278
0.172296196 0.169892326 0.154712096
0.207717001 0.175964326 0.154206172
0.234535158 0.179506734 0.148766711
0.263883412 0.183554739 0.151043743
0.289689809 0.188867643 0.156356648
0.328652918 0.192409992 0.162049174
0.361037135 0.198481992 0.166097149
0.394939601 0.207969636 0.163819999
0.431372374 0.218343139 0.159266204
0.468437552 0.222643733 0.158760414
0.505502820 0.229348168 0.160657853
0.545983374 0.238203511 0.166729838
0.582289636 0.244149312 0.172548994
0.619734287 0.251233190 0.172548994
0.656672955 0.260468006 0.170018673
0.701075077 0.268817335 0.176850066
0.737760723 0.275901437 0.181657165
0.772548795 0.283744633 0.183174983
0.815559983 0.291840911 0.188741058
0.850474715 0.297153831 0.191777453
0.893358767 0.308412284 0.198608324
0.931562245 0.316255182 0.204427257
0.966603100 0.326249212 0.215686440
0.990891814 0.338393301 0.227450997
0.001517999 0.182669088 0.142694101
0.008349388 0.183048546 0.145350948
0.029981224 0.180518776 0.147628233
0.055534612 0.179633379 0.150664389
0.076407544 0.182669088 0.153320551
0.094623543 0.182669088 0.153320551
0.124351323 0.185199320 0.161163539
0.150663868 0.186211541 0.164199561
0.171157643 0.187349990 0.159645557
0.201518431 0.193421990 0.156609938
0.223909318 0.194434002 0.149272680
0.252878219 0.196457833 0.149525538
0.286274642 0.201391190 0.155977100
0.320177048 0.210499585 0.164326459
0.356736243 0.216698080 0.164326459
0.391144782 0.222770080 0.162302196
0.426059365 0.229221925 0.160404652
0.462745100 0.235547498 0.158380970
0.502213597 0.244655147 0.167488590
0.544085741 0.254142910 0.168626994
0.581657171 0.259456277 0.170524731
0.616698563 0.264136970 0.172548994
0.656419933 0.273244590 0.172675505
0.699177802 0.285136253 0.175711900
0.737507999 0.293105990 0.181024998
0.774573207 0.298798531 0.185705319
0.813662171 0.305123478 0.189120516
0.844022870 0.308159113 0.192156911
0.888045549 0.321062356 0.202403516
0.930676758 0.331309080 0.211005539
0.964326501 0.338393211 0.217963040
0.988614559 0.350538015 0.227071449
0.013661998 0.200885877 0.154838875
0.004554386 0.203921497 0.154838875
0.022137998 0.199999943 0.153194159
0.048197225 0.196963996 0.153700233
0.073371157 0.197849482 0.156356946
0.091587931 0.200885877 0.156356946
0.114863932 0.203415558 0.151296943
0.142314702 0.203162715 0.151549935
0.167362258 0.202150837 0.151296839
0.192410052 0.205565989 0.153573543
0.219860941 0.211638004 0.156356931
0.248197556 0.214674249 0.155344933
0.280202627 0.218848869 0.157495305
0.314105034 0.225679964 0.161290064
0.353573382 0.234788343 0.161290064
0.390132666 0.240986869 0.161290064
0.426059365 0.248577058 0.163819999
0.462492108 0.256546915 0.166476637
0.499177963 0.262871951 0.164452985
0.538646340 0.274762899 0.167994589
0.578621209 0.280708671 0.170524731
0.616065979 0.284756929 0.172548994
0.653383553 0.291461319 0.172675505
0.698924780 0.300568968 0.175711900
0.739405274 0.310183346 0.181024998
0.775585055 0.316002697 0.185705319
0.811006010 0.320556849 0.189246997
0.850094855 0.329411477 0.195192516
0.880455613 0.337760746 0.200885728
0.922707081 0.347881109 0.207969919
0.962302208 0.355597854 0.214927316
0.991650939 0.362682015 0.224035054
0.005566002 0.226692319 0.156863004
0.004048065 0.219607934 0.156863004
0.001391678 0.226945087 0.156863004
0.027704002 0.222770646 0.154206157
0.059203096 0.220620096 0.153573677
0.086021863 0.223655939 0.149272680
0.109297998 0.221632317 0.149272680
0.133586407 0.223023638 0.151423380
0.159266323 0.223150313 0.155598000
0.183554664 0.227957159 0.160404846
0.208222881 0.231372327 0.153320551
0.239595249 0.235420585 0.156356946
0.272738963 0.239595324 0.155724362
0.307780057 0.246173322 0.156483039
0.344971716 0.257558405 0.163314328
0.384440094 0.264263004 0.163314328
0.420999378 0.270335376 0.161796138
0.457432121 0.278431714 0.163567007
0.493864983 0.286400974 0.162428662
0.538140416 0.292979002 0.167488649
0.577609241 0.301328003 0.168626994
0.616065979 0.306008935 0.172042936
0.652750969 0.312081307 0.174952805
0.695888400 0.318785757 0.173181579
0.736875474 0.327893347 0.180771962
0.774952590 0.337001652 0.182922319
0.809993982 0.342821002 0.184186995
0.847438097 0.349904865 0.190258995
0.886527658 0.356482834 0.201391667
0.920430362 0.365591198 0.205692768
0.960151851 0.374699593 0.213662267
0.992156982 0.382416308 0.226059318
0.000000000 0.250727713 0.153574005
0.003288997 0.246553019 0.156863004
0.003288997 0.242125466 0.156863004
0.004554158 0.248703539 0.156863004
0.037191845 0.245287985 0.154206172
0.071347453 0.249588758 0.149398997
0.106514990 0.249209315 0.153320700
0.125869706 0.246173695 0.148386985
0.153953388 0.246173695 0.156736284
0.182669014 0.250474691 0.162808284
0.205313027 0.251992524 0.157621846
0.232384533 0.255028248 0.153320551
0.265781224 0.260341614 0.157495290
0.301961035 0.267172754 0.156230003
0.339785099 0.277925402 0.161163703
0.373687774 0.286906719 0.163061291
0.414674371 0.292978704 0.163061291
0.451992512 0.299683839 0.162048995
0.489437312 0.308791727 0.164073005
0.532574415 0.316761404 0.164705724
0.574319839 0.322833419 0.170271710
0.612776875 0.328905404 0.169259578
0.649335504 0.335104495 0.173561081
0.690322518 0.342694700 0.176597089
0.732194841 0.349399120 0.179380283
0.771663666 0.358507067 0.188488305
0.808349371 0.367109418 0.186464056
0.844781697 0.373181403 0.189120710
0.882226467 0.379253417 0.198861659
0.919923961 0.385451913 0.207337484
0.953700423 0.394560307 0.212144092
0.985579014 0.403668702 0.225806281
0.000000000 0.274257004 0.149778903
0.005313097 0.273498118 0.155850902
0.007084097 0.269197106 0.155345008
0.007590163 0.268437922 0.158381000
0.014041997 0.270714641 0.158001453
0.052371833 0.275648206 0.154965058
0.092852540 0.276660204 0.159772232
0.128146797 0.277292818 0.159772307
0.145604089 0.274257004 0.152941003
0.185072497 0.274257004 0.159013003
0.210119858 0.275016099 0.157874882
0.233902231 0.276280910 0.155597836
0.261985898 0.279316753 0.155218005
0.295635998 0.288425148 0.160784006
0.334598273 0.297533512 0.160784006
0.369133592 0.305123270 0.160025105
0.404807270 0.314231098 0.160784006
0.448576987 0.321568221 0.162048995
0.488425016 0.330803156 0.168120995
0.529158771 0.339152455 0.167362347
0.569006801 0.346363097 0.168500990
0.607463360 0.353194177 0.172295958
0.644149065 0.359266192 0.169386089
0.684250712 0.367742002 0.176596910
0.724478364 0.375332206 0.181910187
0.767109632 0.382036746 0.185452312
0.806072116 0.390639096 0.194054008
0.842504859 0.396711081 0.191777363
0.879696488 0.402024001 0.199367732
0.916128933 0.409614176 0.208222881
0.950663805 0.416571587 0.214421377
0.977989018 0.425679982 0.223528996
0.000000002 0.304617047 0.152814522
0.003036386 0.301581442 0.158886522
0.004048482 0.296521515 0.154206306
0.004048482 0.296774358 0.154333025
0.007969992 0.304111063 0.164073452
0.038329981 0.301075459 0.161037058
0.074130148 0.300949007 0.160530999
0.115749612 0.304237992 0.157621518
0.154712468 0.307653427 0.152941003
0.179000497 0.304617047 0.152941003
0.212649867 0.307526916 0.156103879
0.237444237 0.308412492 0.156863004
0.261226922 0.308539003 0.157874852
0.289563984 0.309677541 0.160784006
0.325995952 0.318785906 0.160784006
0.364958882 0.323086679 0.158380806
0.404048175 0.330929488 0.158507288
0.445540607 0.342820644 0.162048995
0.494117528 0.354965448 0.168120995
0.531182706 0.361416996 0.171410352
0.567868471 0.367615521 0.172295988
0.604427755 0.374699652 0.172548994
0.641113460 0.383554995 0.172422484
0.683618307 0.389626980 0.172422484
0.721441984 0.398102790 0.177356005
0.762301981 0.405692995 0.180518508
0.806072116 0.411891520 0.181909993
0.842504859 0.417963505 0.187981993
0.881593764 0.421378672 0.196331337
0.919164836 0.429854423 0.207210466
0.953826606 0.440860361 0.217330500
0.984061003 0.449968010 0.223528996
0.002909871 0.332067877 0.161669880
0.000126517 0.334851265 0.156103879
0.001012129 0.331815094 0.166476876
0.001012129 0.330297172 0.161416993
0.002150677 0.335357308 0.158886999
0.014801001 0.337381661 0.158380941
0.065401636 0.331815094 0.155344561
0.105755687 0.335989714 0.158253998
0.147248536 0.342567980 0.159519106
0.182289883 0.343833119 0.161669880
0.212396860 0.337887615 0.152941003
0.245793760 0.340923458 0.162049115
0.270588368 0.339531839 0.164452776
0.293865025 0.335989863 0.163187876
0.317014843 0.337128401 0.157874882
0.358254462 0.351043791 0.162681878
0.401265174 0.359139919 0.158127815
0.443516701 0.369260013 0.156862587
0.485262871 0.379126966 0.165211871
0.525490224 0.391271710 0.165717870
0.563946724 0.395698994 0.170524985
0.601391435 0.401771009 0.171536863
0.638077140 0.410626352 0.169639125
0.680581927 0.413914979 0.169639125
0.720809400 0.424541563 0.171916410
0.760657310 0.432890862 0.177355975
0.803162277 0.438962877 0.181910068
0.839595020 0.445034862 0.190385863
0.876027763 0.451106876 0.201770842
0.913472354 0.456166714 0.207590222
0.952561557 0.464262962 0.216318846
0.993042171 0.471346855 0.226438865
0.001897744 0.369512498 0.164706007
0.000885613 0.372548878 0.164705738
0.000000000 0.369259953 0.157369018
0.000000000 0.368753582 0.161923021
0.000000000 0.371410221 0.153953463
0.004174682 0.372801900 0.158886746
0.047185384 0.372295856 0.160404935
0.100189857 0.369512498 0.162302256
0.138899252 0.375205249 0.166097164
0.174572960 0.376976460 0.166603222
0.217457503 0.373308241 0.158001393
0.243769497 0.377356470 0.156989008
0.277166396 0.380392104 0.164579004
0.302466750 0.376723439 0.162175745
0.327261120 0.371410221 0.156103745
0.357242316 0.373307765 0.157622010
0.396711111 0.383934379 0.162175804
0.439468533 0.393169224 0.157621562
0.478937417 0.403668553 0.163946971
0.516382098 0.411511719 0.164706007
0.555850923 0.423655957 0.164706007
0.594307303 0.428083241 0.168501005
0.631119251 0.436179489 0.166856259
0.675521791 0.443010598 0.170651257
0.715749264 0.450853825 0.176976532
0.755217969 0.460215211 0.175838262
0.797596335 0.466287255 0.180392250
0.838582873 0.472359240 0.191018447
0.870967627 0.480455488 0.198734969
0.912713110 0.486527473 0.207336992
0.947248518 0.491713881 0.213282719
0.985958278 0.496647239 0.225426733
0.000000000 0.407463282 0.164706007
0.000000000 0.410499662 0.164326265
0.002276998 0.411638260 0.164452776
0.000000000 0.409361124 0.161164001
0.000379548 0.410878837 0.155471444
0.001138644 0.408601910 0.161543071
0.023403008 0.409740269 0.162175685
0.083870821 0.412017286 0.164579362
0.133965999 0.411258340 0.166856453
0.166223675 0.410878927 0.163061157
0.210626185 0.410246491 0.161037236
0.248703614 0.413029879 0.160025388
0.276407272 0.417584002 0.160784006
0.310056686 0.420366645 0.160784006
0.340037674 0.413914859 0.156483009
0.369765580 0.412017286 0.155344814
0.398608357 0.413915008 0.156103805
0.435041130 0.418090045 0.158507004
0.474003643 0.427704006 0.161037326
0.511827707 0.435420632 0.163567364
0.549019575 0.446426302 0.165844351
0.587476611 0.456546277 0.166856483
0.624161601 0.462618262 0.166983008
0.668690741 0.470714539 0.171030998
0.710815907 0.479822934 0.177103281
0.751422942 0.487539649 0.183808014
0.790386081 0.493611634 0.179759994
0.834029078 0.499683619 0.190638989
0.870841265 0.508412480 0.199746996
0.906641066 0.515749633 0.204680622
0.947754145 0.522707224 0.212523624
0.975332379 0.526248932 0.224667639
0.000000000 0.439089090 0.164706007
0.000505999 0.441113412 0.159392968
0.003795000 0.446553051 0.161164001
0.005313001 0.451865911 0.165970966
0.000126516 0.453130603 0.171663448
0.003162903 0.444022983 0.168627053
0.003668968 0.445287734 0.162808046
0.044402346 0.449715108 0.160784006
0.116255283 0.453257143 0.158760071
0.161796495 0.450221539 0.149652451
0.202023864 0.453004181 0.157495171
0.241998747 0.456040323 0.162302271
0.279190630 0.457052469 0.163061365
0.312587023 0.454522073 0.160531044
0.349019766 0.454522073 0.160531044
0.380897969 0.454522073 0.158886805
0.409234375 0.455787241 0.155850813
0.435547113 0.457305461 0.153194040
0.471979976 0.454269081 0.153194055
0.510183394 0.461859435 0.158001021
0.548007429 0.474256724 0.164326042
0.584946215 0.486654013 0.169133127
0.621505439 0.492852509 0.172422498
0.663883805 0.499051064 0.172802031
0.706135571 0.507147312 0.174826279
0.748387277 0.515117049 0.179253981
0.790639043 0.521189034 0.185325995
0.827071786 0.527261019 0.191397995
0.868311584 0.535736799 0.202276975
0.907526851 0.542821050 0.210120216
0.942947149 0.549778581 0.216318980
0.973308027 0.558887005 0.228462994
0.000000000 0.484630227 0.164706007
0.006072000 0.475521833 0.167741612
0.002276994 0.481847167 0.164579347
0.001265006 0.490322649 0.160910845
0.000000000 0.495508790 0.156862602
0.000126519 0.483491331 0.162555069
0.000632584 0.487033397 0.154459327
0.030233975 0.490828514 0.155850708
0.091460988 0.492220193 0.159266010
0.149652496 0.486654282 0.152688071
0.195192873 0.489436924 0.155218452
0.239468753 0.492473066 0.157495424
0.279190630 0.494370788 0.156989366
0.312587023 0.493991166 0.154459044
0.345983386 0.497026801 0.157495424
0.380012363 0.497026801 0.162302420
0.414294362 0.497026801 0.161922812
0.446932107 0.496394396 0.158886582
0.478051960 0.490701824 0.156230420
0.506135404 0.493232161 0.153447062
0.543579698 0.501328051 0.159898743
0.583427846 0.511701107 0.165338427
0.624541104 0.520176888 0.166350514
0.664010346 0.529285252 0.175458908
0.704111218 0.535483837 0.175838411
0.744212568 0.543580055 0.179253981
0.785326064 0.551549852 0.185325995
0.830107450 0.557621837 0.191397995
0.866540194 0.563693821 0.197469994
0.906008661 0.568627596 0.210120186
0.944844782 0.574067175 0.223655969
0.982416451 0.583175004 0.240606993
0.000000000 0.527767599 0.159899011
0.001265004 0.523466170 0.160531431
0.003036004 0.520809591 0.161416814
0.000000000 0.525363803 0.162429005
0.000000000 0.530297160 0.159392804
0.000000000 0.528273344 0.157368809
0.000000000 0.526502371 0.165211499
0.000000000 0.527640700 0.149525478
0.050094802 0.529158831 0.152561292
0.127261385 0.528020561 0.158001006
0.187855870 0.530676723 0.163061053
0.227324501 0.531688571 0.158001453
0.270588487 0.530929744 0.154586002
0.308792025 0.528652787 0.151043802
0.350790381 0.531688988 0.156230420
0.386590570 0.537128389 0.159266189
0.416950971 0.535610199 0.159266204
0.449462116 0.534724593 0.157242000
0.479822963 0.532194614 0.159519166
0.512207389 0.534471929 0.158886641
0.545224488 0.535610557 0.159645736
0.582162917 0.542188406 0.162682012
0.620240033 0.549778581 0.160152003
0.657431960 0.556609690 0.166983113
0.696900427 0.563440800 0.166982919
0.737760484 0.572295725 0.172422722
0.779253542 0.581910133 0.181530997
0.824794412 0.587982595 0.191397995
0.859961808 0.591650784 0.197469994
0.898165762 0.599493980 0.205313206
0.937634349 0.604680717 0.221884966
0.977103233 0.612270594 0.243137002
0.000000000 0.562682152 0.155344814
0.000000000 0.568754196 0.159898996
0.000000000 0.561796188 0.156863004
0.000000000 0.564326167 0.160657838
0.000000000 0.565211713 0.164705813
0.000000000 0.568248153 0.156356812
0.001518192 0.565718174 0.161416680
0.003035997 0.567109406 0.166223675
0.017457284 0.564832151 0.148766384
0.100189798 0.567109406 0.158633694
0.172675610 0.565591276 0.166602999
0.221252501 0.572675586 0.162555262
0.258823633 0.572675586 0.158001363
0.301454872 0.567615569 0.153067812
0.348260373 0.568121612 0.154079810
0.383554608 0.570525169 0.156230211
0.423023373 0.575079381 0.162302211
0.450980306 0.572675586 0.157495201
0.481341153 0.572675586 0.161796197
0.512966394 0.570904374 0.159266204
0.546742260 0.573561192 0.161163554
0.583175063 0.574573338 0.163187817
0.617204010 0.580139399 0.158507317
0.653636813 0.586211383 0.163188010
0.692346215 0.593801200 0.165464714
0.733206272 0.599873543 0.166603342
0.775711119 0.611764550 0.177988932
0.820240080 0.619861066 0.189120799
0.856672764 0.621758580 0.198988184
0.892093360 0.625300169 0.206831008
0.928905964 0.635294139 0.220367000
0.966477036 0.642631352 0.244655192
0.000632576 0.593169093 0.154205993
0.000632576 0.605186939 0.162681818
0.000632576 0.603542149 0.162302420
0.000000000 0.598355114 0.161290407
0.000000000 0.603668094 0.168880016
0.000000000 0.606451511 0.157494977
0.001897746 0.603162527 0.159265995
0.004301297 0.601391375 0.161796153
0.013409185 0.604933083 0.163188010
0.071094401 0.604933083 0.157116011
0.153573930 0.599114120 0.164958715
0.210752919 0.602656484 0.162555262
0.254649222 0.610246956 0.159898937
0.293864548 0.610499978 0.162934616
0.340923220 0.608222723 0.158001140
0.376343995 0.607590139 0.154838577
0.411511779 0.608475745 0.158127621
0.453384131 0.611511946 0.164706007
0.483744949 0.611511946 0.164705992
0.514737606 0.607842982 0.160404980
0.546995282 0.606198251 0.158760265
0.581403852 0.609234691 0.161416590
0.617710054 0.612271070 0.161416590
0.653636813 0.617837131 0.163946912
0.692346215 0.624288440 0.166982710
0.733206272 0.633269906 0.173307747
0.774699092 0.639342546 0.179886475
0.816950858 0.651233554 0.188994110
0.854142606 0.654016554 0.199494079
0.891207755 0.655787468 0.209867328
0.926502168 0.660214722 0.221505195
0.956862986 0.672359526 0.245794013
0.003668965 0.635674000 0.160278007
0.003668967 0.635674000 0.166350007
0.003668966 0.636939049 0.168374047
0.002403805 0.637191772 0.169133201
0.000000000 0.640100956 0.171916410
0.000000000 0.640100956 0.168880031
0.000000000 0.640354037 0.167614996
0.000253032 0.639847994 0.164832011
0.005819101 0.641618967 0.160278156
0.028589558 0.647437990 0.157116041
0.127008379 0.641618967 0.162682027
0.195066497 0.639594972 0.160910994
0.247564912 0.640607059 0.161417022
0.296900928 0.640860081 0.172043011
0.333332926 0.643896520 0.175079376
0.370777637 0.644023001 0.167742163
0.406704396 0.644023001 0.165464789
0.444275737 0.644908428 0.167741627
0.483744949 0.647944033 0.164706022
0.516888380 0.650727391 0.164706022
0.550031662 0.649209201 0.162302285
0.584440231 0.648703158 0.161796153
0.620746434 0.651739538 0.164452985
0.654142916 0.654775918 0.164452985
0.692346215 0.655788004 0.166982725
0.733206272 0.662112951 0.175584659
0.774699092 0.672739029 0.188994110
0.811131835 0.678811014 0.198102489
0.848070562 0.685389042 0.204553962
0.886274099 0.689184189 0.212903246
0.923718810 0.693105936 0.223782569
0.956862986 0.699684024 0.239722028
0.001138643 0.675395370 0.163567364
0.003921999 0.675395370 0.172422707
0.001771226 0.673245132 0.176343933
0.001138643 0.675142705 0.174446359
0.000000000 0.679317117 0.172928542
0.000000000 0.679317117 0.174699768
0.000000000 0.671726823 0.169133067
0.000000000 0.672612488 0.170271710
0.000759110 0.674510002 0.171410456
0.009867540 0.678557694 0.176470846
0.117900327 0.675775111 0.171031371
0.179633498 0.675774813 0.175079107
0.232384622 0.676533699 0.174699664
0.286780357 0.676786721 0.180645317
0.330803305 0.679823160 0.178621054
0.372042924 0.680455744 0.181657448
0.406198740 0.680455744 0.177103177
0.440101326 0.681088150 0.176343933
0.477419227 0.684123755 0.173308328
0.516888380 0.684376776 0.173055366
0.552182436 0.687413156 0.174952626
0.587476373 0.689184070 0.175711498
0.623782158 0.693738222 0.178621367
0.657179296 0.691460907 0.178621367
0.690575659 0.694497287 0.178621367
0.730423629 0.697786391 0.182542697
0.771410406 0.705123425 0.192030355
0.805565834 0.706641376 0.198861450
0.849968374 0.718026340 0.207969829
0.886780262 0.724351406 0.217710316
0.923465788 0.728399634 0.234029174
0.956862986 0.732574403 0.258697391
0.003794996 0.711068690 0.174193740
0.001138647 0.712966442 0.175711647
0.001771226 0.712713420 0.186211213
0.000000000 0.708412707 0.181657150
0.000758999 0.712334216 0.176344186
0.003794996 0.716888011 0.185452193
0.000000000 0.713093162 0.184693083
0.000000000 0.708918452 0.178620726
0.000759104 0.712460697 0.180138990
0.003795538 0.716634989 0.185831740
0.085009873 0.713851810 0.187982246
0.173561022 0.711069167 0.184187472
0.224035442 0.712966442 0.184946090
0.281973064 0.712966442 0.185958296
0.325869471 0.714358151 0.182922319
0.367109567 0.716888011 0.186590806
0.408096164 0.718406200 0.188108996
0.440227777 0.718153119 0.186717153
0.475395054 0.718658745 0.186211213
0.514611065 0.718911707 0.187855989
0.550284684 0.720809460 0.191650987
0.585705340 0.722833693 0.191650733
0.620998979 0.726881742 0.191777483
0.652624965 0.725616515 0.190006256
0.687919259 0.725237012 0.191903993
