Assets/EldamarStudio/100 Retro LUTs Pack/LUTs/cube/Anita LUT.cube
LUT_3D_SIZE 8
DOMAIN_MIN 0.000000 0.000000 0.000000
DOMAIN_MAX 0.903226 0.903226 0.903226
0.007843000 0.117647000 0.133332998
0.092852548 0.133712545 0.149399459
0.184820086 0.142694190 0.152182102
0.302719623 0.152435347 0.151297003
0.443263561 0.178620994 0.164706007
0.591397464 0.211638004 0.162808269
0.740417540 0.247690991 0.176470995
0.893358767 0.282479823 0.201391667
0.001517999 0.182669088 0.142694101
0.076407544 0.182669088 0.153320551
0.171157643 0.187349990 0.159645557
0.286274642 0.201391190 0.155977100
0.426059365 0.229221925 0.160404652
0.581657171 0.259456277 0.170524731
0.737507999 0.293105990 0.181024998
0.888045549 0.321062356 0.202403516
0.000000000 0.274257004 0.149778903
0.014041997 0.270714641 0.158001453
0.145604089 0.274257004 0.152941003
0.261985898 0.279316753 0.155218005
0.404807270 0.314231098 0.160784006
0.569006801 0.346363097 0.168500990
0.724478364 0.375332206 0.181910187
0.879696488 0.402024001 0.199367732
0.000000000 0.407463282 0.164706007
0.000379548 0.410878837 0.155471444
0.133965999 0.411258340 0.166856453
0.276407272 0.417584002 0.160784006
0.398608357 0.413915008 0.156103805
0.549019575 0.446426302 0.165844351
0.710815907 0.479822934 0.177103281
0.870841265 0.508412480 0.199746996
0.000000000 0.562682152 0.155344814
0.000000000 0.565211713 0.164705813
0.017457284 0.564832151 0.148766384
0.258823633 0.572675586 0.158001363
0.423023373 0.575079381 0.162302211
0.546742260 0.573561192 0.161163554
0.692346215 0.593801200 0.165464714
0.856672764 0.621758580 0.198988184
0.003794996 0.711068690 0.174193740
0.000758999 0.712334216 0.176344186
0.000759104 0.712460697 0.180138990
0.224035442 0.712966442 0.184946090
0.408096164 0.718406200 0.188108996
0.550284684 0.720809460 0.191650987
0.687919259 0.725237012 0.191903993
0.841998696 0.747248411 0.211764812
0.001644712 0.850221515 0.256799579
0.002024260 0.850094557 0.240986362
0.001518009 0.850221515 0.249462470
0.218975201 0.853636920 0.255787283
0.400632441 0.847817719 0.266793191
0.544339001 0.850601017 0.269450009
0.679949284 0.847944260 0.269196570
0.817331016 0.862365425 0.288551271
0.000000000 0.961290598 0.365211576
0.040733565 0.963061273 0.369133592
0.173561156 0.961543560 0.370777905
0.327007860 0.963946819 0.373434424
0.444275618 0.966350615 0.377103120
0.573814034 0.966350615 0.385958254
0.700063527 0.965085447 0.399873406
0.822770417 0.959771752 0.409613758
0.019608000 0.129411995 0.172928542
0.084630005 0.133712545 0.169765547
0.161417097 0.155218095 0.179127440
0.265907735 0.177229896 0.185831904
0.404048264 0.199873388 0.193927750
0.564579248 0.230487183 0.201517999
0.722960234 0.262492299 0.215180263
0.879949152 0.296267986 0.233016819
0.005060451 0.178368449 0.181151003
0.069323540 0.181909993 0.173687547
0.146868736 0.184187084 0.185452446
0.258444071 0.208096460 0.189753100
0.395066649 0.238709733 0.191650733
0.557242215 0.270714730 0.206957802
0.717773557 0.301328540 0.208475798
0.871474028 0.331815213 0.228842378
0.003542452 0.258949727 0.186970547
0.041618999 0.265275568 0.179507002
0.150790647 0.265275538 0.188614547
0.246299744 0.274257004 0.185831904
0.385958284 0.307906091 0.197596103
0.553320825 0.344718397 0.200252742
0.712713480 0.375964552 0.211891338
0.872991860 0.409361005 0.231878370
0.000759096 0.395572245 0.185705096
0.001138644 0.398735166 0.192915916
0.137128100 0.399873644 0.189753190
0.268943638 0.403415263 0.193674996
0.383681208 0.414041728 0.192536458
0.539152086 0.443390369 0.198861450
0.702213824 0.482605964 0.211258650
0.866033971 0.509677649 0.236306250
0.000000000 0.559012949 0.194434002
0.000000000 0.555850804 0.194813356
0.025806639 0.557368755 0.190512195
0.263124377 0.564452827 0.194307193
0.416065991 0.564452708 0.195572346
0.543200493 0.567109406 0.194813356
0.694370627 0.592156470 0.208855361
0.851486266 0.626818120 0.237191528
0.000000000 0.707020700 0.198735088
0.000758999 0.707020700 0.218089744
0.004427563 0.708918333 0.213409439
0.236685619 0.710309684 0.220746383
0.398608357 0.714484274 0.211005732
0.549525738 0.712966442 0.224667981
0.686147988 0.723086655 0.227450818
0.836558998 0.748134017 0.245034665
0.002024260 0.848197281 0.282099992
0.005945744 0.842378557 0.275775015
0.013662383 0.848323762 0.283997357
0.244275540 0.845414579 0.282732725
0.412144035 0.847058833 0.288424820
0.548260510 0.849842012 0.290702105
0.683871269 0.853763521 0.303352237
0.818216383 0.856672943 0.318153024
0.032131433 0.962049067 0.390385896
0.092220262 0.961416483 0.392662764
0.210246593 0.961163759 0.397216797
0.336495697 0.965971053 0.393674850
0.463757277 0.962934673 0.400632292
0.580012381 0.963314235 0.409613937
0.701075196 0.961416483 0.415306896
0.825932741 0.958127499 0.424415052
0.017204000 0.141935095 0.204554006
0.088172451 0.148640454 0.210120097
0.154333100 0.159139901 0.217203990
0.260088176 0.175964639 0.220619738
0.385325402 0.203795090 0.238330200
0.537254572 0.240986735 0.254775077
0.702593207 0.281341285 0.275774807
0.863124609 0.318026662 0.298039228
0.031372905 0.185452446 0.205439910
0.074003637 0.184566543 0.201770738
0.150790647 0.198734641 0.220746443
0.245161191 0.215939447 0.224921077
0.380645275 0.244149536 0.243137181
0.532574475 0.278178304 0.255913615
0.702087283 0.311068982 0.272612184
0.865275025 0.350284666 0.299431086
0.000000001 0.264137089 0.224161983
0.059582897 0.260974199 0.223023549
0.149652004 0.262492210 0.216192082
0.241240084 0.270335108 0.225680083
0.368754178 0.308665156 0.242125288
0.532194793 0.346236557 0.253383726
0.693105578 0.385452271 0.273497909
0.859329581 0.416066080 0.300442815
0.000000000 0.390132993 0.238203987
0.002783356 0.386590689 0.236306444
0.141808987 0.393674731 0.240986630
0.267805278 0.395951927 0.240986630
0.373561174 0.403035820 0.240607172
0.520429969 0.441872299 0.255408078
0.685389102 0.478684276 0.269955724
0.851359606 0.509550810 0.299557358
0.000000000 0.546869099 0.239595190
0.000759096 0.545224488 0.259835660
0.060215101 0.550790489 0.249082878
0.259582639 0.555091739 0.249968186
0.398608357 0.558633506 0.251486093
0.525490403 0.562934816 0.255408108
0.681467235 0.589879513 0.273624212
0.844781816 0.624035358 0.305376261
0.004301258 0.700316370 0.284503728
0.001897644 0.701201439 0.280329168
0.024288276 0.701960504 0.279949427
0.253004730 0.705123484 0.285895109
0.406831026 0.705882370 0.289816469
0.545603812 0.709044933 0.293611556
0.682858646 0.719924152 0.297533184
0.835041046 0.745098054 0.318658978
0.003921806 0.839089572 0.336495578
0.001644714 0.839468777 0.335483789
0.062998012 0.843137443 0.338266790
0.279190361 0.844528735 0.348007739
0.422517568 0.843010724 0.353953153
0.555977225 0.844655275 0.357748181
0.686274469 0.848703325 0.357874364
0.818595827 0.856040478 0.373054802
0.121821113 0.960530877 0.439974755
0.178241551 0.955471039 0.441492438
0.270081908 0.958000898 0.436305970
0.376470566 0.961163819 0.435673624
0.486274332 0.960404694 0.442504764
0.594560266 0.959645569 0.446046710
0.710183263 0.960025132 0.455028474
0.828083456 0.958633661 0.469322890
0.028589644 0.152435347 0.278557628
0.097027086 0.158001363 0.283238560
0.172801748 0.171283737 0.267299175
0.256166995 0.181024998 0.268437654
0.391903728 0.210878998 0.296900988
0.534598231 0.236938730 0.315749496
0.684503257 0.283111900 0.338520020
0.849209607 0.338519782 0.375205278
0.037191547 0.203415647 0.267678618
0.090575553 0.201770738 0.268817186
0.160151646 0.212017536 0.258949637
0.243517086 0.223023444 0.271094143
0.378241360 0.244022846 0.292472929
0.523972332 0.276154548 0.316508293
0.683997154 0.322327644 0.346236378
0.851612985 0.370524883 0.382416278
0.008728907 0.262492210 0.260088265
0.071726643 0.261606276 0.259708822
0.163314462 0.275395453 0.277419180
0.259203196 0.292599678 0.280834645
0.369639367 0.319291621 0.302846551
0.513345718 0.351422936 0.317267269
0.675901413 0.392915815 0.349778622
0.840354264 0.434155643 0.381277531
0.000000000 0.385072649 0.302592993
0.000000000 0.387349635 0.287539274
0.152055904 0.392915606 0.300949007
0.264642268 0.397976279 0.300442636
0.365591377 0.410499364 0.303605437
0.509804070 0.442251742 0.318405747
0.672738552 0.486527562 0.349272281
0.839468539 0.520177066 0.384313822
0.000000000 0.540164530 0.321694821
0.000758999 0.538899422 0.320809722
0.118026376 0.542567730 0.325489849
0.270968080 0.546489716 0.326755285
0.402530372 0.549525738 0.330929816
0.519291282 0.556609809 0.334345639
0.672359288 0.589120448 0.356736124
0.836812079 0.626691937 0.392662793
0.002024260 0.689816713 0.364199996
0.002024260 0.690955162 0.364199877
0.126122460 0.693738043 0.366603374
0.287539661 0.696015120 0.368500620
0.423656046 0.698418856 0.370145410
0.552688003 0.700063109 0.379506737
0.679443061 0.712081075 0.377103001
0.829474628 0.741176367 0.398228705
0.017583987 0.837317944 0.421505272
0.054016627 0.834028959 0.424414992
0.195572346 0.834914804 0.419354916
0.329917848 0.834535003 0.422137976
0.453889936 0.835167587 0.423529357
0.576090991 0.839215696 0.430360645
0.692852616 0.843010545 0.434535295
0.821631849 0.853004634 0.440607220
0.247944206 0.953446984 0.494117647
0.282605916 0.953826547 0.495129675
0.339658678 0.958001137 0.501075327
0.415686041 0.960025191 0.496268451
0.510815799 0.953320801 0.501707613
0.618216455 0.957748055 0.507779777
0.724731147 0.958506942 0.513978422
0.841113627 0.957368612 0.524098575
0.060341805 0.174699381 0.376849979
0.115116991 0.186590806 0.365464836
0.199620485 0.189626902 0.360151470
0.282605976 0.201138645 0.351043403
0.382669151 0.217836991 0.357242376
0.538393199 0.247944623 0.393295377
0.690828264 0.292220086 0.419861078
0.843516827 0.362555146 0.459329545
0.048070833 0.226439193 0.357115567
0.111321904 0.232004985 0.348260641
0.184313640 0.234661639 0.352940947
0.273624539 0.240227640 0.348639995
0.378747731 0.251992553 0.360025644
0.534851491 0.285515636 0.390132993
0.682226539 0.333712906 0.419481605
0.835293949 0.394686967 0.463883758
0.020366902 0.296900988 0.344592184
0.097406536 0.304111272 0.342441618
0.187223092 0.306388050 0.350284368
0.279190630 0.315749407 0.356862724
0.382163286 0.330676973 0.364326268
0.519165218 0.362681985 0.390891999
0.668817282 0.409740567 0.427830160
0.828336298 0.462492019 0.470714629
0.005945647 0.384313822 0.351802200
0.030234359 0.388108730 0.352940947
0.165970892 0.395951807 0.357621849
0.285388917 0.416698277 0.376850188
0.390638471 0.432384461 0.378241539
0.518406332 0.454775631 0.403035730
0.670335233 0.493105829 0.433776259
0.828589559 0.531435609 0.476913363
0.002403808 0.539784968 0.394686967
0.002783356 0.540037990 0.399747193
0.153194278 0.541303158 0.392283380
0.297406465 0.548387170 0.408475727
0.410373360 0.551549375 0.407337368
0.521568596 0.558507383 0.408475637
0.672738850 0.588235438 0.437824190
0.830233634 0.624288142 0.475775003
0.002277191 0.689436972 0.432257742
0.041366186 0.692599595 0.437571377
0.214041471 0.684250593 0.440101206
0.329538375 0.687919140 0.445667267
0.439595133 0.690955162 0.445667177
0.557621658 0.697659969 0.448829979
0.680835009 0.709044993 0.457432181
0.830866575 0.733333349 0.485136032
0.158760250 0.827451110 0.495635659
0.213029638 0.826185942 0.493738115
0.290702194 0.828969061 0.497406662
0.376344264 0.830866754 0.498924673
0.484630197 0.832890272 0.504490972
0.591271460 0.836558819 0.506388605
0.701707602 0.840860367 0.509804070
0.835800231 0.851992071 0.517647028
0.332574189 0.949398816 0.563693643
0.353573769 0.950917006 0.564452529
0.400252879 0.951675773 0.566982746
0.467425972 0.950537443 0.562554955
0.547881007 0.952182174 0.569512963
0.641366541 0.953067422 0.572928309
0.744338810 0.956862390 0.581024706
0.855154753 0.955470979 0.594054222
0.089942992 0.209614247 0.481846988
0.158507541 0.206072181 0.483744711
0.243137449 0.216318905 0.478684396
0.335104376 0.227577731 0.469829470
0.431246370 0.240986735 0.466413915
0.544085920 0.258570492 0.474003971
0.699051261 0.305502683 0.497912526
0.846426427 0.375964552 0.534218669
0.079316735 0.260341823 0.471094012
0.142820925 0.258949846 0.467172712
0.225806743 0.261226922 0.468817025
0.327134371 0.266413897 0.460088730
0.425933152 0.276407272 0.456925809
0.537887275 0.295762539 0.465654910
0.690322518 0.342567801 0.497406334
0.841872275 0.408096075 0.537507951
0.042631350 0.341556013 0.453889698
0.123339534 0.345604002 0.463630348
0.214673832 0.341176450 0.455787480
0.319544375 0.346236557 0.459455699
0.415686369 0.350537747 0.459329724
0.528779209 0.372548938 0.466034472
0.680581570 0.419860810 0.502214015
0.834408462 0.475774705 0.546868682
0.001138644 0.428842634 0.452751487
0.069196634 0.432384461 0.460341543
0.197976276 0.432764024 0.457811505
0.312334180 0.442251742 0.456546456
0.432637841 0.465780914 0.474636197
0.538646400 0.479822755 0.482479364
0.672359288 0.513472617 0.512966275
0.822011352 0.560404718 0.559645891
0.003922000 0.545983553 0.471347630
0.005692640 0.543200791 0.469829351
0.182669014 0.545224547 0.470082164
0.316382289 0.552308381 0.477166355
0.444528729 0.571031392 0.492472917
0.554206192 0.582416117 0.508791924
0.678684115 0.601644516 0.526249468
0.828209758 0.639215648 0.565970719
0.007589993 0.689436972 0.509297967
0.096900277 0.689436972 0.509930432
0.239974558 0.691460729 0.513472736
0.360151470 0.691334724 0.514231622
0.474383384 0.693358481 0.527640700
0.575585485 0.699177623 0.538393199
0.691587269 0.701708019 0.543200731
0.840354443 0.729032278 0.573687613
0.196078092 0.830993056 0.560404897
0.241492718 0.830613554 0.555344522
0.330297291 0.828969300 0.566477180
0.431246281 0.828589737 0.578494549
0.529917479 0.827071548 0.584313452
0.619354486 0.833269775 0.590765238
0.721062541 0.838330507 0.596584380
0.843137145 0.848323822 0.599620640
0.358886391 0.953067660 0.623149753
0.386084497 0.948892772 0.613535821
0.441239506 0.949778557 0.626565456
0.523086786 0.948893070 0.640227795
0.593548477 0.949778438 0.642378330
0.676786721 0.948007762 0.646426558
0.766856194 0.952308357 0.653383732
0.866540372 0.956482828 0.655787349
0.164579555 0.239848003 0.617836833
0.208222568 0.246426240 0.617204309
0.292599469 0.253890276 0.617710590
0.402023911 0.264010280 0.615559578
0.505755723 0.275648475 0.605439305
0.616065741 0.291081518 0.602277219
0.729917526 0.317900300 0.603794992
0.861226797 0.388235241 0.623529553
0.156356275 0.299557239 0.619354725
0.202023819 0.299683839 0.605692744
0.291460931 0.303225815 0.610120475
0.396584421 0.308285743 0.608096182
0.504111230 0.319165021 0.607843161
0.609487891 0.332068086 0.599367082
0.721189260 0.358633369 0.598987818
0.850347638 0.420619994 0.615939379
0.142821178 0.381277680 0.600758970
0.192156851 0.391524076 0.598608136
0.282226384 0.390765369 0.603036106
0.387096733 0.396710813 0.595951557
0.489943266 0.401771307 0.591144741
0.603541911 0.410752624 0.590385556
0.710183501 0.433143497 0.595066369
0.835799932 0.488804460 0.622011364
0.102972619 0.480455339 0.590891898
0.172422722 0.481973529 0.597723067
0.274383366 0.486401200 0.596078515
0.384187251 0.495509207 0.589247227
0.490449190 0.501707911 0.591144800
0.593927979 0.507273912 0.591397882
0.703605235 0.526881933 0.602150261
0.836812198 0.571030974 0.634281814
0.004553996 0.591397583 0.584187388
0.101075366 0.592536092 0.594686985
0.240986466 0.588867664 0.588741422
0.357242197 0.584693074 0.589753270
0.486148179 0.592915773 0.593042254
0.604933679 0.615433037 0.607716739
0.711195588 0.629095376 0.616445541
0.838330328 0.660847723 0.647438049
0.001644712 0.709550500 0.610499978
0.068943553 0.710563183 0.602403581
0.230486929 0.706514537 0.601897657
0.356989354 0.706261933 0.605565965
0.485515356 0.703858256 0.610246599
0.616445184 0.713346004 0.629728019
0.719924212 0.724731207 0.642378569
0.845414340 0.747374892 0.669196665
0.221758261 0.840733886 0.627956569
0.261606574 0.833902836 0.637571037
0.341682553 0.835167587 0.635167539
0.444655299 0.831245959 0.637950957
0.552814662 0.830613554 0.653257549
0.660215437 0.830234051 0.670967698
0.751802802 0.830613554 0.675015569
0.857684851 0.838456571 0.687792301
0.388614625 0.948513508 0.678684354
0.409361243 0.954965234 0.682985485
0.459076673 0.946868777 0.687665880
0.542694509 0.948893189 0.699430704
0.640101075 0.948639929 0.714990616
0.724351645 0.944844782 0.728905797
0.799114048 0.947375000 0.730423927
0.891334593 0.948766768 0.745097816
0.265780926 0.303604960 0.765211582
0.301960617 0.306894064 0.762934923
0.376849890 0.317393899 0.761416614
0.474762797 0.322960019 0.766603589
0.587982297 0.341935635 0.759645581
0.696647763 0.357621551 0.754079700
0.815560043 0.380898088 0.750916600
0.930170536 0.409487635 0.739025772
0.277799070 0.357494891 0.766729832
0.298671812 0.364705622 0.760784209
0.379886180 0.362175822 0.755850375
0.475521922 0.373434633 0.757242203
0.581530571 0.385831535 0.755724192
0.698418498 0.400505990 0.751043379
0.809361339 0.412902892 0.748260438
0.916508317 0.445034802 0.738899648
0.294623584 0.456925899 0.753700018
0.328905582 0.453004420 0.748134017
0.392156839 0.457558811 0.752814531
0.479316682 0.463630468 0.748766482
0.582416177 0.471852988 0.746868908
0.691714168 0.478684366 0.747374773
0.801517844 0.488678157 0.742062032
0.907020748 0.508032799 0.739531875
0.276154369 0.550031483 0.747880578
0.318912119 0.549525678 0.747754812
0.402276844 0.556862712 0.743959308
0.491714239 0.566097438 0.738899231
0.586211383 0.571283877 0.739152551
0.683870792 0.571283877 0.737128317
0.784819663 0.577735901 0.735483885
0.896267951 0.590132773 0.741682589
0.212776378 0.647817850 0.740417421
0.259835482 0.644781828 0.745603859
0.346109867 0.643010736 0.746995568
0.462238848 0.645161152 0.741176248
0.586211145 0.659076810 0.737760603
0.683491409 0.665275276 0.736116409
0.778494418 0.664642811 0.734345376
0.884503245 0.678810954 0.743832827
0.132194757 0.760910690 0.736622393
0.195825189 0.756609559 0.745097935
0.309677243 0.752814472 0.742820740
0.424415141 0.744085550 0.741176367
0.544844747 0.741555750 0.742820740
0.676280558 0.748133838 0.742947459
0.780771613 0.757115722 0.748007655
0.876407564 0.772801697 0.753700018
0.118153304 0.875522077 0.742314756
0.186211333 0.873497784 0.738899171
0.299177557 0.866919935 0.742441297
0.423656195 0.861100256 0.748513639
0.543453455 0.854016304 0.746362567
0.663630545 0.845034659 0.752182066
0.780139267 0.844781935 0.767615497
0.891334593 0.863124430 0.777608633
0.387349606 0.965085447 0.761163771
0.418975562 0.964200079 0.756356716
0.468943626 0.962428629 0.757368624
0.546742439 0.958633780 0.763820648
0.642757773 0.952940941 0.766603231
0.741049707 0.947501540 0.786084771
0.834155500 0.946742594 0.801138580
0.918152928 0.944085777 0.814800620
