Assets/EldamarStudio/100 Retro LUTs Pack/LUTs/cube/Anita LUT.cube
LUT_3D_SIZE 5
DOMAIN_MIN 0.000000 0.000000 0.000000
DOMAIN_MAX 0.903226 0.903226 0.903226
0.007843000 0.117647000 0.133332998
0.162808403 0.143453285 0.159772307
0.362934411 0.167361990 0.156863004
0.627830267 0.217709988 0.162808001
0.893358767 0.282479823 0.201391667
0.000000000 0.250727713 0.153574005
0.125869706 0.246173695 0.148386985
0.339785099 0.277925402 0.161163703
0.612776875 0.328905404 0.169259578
0.882226467 0.379253417 0.198861659
0.000000000 0.484630227 0.164706007
0.030233975 0.490828514 0.155850708
0.345983386 0.497026801 0.157495424
0.583427846 0.511701107 0.165338427
0.866540194 0.563693821 0.197469994
0.005819002 0.746489346 0.187349871
0.000000000 0.748387098 0.200885251
0.322453797 0.750411093 0.193042412
0.582669258 0.756230116 0.212903127
0.839721620 0.780139267 0.224162117
0.000000000 0.961290598 0.365211576
0.128779233 0.963567317 0.361922741
0.382289588 0.965085447 0.373054594
0.606451631 0.966350615 0.389753461
0.822770417 0.959771752 0.409613758
0.024794588 0.138899282 0.206831306
0.130803421 0.152309000 0.206577986
0.318532795 0.189626992 0.215433285
0.584060848 0.249082997 0.246173546
0.870461762 0.313219577 0.280581802
0.002277292 0.240607396 0.208222702
0.126881406 0.238962695 0.207843006
0.302846372 0.270714790 0.220999405
0.575205564 0.335104704 0.244781867
0.863883615 0.391018391 0.276913524
0.000000000 0.471220523 0.224541694
0.041872412 0.475142479 0.227198109
0.332574099 0.484883070 0.233396411
0.562175572 0.501201689 0.238582984
0.851865828 0.568627477 0.280961543
0.003288997 0.740796864 0.278937280
0.001264999 0.737634242 0.269829124
0.333206683 0.740544140 0.277292997
0.579759359 0.747754514 0.290069699
0.832257748 0.774193227 0.306515127
0.106640980 0.958253920 0.431119621
0.224288046 0.958759964 0.418848574
0.423149884 0.962428808 0.427830189
0.621125817 0.961416483 0.437697649
0.830613434 0.956862688 0.454395920
0.034661576 0.164073423 0.327640384
0.164452702 0.182416409 0.316129118
0.308032393 0.198734999 0.305376381
0.576597154 0.253383696 0.354459375
0.838456571 0.356483221 0.417963386
0.022138013 0.268437684 0.304364264
0.152687699 0.266793400 0.303731680
0.308032811 0.289689958 0.317141384
0.556230128 0.342694551 0.357368708
0.835167348 0.425047547 0.423782229
0.003289416 0.461732805 0.340037793
0.088931419 0.462365389 0.339658260
0.337507784 0.474130362 0.358380824
0.543200493 0.503225565 0.370524943
0.834534764 0.574193656 0.428463221
0.000000000 0.725489914 0.420872957
0.161923036 0.721947849 0.419860661
0.380391896 0.729411721 0.416571677
0.588614941 0.737001836 0.425047249
0.824035227 0.768374264 0.442757547
0.281087995 0.955344319 0.531309426
0.348766714 0.958886623 0.525237143
0.480202615 0.953953207 0.535736978
0.655028522 0.953573465 0.540923357
0.842378438 0.957874358 0.555344343
0.104111254 0.217709988 0.512207270
0.229981109 0.225932717 0.512840271
0.401391536 0.243516713 0.501960695
0.590639234 0.269702882 0.500316262
0.848197639 0.377735525 0.554965138
0.072991557 0.326628685 0.487033546
0.207083955 0.330550164 0.494497389
0.387982249 0.338140398 0.490195960
0.575584829 0.363947093 0.499683797
0.837444603 0.459076405 0.560784221
0.002909872 0.491840810 0.487918854
0.161669835 0.495382667 0.489310712
0.388235509 0.508791685 0.501328528
0.592283368 0.544085801 0.524225116
0.823782444 0.605312884 0.583428204
0.043010619 0.726881385 0.536622107
0.229095384 0.728146553 0.540543973
0.436306208 0.727767289 0.551929235
0.618090272 0.736622095 0.575838089
0.844402432 0.757621765 0.596963942
0.366982877 0.951802611 0.638077080
0.431625605 0.950031400 0.639468849
0.575079024 0.948386908 0.665781200
0.706134915 0.944212556 0.661859632
0.869576454 0.953193724 0.674256802
0.265780926 0.303604960 0.765211582
0.354332626 0.315369934 0.759898603
0.529285014 0.331688344 0.760658026
0.723719120 0.364705920 0.751549602
0.930170536 0.409487635 0.739025772
0.286527455 0.426818341 0.754459023
0.362302452 0.433017373 0.751802683
0.531942010 0.441872329 0.748260140
0.720809817 0.459203213 0.747880697
0.910056889 0.489310801 0.744338751
0.244276017 0.597090364 0.754206002
0.350537449 0.597090364 0.743073761
0.546363175 0.614168167 0.741050005
0.708159328 0.620366931 0.737760782
0.892219603 0.631751776 0.748260617
0.080834724 0.787982106 0.736622393
0.262871712 0.781150877 0.739784956
0.477039576 0.770398676 0.742441177
0.703858197 0.770651102 0.747248471
0.879949450 0.797090232 0.763819993
0.387349606 0.965085447 0.761163771
0.452245593 0.957621634 0.760910690
0.593927741 0.956609309 0.765085518
0.766855955 0.947754502 0.790385723
0.918152928 0.944085777 0.814800620
