Assets/EldamarStudio/100 Retro LUTs Pack/LUTs/cube/Anna LUT.cube
DOMAIN_MIN 0 0 0
DOMAIN_MAX 1 1 1
LUT_3D_SIZE 32
0.000000000 0.000000000 0.000000000
0.015180387 0.000000000 0.000000000
0.038962770 0.004300999 0.004300999
0.071347155 0.012902999 0.011638161
0.111195087 0.023908548 0.020746548
0.153699875 0.026944935 0.029854935
0.191144645 0.032511000 0.036433000
0.225932688 0.033649713 0.037571292
0.258570194 0.031373002 0.036053095
0.288931012 0.031372998 0.039089486
0.325110734 0.028463129 0.039216001
0.357495517 0.027450999 0.041239738
0.387856007 0.030866642 0.044275641
0.418216079 0.039468966 0.047818031
0.448576808 0.042504575 0.056926407
0.483744591 0.052751601 0.063630991
0.518659174 0.064895995 0.072738998
0.553953111 0.076407567 0.086147979
0.596458018 0.085515976 0.104364008
0.636179388 0.094623655 0.117014721
0.675648212 0.105628990 0.121569000
0.716129243 0.116761126 0.127640992
0.758127987 0.126122490 0.145603985
0.788488030 0.141302913 0.157748014
0.821125865 0.154205993 0.169892579
0.850347936 0.167741656 0.182036981
0.875648141 0.181910068 0.194180995
0.906008840 0.191018447 0.206324995
0.933712780 0.208095953 0.221125811
0.961037099 0.222770408 0.238076940
0.983933985 0.237571582 0.253636599
0.996078014 0.258823991 0.262744993
0.003036387 0.024288775 0.003036387
0.015180387 0.024288775 0.003036387
0.049715549 0.028589774 0.007337387
0.081467547 0.035926614 0.017204547
0.114610925 0.045919936 0.029095840
0.159771860 0.054269321 0.032890547
0.197216630 0.054775383 0.039468613
0.230360404 0.056546383 0.042251613
0.261606574 0.055661000 0.040607098
0.291967392 0.055660997 0.039089490
0.325237274 0.058570866 0.045035001
0.355471253 0.059835512 0.045288000
0.385958254 0.060847387 0.048450384
0.417963028 0.064009994 0.053636998
0.445540428 0.069828965 0.059962019
0.478305012 0.077672184 0.066666611
0.515623212 0.087666191 0.075774990
0.552688122 0.097659796 0.087919369
0.590386033 0.106767580 0.101328395
0.632890821 0.113093331 0.108412392
0.672612071 0.121948026 0.123845600
0.712080956 0.131941512 0.133712739
0.752182484 0.141302884 0.145730495
0.785452366 0.156483307 0.160784408
0.820366919 0.169386387 0.172928393
0.853130937 0.181530371 0.186464265
0.880202055 0.194054067 0.199240997
0.902972460 0.203162447 0.206324995
0.933333218 0.214926973 0.218468979
0.957495153 0.230613172 0.235041007
0.980518579 0.245793819 0.253257364
0.999114394 0.264896005 0.268817008
0.014674226 0.048576996 0.012523999
0.028968997 0.055028774 0.010373225
0.049715549 0.057179004 0.010373225
0.085895158 0.060721003 0.017710386
0.114358090 0.067172319 0.029222226
0.154585704 0.076280706 0.030487064
0.190385640 0.077798769 0.040353999
0.228462681 0.081087768 0.041492712
0.260341436 0.082099773 0.041745674
0.290702224 0.082099773 0.041492715
0.323972106 0.085009642 0.045034997
0.353320479 0.086021774 0.049082741
0.382922143 0.088930897 0.051486515
0.416065782 0.090448767 0.057305738
0.445287406 0.096520767 0.061479993
0.481720388 0.104996569 0.071852997
0.515117228 0.109550767 0.077925384
0.551423132 0.116128996 0.089437395
0.584819973 0.123718813 0.103099242
0.628969014 0.132194713 0.111828007
0.669576466 0.140164748 0.117899992
0.709044874 0.149272412 0.133079991
0.748513699 0.158380494 0.143579721
0.785958111 0.169512898 0.158760130
0.817330778 0.182416007 0.171663776
0.848197520 0.193168670 0.185199067
0.877545834 0.204553768 0.199873358
0.905376196 0.215306446 0.209234774
0.928146660 0.224920750 0.216318756
0.960278153 0.238835946 0.233775944
0.980391979 0.253130764 0.250600994
0.997849226 0.268817246 0.266286999
0.023529001 0.081720479 0.024667999
0.042504549 0.084503382 0.019101612
0.062871546 0.090575710 0.019481160
0.089690320 0.092346482 0.016951161
0.116635159 0.092725933 0.025300451
0.149525702 0.100063093 0.026185839
0.185958490 0.105376318 0.035041001
0.218848690 0.104870155 0.041492712
0.256799281 0.110183254 0.040734001
0.287666172 0.110689320 0.044275679
0.319670856 0.112334028 0.047311712
0.351549238 0.114611000 0.050347902
0.380012274 0.114611000 0.053383805
0.413029909 0.117520183 0.059329998
0.443390131 0.122580320 0.063377738
0.479696393 0.129790962 0.072358996
0.517394006 0.136875153 0.083997384
0.552055538 0.138772726 0.091334984
0.584313989 0.145477325 0.105882205
0.626059353 0.153067514 0.116761364
0.666540027 0.160910726 0.125237152
0.704997122 0.169006988 0.133333161
0.744086027 0.177861661 0.145477146
0.782416105 0.186970070 0.159518912
0.815053403 0.197090313 0.173687413
0.845161140 0.205312669 0.183428288
0.868437946 0.215433076 0.197090134
0.898039401 0.228336141 0.207716897
0.927134633 0.239089146 0.217077985
0.956736147 0.249209180 0.230739996
0.984819591 0.262618601 0.251992404
0.997343183 0.274383157 0.265275002
0.023908548 0.125363991 0.034914549
0.048197322 0.120429866 0.028083161
0.070335321 0.121821545 0.026438775
0.095003322 0.125743538 0.026818547
0.124984547 0.125363991 0.021125998
0.149272546 0.128399611 0.024161613
0.185831964 0.136116311 0.032257866
0.219607979 0.139025822 0.038077161
0.250347763 0.137128085 0.041492999
0.283744931 0.140164480 0.047565002
0.314610988 0.140670538 0.051486224
0.346995234 0.142694384 0.054142803
0.379253268 0.144591644 0.057179093
0.409614056 0.144844607 0.060468450
0.439974815 0.147880957 0.066540442
0.475522041 0.153700083 0.075774729
0.511574984 0.159392536 0.085641831
0.548260152 0.165717676 0.097406983
0.587729394 0.174826071 0.109551013
0.627197921 0.181151107 0.121695004
0.665907443 0.187602535 0.131941736
0.702719688 0.194054082 0.142062008
0.739152431 0.199999601 0.154079512
0.775585234 0.208602011 0.165970549
0.807083964 0.217330828 0.179632813
0.836685300 0.224035412 0.191397533
0.866540134 0.228336155 0.197849140
0.884756863 0.243516520 0.203921899
0.917773485 0.255661100 0.215686530
0.953067303 0.266034275 0.230992943
0.984440029 0.275142163 0.249335587
0.999620438 0.284250557 0.270588011
0.026944935 0.155724004 0.031878937
0.051233709 0.158760384 0.040986545
0.073371701 0.155977041 0.036305934
0.097154088 0.156989157 0.035547160
0.124984547 0.158760384 0.036306389
0.152308941 0.155724004 0.033269998
0.186717585 0.161289930 0.041366253
0.217077985 0.164578989 0.047185224
0.243896201 0.164072931 0.050221164
0.274636537 0.164452478 0.053637005
0.308032930 0.167488858 0.062618867
0.340923250 0.170019194 0.064642869
0.373181283 0.171916798 0.066287287
0.403542072 0.172169760 0.069576062
0.433902800 0.175205380 0.075648054
0.471473753 0.183048740 0.088930860
0.507400274 0.188614666 0.098544925
0.541935146 0.192789093 0.106261633
0.578621030 0.199114844 0.115623012
0.618090153 0.205439880 0.127767012
0.661353648 0.213409111 0.138013735
0.703352094 0.222011060 0.148134008
0.742188096 0.230360374 0.160151511
0.778620899 0.233396769 0.169259906
0.808222353 0.239721864 0.178874224
0.834661305 0.246299922 0.190385923
0.860974133 0.252371937 0.201012015
0.890828848 0.261733294 0.209993899
0.917014778 0.271600008 0.224035814
0.945857048 0.281214237 0.238709658
0.973813951 0.290322542 0.254395574
0.996584058 0.299430937 0.270588011
0.032511000 0.193674967 0.049083319
0.054269452 0.189121038 0.048070934
0.076407447 0.192156866 0.052878093
0.101454996 0.191144645 0.051739477
0.130044550 0.192156866 0.054016545
0.157368943 0.189121023 0.050980706
0.187223643 0.188614964 0.053004317
0.220366985 0.194686964 0.058823705
0.247944191 0.196457967 0.061859544
0.278305024 0.196457967 0.064895488
0.309045166 0.196837515 0.063630871
0.342441559 0.197849646 0.074762993
0.376976609 0.201518312 0.079063997
0.409867346 0.204807311 0.083744317
0.437950820 0.210120216 0.089816317
0.470714778 0.213156447 0.095888317
0.508412361 0.218975440 0.107653186
0.544085860 0.223276213 0.115369886
0.582415998 0.231246278 0.124478295
0.624161780 0.239848629 0.136369333
0.665528178 0.244022891 0.146616057
0.707400262 0.249841765 0.156736314
0.745224357 0.255787641 0.168753818
0.781657159 0.261227220 0.177862227
0.813535869 0.268817604 0.186970025
0.842504561 0.276533961 0.196078345
0.868564069 0.283238381 0.206578061
0.892852545 0.288298756 0.215686440
0.923086822 0.297406465 0.230107814
0.950411141 0.306514502 0.241745740
0.975964606 0.315622926 0.257178575
0.998608351 0.324731320 0.275647998
0.041871995 0.223276705 0.065401994
0.058191091 0.223782703 0.060721315
0.079443477 0.222517624 0.061986059
0.105755866 0.223023236 0.065022446
0.135736987 0.222643703 0.066919707
0.161796212 0.220872924 0.062618934
0.188361928 0.220366985 0.066287383
0.213788986 0.223655984 0.066033997
0.244149208 0.227451086 0.070588388
0.274509996 0.226565704 0.075395226
0.304870337 0.226565704 0.075901568
0.342188537 0.228209987 0.079696693
0.372169584 0.229348630 0.088425055
0.407337338 0.234914690 0.094496995
0.443010688 0.240986690 0.103351988
0.473497778 0.243010789 0.107779704
0.509930193 0.249083176 0.118405886
0.546489418 0.252371818 0.127767265
0.584946036 0.259455949 0.136875674
0.623908758 0.268564343 0.142188728
0.668058217 0.277166635 0.152435020
0.710563004 0.280202270 0.161543414
0.748260677 0.283364981 0.172928497
0.784693122 0.289436996 0.182036906
0.813282788 0.292852551 0.191144705
0.845034897 0.300569624 0.203035653
0.874636114 0.309424311 0.212650061
0.897027135 0.314737409 0.221758440
0.922959924 0.323086560 0.236179799
0.951549411 0.332194597 0.247818157
0.976217508 0.340417415 0.258696795
0.996711016 0.348766714 0.278430998
0.053257097 0.247565091 0.079063997
0.065401681 0.252119094 0.072991997
0.083997674 0.253131002 0.070335232
0.107274063 0.253384024 0.073371165
0.139911443 0.251106739 0.076787002
0.164578989 0.251486301 0.072232999
0.187349647 0.251486301 0.074763000
0.212270796 0.253257275 0.075901486
0.235800087 0.257811308 0.074383102
0.266160935 0.254775673 0.083491489
0.296521097 0.254649192 0.087539770
0.332700491 0.255914032 0.092599899
0.370651186 0.258949757 0.098292351
0.395445973 0.262492150 0.101834036
0.438456386 0.269070178 0.113472082
0.472738475 0.270335197 0.119923897
0.506894171 0.274130285 0.127514273
0.547627687 0.283238679 0.138899520
0.584440112 0.286527336 0.147501871
0.622390807 0.294370562 0.151296914
0.663757205 0.302719861 0.155471355
0.707527220 0.311322182 0.166097224
0.749652386 0.314231306 0.175332069
0.785452008 0.319038272 0.185072899
0.814294577 0.322074294 0.194180891
0.840480745 0.324098349 0.204553649
0.872865140 0.329665065 0.219228119
0.897406876 0.338266730 0.228589535
0.922454059 0.347375005 0.243010893
0.950031221 0.354965180 0.253890216
0.973940194 0.366983086 0.265528470
0.992156982 0.373055100 0.280708104
0.062365487 0.280961514 0.097280003
0.074509494 0.280961514 0.091208011
0.093105301 0.279063731 0.082985237
0.114357680 0.278684199 0.079443179
0.136875048 0.281467557 0.082859017
0.164199442 0.284503937 0.088931017
0.183807656 0.284883469 0.089437008
0.208855420 0.284883469 0.088045724
0.238836497 0.285136491 0.086527884
0.269196540 0.285136491 0.089563504
0.299557269 0.285010010 0.095762014
0.331941724 0.285010010 0.101707518
0.365717620 0.286274850 0.107779525
0.398481578 0.289816558 0.113978043
0.428842336 0.298924923 0.123086423
0.462238789 0.300696015 0.132321298
0.497026861 0.303731978 0.141176686
0.535483658 0.310563087 0.148007914
0.581024945 0.319671482 0.144971550
0.623403251 0.325743467 0.156356543
0.665654957 0.331942022 0.162302271
0.707274139 0.339152664 0.169639617
0.746616006 0.347628474 0.184440464
0.780012429 0.347628474 0.196584493
0.811258554 0.352435470 0.206325293
0.838583291 0.356862783 0.215433285
0.863757551 0.360025108 0.225300118
0.891081929 0.363061488 0.237444878
0.918279827 0.371663839 0.252119303
0.949019611 0.377229780 0.261986464
0.976850033 0.385831594 0.271726996
0.992156982 0.406451464 0.289816499
0.074382998 0.305629015 0.100948870
0.083617873 0.311448753 0.106514864
0.102213643 0.313598990 0.102593094
0.123466030 0.310815722 0.100063026
0.145097971 0.308918417 0.103858411
0.169892669 0.311954796 0.112460740
0.194686741 0.312460870 0.105882414
0.220240399 0.314105153 0.108032867
0.250601202 0.315369993 0.110310093
0.280961752 0.315369993 0.113346264
0.299683750 0.309551001 0.113472737
0.330044508 0.311575264 0.113472484
0.362555504 0.312460870 0.116887867
0.395951897 0.314231724 0.123465866
0.428968817 0.323339403 0.135230407
0.464136600 0.330043972 0.144338802
0.499557227 0.334092379 0.150411189
0.535989940 0.340164721 0.156103998
0.574699938 0.346995831 0.159898922
0.620240390 0.356103539 0.167995229
0.659076631 0.364199728 0.172422737
0.699557424 0.370272011 0.176470742
0.740290940 0.375205874 0.187349632
0.765338004 0.375205874 0.191145003
0.801011682 0.379759878 0.205566287
0.831245780 0.383048862 0.214547992
0.859076381 0.384566665 0.223655865
0.893611550 0.387602448 0.240607008
0.915622950 0.395951807 0.252751768
0.942441285 0.405060172 0.267678738
0.970904350 0.411258727 0.278937340
0.992156982 0.422390878 0.293105870
0.086527511 0.338013500 0.116129242
0.097659640 0.340037763 0.116128996
0.111322023 0.339911729 0.113725476
0.133839250 0.344212502 0.113219410
0.155471087 0.341555953 0.116635248
0.176470846 0.341302902 0.124098927
0.200758994 0.343833238 0.126122668
0.225047410 0.343833238 0.120303698
0.253890097 0.345730513 0.124478154
0.282985747 0.345730513 0.127514213
0.311827958 0.341935247 0.129664987
0.336116225 0.341935515 0.131688729
0.364199996 0.344971597 0.129790992
0.394687057 0.345604032 0.133839026
0.426312655 0.347628087 0.140670255
0.464136600 0.356356740 0.152434796
0.499051183 0.360910565 0.161543190
0.535610437 0.367109537 0.164958984
0.573434949 0.374573231 0.168247998
0.614168406 0.385452151 0.173055366
0.657811522 0.390765250 0.178368255
0.694497287 0.398608506 0.182542726
0.734598458 0.402656734 0.192536026
0.764579237 0.404553980 0.197470158
0.795951545 0.405059963 0.207590267
0.826818287 0.408348978 0.222770646
0.854016423 0.409361094 0.230740249
0.887413085 0.413915306 0.242884248
0.912586808 0.418216079 0.255787373
0.939152360 0.425553232 0.267931670
0.967615247 0.434408605 0.283744186
0.994180739 0.441619247 0.298166007
0.097533353 0.377861917 0.135104641
0.113092989 0.377861917 0.133206889
0.126249418 0.377988398 0.130297273
0.145224631 0.375332266 0.126881793
0.169133186 0.379886270 0.129918084
0.188108861 0.376091003 0.135230988
0.209108278 0.376976609 0.138772964
0.233396396 0.379506648 0.138519704
0.258444101 0.380265743 0.137002081
0.285768509 0.380645275 0.140037805
0.316634864 0.380012423 0.141935512
0.347121894 0.378747523 0.144971386
0.375584900 0.380645275 0.148007289
0.400379658 0.383427918 0.148513287
0.430740178 0.381277710 0.152435049
0.466034412 0.385578781 0.158127636
0.503605187 0.392789751 0.166476831
0.538899124 0.397090316 0.174320057
0.578874290 0.406198621 0.174825996
0.618343055 0.416951299 0.179886356
0.655155122 0.424541384 0.181783900
0.694623768 0.427577764 0.185831636
0.730803490 0.433270276 0.197469637
0.764199913 0.435294002 0.203542173
0.797596276 0.437191278 0.214168355
0.827956617 0.438329935 0.228842646
0.853257477 0.437823862 0.243011057
0.883618236 0.441998899 0.249715641
0.910942614 0.447691441 0.262238979
0.938772678 0.452498257 0.275521576
0.966476917 0.459455878 0.285894632
0.996078014 0.468564272 0.303099364
0.107400060 0.421885014 0.150537997
0.127893418 0.422138065 0.151043996
0.142694503 0.424035341 0.150284961
0.159393027 0.424794227 0.150537997
0.183301583 0.422138035 0.150664493
0.204553977 0.416066051 0.153700098
0.223782599 0.415054053 0.156230286
0.245034978 0.416698396 0.156989321
0.269829124 0.418975174 0.154712096
0.297153533 0.422011554 0.157748491
0.324983895 0.425047189 0.158381000
0.354332536 0.424288303 0.160151780
0.384693265 0.422897041 0.162934646
0.414801091 0.422644049 0.165718004
0.445161045 0.422644049 0.171789989
0.477419406 0.425047249 0.173054993
0.512081027 0.429348409 0.174320146
0.549525142 0.436053485 0.178115413
0.592029989 0.445161104 0.181151047
0.632005095 0.453763366 0.188994318
0.666287422 0.460974008 0.192662999
0.697407126 0.466034144 0.194940031
0.730677009 0.469197005 0.201012030
0.763946891 0.469450027 0.207084045
0.797343314 0.471473783 0.217710033
0.827956676 0.474509686 0.232637361
0.855787158 0.476534009 0.249589056
0.886147916 0.473497629 0.258697420
0.916508615 0.480581820 0.272865146
0.947121918 0.487919033 0.288045198
0.974825561 0.495129615 0.301328063
0.996078014 0.504238009 0.307400078
0.125616819 0.449209392 0.168753982
0.137760818 0.452245802 0.174825981
0.151802421 0.452498823 0.168880194
0.166476905 0.453131229 0.166729733
0.186337963 0.452878267 0.168753982
0.207590356 0.455534399 0.168880463
0.231372416 0.454522401 0.166856080
0.252751261 0.456167102 0.171663269
0.275395185 0.456926197 0.174446404
0.300189942 0.452372313 0.169892475
0.333333284 0.455407947 0.175837979
0.363440901 0.456419826 0.176596984
0.393801391 0.458064377 0.177229404
0.423908681 0.462112427 0.177861989
0.451233804 0.459076792 0.177861989
0.479190618 0.461479992 0.179126993
0.510816157 0.464515984 0.179126993
0.546109915 0.469449967 0.182289556
0.585958004 0.478558242 0.193295032
0.628462732 0.482099861 0.193547994
0.666540027 0.488298386 0.197343320
0.699683845 0.493358523 0.201771125
0.730677009 0.496521384 0.210120410
0.761036992 0.502593398 0.216192409
0.794307411 0.502846420 0.226818398
0.824921072 0.504870117 0.241745725
0.852751553 0.506894052 0.258950412
0.883112252 0.503858387 0.270841420
0.913472354 0.506134927 0.282605976
0.945603728 0.512207389 0.297153562
0.974825561 0.520050824 0.312333971
0.996078014 0.531562388 0.325616837
0.139025986 0.490954757 0.179759800
0.141555995 0.486780375 0.178620994
0.162302539 0.489816755 0.182542771
0.177988604 0.490069777 0.178241596
0.195066541 0.489310771 0.180518806
0.208222941 0.486274660 0.184566796
0.236811996 0.496394604 0.184440270
0.262745112 0.494749874 0.179759592
0.286274612 0.494750082 0.183554709
0.310562998 0.490322769 0.182415992
0.343579859 0.492978901 0.183174998
0.366856486 0.491967052 0.183175251
0.397976279 0.493864626 0.185072809
0.430360615 0.499430597 0.187096804
0.455534428 0.498545229 0.182795808
0.487665981 0.500316620 0.187602803
0.514990389 0.498797983 0.189120606
0.547248304 0.500442564 0.189373568
0.584946036 0.509550929 0.192662820
0.622390747 0.515496433 0.200885609
0.659202695 0.516634762 0.206577852
0.695129454 0.521694779 0.212650120
0.728273153 0.525995970 0.221505508
0.758633792 0.527513981 0.225300804
0.788994312 0.531309247 0.235926792
0.820872962 0.530044138 0.246679470
0.849715352 0.532067895 0.261353910
0.880076051 0.536622226 0.275395185
0.910436749 0.534092605 0.289942980
0.939025939 0.544212162 0.302086949
0.970271766 0.550410986 0.317520380
0.996078014 0.556482971 0.334219009
0.145098001 0.530423582 0.187349990
0.149652198 0.528905332 0.188867792
0.163820341 0.527766943 0.184060574
0.183048800 0.529538155 0.190892130
0.201897457 0.530676723 0.191524640
0.217837125 0.530297399 0.194180995
0.241619185 0.530297399 0.193674803
0.268817097 0.535736859 0.194940001
0.296142101 0.534218431 0.191145092
0.321189225 0.532700658 0.194180906
0.351170063 0.532447696 0.192789197
0.380518675 0.532953680 0.190765068
0.402150810 0.533333361 0.190006450
0.436686039 0.538646340 0.195192993
0.462239176 0.537381172 0.191651002
0.490702003 0.538266778 0.190638795
0.522580564 0.538267195 0.193674803
0.551802337 0.534091949 0.198608145
0.588234961 0.541429162 0.200000152
0.620113909 0.543200374 0.200506359
0.657684922 0.550031543 0.211132437
0.690069437 0.550031543 0.220240310
0.725490153 0.554965079 0.229601651
0.758633614 0.556356370 0.238203704
0.785958350 0.555597663 0.245035172
0.817710459 0.558633745 0.257179171
0.848197162 0.556862414 0.266414046
0.878557861 0.563946843 0.279569924
0.904364407 0.565464854 0.291713804
0.935989916 0.568500936 0.306641132
0.964199960 0.582795441 0.320556164
0.994560182 0.585325599 0.338772804
0.146362990 0.565085530 0.195319563
0.156103805 0.567488730 0.199493989
0.171030983 0.569006681 0.197343379
0.186717153 0.569639087 0.195825309
0.200379148 0.569259644 0.206451982
0.227451220 0.577356040 0.203668624
0.252245575 0.575079143 0.201264814
0.275901407 0.572296143 0.199620292
0.300949097 0.572422624 0.202024087
0.328273535 0.575458229 0.205060482
0.355597883 0.572675407 0.202909708
0.384313941 0.572928548 0.201138303
0.414168626 0.573940516 0.199114218
0.441493034 0.579759538 0.202150539
0.468817413 0.577482283 0.202529982
0.498671770 0.575584710 0.200758755
0.527514338 0.574699342 0.199873134
0.556609929 0.572928548 0.199240565
0.593042016 0.575964153 0.211385354
0.621758461 0.574066877 0.209361389
0.656040728 0.576091290 0.212776974
0.691840708 0.582795918 0.224541530
0.722201407 0.582795918 0.233396918
0.757621586 0.585325658 0.246552691
0.785578549 0.584440231 0.255534559
0.813409269 0.584187448 0.264389962
0.846805692 0.586717129 0.276533991
0.877292871 0.589626968 0.285768867
0.899683774 0.592030287 0.294244140
0.928652704 0.597469687 0.307526767
0.961163580 0.602782786 0.323592573
0.991524398 0.614927590 0.341808587
0.152435035 0.604553998 0.210500017
0.164579034 0.604553998 0.207463622
0.178620815 0.606957734 0.209487811
0.192789346 0.609740794 0.212776959
0.206451952 0.611764550 0.218596011
0.230739951 0.608728945 0.218596011
0.255281717 0.609235048 0.218342975
0.277925700 0.608729005 0.214800954
0.300949126 0.608729005 0.211006001
0.328273535 0.608855486 0.211132526
0.355597913 0.606072068 0.211259037
0.382922292 0.609107971 0.213029727
0.411638319 0.612397015 0.213282645
0.441493064 0.613156021 0.211258963
0.468817443 0.616192400 0.214294568
0.505755782 0.611511946 0.214674041
0.539658427 0.608981967 0.215939194
0.568753958 0.609361410 0.217457384
0.593042016 0.612397015 0.214421004
0.623908758 0.612649977 0.220999062
0.657811522 0.610499799 0.224161789
0.691461146 0.610499918 0.230993032
0.719165027 0.613156080 0.242504567
0.749525845 0.613156080 0.245540962
0.778115213 0.613409042 0.254143298
0.806578279 0.614547729 0.264389992
0.837697983 0.617078006 0.276534021
0.871094346 0.617078006 0.288678020
0.893611789 0.617331028 0.295256078
0.923719347 0.622897208 0.308665425
0.958127916 0.629095972 0.326628983
0.988488019 0.630107999 0.344845027
0.172422364 0.655155122 0.239595026
0.181783721 0.652371764 0.233776003
0.193927735 0.652371764 0.230740160
0.209740698 0.653510392 0.231246367
0.226059914 0.653889775 0.233143821
0.247944713 0.648450315 0.230740011
0.267172724 0.650474727 0.233270332
0.292599738 0.650727749 0.235167652
0.318406194 0.650727749 0.234788120
0.347754866 0.650727749 0.236812383
0.366729885 0.653383911 0.228463024
0.396078527 0.652371764 0.230487287
0.425300658 0.653510392 0.233523086
0.455661386 0.651866078 0.234282061
0.485515416 0.652372122 0.237318307
0.515243590 0.653004706 0.242757723
0.547501504 0.649209559 0.243516743
0.576597154 0.647944391 0.244022787
0.605186820 0.648829758 0.240986407
0.635040760 0.649082720 0.240733355
0.665401459 0.649082720 0.244908109
0.698039293 0.646932542 0.249968499
0.727261364 0.646300137 0.259962201
0.757621467 0.646300137 0.262997925
0.785705507 0.648576856 0.272865593
0.813030005 0.649082720 0.285262674
0.841493011 0.650221407 0.298292100
0.870335400 0.650221407 0.308159381
0.901074946 0.655534387 0.328273177
0.929791212 0.659329355 0.336748928
0.964326620 0.666540205 0.356356919
0.996584356 0.670335770 0.384060740
0.189879730 0.685894966 0.245287746
0.198988125 0.686654091 0.244908005
0.208348989 0.687665761 0.250474513
0.219228148 0.688930929 0.247438580
0.237065345 0.688424885 0.247185543
0.262871921 0.680834770 0.247185528
0.281593978 0.680455327 0.251107067
0.299810410 0.685135961 0.254143029
0.326375842 0.684883118 0.254142851
0.355597973 0.683744729 0.252625227
0.378114969 0.684756577 0.249715596
0.404427499 0.685768485 0.248703241
0.431372613 0.684629858 0.250600994
0.459709287 0.682099998 0.253130734
0.491713971 0.683744729 0.257811397
0.518279552 0.679949760 0.255661011
0.550158143 0.681467533 0.261732996
0.578241527 0.679822743 0.263124585
0.607337296 0.679822743 0.262618482
0.635800004 0.677925467 0.264262736
0.666160464 0.677925467 0.262365460
0.696521282 0.677925467 0.265401602
0.726755500 0.676154733 0.272738755
0.755344748 0.679696739 0.279316813
0.785325408 0.678178489 0.287286580
