Assets/EldamarStudio/100 Retro LUTs Pack/LUTs/cube/Anna LUT.cube
LUT_3D_SIZE 5
DOMAIN_MIN 0.000000 0.000000 0.000000
DOMAIN_MAX 0.903226 0.903226 0.903226
0.000000000 0.000000000 0.000000000
0.225932688 0.033649713 0.037571292
0.448576808 0.042504575 0.056926407
0.716129243 0.116761126 0.127640992
0.933712780 0.208095953 0.221125811
0.041871995 0.223276705 0.065401994
0.213788986 0.223655984 0.066033997
0.443010688 0.240986690 0.103351988
0.710563004 0.280202270 0.161543414
0.922959924 0.323086560 0.236179799
0.125616819 0.449209392 0.168753982
0.252751261 0.456167102 0.171663269
0.451233804 0.459076792 0.177861989
0.699683845 0.493358523 0.201771125
0.913472354 0.506134927 0.282605976
0.205060124 0.707147121 0.249335989
0.310942262 0.709424198 0.272359550
0.492093503 0.710436523 0.275395244
0.692473292 0.705250144 0.282606006
0.900063038 0.710815787 0.350031644
0.443769753 0.914104819 0.477672428
0.494876653 0.923718870 0.483491451
0.595825136 0.924604774 0.485388935
0.749778926 0.925616503 0.500442803
0.915369928 0.929917574 0.527387619
0.032005005 0.035294000 0.254016697
0.226565689 0.053636994 0.243896395
0.417836398 0.124604695 0.257938117
0.675901532 0.186337993 0.311954379
0.906894386 0.262365639 0.357368678
0.092852995 0.220999420 0.231119692
0.230486691 0.234408692 0.250094682
0.407084107 0.256673098 0.269070119
0.670335293 0.289689988 0.305376559
0.903605402 0.346615821 0.367235512
0.175205410 0.431246102 0.290955395
0.262492120 0.439089119 0.294243991
0.433902502 0.441366404 0.302087426
0.677419364 0.485895216 0.327261090
0.891840398 0.518279493 0.394433796
0.236938402 0.700949013 0.366350234
0.334598124 0.701961160 0.365970939
0.494750112 0.699937165 0.380012393
0.686527431 0.695383132 0.389500111
0.880075932 0.717393994 0.453257382
0.490322649 0.915116906 0.545477688
0.524098516 0.914863944 0.549399018
0.617330790 0.916128755 0.555218339
0.751675963 0.917394042 0.565970778
0.912207603 0.925995886 0.577735543
0.079822987 0.087665990 0.510056853
0.260594696 0.111827992 0.497659802
0.453257382 0.153700411 0.485262781
0.678431511 0.190891996 0.503225565
0.892473221 0.295761764 0.536242783
0.158886999 0.277925372 0.475395352
0.267425835 0.274636388 0.476407498
0.440733403 0.279190391 0.474762797
0.663124263 0.296521127 0.501201510
0.879064083 0.395825356 0.552561343
0.183681414 0.451233804 0.481340796
0.278178692 0.454143077 0.477039695
0.470208347 0.481973380 0.508159399
0.665654838 0.508791625 0.533712685
0.854649186 0.576217353 0.593169093
0.311828107 0.685894966 0.553320825
0.398735106 0.689816356 0.555218041
0.542820811 0.687539101 0.576470554
0.681594133 0.693105817 0.577988386
0.863504112 0.728399813 0.621252179
0.538140416 0.903731644 0.652498662
0.566476703 0.907021046 0.660467923
0.636811972 0.910309613 0.664389789
0.761796236 0.910942197 0.666919768
0.906388581 0.924730897 0.672865152
0.186464250 0.191398129 0.751296282
0.303099692 0.203794718 0.752561629
0.491334528 0.228968829 0.748260140
0.690448999 0.254143119 0.728779137
0.885641932 0.316128790 0.727387965
0.234914407 0.331561983 0.735863566
0.324731112 0.338140577 0.739784718
0.498292238 0.343073964 0.731309533
0.681340992 0.355471134 0.730929792
0.872232616 0.419354618 0.735610247
0.323213249 0.515622675 0.725742817
0.402024120 0.530044317 0.726122797
0.542188346 0.549019575 0.723212838
0.675521851 0.550284564 0.715875983
0.850600839 0.590512395 0.739152312
0.418975115 0.695383132 0.719924212
0.472485721 0.696015537 0.717267811
0.574066997 0.695635974 0.714358091
0.706135273 0.712080956 0.731688976
0.864136755 0.744465292 0.756483257
0.526249170 0.906767726 0.782163084
0.562175751 0.905755877 0.784946382
0.637444556 0.907400250 0.782036662
0.766730130 0.912966430 0.789247274
0.910562873 0.915243447 0.794560194
0.324477792 0.329790771 0.957241774
0.393801212 0.340290606 0.949146032
0.538267195 0.364453048 0.946236193
0.709550977 0.401138604 0.936116338
0.888045788 0.455407590 0.929917574
0.390259326 0.442884356 0.942188799
0.445920318 0.454269350 0.942947567
0.567362070 0.469070196 0.941935301
0.725237072 0.491967201 0.934345365
0.884756804 0.525237381 0.929538012
0.525869608 0.630993247 0.924477816
0.555471063 0.635926664 0.937634647
0.630360663 0.638836205 0.929158390
0.751043558 0.636559069 0.926755071
0.888045788 0.642757356 0.933839679
0.550790548 0.762049258 0.928399622
0.583301663 0.769892514 0.935863316
0.653257251 0.769006848 0.933839202
0.761796236 0.767994940 0.934471786
0.899177551 0.773307920 0.924351633
0.572928786 0.925995946 0.939025760
0.600885749 0.922074616 0.936748683
0.674257159 0.918785334 0.940290630
0.788235068 0.925995946 0.942567766
0.925869823 0.937760592 0.945477724
