Assets/EldamarStudio/100 Retro LUTs Pack/LUTs/cube/Anna LUT.cube
LUT_3D_SIZE 8
DOMAIN_MIN 0.000000 0.000000 0.000000
DOMAIN_MAX 0.903226 0.903226 0.903226
0.000000000 0.000000000 0.000000000
0.111195087 0.023908548 0.020746548
0.258570194 0.031373002 0.036053095
0.387856007 0.030866642 0.044275641
0.518659174 0.064895995 0.072738998
0.675648212 0.105628990 0.121569000
0.821125865 0.154205993 0.169892579
0.933712780 0.208095953 0.221125811
0.023908548 0.125363991 0.034914549
0.124984547 0.125363991 0.021125998
0.250347763 0.137128085 0.041492999
0.379253268 0.144591644 0.057179093
0.511574984 0.159392536 0.085641831
0.665907443 0.187602535 0.131941736
0.807083964 0.217330828 0.179632813
0.917773485 0.255661100 0.215686530
0.053257097 0.247565091 0.079063997
0.139911443 0.251106739 0.076787002
0.235800087 0.257811308 0.074383102
0.370651186 0.258949757 0.098292351
0.506894171 0.274130285 0.127514273
0.663757205 0.302719861 0.155471355
0.814294577 0.322074294 0.194180891
0.922454059 0.347375005 0.243010893
0.097533353 0.377861917 0.135104641
0.169133186 0.379886270 0.129918084
0.258444101 0.380265743 0.137002081
0.375584900 0.380645275 0.148007289
0.503605187 0.392789751 0.166476831
0.655155122 0.424541384 0.181783900
0.797596276 0.437191278 0.214168355
0.910942614 0.447691441 0.262238979
0.145098001 0.530423582 0.187349990
0.201897457 0.530676723 0.191524640
0.296142101 0.534218431 0.191145092
0.402150810 0.533333361 0.190006450
0.522580564 0.538267195 0.193674803
0.657684922 0.550031543 0.211132437
0.785958350 0.555597663 0.245035172
0.904364407 0.565464854 0.291713804
0.189879730 0.685894966 0.245287746
0.237065345 0.688424885 0.247185543
0.326375842 0.684883118 0.254142851
0.431372613 0.684629858 0.250600994
0.550158143 0.681467533 0.261732996
0.666160464 0.677925467 0.262365460
0.785325408 0.678178489 0.287286580
0.901074946 0.683238447 0.338140547
0.285135835 0.792030573 0.330297261
0.306894094 0.795446038 0.337760836
0.380518377 0.793674827 0.335104287
0.466413915 0.793042302 0.343706548
0.560910761 0.791397572 0.349146187
0.668058217 0.787602544 0.352182001
0.774067283 0.789753318 0.358380824
0.890955210 0.798608363 0.392030239
0.443769753 0.914104819 0.477672428
0.469829440 0.920682907 0.477039754
0.504237652 0.925742745 0.485515416
0.565085292 0.921821535 0.483617812
0.639848351 0.928525925 0.490575790
0.726502299 0.925869823 0.498671621
0.813915491 0.924604654 0.503731787
0.915369928 0.929917574 0.527387619
0.020746548 0.035673548 0.139025643
0.130044088 0.031373002 0.137128100
0.239342541 0.057179093 0.143327087
0.354079366 0.094749995 0.163314447
0.480202377 0.126881987 0.192283452
0.643390179 0.152814806 0.225426823
0.804300845 0.180898279 0.250727087
0.917647243 0.234029248 0.287412971
0.037191547 0.122201093 0.133206993
0.129664540 0.132827535 0.148893088
0.231498748 0.142568082 0.154712528
0.344338745 0.161417097 0.173940271
0.478304744 0.184946179 0.202909291
0.630487502 0.207210541 0.224414825
0.777988315 0.227577537 0.241366282
0.901328027 0.262998372 0.279569983
0.091208443 0.239342541 0.164958641
0.153574005 0.238963082 0.170778006
0.235041097 0.245667547 0.163314641
0.349019736 0.256167084 0.183301985
0.480202287 0.280075729 0.216698453
0.640227735 0.297659993 0.231119469
0.791397631 0.328652650 0.259962082
0.910942495 0.353194177 0.300316542
0.132700637 0.364959270 0.200379178
0.179759547 0.364200175 0.202529743
0.261606276 0.367741913 0.207210630
0.358253926 0.365338713 0.208222374
0.485135823 0.383301735 0.218848825
0.633902729 0.413155913 0.241239890
0.779759705 0.432384580 0.268564254
0.894750178 0.444908351 0.301707715
0.158507019 0.515749812 0.244149342
0.203036100 0.517393887 0.245793745
0.291461200 0.519291461 0.244402289
0.395951807 0.522454202 0.247185543
0.517394006 0.521315753 0.247311741
0.649841905 0.540164530 0.260088474
0.776343942 0.550031424 0.289184183
0.894749999 0.561543643 0.330423653
0.198861286 0.668943763 0.297280550
0.238330007 0.677419543 0.296521544
0.328273207 0.677040219 0.297785997
0.428209752 0.675015807 0.295635641
0.545351148 0.672991514 0.300316542
0.661227345 0.673497915 0.302213788
0.775458515 0.674003959 0.324478000
0.892472982 0.687159896 0.374699533
0.292220116 0.789120853 0.368374854
0.325742811 0.787223101 0.367868364
0.385199189 0.786211252 0.372295827
0.471979827 0.785958290 0.377229571
0.560910702 0.785578847 0.381657034
0.665148735 0.783681095 0.381657124
0.767741978 0.782036364 0.390006065
0.881088078 0.787349820 0.418469340
0.461606324 0.917773485 0.496647507
0.481720656 0.921441734 0.508286059
0.506767690 0.922580659 0.503099144
0.573308349 0.919797301 0.510816097
0.641619146 0.919417739 0.518659174
0.723719239 0.920556426 0.526248991
0.817836642 0.926501811 0.529411674
0.918152928 0.921062529 0.539911449
0.029728094 0.034535099 0.282859087
0.137507632 0.039595451 0.275395572
0.253890097 0.066540100 0.275775015
0.353320360 0.101834096 0.268691003
0.485009283 0.146489292 0.292979181
0.627324581 0.180265993 0.321568757
0.785958350 0.212144181 0.349525481
0.900568962 0.271473646 0.385452181
0.084630102 0.148893088 0.256167084
0.146868631 0.150031552 0.261353642
0.244908541 0.158254087 0.253383726
0.344338745 0.174319729 0.269196630
0.467299044 0.205692753 0.300569415
0.614547670 0.228462830 0.323719203
0.770524681 0.246679187 0.342314899
0.889310360 0.292473197 0.375838369
0.106515005 0.247565091 0.253890097
0.169259995 0.246805996 0.271094173
0.259329289 0.263251096 0.278937101
0.350537628 0.271853119 0.282352716
0.468564391 0.289057374 0.307147175
0.619228184 0.309930444 0.329411745
0.777229607 0.336116165 0.358001292
0.895255923 0.371663451 0.395066261
0.159013197 0.357115269 0.295003563
0.201391190 0.363820612 0.289057285
0.277293086 0.370904654 0.303605527
0.365464628 0.371284187 0.304744005
0.478937536 0.384566367 0.312839717
0.623655975 0.411132306 0.336875111
0.767362177 0.432763934 0.360657811
0.876786768 0.461859375 0.394940019
0.182795793 0.505250096 0.330677003
0.215686098 0.505502880 0.329158902
0.297027111 0.511448383 0.336242914
0.395192802 0.513093114 0.331815422
0.501455128 0.512207448 0.327514291
0.633776367 0.535104156 0.347121984
0.766477048 0.550157905 0.376850218
0.879696608 0.569639266 0.422011346
0.224035829 0.667299151 0.381024718
0.263377637 0.664768934 0.383428037
0.341935545 0.668817103 0.377861917
0.432005048 0.669575989 0.384945840
0.539405644 0.666919529 0.392536193
0.653130829 0.665275395 0.392030448
0.767488897 0.671600163 0.417204380
0.880835056 0.689816594 0.471726805
0.352941096 0.774446547 0.444781363
0.379380375 0.776470423 0.460721076
0.429095566 0.777356267 0.457305640
0.494876653 0.777735531 0.463883728
0.574826181 0.776597202 0.465148449
0.666287184 0.777735710 0.467425555
0.765591264 0.777356267 0.476913273
0.870714724 0.787096977 0.498165905
0.499936819 0.910815895 0.563187659
0.505755424 0.914737761 0.563440621
0.535989940 0.912333846 0.567362070
0.594180584 0.915117204 0.567868233
0.656419933 0.914863884 0.570651770
0.733712733 0.916128874 0.578621149
0.818342805 0.920935929 0.582036555
0.912713587 0.923971891 0.588867605
0.055534288 0.060594641 0.431625277
0.150284186 0.074762642 0.423023283
0.275395453 0.100189991 0.419102192
0.376091272 0.123339646 0.405819237
0.492093176 0.153194353 0.407337070
0.633902848 0.183048636 0.437950373
0.777988315 0.215306982 0.457937926
0.890702009 0.294244140 0.484123975
0.121821642 0.180645451 0.406578243
0.173940167 0.181657076 0.399494261
0.267552525 0.186843544 0.395951807
0.370145738 0.197849646 0.395572275
0.468816936 0.208855540 0.396331459
0.622390687 0.227957085 0.431372613
0.769133508 0.261353731 0.453383803
0.880328834 0.321821541 0.481594056
0.144971192 0.282858998 0.398355722
0.196963742 0.279696196 0.397976190
0.280455172 0.292347014 0.399114639
0.369007051 0.287918836 0.396837652
0.478304744 0.298165649 0.407083899
0.621505141 0.318912089 0.438709468
0.773560941 0.349651903 0.471726894
0.873118460 0.418595910 0.506894171
0.172042638 0.381150931 0.399114639
0.211511895 0.379886180 0.402276814
0.298545182 0.386211276 0.406578183
0.394054294 0.400253266 0.419861287
0.496141821 0.408475727 0.431499064
0.626691997 0.428842634 0.449715376
0.756103575 0.456420273 0.481087923
0.857685030 0.504490912 0.520303428
0.190512180 0.507653177 0.431752264
0.232131898 0.505123317 0.429727912
0.311701477 0.517394006 0.446679294
0.411258459 0.528779149 0.446932644
0.516255379 0.528020382 0.450474292
0.640986443 0.542062044 0.471220732
0.751296639 0.561796427 0.498798639
0.859709144 0.598229051 0.550158024
0.266793251 0.665401340 0.486274660
0.307906598 0.664642453 0.489690185
0.386590540 0.664136767 0.494876564
0.466666371 0.662239015 0.507400513
0.556609809 0.662998140 0.507653236
0.649462402 0.662998140 0.512966275
0.749525487 0.670714736 0.528273046
0.869449914 0.699557364 0.580518425
0.429980993 0.770018935 0.560910881
0.461732835 0.768754065 0.562934756
0.483617991 0.771410704 0.557242155
0.537634194 0.770651579 0.562175989
0.603542149 0.772675395 0.568880320
0.679569721 0.769892514 0.567868292
0.760025263 0.773434520 0.573434532
0.862618327 0.787096918 0.589753628
0.522833407 0.904490709 0.628083646
0.537887514 0.911827803 0.629854441
0.566603184 0.910309792 0.633396566
0.611258626 0.911954582 0.630740166
0.667046309 0.911574781 0.632257938
0.739531636 0.913725376 0.635547042
0.822390676 0.916635096 0.642251790
0.911701620 0.922201216 0.643896401
0.107147381 0.113472179 0.597090185
0.186338082 0.123718992 0.597723365
0.307906270 0.138646290 0.589753449
0.424668074 0.155850813 0.583175004
0.541303158 0.174699381 0.579000354
0.650853693 0.183301985 0.569133639
0.775838077 0.225426987 0.583048642
0.888804615 0.302466601 0.593042314
0.148007393 0.209108084 0.578115404
0.212776735 0.220240176 0.581530750
0.307147086 0.216192186 0.579379976
0.411258370 0.225300536 0.565211773
0.529538393 0.228842378 0.562049031
0.634788096 0.234661728 0.560025215
0.770145357 0.260341525 0.573181450
0.886401236 0.329032183 0.579380333
0.176976278 0.311069012 0.566477060
0.224541441 0.316887945 0.563187599
0.311069012 0.315749288 0.574320018
0.415686429 0.319291711 0.564452887
0.520177186 0.316508383 0.557748318
0.628589690 0.320809841 0.552182317
0.771157503 0.357115477 0.579127312
0.870841265 0.428210139 0.608223021
0.184313804 0.420240611 0.562049031
0.230739832 0.420240641 0.561163902
0.308539182 0.424161822 0.556862473
0.410373181 0.420999706 0.565464556
0.519291461 0.416951030 0.554585397
0.632890522 0.429475009 0.560404837
0.752308547 0.472106576 0.586337805
0.851612866 0.524857521 0.611005425
0.191018179 0.528905392 0.560910583
0.236179739 0.534724712 0.565844238
0.315496475 0.538267195 0.568754196
0.429601818 0.542947352 0.573561192
0.554838598 0.559392393 0.589247167
0.649589002 0.572042942 0.595951915
0.741556048 0.589247406 0.611511827
0.840354264 0.629854321 0.637191594
0.295509368 0.661100745 0.592156947
0.327640742 0.663757265 0.594687104
0.401518196 0.664136767 0.593928099
0.489943117 0.662112474 0.599114597
0.584566414 0.671220720 0.614927590
0.663377762 0.671600223 0.616318941
0.748133957 0.682479441 0.634282172
0.857937932 0.708791912 0.660973907
0.442378163 0.769639373 0.624288201
0.468058109 0.769765973 0.636052966
0.503099263 0.771916449 0.633143425
0.556736052 0.772675514 0.642631412
0.626186132 0.773561180 0.649715483
0.690702021 0.772295952 0.647312045
0.763187826 0.775711536 0.649842024
0.870461881 0.795192957 0.668058157
0.526122451 0.908918619 0.687666118
0.541176498 0.906008601 0.690954983
0.577102840 0.906261742 0.698039293
0.621505439 0.911195338 0.699303985
0.672232866 0.907653451 0.699683785
0.745224237 0.914231598 0.701581240
0.824161828 0.917394221 0.706641197
0.912207246 0.919291556 0.707653344
0.166223735 0.174193740 0.724983990
0.225679994 0.183933988 0.721441925
0.323592484 0.193421990 0.721188784
0.432890534 0.206704378 0.720936000
0.547248662 0.220746279 0.713092983
0.662112474 0.232890725 0.703478694
0.775332034 0.245287731 0.701201439
0.885388911 0.310562879 0.701328456
0.190133184 0.246299624 0.711954772
0.245161086 0.245920077 0.707779884
0.326628566 0.251360267 0.708791912
0.430866480 0.256799489 0.706768155
0.537760735 0.265021831 0.703732193
0.653257728 0.271726996 0.697406411
0.760025561 0.280202478 0.687539697
0.873371303 0.331309080 0.691208124
0.227071360 0.349778831 0.707273722
0.271600276 0.351296842 0.704870522
0.340417445 0.348513454 0.705629706
0.436685860 0.354838490 0.699051201
0.544592083 0.355471104 0.700695932
0.650474489 0.363820344 0.692979157
0.759898543 0.370524824 0.688045263
0.867425561 0.435547084 0.705755591
0.255407751 0.446553022 0.692093670
0.298671454 0.449841917 0.691081285
0.366097271 0.458317637 0.689057529
0.453636914 0.460721016 0.687539697
0.545477808 0.465022147 0.685135901
0.639595091 0.467299372 0.684756339
0.744465411 0.473371267 0.680076182
0.847564518 0.525869727 0.700569093
0.302340448 0.562049091 0.700189948
0.338899225 0.563061357 0.685515285
0.409613997 0.569513083 0.692725956
0.491334796 0.578115225 0.692852318
0.580138862 0.586337686 0.689689994
0.654269457 0.585958123 0.685642004
0.743074179 0.591903746 0.693991005
0.845414340 0.629854441 0.715875983
0.377482712 0.668058217 0.695635736
0.409234643 0.668437660 0.696647286
0.456293583 0.671979725 0.694497168
0.525237143 0.671094060 0.698418915
0.597849488 0.678304911 0.696015179
0.681846976 0.685768485 0.703352749
0.756989241 0.695888221 0.715496242
0.851992369 0.719670832 0.734724700
0.451233298 0.763567090 0.700695693
0.471600294 0.767489016 0.707779825
0.511954665 0.765085161 0.712460339
0.557874441 0.768247902 0.714231431
0.626691759 0.769133747 0.715749741
0.698291957 0.775332034 0.724857450
0.769006789 0.777229309 0.722074509
0.869829118 0.799873471 0.743200660
0.521441996 0.908285856 0.759645700
0.544086039 0.904111505 0.756989300
0.565971076 0.906261802 0.759139657
0.611764729 0.904490888 0.759139657
0.674763203 0.909804046 0.772169471
0.746236622 0.910183609 0.773054719
0.822390616 0.913852036 0.768880010
0.912333846 0.917014718 0.779126763
0.239468262 0.245034993 0.835167587
0.271726787 0.252877980 0.831878722
0.353320390 0.257558465 0.832384348
0.445667267 0.268057942 0.830613315
0.550917149 0.283491462 0.824541390
0.662365973 0.296267986 0.818596005
0.769513249 0.318532258 0.816571832
0.873624623 0.349778563 0.807842970
0.253510565 0.290069520 0.816445291
0.295382798 0.293485522 0.828842580
0.355597585 0.300442845 0.822897196
0.451739341 0.308538884 0.819354713
0.550411046 0.319038600 0.816192269
0.653130770 0.331688523 0.810246527
0.755091488 0.348766536 0.798608541
0.856040597 0.370271981 0.797849298
0.301328272 0.386843354 0.814294755
0.330550313 0.393421829 0.816445351
0.390006244 0.397723198 0.819734395
0.469955683 0.402909815 0.816698372
0.568880439 0.411891162 0.812650263
0.661227167 0.424035549 0.806831002
0.762302458 0.443137079 0.803289235
0.855281651 0.463883728 0.802909613
0.383807808 0.504111588 0.804933906
0.404807091 0.508412123 0.807210624
0.446552992 0.516381919 0.803794920
0.508538902 0.517520547 0.803162515
0.591397643 0.520935893 0.797090173
0.670588374 0.525110841 0.794180810
0.753320634 0.533712924 0.790891886
0.845667005 0.543453276 0.790259182
0.430360556 0.602403522 0.793042481
0.453004718 0.609487474 0.806198657
0.499557287 0.618848562 0.800000131
0.555471301 0.622897148 0.797723055
0.616571665 0.620493293 0.796078265
0.684124172 0.623782277 0.793928266
0.760025561 0.623023391 0.793169200
0.847817421 0.628336430 0.795319259
0.484756559 0.698291957 0.804553807
0.499051273 0.702466965 0.811764657
0.528399825 0.703226030 0.807337224
0.577482522 0.704870403 0.804807067
0.635926723 0.708412230 0.805566251
0.700948715 0.708412230 0.801264763
0.771410525 0.708791673 0.803288996
0.864769220 0.713472784 0.815180123
0.492093563 0.777988315 0.804807246
0.509803832 0.774319828 0.799873531
0.539278924 0.778874159 0.800632417
0.582289577 0.777988315 0.799240947
0.637950480 0.776470482 0.801644325
0.705376446 0.783301532 0.806071997
0.785199285 0.793674827 0.813282847
0.878051639 0.807842910 0.822643995
0.526122689 0.903478980 0.840987086
0.539531827 0.898038805 0.840607584
0.564832211 0.903225660 0.841239750
0.611005664 0.903478980 0.841872394
0.669955790 0.907906413 0.843390107
0.739405155 0.906388581 0.840101063
0.827577353 0.915117204 0.852371693
0.911195338 0.919038355 0.861100316
0.324477792 0.329790771 0.957241774
0.354332507 0.335736632 0.951928794
0.407969743 0.343580037 0.949398816
0.491840452 0.352940977 0.940417469
0.590132773 0.373307943 0.946995616
0.686021626 0.394307554 0.941682816
0.786843538 0.420619786 0.935357153
0.888045788 0.455407590 0.929917574
0.330170512 0.367235959 0.939279079
0.370398641 0.369007170 0.944212615
0.420493066 0.378747344 0.943833053
0.494117439 0.390891850 0.940164506
0.587855816 0.405819148 0.941303194
0.685009539 0.422643632 0.931941330
0.787096977 0.444908381 0.930296957
0.887539506 0.474383593 0.932321548
0.402403474 0.466666639 0.938140512
0.423529476 0.472738624 0.937760770
0.476281106 0.480328918 0.940670550
0.537254512 0.485641837 0.939531744
0.618089736 0.497027129 0.937507987
0.705755651 0.510942340 0.930297136
0.797975898 0.525996089 0.930297077
0.884756505 0.543200791 0.926249087
0.483238071 0.578241408 0.930423796
0.500063062 0.581656814 0.938013732
0.531688511 0.583934307 0.933206737
0.582669437 0.587855637 0.929538071
0.643769562 0.589500308 0.926881611
0.714357972 0.594560266 0.925489962
0.791650891 0.595319211 0.919165134
0.878810763 0.601518214 0.915622592
0.536116242 0.662871659 0.927893400
0.542820990 0.670461953 0.924731135
0.573560953 0.670714676 0.926755071
0.614800811 0.673118472 0.929285109
0.670082211 0.669070363 0.928146780
0.733333290 0.669575989 0.928652585
0.805945694 0.665654719 0.923086464
0.888298392 0.673371196 0.923339784
0.552055776 0.745603681 0.937254727
0.563693762 0.751043499 0.935230732
0.586843610 0.749145865 0.934851229
0.630866468 0.749904990 0.931562304
0.680455387 0.751675963 0.928019822
0.743579924 0.750790536 0.934977710
0.817583799 0.748639762 0.926628530
0.895888746 0.751296461 0.926881731
0.546363235 0.823655844 0.924731016
0.569639504 0.825553715 0.933712780
0.588741183 0.824668050 0.928652525
0.627830207 0.827703893 0.934218884
0.683618009 0.828969061 0.932447612
0.753826559 0.828463018 0.931435823
0.827577353 0.830487251 0.933080494
0.908665299 0.835420668 0.934345365
0.572928786 0.925995946 0.939025760
0.583933949 0.916635215 0.942947447
0.605945826 0.920809746 0.939784825
0.646679103 0.920809746 0.945730388
0.700695932 0.917899966 0.940164387
0.767741621 0.925237000 0.944844723
0.843390405 0.922706723 0.939658642
0.925869823 0.937760592 0.945477724
