Assets/EldamarStudio/100 Retro LUTs Pack/LUTs/cube/Barbara LUT.cube
DOMAIN_MIN 0 0 0
DOMAIN_MAX 1 1 1
LUT_3D_SIZE 32
0.007843000 0.031373002 0.117647000
0.041239388 0.031373002 0.117647000
0.083238319 0.033523228 0.119797774
0.126249164 0.032763999 0.121569000
0.164579093 0.027450999 0.121189453
0.194939867 0.027450999 0.118153065
0.227830321 0.037570998 0.117647000
0.261227101 0.041492712 0.116002291
0.295383006 0.040734001 0.115243189
0.331815004 0.046806004 0.121315964
0.359518886 0.049968131 0.112840131
0.390891761 0.053004257 0.111827739
0.425427288 0.058317639 0.113724999
0.460848004 0.067172997 0.113724999
0.485135972 0.073244996 0.113724999
0.514231563 0.079316996 0.118532605
0.547628343 0.085388996 0.121569000
0.583428502 0.091460988 0.120936424
0.616824985 0.097533002 0.117900021
0.647438765 0.098039001 0.114863642
0.677798986 0.103731737 0.115622737
0.708159268 0.110815868 0.120683126
0.738646448 0.113978021 0.129159003
0.772042871 0.120050810 0.123086996
0.805439293 0.123845704 0.119291715
0.834661305 0.126881674 0.117647000
0.860468090 0.129917935 0.117647000
0.893864393 0.132953539 0.117647000
0.927260756 0.138645992 0.114990167
0.960657597 0.142947212 0.113724999
0.986970425 0.145983607 0.110183015
0.996078014 0.149020001 0.098039001
0.001771000 0.067805000 0.114610612
0.044275772 0.061733000 0.117647000
0.088424936 0.066034004 0.115496226
0.125996321 0.071220711 0.119291380
0.156609938 0.072612606 0.124225155
0.194939867 0.069955774 0.121189453
0.227830321 0.067425452 0.118153065
0.261227101 0.073750801 0.116002291
0.294624090 0.074889675 0.113724999
0.328779399 0.074130394 0.115243196
0.359392375 0.080202386 0.115496226
0.384819508 0.087413028 0.114863865
0.416318893 0.090196133 0.113345742
0.452751666 0.091461003 0.108412035
0.488172382 0.097532995 0.116761386
0.512460351 0.106008798 0.119165190
0.547627985 0.106641389 0.120050810
0.584566772 0.106641382 0.119165190
0.610753000 0.112713397 0.120936424
0.644149363 0.121568739 0.123466030
0.674763083 0.122327775 0.122833386
0.706135511 0.127008379 0.121694997
0.738646448 0.132068247 0.120430127
0.772042871 0.135230422 0.123086996
0.805439293 0.139025897 0.121569000
0.837444305 0.143453375 0.119291715
0.865022123 0.148134053 0.117140934
0.890828788 0.151170313 0.114610612
0.921568274 0.151549771 0.114610612
0.954585612 0.155091539 0.113724999
0.983555019 0.158127606 0.112839617
0.999114394 0.161164001 0.107147381
0.000000000 0.104237542 0.109423995
0.040353999 0.100316323 0.118912160
0.078557767 0.098545328 0.115496226
0.122074537 0.103352159 0.113724999
0.151802778 0.107779995 0.120176777
0.191271156 0.106514841 0.124225155
0.223529324 0.105629221 0.114737675
0.258570403 0.105882257 0.113345996
0.292473316 0.110689670 0.113092773
0.325869739 0.110436291 0.115875781
0.356356770 0.109677546 0.120176770
0.388741016 0.113725282 0.120176770
0.416824639 0.121441998 0.121947996
0.451486349 0.121441804 0.115875743
0.482226789 0.121821538 0.113598637
0.521947980 0.125995800 0.120050803
0.549272358 0.130549997 0.123086803
0.586084545 0.128273144 0.120683007
0.611891270 0.134345561 0.119165197
0.642378390 0.138899356 0.120050646
0.675774693 0.144212738 0.121188998
0.706388533 0.145477638 0.122201130
0.738646448 0.150410995 0.119797774
0.772042871 0.155470863 0.120809905
0.803289056 0.156356275 0.117267452
0.835294068 0.158000991 0.115876131
0.866160810 0.162049055 0.113851927
0.895382881 0.165085450 0.114104554
0.920682907 0.167615771 0.115875773
0.951043367 0.171157748 0.110562570
0.979633212 0.174572930 0.107653007
0.997849226 0.177608997 0.103352226
0.000000000 0.140670314 0.108411998
0.031878389 0.137634382 0.115496449
0.075521708 0.135484159 0.116002612
0.113219321 0.136748999 0.113724999
0.149652094 0.138646156 0.114104547
0.188235089 0.136875153 0.121441931
0.217583477 0.139405146 0.117899999
0.256293565 0.139784709 0.114863992
0.289690197 0.142821088 0.111827992
0.321568519 0.145856827 0.114864007
0.352055728 0.144339025 0.118406005
0.385705411 0.142820895 0.125489995
0.421378791 0.145856798 0.125489995
0.454016209 0.151549354 0.125489995
0.479317039 0.150537729 0.119417749
0.514863968 0.151043683 0.116002284
0.555091500 0.155091479 0.121821962
0.586084664 0.154458910 0.124857575
0.614674211 0.158633932 0.120682999
0.644781888 0.160657808 0.118912160
0.675774693 0.164958730 0.120177001
0.708159268 0.166982993 0.119165130
0.738393486 0.169892162 0.121442489
0.769512892 0.175964162 0.120303839
0.804427385 0.178747311 0.117014423
0.834788084 0.178747311 0.112333678
0.865148962 0.178747311 0.109803997
0.897786438 0.181024611 0.112080701
0.927008092 0.185325831 0.111321837
0.953573346 0.190132961 0.112333797
0.977735579 0.195319593 0.103225626
0.994813144 0.198355317 0.096774161
0.000379548 0.177103087 0.115243092
0.019734388 0.174446240 0.113345549
0.062492222 0.171030864 0.112333767
0.109045163 0.170904487 0.111448385
0.149652094 0.172422081 0.114104547
0.186084867 0.166350096 0.117140934
0.212396994 0.170398086 0.117647000
0.248323709 0.172801644 0.120556541
0.291588008 0.173560634 0.123592541
0.315876037 0.176597029 0.111448541
0.347122192 0.176344082 0.110942543
0.380392402 0.175078824 0.117520534
0.417204618 0.173560724 0.124730997
0.456926048 0.176344082 0.124730997
0.479063928 0.179253951 0.124730997
0.509550750 0.180645540 0.119038291
0.544844985 0.182922527 0.116381839
0.582669497 0.187476516 0.121442415
0.616065979 0.184440121 0.124478035
0.646679640 0.184187084 0.121948257
0.677419543 0.187602535 0.123466253
0.707400262 0.192030087 0.123719029
0.738013983 0.192156598 0.120936416
0.766097426 0.197975650 0.118406095
0.801770806 0.201770827 0.115749262
0.836685300 0.203795090 0.113092676
0.867425561 0.203415543 0.110183448
0.897786319 0.203415543 0.110183448
0.930044174 0.208349094 0.104870461
0.961037099 0.214041531 0.103731766
0.983807564 0.218848601 0.104364075
0.992915988 0.221884996 0.095256448
0.003415935 0.213535860 0.127387866
0.009487935 0.213535860 0.112207480
0.050347775 0.208728790 0.114610940
0.096900612 0.208222866 0.116634995
0.137508094 0.211891234 0.117140934
0.186084867 0.202782869 0.117140934
0.212396994 0.206830859 0.117647000
0.243263409 0.207969576 0.119291708
0.280202329 0.206957713 0.122074932
0.309804022 0.209993422 0.120556936
0.348639846 0.207210809 0.120050937
0.378494322 0.208728597 0.120050937
0.409614027 0.208475515 0.120936289
0.444782048 0.206704870 0.118658997
0.487286776 0.206704870 0.118658997
0.516634881 0.212017924 0.121062808
0.547501326 0.214041919 0.119038679
0.579380155 0.215053931 0.118153065
0.609993994 0.214800894 0.118406028
0.640606999 0.214547858 0.115875646
0.672865391 0.216445118 0.120429859
0.703732073 0.219987065 0.122453868
0.731941998 0.222517371 0.114863642
0.768374801 0.225553766 0.117900036
0.801012218 0.229095504 0.117647000
0.832637548 0.232131615 0.117140934
0.861480057 0.233649805 0.116128936
0.894749880 0.230739936 0.113219060
0.922453821 0.233396769 0.107906073
0.956103384 0.236938626 0.105376065
0.984819591 0.239594936 0.105881996
0.998987973 0.240100995 0.104364060
0.001391678 0.247438312 0.121821679
0.004934001 0.242378324 0.114231609
0.036812548 0.246679321 0.111954227
0.086021647 0.244655311 0.117647000
0.129285529 0.247058854 0.119038776
0.171410546 0.242252022 0.112586997
0.214927316 0.240733951 0.115116678
0.247438014 0.241872251 0.118406095
0.282479107 0.239595324 0.122327901
0.311068684 0.240860164 0.124098673
0.340038180 0.240607187 0.116508357
0.375458568 0.241619572 0.120556876
0.407210588 0.243516952 0.120430358
0.441745996 0.242125630 0.117900029
0.475142151 0.242125630 0.120177321
0.515243769 0.239721835 0.120177321
0.549019694 0.245414317 0.123086803
0.581404269 0.247438312 0.122706994
0.611764729 0.247438312 0.122706994
0.637065351 0.252498329 0.119924285
0.673117995 0.252498329 0.116887905
0.706767976 0.253889650 0.119417869
0.735610485 0.255154848 0.113598518
0.764832497 0.253384233 0.111827902
0.798987985 0.256420016 0.112586997
0.830992937 0.258064330 0.111195326
0.859962165 0.259456009 0.110056676
0.891334713 0.258443862 0.109044552
0.921947777 0.260721147 0.103352018
0.952814579 0.261986315 0.104363978
0.983175278 0.265148640 0.104111008
1.000000000 0.268437654 0.100822002
0.000000000 0.280834705 0.114358000
0.001391679 0.276407421 0.113219291
0.024162134 0.277292699 0.115243644
0.072992064 0.279569864 0.115749255
0.122327842 0.278810829 0.119544744
0.164326206 0.275774896 0.112966351
0.207969636 0.276913702 0.115623094
0.238962710 0.276913702 0.117014416
0.278431118 0.274636418 0.120050810
0.309297532 0.274636418 0.120429814
0.339911610 0.272991687 0.120050550
0.371284246 0.273371249 0.116128802
0.405819267 0.274130613 0.119924292
0.441999018 0.273877650 0.118152998
0.473750651 0.275268972 0.122580700
0.508032620 0.272865593 0.121569000
0.542947650 0.275901198 0.120050810
0.578494847 0.280202299 0.121568426
0.609867096 0.279190391 0.120556287
0.634661794 0.281467408 0.117773645
0.666793406 0.283744425 0.116382264
0.704237819 0.284756303 0.115369871
0.735230982 0.285388708 0.113598518
0.764073133 0.283870906 0.110562898
0.799241006 0.285389125 0.111448288
0.831246018 0.287033409 0.110056967
0.861606777 0.287033409 0.107526705
0.891967118 0.287033409 0.107526705
0.922327638 0.288045526 0.103858002
0.951169848 0.289310694 0.096647695
0.981024861 0.291967303 0.100948714
1.000000000 0.298798412 0.096394710
0.000000000 0.314990193 0.109044902
0.000000000 0.311954588 0.113598704
0.014800776 0.311701417 0.118026547
0.055534378 0.313725352 0.118785843
0.111701541 0.311069191 0.117647000
0.157242030 0.308412343 0.116508156
0.200505763 0.308918417 0.117267452
0.238203600 0.310310096 0.119291909
0.264010191 0.310310096 0.120809905
0.303478599 0.310310096 0.114737131
0.337887615 0.307400227 0.118785650
0.370525151 0.306388080 0.118785650
0.403542191 0.306008637 0.116887905
0.439721942 0.303479016 0.116887905
0.473118275 0.306514740 0.121947892
0.507273734 0.304743797 0.120809712
0.539152384 0.304743975 0.117773712
0.570778131 0.313219190 0.116002478
0.604301095 0.310563058 0.113219120
0.630866647 0.310310096 0.112460345
0.663504481 0.310310096 0.109803997
0.698166013 0.311322182 0.110056967
0.731562436 0.314231306 0.113219090
0.762555182 0.314231306 0.112080894
0.797469735 0.316508383 0.112080708
0.832005084 0.317394197 0.110815682
0.862872005 0.316888124 0.108286001
0.893485069 0.316635102 0.108286001
0.923845530 0.318153083 0.106388263
0.953953207 0.318153083 0.100569248
0.978747606 0.317773700 0.092599995
1.000000000 0.326882094 0.092599995
0.000000002 0.351422995 0.106008522
0.000000000 0.348387390 0.115116909
0.006451771 0.345351219 0.119671255
0.037824310 0.345098168 0.117773838
0.096521132 0.347501993 0.111574993
0.142062306 0.347501993 0.123718999
0.180012465 0.344845146 0.117520161
0.220113426 0.343706489 0.112333745
0.260973781 0.343706489 0.111701518
0.300442994 0.343706489 0.117773511
0.337002218 0.340796649 0.117520481
0.369259983 0.339784503 0.115749262
0.399746805 0.339784503 0.113851525
0.430613548 0.339911044 0.113851517
0.464009881 0.342947423 0.113851510
0.499810100 0.341176182 0.111701317
0.533080399 0.338140219 0.108665317
0.564706147 0.337507993 0.106894091
0.601139009 0.343580008 0.109930485
0.631878495 0.343706489 0.115496479
0.667678714 0.343706489 0.113599002
0.703984976 0.344718635 0.109803997
0.734598041 0.347628474 0.110183470
0.767995238 0.347628474 0.116255477
0.798987985 0.349905193 0.115116708
0.828336179 0.350158215 0.109550685
0.856799185 0.347248912 0.102213994
0.890196323 0.344212532 0.102213994
0.920809388 0.349272519 0.102214001
0.952941120 0.351549506 0.098545499
0.981657445 0.350664139 0.092347004
1.000000000 0.348134518 0.086527988
0.002909871 0.376217753 0.111700997
0.000000000 0.381910264 0.114990383
0.000000000 0.381024867 0.117647000
0.019481286 0.378747553 0.116129130
0.069069907 0.378874004 0.110562995
0.129791051 0.383933991 0.117647000
0.180392221 0.376344323 0.119671002
0.213788569 0.379126996 0.118279576
0.249209285 0.382162929 0.117014676
0.288678467 0.380012721 0.114484131
0.336875737 0.377102852 0.117647000
0.367236257 0.376090735 0.119671255
0.396710873 0.374952376 0.117267460
0.427071214 0.373181611 0.113219000
0.457811385 0.373561144 0.107905999
0.488804579 0.374193728 0.105502814
0.524225354 0.376217604 0.107020989
0.558633924 0.377988726 0.108159289
0.595066249 0.379506737 0.106641099
0.628716409 0.377229363 0.106894128
0.661100566 0.379000604 0.108918130
0.697533429 0.379000604 0.107906260
0.731562376 0.378114998 0.109424494
0.759392858 0.378114998 0.101581134
0.795066714 0.378114998 0.105376415
0.825300515 0.377735555 0.102213882
0.853636920 0.375711799 0.096142001
0.887033463 0.377482414 0.096142001
0.917773783 0.382415831 0.098798156
0.948133767 0.383175105 0.095509149
0.977735460 0.381151140 0.088551529
1.000000000 0.378114998 0.080455258
0.003922000 0.404553980 0.111701258
0.002909869 0.410626501 0.110689133
0.004047996 0.410373241 0.115622744
0.001517996 0.411638409 0.114357904
0.034914404 0.410499752 0.109803997
0.108538546 0.413282752 0.112586997
0.162175715 0.416824818 0.115622744
0.210499868 0.411005795 0.113978453
0.244655356 0.414800495 0.113219656
0.286654204 0.410499722 0.105882041
0.326755494 0.413535625 0.112586871
0.367236257 0.410499752 0.113599002
0.394560635 0.409361124 0.113219753
0.423782289 0.406578243 0.108159266
0.452371806 0.406578243 0.109171256
0.488804340 0.410626233 0.105502546
0.520683289 0.407590240 0.103984736
0.555977523 0.410373241 0.106514752
0.591018319 0.410373241 0.102087036
0.622644126 0.409614146 0.101833999
0.659835756 0.408475518 0.101833999
0.693485141 0.410373241 0.101833999
0.728652716 0.408475518 0.103352271
0.757874906 0.408475518 0.094244353
0.794054270 0.408475518 0.096268289
0.824921012 0.409867197 0.095130011
0.853131115 0.408602506 0.090575933
0.888045669 0.410120308 0.092093743
0.914737403 0.413788497 0.088678166
0.948640108 0.414547741 0.086401030
0.976849854 0.412397504 0.082100004
1.000000000 0.410499752 0.076407261
0.003922000 0.439468265 0.106388353
0.006198998 0.442125440 0.106767610
0.003795228 0.445161492 0.107905999
0.005313001 0.442378163 0.110183164
0.007590090 0.444655538 0.107906453
0.084250160 0.443896651 0.108665355
0.143200323 0.445540994 0.107779682
0.191524476 0.448956579 0.107526712
0.236306548 0.447438180 0.106767997
0.281467527 0.442504644 0.099557169
0.320556730 0.445793629 0.104490876
0.356989235 0.445793927 0.107527003
0.393422008 0.442757994 0.106388360
0.421252459 0.440227658 0.101075388
0.450348049 0.441113293 0.106261998
0.485009432 0.444781631 0.106261842
0.520303309 0.447058618 0.104743645
0.553700447 0.441619217 0.103478655
0.587096989 0.441113293 0.097406648
0.619987726 0.441113293 0.098039001
0.654902101 0.439974636 0.096900649
0.691334665 0.439974636 0.095888518
0.724478006 0.440101147 0.095761999
0.754838824 0.441113293 0.089690253
0.790891886 0.441113293 0.088551991
0.825679660 0.441366345 0.090196364
0.850980520 0.444402575 0.085136354
0.886148214 0.445034981 0.087539546
0.915369987 0.444275796 0.080329016
0.944465339 0.444908231 0.076534018
0.978241563 0.442757994 0.073118381
1.000000000 0.442757994 0.073371358
0.003668968 0.481467038 0.097786032
0.009234969 0.478431433 0.103352033
0.005313226 0.481088042 0.104617029
0.000000000 0.483870924 0.104617156
0.003795061 0.480834574 0.101834454
0.064515837 0.477798969 0.104870066
0.124730930 0.474762708 0.100063033
0.176850080 0.475268751 0.096647680
0.221632153 0.478051990 0.095129997
0.264136970 0.481087595 0.101202004
0.305882663 0.480961055 0.101201966
0.345856994 0.478937268 0.101707973
0.381277293 0.476913422 0.100822359
0.417963028 0.473877072 0.098039001
0.451360166 0.476913482 0.101075388
0.484756768 0.479443252 0.101455003
0.516888022 0.481214076 0.101201966
0.547880709 0.480075598 0.099683948
0.581277907 0.477039993 0.093611941
0.617204666 0.477040023 0.095888652
0.653890014 0.475395292 0.095888712
0.688298225 0.473624051 0.092599869
0.718658984 0.473371059 0.089437008
0.749019802 0.476027936 0.089184001
0.783681512 0.477293044 0.086907223
0.817836940 0.477040023 0.083871327
0.848197162 0.477292955 0.080835007
0.878557861 0.480328560 0.080835007
0.911068797 0.475648075 0.071221024
0.943453312 0.473371029 0.065401964
0.972675562 0.473118067 0.065275349
1.000000000 0.473118067 0.068310969
0.000632584 0.517899811 0.094750419
0.000632584 0.514864206 0.094750419
0.001897590 0.511828065 0.091714427
0.000000000 0.513219595 0.094497435
0.001897547 0.514231682 0.101581454
0.018975489 0.511195362 0.098798074
0.097406581 0.508159101 0.091714330
0.161163718 0.510056794 0.093105718
0.212523773 0.513978839 0.096647680
0.255028605 0.514484763 0.095130004
0.288804471 0.511701345 0.092473134
0.338266671 0.509297550 0.096141584
0.377735287 0.510815620 0.098671585
0.405819058 0.516381800 0.098039001
0.445287406 0.513346255 0.098039001
0.478684574 0.511575043 0.096268393
0.512081206 0.512840033 0.093864813
0.544844925 0.512713671 0.090196021
0.578241527 0.504364371 0.081467181
0.611638010 0.506893992 0.083744533
0.649462402 0.507399976 0.088678002
0.685262382 0.507779539 0.088804588
0.715622544 0.509803832 0.083365016
0.745983422 0.503731847 0.077293001
0.778620899 0.508665383 0.074762732
0.814041495 0.509297729 0.071726851
0.848197162 0.507399976 0.068185017
0.878557861 0.507652938 0.062619016
0.906261802 0.505376220 0.062619016
0.941935062 0.505249560 0.054775804
0.975078762 0.505882025 0.047564995
1.000000000 0.503478825 0.040986609
0.002403804 0.551928759 0.094117999
0.000000000 0.546489358 0.084503397
0.002150774 0.545603991 0.086654171
0.001138643 0.546615779 0.083871193
0.000000000 0.550031543 0.088425212
0.005060139 0.546995640 0.079317085
0.068690971 0.548766255 0.080834724
0.139152408 0.545730293 0.079949394
0.195319399 0.548007786 0.087539397
0.241113201 0.548007786 0.089437477
0.284503669 0.545097947 0.083997332
0.323972285 0.544085801 0.080961458
0.370271802 0.542567551 0.083618015
0.400632232 0.547121763 0.083618015
0.437950402 0.546236396 0.083618015
0.475015581 0.548007786 0.081214212
0.512966573 0.546489596 0.079696402
0.547122121 0.547375202 0.079443194
0.575205803 0.541808784 0.079190031
0.608602226 0.539026082 0.078810558
0.643896282 0.540164411 0.074256949
0.679822981 0.540164411 0.075775012
0.710309505 0.541682601 0.072359502
0.742947638 0.540164590 0.064010203
0.773307800 0.538646579 0.057938207
0.806577981 0.541682601 0.056167014
0.841492891 0.540164411 0.054143138
0.873750865 0.540164411 0.049968399
0.906261802 0.539911389 0.039595403
0.940670073 0.542188585 0.039595403
0.975711167 0.543200433 0.032384608
1.000000000 0.538646579 0.023276206
0.002403808 0.583807349 0.083491817
0.000885613 0.580771387 0.080455422
0.000632582 0.575964391 0.074509777
0.004933808 0.577229559 0.078811005
0.002276998 0.583048582 0.079696454
0.000000000 0.583428323 0.073244803
0.040986717 0.580898285 0.061606493
0.116382197 0.580644906 0.070840999
0.177102998 0.579886198 0.075395003
0.228715792 0.581404209 0.079949580
0.268311441 0.580012500 0.074383259
0.313346088 0.577482581 0.068817072
0.359266520 0.577482581 0.069196805
0.397343218 0.577229559 0.069702841
0.432510793 0.575964391 0.068438008
0.470461786 0.575331807 0.069070198
0.505376399 0.578368187 0.066034198
0.545983553 0.578368187 0.066034198
0.572928786 0.576217413 0.070335202
0.607084394 0.573181331 0.066287011
0.642378449 0.573561192 0.063630372
0.676786959 0.573561192 0.056546748
0.707147002 0.573434651 0.055914305
0.739152491 0.572043002 0.049588908
0.771789968 0.573561192 0.042757817
0.804933310 0.573561192 0.039468814
0.837950945 0.573055148 0.036938753
0.870335400 0.572043002 0.029854368
0.902213573 0.575079381 0.023403034
0.936116278 0.574067175 0.016824815
0.973813772 0.577482581 0.019481417
1.000000000 0.572043002 0.014168195
0.000632576 0.613535523 0.062871858
0.000000000 0.614168108 0.068943858
0.000632576 0.610499561 0.067678846
0.001265009 0.609487712 0.063504457
0.006957556 0.610626519 0.071853451
0.001644576 0.615180552 0.076660067
0.021505360 0.613029957 0.059455685
0.080834657 0.609234810 0.054142732
0.157748207 0.608475566 0.066793025
0.218468994 0.614547491 0.066793017
0.253637046 0.613535523 0.060341448
0.297659814 0.612776816 0.056799430
0.343579918 0.610879540 0.053384021
0.393169045 0.611385524 0.059202991
0.425806403 0.609487712 0.056926273
0.463377833 0.605818868 0.055534646
0.500442982 0.605186284 0.056799643
0.535104513 0.606957555 0.052498881
0.568500996 0.606957555 0.052498870
0.605313122 0.604806721 0.046679497
0.641113460 0.604933262 0.041366283
0.675521970 0.606957555 0.038962565
0.706008494 0.606957555 0.035673935
0.736875236 0.604427218 0.031625543
0.768880308 0.605312824 0.027577445
0.802403331 0.606957555 0.023023449
0.838836133 0.606451631 0.023529515
0.869449854 0.603415251 0.009108152
0.899809957 0.607716620 0.004554269
0.933838964 0.608475924 0.002150783
0.965338588 0.606704533 0.000759032
0.998735011 0.603668094 0.009867433
0.003668965 0.640860021 0.044655059
0.000632580 0.643896461 0.050727043
0.002150772 0.642378211 0.052498043
0.002403807 0.644149184 0.048197206
0.000885553 0.650094986 0.044529017
0.003921932 0.637951016 0.068816990
0.003668965 0.639974713 0.053383656
0.052498356 0.640607059 0.041998692
0.133965403 0.641872048 0.042757973
0.206324965 0.647943974 0.048576977
0.243769735 0.642377973 0.039848115
0.294117779 0.642884314 0.041113012
0.345098227 0.644276023 0.042757656
0.387097031 0.644782007 0.040986948
0.414421409 0.650853932 0.044022545
0.449462593 0.646552980 0.034535054
0.486148000 0.643769979 0.031246208
0.522959769 0.643390417 0.031246442
0.562429011 0.640354037 0.022138044
0.601391375 0.640354037 0.024920687
0.636812270 0.640100956 0.023149790
0.669449985 0.640354037 0.021125982
0.699936450 0.640354037 0.020493515
0.733332932 0.640354037 0.011385117
0.764199555 0.640100956 0.009614022
0.794813275 0.640354037 0.006325040
0.826692104 0.639848113 0.002277099
0.863124847 0.636812449 0.005313480
0.893737912 0.639089108 0.001518135
0.931182325 0.638836324 0.000253032
0.967615247 0.637571394 0.000000001
0.992662966 0.640100956 0.000759035
0.001138643 0.673751116 0.040354352
0.000885612 0.668437421 0.029727636
0.000000000 0.673624575 0.031498633
0.003668643 0.673751116 0.034028955
0.004807005 0.676787198 0.034029447
0.000632579 0.671853423 0.041492626
0.001138643 0.667299092 0.035420626
0.032384742 0.671473742 0.024794279
0.105629347 0.673751116 0.024794372
0.182542965 0.675775051 0.032890633
0.237191737 0.675775111 0.027198121
0.277672499 0.671726882 0.026185732
0.327008247 0.672106385 0.026944637
0.371157348 0.672106385 0.022264311
0.411132038 0.673118353 0.020240562
0.445667237 0.674383342 0.020872982
0.482100010 0.672106385 0.013282994
0.517899871 0.672106385 0.011259055
0.553067625 0.671220779 0.006451664
0.595319390 0.673751116 0.005692635
0.629095495 0.669955611 0.006830987
0.661606789 0.669196486 0.006704763
0.693991005 0.671094298 0.008349479
0.730044305 0.673751116 0.004554089
0.763440669 0.676027834 0.002276996
0.797090292 0.675142407 0.003668668
0.830740035 0.673751116 0.002783357
0.864895463 0.672992170 0.003542449
0.901328206 0.669955909 0.001265167
0.931941688 0.670967758 0.000000000
0.967741966 0.670715034 0.000885608
0.997722983 0.673751116 0.002783357
0.000000000 0.705249965 0.020240534
0.000000000 0.704870403 0.015686236
0.000000000 0.699810266 0.012144011
0.002529999 0.703352749 0.013409172
0.007084001 0.704111755 0.018090270
0.001012001 0.705629528 0.019608080
0.000000000 0.700695872 0.015686270
0.001644708 0.700948477 0.011764975
0.067678921 0.706009090 0.009234652
0.158001512 0.707147717 0.013788752
0.228842735 0.697659969 0.012144268
0.269702733 0.703226209 0.010246751
0.309930533 0.702466786 0.012144011
0.353953063 0.703478754 0.008096008
0.403035790 0.705123484 0.006704686
0.444528610 0.701328456 0.006072264
0.477925390 0.701328456 0.007590455
0.513599098 0.701328456 0.005186990
0.548260748 0.701328456 0.005945763
0.584313750 0.704111338 0.000000000
0.623023450 0.705249965 0.000000000
0.654396117 0.700189590 0.000000000
0.687665999 0.701328456 0.002024260
0.720556796 0.702593684 0.000759096
0.758507252 0.707527220 0.000000000
