Assets/EldamarStudio/100 Retro LUTs Pack/LUTs/cube/Barbara LUT.cube
LUT_3D_SIZE 5
DOMAIN_MIN 0.000000 0.000000 0.000000
DOMAIN_MAX 0.903226 0.903226 0.903226
0.007843000 0.031373002 0.117647000
0.261227101 0.041492712 0.116002291
0.485135972 0.073244996 0.113724999
0.708159268 0.110815868 0.120683126
0.927260756 0.138645992 0.114990167
0.000000000 0.280834705 0.114358000
0.238962710 0.276913702 0.117014416
0.473750651 0.275268972 0.122580700
0.704237819 0.284756303 0.115369871
0.922327638 0.288045526 0.103858002
0.000632584 0.517899811 0.094750419
0.161163718 0.510056794 0.093105718
0.445287406 0.513346255 0.098039001
0.685262382 0.507779539 0.088804588
0.906261802 0.505376220 0.062619016
0.000000000 0.734598100 0.001012128
0.000632580 0.732321382 0.002656578
0.391397655 0.736875415 0.002023998
0.648324132 0.734598100 0.000000000
0.889310658 0.739531994 0.001644704
0.001265167 0.941555798 0.006452012
0.001644708 0.948386908 0.000000000
0.303478807 0.941555798 0.001265006
0.587223291 0.944465637 0.000000000
0.843516767 0.940290630 0.002656833
0.069955997 0.027450999 0.274889708
0.268437684 0.042504996 0.270335704
0.485515505 0.085009828 0.264136404
0.705882132 0.118026547 0.261479825
0.930170655 0.145477548 0.247438535
0.000000000 0.276913673 0.261480004
0.233776107 0.279190421 0.264768988
0.480581820 0.280202240 0.264516115
0.700316250 0.285388708 0.251360118
0.919417739 0.293864518 0.242884696
0.003921581 0.510689437 0.237950981
0.155598000 0.513598680 0.242251679
0.446299672 0.510689378 0.235673279
0.683617711 0.510056853 0.230739996
0.910563052 0.506767809 0.223909125
0.000632580 0.733586252 0.215686575
0.012523705 0.730677128 0.203921407
0.389373839 0.734345376 0.199367568
0.642757952 0.729411721 0.193421841
0.893485069 0.740164459 0.172549158
0.001644708 0.944212615 0.133839607
0.002277292 0.945856929 0.133333594
0.315496266 0.947122097 0.128273487
0.599493861 0.942188382 0.114737608
0.839848101 0.944212615 0.072106391
0.150410995 0.045161411 0.458444208
0.296521097 0.058190994 0.454775512
0.499556988 0.085642412 0.448576808
0.712460518 0.121948287 0.446299523
0.928525746 0.154965416 0.435420811
0.090954982 0.282479405 0.449589103
0.260594696 0.278937101 0.443010688
0.483871222 0.280834705 0.444654971
0.704617083 0.287412852 0.433143705
0.926628590 0.298798412 0.437444389
0.003289416 0.510056853 0.440101385
0.203668699 0.509677112 0.434787989
0.456419826 0.507399976 0.430233985
0.683997273 0.513599098 0.431246102
0.913472354 0.508032382 0.422390848
0.001012128 0.735863566 0.413915396
0.044402380 0.734977841 0.414674103
0.413662285 0.729411721 0.416192085
0.651613116 0.732321382 0.413156390
0.894497216 0.738266826 0.408349246
0.004554423 0.940164804 0.392282963
0.005566289 0.940543890 0.396584541
0.364326209 0.945477605 0.391650558
0.620240152 0.943200469 0.392030239
0.851992309 0.938899636 0.377861977
0.210879132 0.072612002 0.645414293
0.321694970 0.087286867 0.652878165
0.509044528 0.109550864 0.648703396
0.719924212 0.135356992 0.651233256
0.936748743 0.158253998 0.644781947
0.173687547 0.276913702 0.655914307
0.294243991 0.284756720 0.648703396
0.496015102 0.285135984 0.649715543
0.714357674 0.288677692 0.642757952
0.929538012 0.300189644 0.643137574
0.072359309 0.509677291 0.640480697
0.252751529 0.510056853 0.645035148
0.478684783 0.512966692 0.641113162
0.691207767 0.514611244 0.638583124
0.916128814 0.511954427 0.637191534
0.002909872 0.736622095 0.632637382
0.134724542 0.742820978 0.624161720
0.427956939 0.732321382 0.628083408
0.672865272 0.727767289 0.625806272
0.911195457 0.726755142 0.627071440
0.000000000 0.946489692 0.597976148
0.000000000 0.946489692 0.604554117
0.377229393 0.942568064 0.607716739
0.659582555 0.940290630 0.617584169
0.870587945 0.940543950 0.614041984
0.264262825 0.101961002 0.850094616
0.355724394 0.106894284 0.854395747
0.515243828 0.124857575 0.855407596
0.718659103 0.146363169 0.852751434
0.928525925 0.168626994 0.847438455
0.256546706 0.282858700 0.855913937
0.342694402 0.283111989 0.855913818
0.512966573 0.285388708 0.852371931
0.714357674 0.295888543 0.851613104
0.926881671 0.302087575 0.854269683
0.225173786 0.501454592 0.853510141
0.340796828 0.506767571 0.851106882
0.517267406 0.508664966 0.850094616
0.710183382 0.514611244 0.851106882
0.919417799 0.512587011 0.850727201
0.054775029 0.720936120 0.844149172
0.249462247 0.720809340 0.845920324
0.475775063 0.719544530 0.848450363
0.709803939 0.728020310 0.849082768
0.917773485 0.726755142 0.846426308
0.000000000 0.946742654 0.842378438
0.000000000 0.946109951 0.826818645
0.400885373 0.944845200 0.837697327
0.667425811 0.944465637 0.835673809
0.907653451 0.932320833 0.837064803
