Assets/EldamarStudio/100 Retro LUTs Pack/LUTs/cube/Barbara LUT.cube
LUT_3D_SIZE 8
DOMAIN_MIN 0.000000 0.000000 0.000000
DOMAIN_MAX 0.903226 0.903226 0.903226
0.007843000 0.031373002 0.117647000
0.164579093 0.027450999 0.121189453
0.295383006 0.040734001 0.115243189
0.425427288 0.058317639 0.113724999
0.547628343 0.085388996 0.121569000
0.677798986 0.103731737 0.115622737
0.805439293 0.123845704 0.119291715
0.927260756 0.138645992 0.114990167
0.000379548 0.177103087 0.115243092
0.149652094 0.172422081 0.114104547
0.291588008 0.173560634 0.123592541
0.417204618 0.173560724 0.124730997
0.544844985 0.182922527 0.116381839
0.677419543 0.187602535 0.123466253
0.801770806 0.201770827 0.115749262
0.930044174 0.208349094 0.104870461
0.000000000 0.314990193 0.109044902
0.111701541 0.311069191 0.117647000
0.264010191 0.310310096 0.120809905
0.403542191 0.306008637 0.116887905
0.539152384 0.304743975 0.117773712
0.663504481 0.310310096 0.109803997
0.797469735 0.316508383 0.112080708
0.923845530 0.318153083 0.106388263
0.003922000 0.439468265 0.106388353
0.007590090 0.444655538 0.107906453
0.236306548 0.447438180 0.106767997
0.393422008 0.442757994 0.106388360
0.520303309 0.447058618 0.104743645
0.654902101 0.439974636 0.096900649
0.790891886 0.441113293 0.088551991
0.915369987 0.444275796 0.080329016
0.002403808 0.583807349 0.083491817
0.002276998 0.583048582 0.079696454
0.177102998 0.579886198 0.075395003
0.359266520 0.577482581 0.069196805
0.505376399 0.578368187 0.066034198
0.642378449 0.573561192 0.063630372
0.771789968 0.573561192 0.042757817
0.902213573 0.575079381 0.023403034
0.000000000 0.705249965 0.020240534
0.007084001 0.704111755 0.018090270
0.067678921 0.706009090 0.009234652
0.309930533 0.702466786 0.012144011
0.477925390 0.701328456 0.007590455
0.623023450 0.705249965 0.000000000
0.758507252 0.707527220 0.000000000
0.894876599 0.706388652 0.003162908
0.000000000 0.828336298 0.006578009
0.000000000 0.825426877 0.001644712
0.000000013 0.829095542 0.004554191
0.265021980 0.828336298 0.007211004
0.434788167 0.822770536 0.005439805
0.592283189 0.822517514 0.001644712
0.727008283 0.825047314 0.000000000
0.869955778 0.830993116 0.002277288
0.001265167 0.941555798 0.006452012
0.000379548 0.945098221 0.002530012
0.001897736 0.946868777 0.000000000
0.169512957 0.944591761 0.008981644
0.395192742 0.945477784 0.003035997
0.552055657 0.944718719 0.000000000
0.700822115 0.945098221 0.002656833
0.843516767 0.940290630 0.002656833
0.016824547 0.035294000 0.202656552
0.168121547 0.023908548 0.199114099
0.295003563 0.044655096 0.205440000
0.426312268 0.066539995 0.199620456
0.548513353 0.089690447 0.192409739
0.680202305 0.109676994 0.194054544
0.803162515 0.126122996 0.186337546
0.922327340 0.142567992 0.180012837
0.003922000 0.176723540 0.197975546
0.141429543 0.177103087 0.194434002
0.288804650 0.174319625 0.191650540
0.415307105 0.178241536 0.189753190
0.544591963 0.185705185 0.195698559
0.677419543 0.192030087 0.185452357
0.799114525 0.202024296 0.183301985
0.924225092 0.207337543 0.180012837
0.003921903 0.309551001 0.194813550
0.107400090 0.309930533 0.194939554
0.271094084 0.312713087 0.188614547
0.399240851 0.304364651 0.186590999
0.535990059 0.308665365 0.184313998
0.665527999 0.312333852 0.180265903
0.794940054 0.316128939 0.174066991
0.924983740 0.321568668 0.165465012
0.000000000 0.445794076 0.182036802
0.012776736 0.444781721 0.178494468
0.238709554 0.446679175 0.176850349
0.391777277 0.440733731 0.175332353
0.520682871 0.443517089 0.173687443
0.656673014 0.442757994 0.170271814
0.785958350 0.447438180 0.162302196
0.915243447 0.442378461 0.154586002
0.004807003 0.578747749 0.162428901
0.004807003 0.581150949 0.153826714
0.182289556 0.580645263 0.157748014
0.362049282 0.575458705 0.158886746
0.503858149 0.579886377 0.142820999
0.636559129 0.577103138 0.142568156
0.772169709 0.575205445 0.136495888
0.902719617 0.574446440 0.134724766
0.000000000 0.703605294 0.126375616
0.003542452 0.705123484 0.121442094
0.069197014 0.704870522 0.122453906
0.319291621 0.702087402 0.119418010
0.476027846 0.701201439 0.117267549
0.616192162 0.702466726 0.110309549
0.759771943 0.706768155 0.093611822
0.890828550 0.708665550 0.070081919
0.001644712 0.825174272 0.067931645
0.001644712 0.826312542 0.062998101
0.001897754 0.820366621 0.065654553
0.268311322 0.826312721 0.058064368
0.438962728 0.829474926 0.049209528
0.586843431 0.822391033 0.035547178
0.732700527 0.826692045 0.022770368
0.870588362 0.830107689 0.004301262
0.003542452 0.943579972 0.000758999
0.000379548 0.949398816 0.000000000
0.001897737 0.945477784 0.006704549
0.178873867 0.946236730 0.002530012
0.402783185 0.943073988 0.005312988
0.557874560 0.942314863 0.000759092
0.702466905 0.939658523 0.000759093
0.843643069 0.937381327 0.003036284
0.079063997 0.027450999 0.293864995
0.177862078 0.031373002 0.289563656
0.305629164 0.049336098 0.292347014
0.426186204 0.072865002 0.285262287
0.551676214 0.095635995 0.282099992
0.675521970 0.114484094 0.283744097
0.802276969 0.130803093 0.278810978
0.927640498 0.146742821 0.274003834
0.032890905 0.181404442 0.288804561
0.151929080 0.171157643 0.286021203
0.283997536 0.176723629 0.291967541
0.414421260 0.183807641 0.285262197
0.552561343 0.185705185 0.281214267
0.675522208 0.197469905 0.281846642
0.795699000 0.207717001 0.275142401
0.926249266 0.212523714 0.267678827
0.000000000 0.309551001 0.277419120
0.121821538 0.310310096 0.276660115
0.266413987 0.311828107 0.281467170
0.398735195 0.313092738 0.279316634
0.535104275 0.313599110 0.279190302
0.669196546 0.316255540 0.277925342
0.793674827 0.315749466 0.268691093
0.921442032 0.322454035 0.263377994
0.000000001 0.447817624 0.271980107
0.036432549 0.443896532 0.271600455
0.236179635 0.448576748 0.264389724
0.386337996 0.447438180 0.276028037
0.523718894 0.442757994 0.268437743
0.655407786 0.448576838 0.265275359
0.785958350 0.446299821 0.266160756
0.914737701 0.445287615 0.257179111
0.000000001 0.585452259 0.261100709
0.000759096 0.578241467 0.254649013
0.185072914 0.582163334 0.261733294
0.358760059 0.574699819 0.256293297
0.503858149 0.578368187 0.253131002
0.640480697 0.575079381 0.255154729
0.774193347 0.575205266 0.250980198
0.909550726 0.573687375 0.241493002
0.003922000 0.706514835 0.241999090
0.001518193 0.702087462 0.246679455
0.088931262 0.704111636 0.238583356
0.323719263 0.703352749 0.238836259
0.473877281 0.703732193 0.233775929
0.623023510 0.701328456 0.233143449
0.757242143 0.705249965 0.226944745
0.897785962 0.707526982 0.218342841
0.000759096 0.827451050 0.214167997
0.000759096 0.827956855 0.219228551
0.016825095 0.828210235 0.218595907
0.274257004 0.826692283 0.217583641
0.443390101 0.826691985 0.209361196
0.591776967 0.820872784 0.206578165
0.731815457 0.823529482 0.203035995
0.873877466 0.832637727 0.181277707
0.001897737 0.947501540 0.180392399
0.001644716 0.943326890 0.183048666
0.001265176 0.946109891 0.171790108
0.206831306 0.947501540 0.174320042
0.408475608 0.941429436 0.172296271
0.570398510 0.944212615 0.167362556
0.702466726 0.941176355 0.153447181
0.842378080 0.943959773 0.138646588
0.131688997 0.032511353 0.396204650
0.199747100 0.039088998 0.392915726
0.313978553 0.057558544 0.392283529
0.436052918 0.079569645 0.393422008
0.558760166 0.101074994 0.391018182
0.680076063 0.111574732 0.388614893
0.807589948 0.133965999 0.383934259
0.924351573 0.151676163 0.381277442
0.088551901 0.178747803 0.395445734
0.179886550 0.180645540 0.398102283
0.293738186 0.181404456 0.394560546
0.419987261 0.184946090 0.392156690
0.549272478 0.187223077 0.389120728
0.679443359 0.198229000 0.384693205
0.799493909 0.208855346 0.382036716
0.924857557 0.220619828 0.382289559
0.028589450 0.314610749 0.387856096
0.155597642 0.310310096 0.387476563
0.282099992 0.316635221 0.387856007
0.412523627 0.311069101 0.388615102
0.540290713 0.312587082 0.380391955
0.667552352 0.316128850 0.380518556
0.797216892 0.322453827 0.382163346
0.921188891 0.325616747 0.374193430
0.000000000 0.445540637 0.381657273
0.097280003 0.441492736 0.386338085
0.255154729 0.447058737 0.381277621
0.395698994 0.446679294 0.378873944
0.525743365 0.446299821 0.385199457
0.658950090 0.445793867 0.372548610
0.790259182 0.448956281 0.369386345
0.916761637 0.450600982 0.372295797
0.000379548 0.580645144 0.372043073
0.001138644 0.575079203 0.371030927
0.205565840 0.578747749 0.373687357
0.363061726 0.576343954 0.374573112
0.505376339 0.576343954 0.367868423
0.644528806 0.577482581 0.364832461
0.776597261 0.575585008 0.364199728
0.909550846 0.572295785 0.361164093
0.000000000 0.704491079 0.360531300
0.006451812 0.703732193 0.361416996
0.134977847 0.702466786 0.362428814
0.333965838 0.703352749 0.359266639
0.481973201 0.706894279 0.357748449
0.619228244 0.703225732 0.360025436
0.762681782 0.703225732 0.350158095
0.898671567 0.706767976 0.348007381
0.003922000 0.825047314 0.342947364
0.008602193 0.821884871 0.348007292
0.039342280 0.823529303 0.339025825
0.299430907 0.825553596 0.346363276
0.461227000 0.823908925 0.345983624
0.601391554 0.821631908 0.342061728
0.741555870 0.823908925 0.338013649
0.876786590 0.830993116 0.325363815
0.005060025 0.945730388 0.327261448
0.002783356 0.943832815 0.329664648
0.003795106 0.948893249 0.325616539
0.253636956 0.945730388 0.331182450
0.428969204 0.944085836 0.322580665
0.577103019 0.943073750 0.315623283
0.714611113 0.943833053 0.313978642
0.851233244 0.940417469 0.306767851
0.169260189 0.050094996 0.506262004
0.226565093 0.055534188 0.501454949
0.328399897 0.066540092 0.505503058
0.437950373 0.086148195 0.506641567
0.566603184 0.101961002 0.511701167
0.687160194 0.119038284 0.502340138
0.812523544 0.134724900 0.495003462
0.930929422 0.152941003 0.493485153
0.147374988 0.179380074 0.504111528
0.210752890 0.179886356 0.506135225
0.315369844 0.182542890 0.508539081
0.438836277 0.184187084 0.505376339
0.560278356 0.192789182 0.504996836
0.685642123 0.201011837 0.501075387
0.803036094 0.208855256 0.496774286
0.932194591 0.220619723 0.494876534
0.106767803 0.314990193 0.511195362
0.187855557 0.315876186 0.505123436
0.289057404 0.315876216 0.504617274
0.421125799 0.314231306 0.503858268
0.552435160 0.314231306 0.498418987
0.672232568 0.318153083 0.494370461
0.800885499 0.322074294 0.494370461
0.926249027 0.326755196 0.488678187
0.004554190 0.449462444 0.499557614
0.134724900 0.453004181 0.499177903
0.264389724 0.449842095 0.496267885
0.405565917 0.444528848 0.493231833
0.534345210 0.444276094 0.494749993
0.661732852 0.448576719 0.489689976
0.788235545 0.450980425 0.489942849
0.918279409 0.449715257 0.487286180
0.000000000 0.579886436 0.496015191
0.015053638 0.579759598 0.496521533
0.225680202 0.579127371 0.492093384
0.379632950 0.576723397 0.492093176
0.513852179 0.579886377 0.492093176
0.646299481 0.573940635 0.488677740
0.782669365 0.575838327 0.485894918
0.907273591 0.577103019 0.481467545
0.005060257 0.707273722 0.485515445
0.000379548 0.704491079 0.482732385
0.170019105 0.700062931 0.482226431
0.345097899 0.702466786 0.481214166
0.499557436 0.699810266 0.482479453
0.630866468 0.701328516 0.479949653
0.769386351 0.703352690 0.477545917
0.902972639 0.701707959 0.474130481
0.002277095 0.826691985 0.464642555
0.000000000 0.825426877 0.464263111
0.045414105 0.829095423 0.458444268
0.317394018 0.825174093 0.464263022
0.484250396 0.822770536 0.473371387
0.616950989 0.824415267 0.468690902
0.747375190 0.822770536 0.464642555
0.888045669 0.832510889 0.460088611
0.001265167 0.946868777 0.434408545
0.002276991 0.947754800 0.440733820
0.029221989 0.943073988 0.445161402
0.310942471 0.943453610 0.458190858
0.457811534 0.940417409 0.451866031
0.596078277 0.941555798 0.452878177
0.727893770 0.941176653 0.452119082
0.858444035 0.940290630 0.448450357
0.203795001 0.068564259 0.621125758
0.249968082 0.072865188 0.621884763
0.335610539 0.089057639 0.617710114
0.448576719 0.096395001 0.621884823
0.564579427 0.113219447 0.621758699
0.687539756 0.125236988 0.620872676
0.807463527 0.141429439 0.615180492
0.937001705 0.157495096 0.616951227
0.187729448 0.178114817 0.618975461
0.242757738 0.187223077 0.623782277
0.333207011 0.186084732 0.622643888
0.441239983 0.191524535 0.617710233
0.563820541 0.197469905 0.615053594
0.685642004 0.205313280 0.615939498
0.805439293 0.212776840 0.616571724
0.930929542 0.222264543 0.610373199
0.147881091 0.309044927 0.626565754
0.212650537 0.315496475 0.613282681
0.301834434 0.318153083 0.621884823
0.426945299 0.312587082 0.615812540
0.548766613 0.316635102 0.619481564
0.678178668 0.321315199 0.619481742
0.799241006 0.325237185 0.613535583
0.927260935 0.329538435 0.614294529
0.104997091 0.441872388 0.614168346
0.178114817 0.447185546 0.617077887
0.294876724 0.444655538 0.608728468
0.411385268 0.445161283 0.612017572
0.539026082 0.448197156 0.609487653
0.664895833 0.445793867 0.607969582
0.790638685 0.450474411 0.609867096
0.920176864 0.455155164 0.611764789
0.000758999 0.576217830 0.604553998
0.115243286 0.577229679 0.613029838
0.259835750 0.578747869 0.607716620
0.388994545 0.574825764 0.601391613
0.528525949 0.579506874 0.610246480
0.654522538 0.579506874 0.607590020
0.787476540 0.576090991 0.609614253
0.918026388 0.576344013 0.605566084
0.001897740 0.703225732 0.603288949
0.005060257 0.699683607 0.604427934
0.199240834 0.703352749 0.597849369
0.359898627 0.702466786 0.601770997
0.503352642 0.700189769 0.600252986
0.644528687 0.699430764 0.599493980
0.776723504 0.699430704 0.599367440
0.914231598 0.697406471 0.597216964
0.000000000 0.829854608 0.581783772
0.000759096 0.825932980 0.587602437
0.120303646 0.824035525 0.594939947
0.323339552 0.824920952 0.593548596
0.484882981 0.825047314 0.591651201
0.628336191 0.824035764 0.591144979
0.761543274 0.821125805 0.589626729
0.899304211 0.828589737 0.585325778
0.000759092 0.944718719 0.568627775
0.002783159 0.945477486 0.572549105
0.000000014 0.944465458 0.566603482
0.273371220 0.944971502 0.576976657
0.466919363 0.944212615 0.580645204
0.620113611 0.941049695 0.584440351
0.744718611 0.941429436 0.585199177
0.867804885 0.941555798 0.582922339
0.233649701 0.088551708 0.730929852
0.273497999 0.090702452 0.738140285
0.354332894 0.094749995 0.738140464
0.455660909 0.107653350 0.734218836
0.567236185 0.120809905 0.734977722
0.686147988 0.137127995 0.732700527
0.808728278 0.153574005 0.735863566
0.927260756 0.162175998 0.733839333
0.221505567 0.188108996 0.740037978
0.266666830 0.188108996 0.743579984
0.345350832 0.196837291 0.734598279
0.449462324 0.191271290 0.741682708
0.566856623 0.203668296 0.740164638
0.690069675 0.210879102 0.738140285
0.805439234 0.217077807 0.733333588
0.926502168 0.224920794 0.738772810
0.202024087 0.314105213 0.739026129
0.253510743 0.312586904 0.735990047
0.333586246 0.312713474 0.734851301
0.447438389 0.316128939 0.734977543
0.557115495 0.319038272 0.734977722
0.678937674 0.322453856 0.731688559
0.797596276 0.327514291 0.726122618
0.927134514 0.331941664 0.733712733
0.181024700 0.439974636 0.729158878
0.226439089 0.443517089 0.732700467
0.318785489 0.447058618 0.727893472
0.432258278 0.448323965 0.735357165
0.550664246 0.449841887 0.731941521
0.676660657 0.447817624 0.728652537
0.793042302 0.452878267 0.728652537
0.922327340 0.452877998 0.730423450
0.108665183 0.569892168 0.732574522
0.181783989 0.567362130 0.727387607
0.292220086 0.568121374 0.726375520
0.418848634 0.569766045 0.729158878
0.548639894 0.574320078 0.727893472
0.664389729 0.574320138 0.723845363
0.788235486 0.577482402 0.728020012
0.917899728 0.574319899 0.727640450
0.005692737 0.695129216 0.724730968
0.072359011 0.697786033 0.729538202
0.242884383 0.698545098 0.725743175
0.386590809 0.694623590 0.722580254
0.521315813 0.697026968 0.723086357
0.655028522 0.697406471 0.718026519
0.783554554 0.697406471 0.720809519
0.909930170 0.697027028 0.726754785
0.004553996 0.828969300 0.715876222
0.002277288 0.827577293 0.721821606
0.154585719 0.824288547 0.724731028
0.337508261 0.826692045 0.715749621
0.491208196 0.825933099 0.725110292
0.637444913 0.822770536 0.716255546
0.770145297 0.822770536 0.720809519
0.906261802 0.819734335 0.714611292
0.000000000 0.946489334 0.702719808
0.000000000 0.943580091 0.699557483
0.018975282 0.944971502 0.699557424
0.300569475 0.942947447 0.704491138
0.470461637 0.942314863 0.700569153
0.620619774 0.943453550 0.704996586
0.766982913 0.939911187 0.712333858
0.891461253 0.934092283 0.712587118
0.264262825 0.101961002 0.850094616
0.299051255 0.100695834 0.854522765
0.374446660 0.112460151 0.858443916
0.465022117 0.117267452 0.857811391
0.571663558 0.133586347 0.859076560
0.690828621 0.141049996 0.854016602
0.805186689 0.153953448 0.846932590
0.928525925 0.168626994 0.847438455
0.259708822 0.189500079 0.862997890
0.296647519 0.197849244 0.854016602
0.366856068 0.191144794 0.848956347
0.467805177 0.198734939 0.851992190
0.575079143 0.203542367 0.855787158
0.687919021 0.212397382 0.849842072
0.808602273 0.220999271 0.853004515
0.927134693 0.227577537 0.856419981
0.253004551 0.316255361 0.854395866
0.289437115 0.315496475 0.854143202
0.359392941 0.316761315 0.850600898
0.459962070 0.316129029 0.851233423
0.570018888 0.319417924 0.850094616
0.683744729 0.323972046 0.851866007
0.802783072 0.328399897 0.852245510
0.923339844 0.331182927 0.851992369
0.253131002 0.442251623 0.849841952
0.289057553 0.441998899 0.854775548
0.357115597 0.446426660 0.850980341
0.460088283 0.445414454 0.851612806
0.566350162 0.448956281 0.853889763
0.679316998 0.446552962 0.847438455
0.800885260 0.449335814 0.848703623
0.922201157 0.452118784 0.850221455
0.191397607 0.561669767 0.843137264
0.249462530 0.561669767 0.851865947
0.333333254 0.566223919 0.852877975
0.458697110 0.572042882 0.848956048
0.570525169 0.578874171 0.849968791
0.680455625 0.573307812 0.848703623
0.800126314 0.576850176 0.850221395
0.912839949 0.577609360 0.850094616
0.108665131 0.688045502 0.848703444
0.181530431 0.688424766 0.851233244
0.295509160 0.689183831 0.852751613
0.418216288 0.687665820 0.850474358
0.545857012 0.686906874 0.843390286
0.682479501 0.696647525 0.850094616
0.800759196 0.698671639 0.849335611
0.916002572 0.697406471 0.845414579
0.000000000 0.815812886 0.845161200
0.015939392 0.819734275 0.838709474
0.224541619 0.813156366 0.843769848
0.371663690 0.815812886 0.841745555
0.516381919 0.815812886 0.841366351
0.656546295 0.813282847 0.843769908
0.788235605 0.815306962 0.842631221
0.917393923 0.820493281 0.843643606
0.000000000 0.946742654 0.842378438
0.000000000 0.951676071 0.843769908
0.036432687 0.947880805 0.833143651
0.308033109 0.944591761 0.836052954
0.473497540 0.945097923 0.842125416
0.632511199 0.942947447 0.835673749
0.776470363 0.939911187 0.834029019
0.907653451 0.932320833 0.837064803
