Assets/EldamarStudio/100 Retro LUTs Pack/LUTs/cube/Barry LUT.cube
DOMAIN_MIN 0 0 0
DOMAIN_MAX 1 1 1
LUT_3D_SIZE 32
0.098039001 0.101961002 0.082353003
0.101075388 0.098924614 0.082353003
0.104111224 0.100189775 0.084503770
0.113472320 0.104491003 0.088804998
0.131688997 0.110183448 0.095256448
0.149904996 0.113219060 0.104364060
0.170651317 0.118785642 0.108412318
0.190259412 0.121569000 0.109803997
0.209235102 0.121569000 0.109803997
0.230487496 0.121569000 0.109803997
0.260468006 0.121569000 0.109803997
0.292852253 0.121569000 0.107779741
0.326248914 0.122707352 0.104743645
0.359646022 0.125237033 0.101707973
0.393042386 0.122201420 0.098671585
0.433649570 0.126375988 0.107652992
0.474636167 0.130929798 0.115243189
0.514737129 0.133965567 0.118911989
0.557241976 0.137001961 0.124984011
0.596964121 0.140037641 0.133839354
0.634535491 0.150663733 0.135357261
0.671980143 0.163820133 0.137381256
0.711322010 0.172801986 0.149146482
0.747754812 0.178874001 0.152182102
0.779632986 0.189499989 0.164326280
0.814167976 0.203035653 0.176723659
0.852625072 0.217710122 0.185831934
0.886021435 0.229854882 0.194939539
0.919417739 0.249968782 0.206704661
0.956356585 0.271221161 0.227704152
0.987856030 0.295129955 0.254142970
1.000000000 0.325489998 0.278430998
0.107147381 0.095889002 0.088424996
0.098039001 0.098924614 0.088424996
0.111828163 0.102339998 0.090575770
0.119291611 0.110056937 0.096141830
0.129032150 0.118912384 0.103605159
0.149904996 0.119291835 0.107400447
0.170651317 0.119797774 0.103858389
0.186969995 0.128146991 0.113598987
0.205439419 0.131435901 0.119670905
0.233523116 0.124604613 0.112839609
0.257685333 0.127514482 0.112839609
0.289816648 0.129664734 0.110815868
0.324351668 0.130676612 0.107779741
0.360152036 0.131309032 0.104996607
0.399114370 0.128273413 0.104743585
0.432510793 0.132448003 0.106514797
0.470081985 0.138519987 0.112207189
0.508665144 0.143073976 0.117140755
0.551169991 0.146110356 0.128020391
0.590892076 0.154712036 0.128526390
0.628463030 0.160151377 0.134977996
0.664895475 0.168880254 0.137381256
0.702466607 0.176091373 0.143579721
0.744718432 0.187982395 0.158254102
0.783428431 0.200885668 0.168121561
0.817457438 0.213788748 0.178368375
0.853131115 0.226818383 0.185831934
0.889057815 0.238962501 0.194939539
0.922454178 0.253763407 0.214673787
0.952308536 0.277798742 0.233269766
0.981404245 0.301581204 0.256293178
1.000000000 0.325489998 0.278430998
0.114105001 0.104870223 0.094497003
0.109297611 0.107906386 0.094497003
0.108791776 0.106641002 0.092346773
0.125743389 0.113978162 0.097912833
0.133839309 0.124098770 0.105881996
0.151549712 0.125870004 0.107147157
0.166350320 0.130171001 0.113346003
0.189247414 0.130171001 0.107274003
0.206451550 0.137254998 0.118405990
0.234028980 0.132321283 0.116255283
0.262871712 0.137001872 0.111574769
0.291207969 0.138014004 0.111574769
0.324478149 0.139784768 0.108665355
0.359393001 0.139784768 0.105881996
0.393168598 0.138646424 0.105881996
0.434281796 0.140670761 0.108285800
0.469196379 0.146742761 0.114358187
0.506261706 0.152814761 0.116761394
0.547248781 0.157368988 0.119797401
0.584819555 0.163820431 0.127261221
0.624288678 0.172928512 0.132953957
0.662998021 0.179253533 0.138266861
0.701960742 0.185578987 0.141682014
0.744465590 0.197723016 0.154838696
0.778241277 0.205692500 0.165591031
0.817710400 0.220872879 0.177735776
0.852625072 0.233270064 0.186337993
0.887413085 0.243769765 0.197090313
0.923339784 0.258570582 0.216824561
0.951422930 0.280834913 0.229221746
0.976596832 0.309044719 0.252118558
0.997849226 0.334091991 0.278430998
0.117647000 0.121315323 0.101834163
0.114610612 0.123086542 0.095509000
0.120935768 0.121821389 0.098418772
0.127767324 0.118785322 0.097912833
0.141429618 0.127893612 0.105881996
0.153067768 0.132700771 0.105881996
0.169512987 0.137001991 0.110942319
0.185705408 0.142315000 0.116888002
0.209994003 0.143074095 0.111574903
0.234282017 0.143580154 0.116128832
0.261859715 0.146869168 0.111827999
0.293485135 0.150158003 0.109803997
0.324983805 0.152434990 0.108665355
0.358127892 0.152687997 0.105629027
0.388488114 0.152687997 0.104617156
0.425932735 0.156356975 0.109550640
0.467931539 0.157115996 0.113093026
0.503731728 0.164452985 0.121568829
0.541935802 0.171790019 0.118026242
0.581151187 0.176597163 0.124604359
0.619481027 0.185831726 0.132447571
0.658950269 0.192916125 0.140544102
0.700948954 0.198735148 0.143832803
0.741176486 0.208602175 0.152561650
0.778368115 0.217457324 0.163693696
0.811637998 0.225173637 0.175458163
0.850095093 0.240860119 0.187096909
0.883491457 0.252245605 0.198481992
0.917014599 0.267931819 0.216065794
0.951422930 0.286401004 0.236052975
0.973940194 0.312840044 0.244781598
0.994813144 0.342441171 0.275900990
0.119544543 0.138772994 0.108665451
0.116128705 0.138772994 0.095382608
0.125236779 0.137381315 0.096647777
0.138013765 0.135104150 0.103225842
0.150917456 0.131688997 0.105881996
0.153953061 0.140796617 0.105881996
0.171410322 0.145603865 0.109171316
0.190259412 0.149904996 0.112333998
0.209614545 0.154838547 0.116508454
0.233902559 0.157874942 0.113472067
0.258570731 0.158760548 0.111195318
0.287792712 0.160404846 0.109424450
0.321568638 0.163820088 0.109044902
0.354712069 0.169892088 0.106261544
0.385072798 0.170145094 0.103352420
0.420620054 0.174573049 0.109550737
0.459329814 0.177229807 0.115622737
0.500696003 0.177356064 0.119291537
0.534092426 0.189500093 0.125363559
0.575838208 0.193295360 0.131435558
0.616445243 0.200885549 0.137127995
0.655534387 0.210373133 0.143200263
0.695003510 0.213788986 0.149272993
0.731688559 0.220367000 0.152561650
0.770018816 0.228716284 0.162808090
0.807337224 0.237824395 0.175584644
0.843643486 0.247311577 0.189373523
0.877039850 0.265528351 0.198481902
0.908159554 0.283744514 0.212903261
0.941302836 0.301960468 0.232637465
0.974319637 0.320809186 0.254269123
0.992536426 0.345097989 0.269449562
0.134724930 0.150916994 0.099557064
0.128652930 0.150916994 0.099557064
0.133839086 0.153067768 0.099177778
0.141429171 0.155091718 0.103225842
0.147881061 0.155976996 0.105881996
0.166097060 0.149904996 0.105881996
0.179253325 0.159013256 0.113472320
0.193801418 0.163820222 0.113345996
0.209235102 0.166602999 0.110816002
0.230866954 0.166982546 0.110436454
0.258064806 0.172928795 0.113219067
0.282858968 0.173940927 0.109171063
0.313219339 0.174446866 0.107526705
0.348640054 0.175964862 0.109297931
0.379000813 0.182036862 0.109297931
0.416571766 0.184693068 0.113598995
0.454016447 0.189753056 0.118659124
0.492093623 0.195572138 0.122327924
0.531056046 0.207716882 0.128399953
0.572801828 0.211511523 0.134471953
0.613409281 0.214547724 0.138646200
0.651866198 0.220113918 0.143200263
0.688931525 0.225932986 0.149272993
0.728399932 0.238077015 0.155345008
0.765085459 0.246932283 0.167742223
0.799240947 0.256040663 0.179633170
0.831625223 0.265148818 0.189246997
0.867931485 0.274635971 0.195445508
0.901327848 0.292852730 0.209866866
0.932447493 0.311068863 0.226818457
0.964705586 0.328399509 0.245161518
0.995572090 0.345097989 0.260341942
0.137254998 0.170651317 0.110689320
0.136243001 0.170651317 0.110689320
0.140923768 0.172802091 0.110689320
0.148766637 0.174573317 0.113346159
0.153067783 0.175205633 0.114864096
0.160530999 0.169133633 0.108412318
0.173687637 0.170651317 0.108412318
0.192157015 0.176470712 0.112586997
0.209235102 0.178747639 0.112081088
0.230487496 0.178747639 0.117394313
0.255028546 0.184566736 0.112713128
0.284377187 0.184566736 0.115749255
0.313092947 0.186337680 0.112333678
0.347881019 0.189879715 0.112586707
0.380518496 0.198229000 0.114863999
0.418090075 0.206704795 0.117267802
0.457558483 0.213029832 0.123213314
0.495635539 0.220113948 0.126628995
0.535104036 0.228463277 0.128906012
0.574826121 0.237317964 0.137507677
0.617330849 0.242251784 0.141682416
0.657432139 0.247944504 0.146742448
0.695509195 0.255407840 0.154206485
0.734978199 0.260341644 0.157874689
0.772169292 0.272485644 0.168501258
0.809993625 0.280455321 0.182036981
0.843769789 0.289437056 0.193295389
0.876154482 0.302593201 0.205439642
0.907400072 0.317140967 0.224541456
0.940796435 0.333586484 0.243263811
0.969259560 0.353700191 0.260468304
0.996078014 0.375458628 0.274004012
0.137254998 0.186969995 0.116002291
0.140543997 0.185325697 0.112713292
0.142062053 0.190765470 0.119291708
0.151170447 0.188741535 0.118026547
0.158760548 0.187982455 0.119165294
0.166856468 0.185705274 0.111322060
0.177482635 0.187223375 0.113092996
0.191271693 0.185325712 0.111448288
0.211006090 0.189120993 0.112207383
0.230487496 0.190891996 0.119544767
0.254648983 0.195066705 0.115749255
0.279696494 0.201644436 0.115749255
0.308918625 0.202023700 0.117647000
0.341809034 0.208348736 0.115622737
0.377988368 0.217457116 0.118659124
0.414547712 0.226565495 0.118406095
0.454016477 0.235673875 0.124478482
0.492852390 0.244149685 0.130044416
0.531309009 0.250221699 0.131056294
0.572422385 0.257432044 0.134471655
0.613788784 0.264642477 0.143073738
0.657305658 0.270714998 0.147121996
0.698165715 0.279316694 0.155850783
0.739152730 0.286906898 0.164958805
0.776344001 0.293484986 0.173181579
0.811384976 0.305629313 0.183934301
0.849336088 0.313219398 0.196837410
0.880835116 0.327261120 0.213156432
0.914484680 0.344085813 0.235294074
0.948260546 0.359266162 0.248324171
0.975458324 0.376217574 0.269576579
0.994433701 0.402024001 0.283997715
0.141050085 0.200632200 0.114484094
0.144844994 0.197596386 0.109171003
0.145857096 0.201644763 0.113725454
0.151170060 0.206198841 0.121062934
0.161037445 0.198229000 0.118026547
0.176217824 0.200885162 0.112333998
0.185831904 0.203162327 0.113346003
0.199620605 0.202024102 0.116002291
0.215560094 0.198988095 0.114484094
0.230740502 0.205060095 0.117520481
0.253890067 0.208222970 0.115496226
0.278178394 0.213788837 0.116508350
0.305123508 0.221758097 0.117647000
0.332700968 0.228083134 0.117393970
0.370651364 0.237191498 0.119418226
0.409234583 0.247058809 0.121442288
0.446426302 0.255408108 0.122960091
0.485894620 0.265149027 0.130803481
0.522453964 0.271474093 0.133839130
0.563693881 0.278304994 0.137128085
0.606957495 0.284376979 0.141302824
0.647438169 0.289690107 0.147881091
0.692979336 0.296015084 0.154206082
0.736116707 0.308159113 0.168753907
0.774067104 0.316508204 0.180139184
0.810625911 0.324604422 0.188488305
0.844022989 0.336749107 0.199114129
0.877419353 0.348893076 0.217330873
0.911195397 0.366350055 0.239341944
0.949146152 0.380518377 0.256040424
0.981531024 0.398228675 0.270335466
0.993674994 0.419481099 0.291587889
0.156230494 0.218848974 0.117520481
0.153194100 0.215812579 0.114484102
0.150537774 0.217077777 0.115622774
0.155218333 0.220366850 0.119038679
0.170145050 0.222517014 0.121062934
0.185325444 0.222517014 0.118026540
0.187855527 0.222643495 0.112333998
0.196584225 0.221125722 0.111701295
0.212523714 0.220240489 0.114484102
0.230740502 0.226312488 0.117520481
0.251739860 0.229475364 0.117647000
0.275142461 0.232511237 0.119544737
0.302846134 0.236938506 0.120303839
0.335736573 0.243263543 0.117393978
0.366097331 0.252371907 0.114357591
0.406451583 0.263883471 0.123592630
0.445667386 0.272865027 0.130550280
0.482859015 0.280328631 0.133839101
0.522327483 0.292473435 0.136875495
0.561670065 0.301581144 0.148260504
0.605060220 0.308665007 0.154206231
0.646426141 0.313725144 0.156483486
0.680834532 0.317267478 0.157242477
0.726375759 0.329411507 0.169386491
0.764959037 0.339278787 0.181656986
0.802783072 0.348260641 0.190891504
0.840986609 0.358001500 0.199114129
0.874382973 0.370145470 0.217330873
0.902466357 0.387602448 0.235546961
0.939025342 0.398734897 0.254016399
0.975964189 0.410499901 0.277039945
0.999746978 0.434661478 0.312839508
0.153953135 0.239974871 0.120556869
0.159645617 0.234029353 0.126249343
0.160910785 0.237444729 0.118911967
0.163187996 0.239974871 0.118912160
0.173054859 0.241366178 0.120430455
0.185704932 0.243895859 0.112334065
0.200885326 0.243895859 0.121947989
0.212650269 0.243895859 0.121441990
0.228336751 0.242883980 0.123212963
0.242251977 0.244654983 0.126249343
0.254648983 0.244907990 0.120556869
0.277925611 0.245920122 0.122580603
0.302213877 0.250347644 0.125616774
0.330297023 0.258443892 0.126122832
0.363313943 0.267552286 0.123086452
0.400885522 0.276660651 0.129664660
0.441366166 0.289816529 0.136748791
0.479190260 0.300695449 0.140417159
0.516382039 0.310562938 0.145730838
0.555850387 0.319924355 0.148766518
0.597216725 0.329032004 0.152941003
0.639721513 0.335103989 0.155977130
0.677166343 0.338646352 0.160151631
0.717140853 0.353573740 0.169513002
0.758127987 0.363441020 0.179380283
0.793801606 0.372549027 0.189500183
0.830234051 0.381150991 0.199114129
0.868437409 0.388487965 0.217330873
0.904490590 0.403288811 0.232890800
0.937887192 0.417710274 0.252625048
0.971916437 0.430487454 0.272865593
0.994180977 0.452751756 0.299177855
0.161036998 0.263250977 0.125616997
0.163060993 0.261226982 0.123593003
0.166982770 0.259708971 0.122960225
0.172549158 0.264516145 0.117647000
0.180518791 0.265654802 0.121062741
0.194307506 0.268690825 0.123466052
0.204933316 0.269196749 0.121948250
0.220113695 0.267552048 0.125869542
0.237191826 0.267931610 0.125489995
0.250600994 0.269196749 0.127261221
0.266793013 0.269196749 0.127640992
0.280961215 0.269196749 0.123592734
0.305249989 0.271473736 0.125489995
0.330044270 0.279443502 0.127893731
0.361669391 0.286780655 0.130170584
0.395825416 0.299937040 0.126628548
0.435294181 0.307527244 0.137254745
0.474762529 0.320556492 0.141808569
0.512586713 0.331056207 0.146489680
0.551802695 0.340164602 0.147754639
0.593168736 0.347375244 0.152687997
0.634661376 0.356356651 0.154964998
0.673877239 0.361796498 0.161163509
0.709550619 0.375079155 0.170271903
0.753067553 0.387729287 0.179380283
0.788362026 0.395446002 0.191271648
0.821632087 0.403921336 0.202150509
0.859582663 0.411511511 0.217330873
0.894370615 0.421505332 0.234914541
0.925490141 0.436685711 0.248324156
0.960278273 0.449968636 0.268817574
0.986084700 0.468943715 0.290069997
0.173181280 0.296647280 0.130550355
0.173181280 0.295508921 0.125616997
0.176470414 0.295508921 0.123972222
0.183175147 0.295635432 0.121062644
0.192283541 0.298292279 0.121442094
0.205945924 0.300569564 0.131309003
0.216065958 0.301075637 0.130803317
0.231878325 0.299430907 0.128905922
0.247817829 0.298671663 0.128905535
0.263377756 0.302087486 0.130043998
0.280328631 0.303352624 0.131815210
0.296520889 0.301075637 0.128526375
0.315116882 0.299936980 0.126628637
0.339405626 0.305756003 0.126628637
0.367994606 0.310942620 0.130929634
0.401897401 0.323086798 0.131941646
0.437191814 0.335989982 0.133839279
0.475395173 0.343327135 0.143453285
0.513851643 0.355471283 0.145983607
0.553320765 0.364832342 0.147375003
0.593548477 0.373181611 0.153446987
0.637065351 0.380265772 0.160531119
0.676786780 0.389374137 0.166476637
0.712207198 0.400506288 0.172548905
0.751296461 0.413788646 0.183934286
0.792156875 0.422011256 0.194686994
0.823023677 0.429601341 0.209361479
0.858823836 0.439974725 0.221505627
0.892599761 0.450221449 0.242378250
0.923592746 0.464010149 0.260468036
0.952688217 0.478305191 0.275269210
0.986084640 0.493231893 0.296521634
0.185325995 0.343200058 0.133838996
0.184566960 0.340670466 0.131056339
0.190132990 0.339532018 0.131815255
0.198482037 0.339785069 0.132574156
0.210246593 0.340038031 0.130044490
0.219354957 0.340038031 0.133080095
0.228969350 0.339532018 0.132321313
0.245034978 0.338646352 0.130170956
0.268058151 0.337128103 0.130929932
0.286274940 0.343200117 0.140037552
0.301834196 0.346109927 0.140670002
0.317267269 0.344086051 0.136116266
0.335104287 0.339152396 0.130170956
0.359646022 0.336622059 0.130423993
0.383934021 0.339658469 0.130423993
0.416571617 0.348893046 0.134471953
0.452751338 0.360531062 0.141556159
0.489057571 0.372422159 0.149272963
0.522454023 0.384566963 0.149272963
0.561670065 0.394433677 0.152308643
0.601138711 0.403541774 0.160784021
0.642631352 0.412903130 0.171410158
0.687792957 0.422011495 0.180645019
0.727134883 0.431119889 0.181151032
0.764579535 0.444275767 0.192536309
0.801012278 0.454648703 0.205819011
0.836939037 0.459709078 0.218722120
0.870335400 0.474889457 0.230866879
0.903478742 0.487412989 0.255534738
0.935104311 0.502340019 0.279570162
0.966097593 0.519038200 0.301328570
0.999494016 0.531183004 0.322580993
0.197469994 0.367488801 0.139910996
0.188361600 0.370525211 0.139910996
0.202656344 0.367995054 0.137128353
0.215686142 0.368121564 0.136622414
0.225426957 0.370525271 0.135989994
0.234535336 0.373434365 0.136116475
0.248703718 0.368374377 0.146742418
0.259329677 0.370145380 0.144212276
0.274636090 0.372042894 0.137001678
0.295382529 0.370525241 0.130929932
0.313599318 0.370778233 0.134218544
0.331182837 0.375458807 0.140670255
0.347628057 0.375585139 0.141429350
0.365718007 0.373054802 0.139531612
0.393042386 0.376091212 0.142567992
0.414927185 0.376723796 0.140164182
0.445414186 0.382289797 0.142061770
0.480708301 0.390259385 0.146995574
0.519418418 0.399747372 0.152308598
0.561164141 0.414674073 0.157874584
0.601138711 0.424794137 0.165211737
0.642631352 0.434914380 0.172928542
0.687792957 0.446299493 0.177609399
0.724224985 0.455407888 0.189753428
0.763567388 0.464516282 0.201644689
0.801012278 0.476280808 0.212650403
0.836939037 0.487033457 0.222517475
0.870335400 0.502213836 0.243010879
0.901074946 0.514737368 0.260467947
0.932067931 0.525110543 0.284123957
0.962428749 0.537887394 0.308665544
0.993421972 0.552435398 0.334724993
0.204806998 0.398987800 0.136369005
0.202909410 0.399620384 0.145983607
0.215306565 0.398355752 0.145983607
0.230233788 0.399114609 0.144465804
0.238203540 0.402530253 0.144465804
0.247311920 0.401517868 0.144465804
0.261480302 0.404174596 0.144971803
0.275015980 0.401391596 0.147248387
0.287918895 0.405186504 0.143453091
0.309171289 0.405439466 0.144212469
0.322706938 0.405312985 0.141935721
0.338899463 0.403289258 0.144971341
0.357874602 0.404807150 0.149904996
0.376597047 0.402276814 0.148892805
0.403921396 0.405313194 0.154079407
0.431245774 0.408348978 0.152308792
0.455534548 0.405312985 0.150790602
0.486527562 0.409740537 0.152941227
0.520683169 0.422390968 0.157242015
0.560531735 0.432258278 0.163314015
0.599240959 0.449335605 0.169386476
0.638203561 0.459961921 0.175964668
0.680708706 0.470588088 0.179127187
0.719417989 0.479696482 0.186717197
0.755850554 0.491081595 0.198861763
0.792409837 0.503099442 0.215306982
0.828336596 0.516255558 0.227957055
0.865528405 0.529538214 0.249209419
0.903478742 0.537254810 0.270208776
0.930297196 0.552941203 0.290195942
0.959392726 0.563946962 0.311195582
0.989753187 0.576090991 0.332448006
0.215433195 0.435420573 0.140923187
0.219987378 0.433902383 0.146995574
0.228968754 0.433269948 0.155092001
0.245161146 0.431499183 0.151296839
0.251106739 0.437065184 0.152814895
0.257938117 0.437444448 0.159646183
0.275142491 0.434914500 0.149020001
0.290195972 0.437824368 0.148766965
0.303858161 0.437824368 0.145730376
0.324351668 0.440101087 0.154079676
0.338393390 0.438709378 0.154585689
0.354079425 0.438203454 0.154079735
0.371536821 0.436306179 0.155976996
0.392536253 0.434155405 0.155724034
0.416065782 0.437191784 0.158001199
0.443390161 0.440227568 0.158380806
0.470714539 0.441745371 0.155344814
0.497406960 0.436305970 0.155344814
0.525996089 0.446173370 0.157495052
0.558633685 0.457305551 0.161796212
0.599240959 0.470588386 0.172422469
0.636685371 0.485768259 0.180518985
0.675901473 0.495002985 0.185199186
0.712586939 0.505503058 0.191271201
0.751296341 0.515369952 0.203415558
0.787729084 0.526122630 0.215559974
0.821758091 0.540543973 0.232510984
0.860215068 0.552688003 0.250727236
0.895129740 0.562555373 0.270461828
0.930297196 0.571157217 0.299304336
0.958128035 0.591144979 0.322327733
0.989753187 0.603415370 0.340038180
0.230613559 0.472991973 0.154205993
0.240354374 0.471220732 0.154206008
0.248197377 0.470335126 0.161290348
0.257305115 0.470967531 0.163440824
0.267172515 0.471347094 0.156230077
0.271220893 0.477166116 0.173434868
0.286274731 0.473750532 0.161923081
0.305502832 0.471979678 0.152182400
0.322074145 0.474889547 0.153067976
0.340290934 0.474889547 0.159139976
0.355597824 0.471979648 0.161669701
0.372169554 0.470335126 0.162048995
0.391524196 0.471600115 0.161416590
0.412776589 0.471600115 0.161669552
0.431372792 0.474256963 0.159392834
0.455534756 0.476660311 0.158760414
0.482859194 0.478178114 0.158507377
0.508918524 0.478178114 0.156103566
0.533206642 0.475142509 0.156103566
0.560277939 0.483491540 0.158254340
0.595192492 0.496268272 0.167615727
0.635420382 0.510056973 0.180518985
0.674889505 0.519291103 0.192915976
0.709297895 0.531435728 0.201011986
0.745983303 0.541935444 0.213282853
0.784692883 0.551043212 0.225173980
0.820619643 0.559645534 0.237824067
0.856925845 0.571536541 0.250094563
0.888045669 0.583681226 0.268184632
0.919544578 0.594054282 0.294497192
0.952561617 0.606324732 0.328273565
0.988994420 0.630613565 0.355598003
0.245794013 0.503352106 0.160278037
0.257937998 0.506388485 0.160278052
0.263377815 0.506767988 0.168880582
0.269449860 0.508032858 0.173181653
0.279316604 0.510815561 0.168374121
0.294496953 0.513852000 0.174446881
0.301075041 0.512080669 0.171410382
0.316634774 0.510435998 0.167362049
0.337381095 0.511448145 0.168121144
0.358506978 0.514358044 0.171284020
0.373813868 0.511448145 0.171537012
0.388994277 0.508412302 0.169765726
0.406704664 0.509045005 0.166982681
0.427957058 0.514105022 0.164705962
0.449209392 0.514105022 0.167741567
0.470208794 0.514358044 0.167868048
0.495003223 0.514611006 0.169386238
0.521062613 0.514611006 0.171283990
0.542315125 0.514611006 0.171283975
0.569386363 0.514358044 0.171283975
0.600505710 0.521062791 0.177229762
0.634661376 0.531688988 0.185832024
0.668817461 0.543579996 0.192915991
0.708285928 0.555723965 0.211132020
0.742694259 0.567868590 0.223782584
0.779379964 0.578368306 0.232005298
0.817584038 0.586970031 0.237824097
0.850980401 0.593042016 0.253004462
0.881973624 0.604933679 0.273244798
0.912333906 0.615306795 0.296014935
0.942947149 0.627071261 0.322200894
0.973814070 0.645794034 0.349526048
0.283238381 0.567109466 0.185831383
0.287033737 0.570145130 0.188614741
0.297026962 0.568880498 0.184313744
0.305123329 0.566982925 0.188867852
0.314990550 0.566603124 0.188108370
0.320556283 0.567235708 0.189373523
0.335736692 0.567741752 0.190385655
0.347501457 0.566603124 0.186464086
0.366476834 0.566603124 0.186843723
0.387729228 0.567615211 0.191903859
0.397596598 0.567615271 0.186464369
0.418848693 0.564579368 0.186464369
0.437444657 0.562682092 0.185325727
0.456799746 0.564959109 0.184693366
0.475521743 0.564959109 0.190259308
0.499177963 0.564959109 0.190891728
0.523845911 0.566476941 0.190891728
0.549905300 0.567109346 0.192030370
0.571157694 0.564959109 0.192030355
0.592410147 0.562175751 0.186464369
0.621631742 0.565970778 0.195952103
0.654142737 0.572169542 0.203795373
0.687413335 0.578874230 0.206451848
0.718911946 0.588362157 0.216698021
0.753826857 0.605060101 0.234914571
0.787223339 0.616825044 0.250853986
0.823403120 0.625933051 0.263377517
0.859076738 0.634281754 0.280835152
0.889816284 0.643010557 0.301328510
0.920176983 0.655028343 0.324351668
0.949651897 0.666919351 0.352181911
0.978115022 0.683238387 0.385199398
0.311321735 0.611132443 0.199873477
0.312460393 0.612270832 0.201012135
0.317899942 0.611005485 0.207083985
0.324477881 0.610499918 0.204807147
0.335483998 0.609108210 0.207083926
0.346109807 0.609108210 0.205565736
0.363061041 0.611005485 0.209360734
0.373307705 0.612650216 0.204427451
0.386970192 0.612144172 0.202403635
0.404807240 0.611005485 0.207336977
0.418216586 0.609108210 0.207463726
0.433649749 0.608981729 0.205439731
0.457938015 0.607084453 0.205439731
0.478178710 0.606831431 0.205692694
0.499683708 0.605186701 0.210119978
0.520809591 0.608981729 0.209487736
0.542061985 0.610499918 0.207969546
0.568880379 0.612270653 0.208222553
0.593927920 0.609234691 0.209487721
0.613283038 0.609993815 0.207716718
0.638330460 0.608855247 0.207336977
0.665654600 0.612903237 0.218469381
0.695256531 0.615180492 0.219607979
0.723845780 0.622517645 0.226944834
0.756483078 0.632764459 0.242884308
