Assets/EldamarStudio/100 Retro LUTs Pack/LUTs/cube/Barry LUT.cube
LUT_3D_SIZE 8
DOMAIN_MIN 0.000000 0.000000 0.000000
DOMAIN_MAX 0.903226 0.903226 0.903226
0.098039001 0.101961002 0.082353003
0.131688997 0.110183448 0.095256448
0.209235102 0.121569000 0.109803997
0.326248914 0.122707352 0.104743645
0.474636167 0.130929798 0.115243189
0.634535491 0.150663733 0.135357261
0.779632986 0.189499989 0.164326280
0.919417739 0.249968782 0.206704661
0.119544543 0.138772994 0.108665451
0.150917456 0.131688997 0.105881996
0.209614545 0.154838547 0.116508454
0.321568638 0.163820088 0.109044902
0.459329814 0.177229807 0.115622737
0.616445243 0.200885549 0.137127995
0.770018816 0.228716284 0.162808090
0.908159554 0.283744514 0.212903261
0.141050085 0.200632200 0.114484094
0.161037445 0.198229000 0.118026547
0.215560094 0.198988095 0.114484094
0.305123508 0.221758097 0.117647000
0.446426302 0.255408108 0.122960091
0.606957495 0.284376979 0.141302824
0.774067104 0.316508204 0.180139184
0.911195397 0.366350055 0.239341944
0.173181280 0.296647280 0.130550355
0.192283541 0.298292279 0.121442094
0.247817829 0.298671663 0.128905535
0.315116882 0.299936980 0.126628637
0.437191814 0.335989982 0.133839279
0.593548477 0.373181611 0.153446987
0.751296461 0.413788646 0.183934286
0.892599761 0.450221449 0.242378250
0.215433195 0.435420573 0.140923187
0.251106739 0.437065184 0.152814895
0.303858161 0.437824368 0.145730376
0.371536821 0.436306179 0.155976996
0.470714539 0.441745371 0.155344814
0.599240959 0.470588386 0.172422469
0.751296341 0.515369952 0.203415558
0.895129740 0.562555373 0.270461828
0.311321735 0.611132443 0.199873477
0.335483998 0.609108210 0.207083926
0.386970192 0.612144172 0.202403635
0.457938015 0.607084453 0.205439731
0.542061985 0.610499918 0.207969546
0.638330460 0.608855247 0.207336977
0.756483078 0.632764459 0.242884308
0.897026956 0.676027536 0.318406045
0.421125829 0.751170278 0.286147982
0.434661806 0.758127809 0.297406554
0.482226372 0.754459262 0.302846283
0.540923655 0.757874906 0.300568998
0.610120356 0.756736577 0.305123568
0.698419034 0.756736577 0.310563266
0.779632986 0.752814531 0.310689270
0.888045788 0.770904243 0.364199787
0.583554745 0.884123743 0.452877581
0.605439186 0.901960373 0.457052350
0.623023450 0.899809778 0.458823323
0.665022254 0.902593136 0.457811415
0.711195111 0.900948405 0.468564570
0.779000759 0.901834011 0.474509835
0.849589050 0.902087033 0.483871043
0.927260756 0.908918619 0.497279763
0.118785545 0.118785545 0.112460546
0.139152557 0.121569000 0.119164996
0.199114203 0.133712545 0.134092093
0.265655100 0.143832743 0.141555548
0.389500022 0.154712364 0.151170194
0.561416447 0.180897996 0.182163537
0.738266826 0.215433285 0.218216538
0.891207755 0.274636358 0.262239367
0.127387539 0.130550444 0.107779548
0.142694101 0.138773009 0.119164996
0.180266008 0.148134097 0.134851098
0.252624661 0.163440660 0.142694101
0.384187043 0.184693351 0.159645736
0.544592142 0.209994003 0.182163537
0.709804177 0.238836080 0.208349288
0.855787158 0.286527365 0.244022533
0.164326459 0.180265993 0.135610089
0.166983008 0.183807552 0.129664540
0.195952088 0.184566543 0.144718558
0.262365252 0.202150181 0.148513645
0.394687176 0.239721894 0.165717646
0.554459393 0.274130195 0.183554724
0.727134705 0.314863890 0.217710271
0.889943242 0.367615312 0.266287386
0.179759532 0.266160250 0.150790647
0.198229015 0.268184721 0.148766190
0.230613619 0.269702733 0.155091897
0.283744633 0.276027739 0.151549548
0.397216916 0.310436606 0.161923081
0.546616137 0.353067458 0.188361540
0.704617441 0.399240971 0.216698274
0.857937932 0.443010628 0.261226982
0.230613619 0.403415382 0.174319923
0.246299833 0.406071931 0.183048546
0.296015173 0.407589912 0.180518538
0.359139830 0.412776351 0.188108891
0.436306179 0.416318744 0.189247534
0.567109287 0.447564930 0.201644629
0.721947908 0.501328409 0.236179739
0.869070411 0.553194046 0.293611556
0.316128731 0.584060907 0.234914273
0.339152485 0.583048940 0.232384726
0.382922083 0.587728977 0.233902544
0.447944283 0.586970031 0.235673472
0.531815171 0.590512335 0.239847928
0.623276651 0.589247167 0.239595279
0.745351017 0.618342698 0.271853268
0.888171971 0.666920006 0.346236497
0.422138244 0.729791105 0.306135356
0.444781631 0.739784837 0.314864099
0.475142568 0.737887561 0.317647308
0.531688750 0.739658237 0.317647070
0.603542089 0.739784956 0.325490177
0.681340754 0.741429090 0.326249063
0.763567328 0.741429090 0.327134550
0.871600389 0.759013534 0.369892627
0.585958183 0.888804793 0.472739041
0.607210755 0.892725766 0.471220583
0.624667883 0.892599523 0.474509746
0.663757205 0.895888746 0.476913124
0.715243280 0.894370556 0.475268751
0.780392289 0.898039222 0.485262305
0.845540822 0.897533059 0.494876742
0.928526402 0.897912621 0.508665383
0.134850994 0.133332998 0.187982187
0.166603461 0.133712545 0.188488543
0.210878998 0.132447988 0.170019105
0.268437624 0.147375003 0.179127350
0.376723468 0.169260189 0.206831276
0.512586713 0.202403635 0.237065345
0.679063678 0.250601083 0.278811008
0.849209487 0.323465765 0.337381065
0.152941093 0.154079556 0.161542997
0.161037549 0.155218095 0.144465640
0.191650629 0.155976996 0.159898996
0.246805996 0.171283737 0.173940182
0.348893017 0.195192903 0.203036189
0.486780524 0.228842467 0.233522981
0.655534625 0.267552346 0.271473646
0.828336060 0.323213339 0.325995892
0.170145184 0.183428004 0.158254087
0.179506913 0.190891638 0.164958641
0.216192096 0.210753098 0.189627096
0.249082983 0.211512089 0.182163551
0.353953153 0.240480989 0.205945492
0.500189781 0.279696107 0.240860343
0.676660299 0.324098587 0.282732397
0.851106763 0.396963954 0.337508082
0.198987991 0.252119184 0.190385997
0.217836991 0.255660832 0.192283541
0.240481004 0.260341644 0.196963742
0.275648177 0.263124377 0.198608637
0.366350353 0.294370472 0.216571644
0.506894052 0.340038002 0.245794088
0.671726763 0.393801481 0.286148041
0.833902657 0.453889936 0.334977657
0.259456187 0.374320269 0.228716195
0.269829512 0.379506826 0.233902648
0.297533154 0.378241450 0.228589267
0.350158185 0.381404370 0.237444803
0.414548159 0.388488263 0.237444997
0.529790998 0.428715944 0.258823633
0.692599475 0.489563465 0.303985089
0.846932411 0.552182078 0.360278159
0.344971627 0.554206133 0.292599738
0.357368797 0.554079890 0.287792534
0.395825744 0.554079711 0.297153711
0.447817743 0.561922967 0.298039436
0.518026710 0.559139609 0.298418909
0.599493980 0.565085173 0.302213967
0.723719418 0.606578171 0.339026093
0.866413534 0.667552292 0.400379688
0.444908082 0.711322308 0.359519094
0.468943655 0.715876222 0.367615432
0.499557078 0.722201347 0.370904535
0.544718683 0.721821785 0.376849920
0.603795350 0.722960174 0.374067277
0.675395250 0.723719478 0.379253596
0.755850673 0.726122618 0.378747553
0.867805302 0.752308607 0.424920589
0.607463598 0.879696488 0.499809891
0.622897208 0.879822910 0.503604949
0.646046698 0.883364856 0.506261885
0.674636304 0.887160063 0.512207329
0.722454011 0.887412906 0.516887844
0.779127121 0.888045788 0.519164860
0.845034838 0.892726004 0.527007818
0.927134693 0.896394551 0.540290833
0.159140006 0.132827342 0.301581293
0.193168744 0.136748642 0.284376979
0.249588639 0.144591644 0.264389724
0.292599648 0.155218005 0.244402289
0.388488203 0.173560739 0.263251185
0.520683467 0.207969636 0.294117719
0.675521970 0.263503939 0.337507993
0.829348564 0.357241780 0.399746984
0.175964549 0.173560739 0.239342541
0.190006554 0.176343992 0.228968814
0.224035174 0.180265903 0.229095623
0.272232622 0.175458193 0.226818636
0.359392375 0.197470084 0.247817725
0.490322441 0.235420629 0.287918925
0.647691429 0.286653996 0.333333313
0.804806888 0.363187730 0.392030239
0.194434002 0.210373551 0.229980633
0.205692545 0.215433180 0.215307087
0.231878281 0.224035174 0.225679994
0.272612184 0.224794284 0.224414736
0.356735945 0.255028546 0.255787641
0.488424718 0.293738276 0.288931161
0.639721751 0.355217993 0.347627997
0.806831181 0.434155881 0.415306777
0.204047635 0.260721266 0.227577642
0.225553289 0.266287297 0.227957085
0.279570073 0.282732278 0.249842003
0.354332626 0.336369634 0.297659993
0.387855798 0.331688851 0.286906838
0.486527711 0.359392375 0.311701387
0.634787858 0.411005586 0.354965180
0.802403450 0.482479095 0.413536102
0.278810978 0.374066740 0.278304994
0.299557418 0.373940706 0.277545720
0.339152396 0.386211395 0.300569445
0.378368199 0.391271561 0.305503100
0.420240611 0.394054174 0.299177974
0.517393827 0.429981112 0.328273207
0.666540086 0.490448982 0.369512737
0.817963064 0.567109346 0.432131439
0.385831624 0.534218490 0.357874393
0.403415471 0.534724832 0.362682074
0.427197903 0.537634015 0.360657722
0.463883609 0.536875129 0.357368737
0.519291461 0.544718564 0.366097420
0.583934128 0.551043808 0.364199907
0.704996824 0.594813049 0.405566275
0.848070800 0.669955909 0.472106338
0.484250247 0.693991303 0.438835979
0.503478825 0.704996765 0.435041100
0.524983943 0.701834261 0.434914708
0.565085232 0.704617202 0.441239625
0.616951048 0.708538949 0.443010837
0.674509525 0.712081075 0.445160896
0.748892963 0.717014611 0.446299553
0.854522586 0.750790358 0.488425136
0.635546982 0.870335102 0.552435219
0.648450553 0.875142395 0.554838479
0.669829428 0.875395417 0.563061416
0.699051082 0.873877227 0.564452589
0.734977782 0.878178418 0.566729844
0.785578668 0.880075932 0.568880379
0.848197401 0.886400759 0.578494310
0.921948135 0.893611789 0.590765595
0.209993988 0.161416799 0.421505183
0.246046886 0.163819999 0.414421380
0.303858191 0.175585181 0.400253087
0.372802258 0.181024805 0.377862006
0.436938375 0.194307372 0.361796170
0.532321453 0.220114186 0.369133413
0.685262561 0.270082176 0.414421290
0.831878603 0.367741615 0.468184620
0.221125722 0.213156089 0.371410608
0.244022533 0.210752890 0.372043163
0.289690197 0.214294642 0.365338624
0.350410908 0.217457354 0.352435201
0.407210380 0.220114186 0.339152366
0.506261945 0.244908437 0.353194296
0.657811582 0.294876724 0.398987740
0.803162456 0.374826133 0.454775333
0.241999179 0.263124377 0.339911282
0.266793430 0.268311501 0.323339462
0.296900988 0.269449979 0.334472090
0.344592184 0.275015891 0.329791307
0.397090375 0.272612303 0.317900270
0.498418748 0.301834434 0.351549566
0.656293511 0.361037284 0.408728659
0.808475494 0.449335814 0.480961084
0.261100620 0.317900091 0.320177197
0.279949516 0.321441829 0.327766955
0.322959930 0.328905374 0.325363725
0.370651633 0.343833297 0.334724605
0.417710036 0.352435082 0.340290815
0.501454651 0.380518556 0.367488801
0.631372213 0.429728091 0.416698068
0.781277537 0.510183454 0.479822636
0.292093158 0.378368169 0.327387571
0.318785399 0.383807361 0.331688732
0.367362261 0.397217065 0.339152396
0.437571019 0.430866480 0.377229631
0.528020382 0.480961382 0.423023373
0.560025156 0.479822725 0.414927602
0.665907562 0.516255379 0.448956192
0.799746573 0.585831583 0.509550810
0.403541982 0.531562209 0.402276903
0.425679922 0.534218490 0.408096075
0.458950162 0.538393021 0.416951120
0.513472617 0.554585516 0.438836366
0.553067446 0.553826630 0.438709676
0.600885332 0.561163783 0.440101385
0.700062931 0.608475566 0.480834991
0.829474688 0.677419424 0.536242485
0.524604678 0.687033415 0.490954965
0.540037930 0.692852616 0.496521086
0.564705610 0.693991125 0.500569165
0.590512335 0.693232238 0.502087414
0.627451301 0.696268260 0.502846479
0.674889266 0.700316370 0.507906616
0.743200541 0.708032608 0.509803891
0.850221217 0.758254528 0.560278058
0.666666746 0.860088408 0.603541970
0.675268888 0.864769101 0.606577992
0.694749951 0.866666555 0.611638367
0.717393935 0.869196832 0.615054011
0.751549780 0.869955957 0.615559638
0.795572162 0.873877347 0.621758223
0.851866007 0.878051698 0.629601657
0.917394161 0.886400759 0.637444556
0.275901705 0.211511984 0.558127701
0.309424281 0.212270990 0.553447127
0.373940825 0.220114082 0.540417492
0.445667297 0.228589371 0.531562090
0.529664934 0.240480796 0.512334168
0.601012170 0.252371728 0.499177724
0.691714287 0.280202568 0.495762199
0.834534764 0.376723796 0.540923417
0.286401004 0.255660921 0.519924164
0.316255271 0.259329289 0.520683169
0.367995054 0.261480182 0.512840152
0.434029102 0.261100620 0.497027159
0.499683797 0.268184543 0.483491749
0.570018888 0.275142521 0.470208734
0.661226988 0.296394527 0.468690813
0.804174781 0.377103239 0.523845673
0.318658978 0.330676794 0.486148268
0.341176480 0.331309080 0.483491749
0.378494710 0.332827091 0.483238399
0.432131559 0.330802828 0.471347362
0.498292208 0.334724814 0.466160834
0.556736410 0.339026093 0.453004718
0.662871659 0.367868245 0.478304654
0.814294755 0.456546456 0.542694151
0.341555834 0.383175254 0.458697081
0.363061368 0.395192742 0.453763634
0.399873376 0.398355454 0.449209362
0.439342082 0.397090197 0.443643361
0.485894740 0.399494022 0.444908321
0.537128210 0.395192742 0.432510823
0.638203442 0.430613279 0.464895487
0.784693182 0.508665025 0.531689048
0.379506677 0.458570719 0.454016477
0.397090286 0.463377446 0.456925839
0.429854393 0.468564004 0.457811624
0.478810787 0.481973529 0.460088730
0.536748886 0.499177724 0.466540277
0.579886138 0.501580894 0.472232461
0.668817520 0.536369383 0.502213895
0.795319140 0.608728707 0.562681913
0.426691979 0.540417492 0.466034472
0.443516701 0.541176498 0.470082164
0.476281106 0.550158203 0.473118454
0.523592770 0.561163843 0.479569733
0.598987758 0.592156649 0.513852119
0.673750460 0.646426439 0.558254182
0.725363731 0.643390000 0.559013307
0.821252465 0.695003271 0.597849548
0.521821737 0.683617830 0.534345031
0.546868861 0.688551307 0.536242783
0.571916342 0.690322697 0.546868980
0.608222723 0.691587269 0.551676154
0.659582675 0.702213705 0.567362249
0.700695693 0.706514716 0.574952245
0.744718552 0.711701274 0.574320018
0.843769968 0.763061166 0.620113492
0.669070363 0.859961689 0.647311807
0.694876492 0.860088348 0.655661047
0.704743683 0.857305348 0.648070633
0.737760723 0.858064413 0.662745237
0.767109275 0.861226857 0.665148973
0.805312991 0.864009976 0.663504004
0.849968493 0.871726692 0.676786900
0.910562754 0.883744359 0.687412679
0.373434275 0.291081280 0.691714287
0.397469819 0.294749796 0.687160254
0.452624977 0.305250078 0.681720436
0.518026948 0.314611286 0.674256921
0.606325507 0.323972076 0.660468221
0.685389161 0.334092259 0.647058547
0.759013236 0.348260552 0.628969252
0.841366351 0.386084765 0.623023391
0.379253536 0.326881826 0.656293571
0.396078557 0.328905553 0.660721004
0.451107204 0.333206624 0.660088539
0.516129315 0.340923518 0.650853753
0.590132713 0.347248644 0.636053085
0.666919947 0.356230080 0.626312494
0.738266766 0.358507276 0.610625982
0.817457318 0.383934140 0.606072009
0.418469429 0.407084167 0.641619444
0.442251861 0.416065842 0.648197174
0.480202466 0.418848574 0.637571394
0.532574236 0.419228107 0.632890463
0.598355532 0.421252370 0.627324343
0.664642632 0.423782259 0.615938962
0.734724760 0.431246370 0.606072485
0.822770238 0.463757128 0.615812838
0.455028564 0.482352912 0.608475506
0.478684098 0.489816457 0.609867215
0.504364133 0.491081715 0.607716560
0.542820930 0.489563912 0.607210636
0.591397941 0.489057541 0.599746883
0.651612699 0.485641897 0.594687045
0.706388235 0.481214255 0.580392241
0.794813454 0.519291580 0.600885332
0.484630197 0.551296711 0.591271460
0.503098965 0.559139490 0.601138651
0.533206761 0.561416626 0.598102391
0.572548985 0.562681854 0.598355472
0.611764491 0.564579368 0.589753270
0.657052398 0.564579368 0.586970329
0.706514657 0.563187659 0.585199296
0.801138282 0.606324911 0.619228184
0.534218848 0.636053264 0.615559578
0.543959796 0.638710022 0.609107852
0.570524931 0.639848292 0.607716441
0.601138532 0.641492546 0.604680419
0.646173239 0.647311807 0.605439305
0.701328337 0.658823252 0.612523794
0.741808772 0.666160703 0.612397254
0.832257867 0.710183442 0.652751386
0.544339001 0.688425303 0.599873543
0.559392869 0.689436793 0.596584558
0.581024647 0.693864465 0.600632250
0.618342936 0.695129573 0.607716560
0.666666448 0.701075435 0.610120356
0.730297506 0.727767408 0.636053264
0.800885260 0.766856253 0.666919231
0.856166899 0.788867533 0.688930809
0.692346096 0.848323584 0.686907232
0.700189650 0.851739347 0.692472875
0.710562766 0.854142725 0.690448761
0.745097756 0.853763282 0.701834202
0.783554792 0.860088348 0.711574912
0.825553477 0.862871468 0.719544470
0.859708786 0.869449854 0.722833335
0.905755579 0.878558040 0.733459771
0.503731787 0.433269590 0.808222771
0.519924283 0.432258040 0.800379813
0.564199805 0.439215839 0.796457767
0.613662064 0.450221419 0.791650772
0.685389161 0.466287285 0.787096620
0.754838645 0.476913333 0.782036602
0.828209996 0.490701944 0.773687720
0.904996634 0.515622616 0.759898603
0.508412480 0.449082613 0.784313321
0.532700777 0.453889906 0.790006280
0.563946426 0.460594475 0.779759347
0.615559697 0.471347332 0.777608871
0.677166283 0.479822814 0.779379785
0.749398768 0.489943027 0.771283925
0.817583680 0.498165488 0.758760035
0.893737793 0.513345838 0.752308488
0.565970659 0.530296981 0.770524681
0.582795501 0.533712864 0.778874278
0.599746764 0.542314827 0.776723742
0.647437930 0.542947412 0.776849806
0.697533011 0.549146056 0.766223848
0.758760095 0.552434981 0.763061345
0.823402882 0.559772193 0.756356657
0.893611670 0.567994773 0.757115722
0.596204877 0.601897240 0.755091429
0.612776577 0.609867394 0.759519100
0.631499290 0.608349383 0.756229937
0.666413426 0.608602226 0.754332602
0.705629230 0.609993637 0.749272525
0.752561510 0.605439305 0.744085729
0.811132312 0.605818868 0.739784956
0.874636412 0.610373080 0.737001598
0.622896969 0.667299092 0.747501433
0.640480757 0.672106326 0.749145746
0.659835637 0.678304613 0.750537455
0.690448999 0.680581868 0.745730400
0.726248980 0.677039802 0.740290642
0.764452696 0.679063678 0.741935492
0.811132073 0.673624396 0.737128556
0.869829416 0.675901115 0.730044127
0.663756847 0.743959606 0.749778569
0.671220839 0.745224416 0.754459143
0.690448821 0.744591832 0.757115722
0.713092864 0.747121692 0.750031650
0.748386860 0.751802623 0.744212389
0.788994491 0.754206479 0.741049707
0.827324212 0.748766363 0.737381160
0.878810644 0.754206419 0.744465411
0.668943644 0.797343254 0.738899171
0.680455506 0.799873233 0.746236503
0.697533011 0.795825422 0.744844675
0.726249158 0.802150190 0.746742368
0.758254349 0.801770926 0.744971573
0.800505877 0.804806828 0.743200302
0.845920444 0.816192210 0.744085550
0.886780620 0.822770119 0.751422763
0.715622604 0.869829416 0.758633733
0.725869775 0.876028061 0.774699509
0.739278615 0.878810525 0.758507252
0.761290610 0.875015616 0.757368565
0.794180810 0.871094644 0.762555480
0.832763970 0.871094584 0.759139538
0.878304899 0.879443467 0.769259930
0.936369658 0.903604925 0.789879680
