Assets/EldamarStudio/100 Retro LUTs Pack/LUTs/cube/Barry LUT.cube
LUT_3D_SIZE 5
DOMAIN_MIN 0.000000 0.000000 0.000000
DOMAIN_MAX 0.903226 0.903226 0.903226
0.098039001 0.101961002 0.082353003
0.190259412 0.121569000 0.109803997
0.393042386 0.122201420 0.098671585
0.671980143 0.163820133 0.137381256
0.919417739 0.249968782 0.206704661
0.137254998 0.186969995 0.116002291
0.191271693 0.185325712 0.111448288
0.377988368 0.217457116 0.118659124
0.657305658 0.270714998 0.147121996
0.914484680 0.344085813 0.235294074
0.197469994 0.367488801 0.139910996
0.259329677 0.370145380 0.144212276
0.393042386 0.376091212 0.142567992
0.642631352 0.434914380 0.172928542
0.901074946 0.514737368 0.260467947
0.331562251 0.642505109 0.207969993
0.397596240 0.647058725 0.227703840
0.518658996 0.642251849 0.229980692
0.678810954 0.650348127 0.229601249
0.896520913 0.701328278 0.327261209
0.583554745 0.884123743 0.452877581
0.616951466 0.898797929 0.461353600
0.682100236 0.899809778 0.463250756
0.798734963 0.900063038 0.474003702
0.927260756 0.908918619 0.497279763
0.133332998 0.133332998 0.171283990
0.189626992 0.129411995 0.153320700
0.312586993 0.155598000 0.177861989
0.559898674 0.209234998 0.230233982
0.860594571 0.314104915 0.317646682
0.159519002 0.169006705 0.146109700
0.198734999 0.190259412 0.170651421
0.296267956 0.213155985 0.185704991
0.561163604 0.271094531 0.238077253
0.863250971 0.372928202 0.318279654
0.222011685 0.313851982 0.197469994
0.258317381 0.324731082 0.203035682
0.346616209 0.329285115 0.200758994
0.577482879 0.409108102 0.251107007
0.862491965 0.516128778 0.350663960
0.357115835 0.601012290 0.289816827
0.403921545 0.604680359 0.294370830
0.508538544 0.612523973 0.300189972
0.648070991 0.616445124 0.304490715
0.870714724 0.691840827 0.394560218
0.607716739 0.885768652 0.492472798
0.634155452 0.886401057 0.498418808
0.694876730 0.890701771 0.507020772
0.797596335 0.893864393 0.512839794
0.929158747 0.896900594 0.529917777
0.177861989 0.151043415 0.359013408
0.259962112 0.155597582 0.334218383
0.357115805 0.167361990 0.299556971
0.564452887 0.222390994 0.333586216
0.826691747 0.355344355 0.433016777
0.213156417 0.226565272 0.276660413
0.248450413 0.228209987 0.275648117
0.325363666 0.229474992 0.269449413
0.527134895 0.294623703 0.331562251
0.805692375 0.424920887 0.439468563
0.253131211 0.317141384 0.276660413
0.299177676 0.329285085 0.283491671
0.438836217 0.408728391 0.358380824
0.546489537 0.427704215 0.363314569
0.804427564 0.542947590 0.470967770
0.418975115 0.563820660 0.403921545
0.463377714 0.570019007 0.417330831
0.522580624 0.575585306 0.411764532
0.626186132 0.585705161 0.421884656
0.842378438 0.694244087 0.513219297
0.651486576 0.863250792 0.571030974
0.672991633 0.870082080 0.583048463
0.722074628 0.871726990 0.585452199
0.806072354 0.877925396 0.597849190
0.918152869 0.891334355 0.608981371
0.299177855 0.226692125 0.591524124
0.376723379 0.234535128 0.579127014
0.502340198 0.254143119 0.558886707
0.643516958 0.277672142 0.536622107
0.836812079 0.380265772 0.564199805
0.337128550 0.334218830 0.544085860
0.393169254 0.335863531 0.538393617
0.497406960 0.337507844 0.523845375
0.619734585 0.347627938 0.500063121
0.825426757 0.448197305 0.564452648
0.396710694 0.449968249 0.497406542
0.433649838 0.460847557 0.500442803
0.518026233 0.469955951 0.494497240
0.602656543 0.474889398 0.492473245
0.804427326 0.576343775 0.574572921
0.460088402 0.578874290 0.496394992
0.495762229 0.586337686 0.503985107
0.577735662 0.604933262 0.521821439
0.710183263 0.675775051 0.586591005
0.831119597 0.722074628 0.619354963
0.675395310 0.857684731 0.658697248
0.704490840 0.854775310 0.663251042
0.756989121 0.860973835 0.678557873
0.818469048 0.865780950 0.678178430
0.909044743 0.882226586 0.697785974
0.503731787 0.433269590 0.808222771
0.550790608 0.438456744 0.796204746
0.647438645 0.454775155 0.788614631
0.773307920 0.480961591 0.777988434
0.904996634 0.515622616 0.759898603
0.561922729 0.519164860 0.782669008
0.588361621 0.526628613 0.784313738
0.666413307 0.532194912 0.778114796
0.774952650 0.544591784 0.764326394
0.895888746 0.559645474 0.758886516
0.625933051 0.642884195 0.757241905
0.651739538 0.656419933 0.755597651
0.706388593 0.658697009 0.755344331
0.783807933 0.652751625 0.747501314
0.876913190 0.658064604 0.741682470
0.664263070 0.754332662 0.745224476
0.686400950 0.758001029 0.757368624
0.732194901 0.761290193 0.745350897
0.797849596 0.765844584 0.738013864
0.880581915 0.773181438 0.748260438
0.715622604 0.869829416 0.758633733
0.731182635 0.879063725 0.762302518
0.779632747 0.871094644 0.760658026
0.843896091 0.873371303 0.758886456
0.936369658 0.903604925 0.789879680
