Assets/EldamarStudio/100 Retro LUTs Pack/LUTs/cube/Beth LUT.cube
DOMAIN_MIN 0 0 0
DOMAIN_MAX 1 1 1
LUT_3D_SIZE 32
0.070588000 0.039216001 0.031373002
0.091840386 0.042251613 0.037445001
0.119544543 0.049588773 0.045667227
0.149905324 0.053636838 0.052245162
0.181404546 0.050980002 0.055660997
0.220872924 0.050980002 0.061732996
0.255281329 0.053510323 0.065275319
0.288677692 0.054901998 0.065022290
0.320556283 0.054142904 0.063504092
0.347881496 0.051106513 0.066540480
0.386843860 0.045161001 0.063757129
0.418216258 0.045161255 0.060721260
0.448956281 0.049335998 0.061100997
0.485389054 0.055407997 0.066919968
0.521821797 0.061479993 0.069955580
0.563061535 0.069955796 0.077798799
0.604048193 0.082100183 0.086907193
0.644149125 0.095382996 0.096015409
0.686653972 0.101455018 0.105123043
0.726375401 0.110309653 0.117014721
0.767741501 0.123212732 0.121569000
0.806198299 0.137381256 0.125616997
0.836938500 0.149652466 0.137760982
0.876407743 0.164832100 0.149905011
0.906768262 0.175458282 0.159772292
0.935483932 0.188741326 0.168880671
0.965338051 0.206451938 0.178494990
0.992662430 0.221631527 0.190638989
0.998734832 0.231498823 0.205439806
1.000000000 0.242377952 0.220620185
0.999114394 0.255407572 0.237571582
0.996078014 0.270588011 0.258823991
0.085768387 0.066540390 0.037445001
0.094876774 0.066540390 0.046552613
0.131182939 0.067425773 0.059076384
0.165085390 0.070082389 0.061100390
0.195445701 0.070714772 0.056040544
0.226944923 0.081340775 0.064769387
0.261353314 0.078811094 0.065781385
0.291460693 0.075901359 0.069955997
0.323592275 0.072359100 0.069576293
0.360025495 0.069323294 0.063504092
0.393168867 0.075015776 0.066540480
0.426312506 0.073497772 0.063757129
0.456926018 0.076660387 0.064136609
0.491714031 0.082732379 0.069955640
0.530929446 0.088804379 0.072991967
0.569765985 0.092473194 0.076027580
0.610120118 0.100316189 0.083870806
0.651486099 0.111827753 0.092979185
0.698798001 0.122707397 0.102087438
0.741302729 0.134345397 0.113978401
0.771536827 0.141808778 0.118532613
0.804174483 0.154585645 0.124604605
0.836938500 0.170525372 0.140796632
0.876407743 0.176976874 0.152941406
0.913598955 0.189879760 0.160531402
0.943200231 0.202530041 0.170271978
0.970398068 0.218089998 0.182036683
0.992662430 0.230739921 0.196710989
0.998734832 0.235294223 0.208854973
1.000000000 0.248956338 0.225427017
0.999114394 0.265401572 0.241872579
0.996078014 0.282732785 0.258823991
0.105249770 0.093864769 0.045667227
0.116508380 0.093864769 0.050474390
0.132068545 0.089563772 0.050980002
0.169513002 0.092093773 0.062365551
0.200252637 0.093485221 0.057811771
0.232384637 0.096773997 0.065148935
0.258823335 0.102719545 0.066666998
0.295509130 0.099683933 0.065022290
0.326375633 0.096394449 0.070335321
0.363061488 0.096141480 0.069576293
0.396710873 0.099683769 0.069955871
0.430107236 0.103732027 0.072991744
0.464010149 0.104996897 0.071346998
0.499936819 0.110309802 0.075395070
0.539405167 0.118279539 0.080329187
0.581024349 0.124098577 0.083364964
0.615939379 0.125616774 0.086400963
0.655407846 0.133459538 0.093611769
0.703984797 0.145603940 0.101201981
0.744844735 0.155597776 0.113093011
0.779759467 0.165844500 0.121441990
0.807590127 0.172169536 0.124984123
0.841113031 0.185705498 0.139658272
0.878557980 0.197849780 0.153826818
0.911448717 0.206324980 0.163567230
0.945097685 0.218469322 0.173813879
0.972675085 0.231878713 0.187223062
0.995572209 0.242377982 0.202403441
0.998734832 0.253004611 0.219228521
1.000000000 0.263124943 0.226059303
0.999114394 0.279190511 0.243263811
0.996078014 0.294876993 0.260974228
0.123972163 0.122454315 0.056040321
0.134851307 0.122454315 0.054016385
0.151296556 0.118152998 0.057811543
0.173308164 0.115876161 0.052245162
0.202529714 0.121189155 0.059456386
0.232384637 0.119038381 0.068185002
0.264516324 0.121062323 0.064136997
0.295761973 0.124731027 0.067552291
0.332954049 0.122454315 0.065274999
0.365844518 0.124983996 0.072865322
0.397976041 0.128020033 0.071980000
0.433902383 0.132321253 0.077798903
0.466160417 0.136495993 0.080834806
0.505756021 0.139658183 0.080708295
0.547248363 0.146742567 0.083744667
0.587855756 0.152182311 0.091208190
0.629348516 0.159013152 0.095509022
0.660974085 0.160910726 0.100442976
0.707020819 0.172422349 0.107780173
0.745983362 0.181783691 0.114358172
0.781024635 0.189626887 0.123971991
0.813409150 0.197723150 0.130043983
0.847185016 0.204174653 0.139152333
0.883617818 0.219355062 0.154332757
0.916761398 0.228716016 0.164958864
0.948387265 0.237950489 0.178114638
0.975205243 0.249589100 0.193295062
0.995698690 0.258696675 0.208475426
1.000000000 0.270461828 0.226312637
1.000000000 0.283112168 0.240734085
1.000000000 0.298292577 0.248197302
0.997343183 0.310816169 0.269070148
0.138014004 0.152814999 0.065528452
0.148640394 0.153194547 0.058697157
0.163061544 0.148513541 0.060974225
0.183934152 0.145856708 0.064010382
0.212017551 0.149272546 0.055281546
0.233269930 0.149272546 0.070461936
0.268564403 0.149652094 0.065528452
0.305249959 0.150537714 0.063757285
0.340543658 0.153194547 0.070588000
0.370904475 0.153194547 0.070588000
0.401644737 0.156103671 0.068437867
0.437318236 0.160784096 0.074003994
0.474509716 0.166856080 0.083112098
0.506135523 0.172928080 0.086401448
0.551675916 0.176090956 0.083744586
0.592030406 0.179506794 0.092346542
0.632637799 0.185578898 0.101833992
0.674256921 0.193927661 0.108032592
0.710689008 0.203036070 0.120177388
0.747501254 0.212523907 0.122327998
0.783175230 0.219355077 0.127261251
0.816825092 0.225427076 0.135736540
0.853257060 0.231752068 0.142314523
0.889689803 0.246679440 0.157747924
0.924224854 0.254649073 0.168753833
0.955344439 0.262492210 0.181277514
0.986211538 0.271221012 0.198608071
0.995319128 0.280328631 0.213788435
0.998734832 0.291714191 0.230487078
1.000000000 0.303858489 0.248450637
1.000000000 0.316508561 0.263757408
1.000000000 0.331689000 0.281973451
0.144086003 0.183174998 0.056420065
0.165338382 0.186211392 0.065528452
0.175964758 0.180139154 0.062998161
0.190385923 0.175331861 0.064516224
0.212017551 0.176596940 0.064389937
0.245413929 0.182668924 0.058317933
0.274256617 0.185199261 0.068437681
0.304490775 0.184440151 0.069070064
0.334851086 0.183934093 0.070588000
0.367868096 0.186590940 0.070588000
0.401138693 0.189500064 0.073497869
0.434029251 0.192536205 0.073497996
0.470714629 0.197216868 0.077799007
0.509171188 0.203288868 0.083365068
0.554712296 0.209360853 0.089437060
0.593042552 0.214926928 0.096394800
0.631499171 0.222011179 0.106008738
0.671473563 0.229854450 0.113345578
0.710689008 0.233396843 0.117141016
0.749905109 0.245287880 0.126502410
0.790765405 0.251233667 0.130297258
0.827704251 0.255787879 0.136369124
0.859329820 0.262112856 0.145350918
0.895761847 0.274256885 0.163566947
0.932194531 0.280076236 0.176723570
0.958380580 0.287792832 0.188361913
0.977609158 0.298418939 0.201517940
0.998355508 0.304617405 0.213788435
0.999493957 0.313725680 0.223655820
1.000000000 0.325110883 0.244908214
1.000000000 0.337254912 0.265781045
1.000000000 0.349905014 0.278937072
0.157748327 0.200885326 0.072612323
0.171410382 0.201391399 0.071600057
0.184060767 0.202277005 0.074256673
0.198229164 0.198102325 0.072865002
0.218089864 0.198102325 0.073497675
0.242884263 0.199873328 0.067425676
0.268690318 0.198355645 0.068944000
0.295762092 0.201391608 0.071473613
0.323719084 0.201644421 0.070588000
0.357115537 0.204680815 0.070588000
0.387982279 0.210246757 0.073497869
0.421378911 0.213282377 0.074510001
0.455913961 0.217457280 0.076787002
0.493738085 0.223529637 0.082606032
0.532447875 0.229601637 0.086401314
0.575585246 0.238076821 0.094876505
0.615307093 0.245793507 0.102466673
0.655787528 0.253636897 0.109929994
0.695255995 0.256673306 0.114863656
0.734724462 0.265527993 0.125996351
0.772295833 0.273877472 0.131309256
0.810499728 0.279570192 0.137381256
0.842758179 0.287033498 0.148007795
0.881594002 0.291967332 0.159013018
0.915749311 0.299557328 0.174952284
0.949145973 0.304237992 0.185958341
0.971031070 0.313599080 0.196963996
0.992283404 0.321695328 0.209107995
1.000000000 0.325363487 0.226186141
1.000000000 0.336243093 0.237065285
1.000000000 0.348387301 0.257052571
1.000000000 0.360531330 0.270841330
0.177861989 0.229222104 0.082353003
0.188361689 0.227577403 0.077672325
0.193421766 0.229222104 0.078431003
0.206325322 0.227956951 0.077166162
0.227198243 0.227197856 0.075648166
0.248450637 0.225932688 0.068311006
0.270588428 0.226692021 0.073118322
0.299810112 0.222011685 0.076154292
0.323339790 0.225047305 0.073118098
0.353194207 0.228083476 0.072232708
0.383681029 0.235673696 0.076786868
0.417710215 0.241366148 0.079443701
0.451106906 0.246679053 0.081720702
0.487286747 0.253004730 0.087539673
0.525110781 0.257685393 0.090575702
0.563061535 0.264516294 0.095129892
0.604048193 0.275142074 0.101201512
0.646426380 0.284376979 0.108412147
0.686906993 0.289437383 0.116508432
0.724731088 0.294750065 0.128146708
0.765591204 0.300316185 0.134598255
0.802024007 0.306388706 0.139658123
0.835926950 0.314610869 0.150917277
0.870841205 0.317646891 0.158507109
0.905755997 0.324604690 0.172169283
0.936369359 0.329285383 0.185957983
0.966983080 0.335104406 0.196331352
0.992789388 0.343074143 0.209613979
0.997469962 0.348513544 0.223782644
1.000000000 0.353573382 0.241745964
1.000000000 0.363946974 0.251233608
1.000000000 0.374572992 0.263377994
0.199114203 0.267173082 0.083871000
0.205945492 0.264895797 0.077799007
0.211638093 0.263883889 0.076660231
0.220746413 0.266667008 0.078684166
0.237445086 0.264010191 0.076407552
0.256799936 0.261353344 0.068817250
0.279570311 0.260341436 0.071853325
0.305123597 0.261480123 0.076913387
0.336243123 0.256926090 0.079949193
0.357495517 0.259961694 0.076913580
0.388994187 0.268057942 0.081846997
0.422643602 0.275901198 0.086654164
0.457937807 0.281593829 0.089310899
0.491587937 0.290702164 0.094876900
0.530550361 0.294750422 0.097406581
0.569133580 0.301708192 0.101960801
0.605566204 0.308539063 0.104996808
0.645034730 0.320050657 0.109930143
0.687413096 0.329159051 0.122074947
0.725110710 0.332700729 0.133459911
0.763820469 0.335736841 0.141429350
0.802783251 0.339785099 0.144971222
0.839342475 0.345730603 0.154332593
0.871600091 0.348766387 0.162302196
0.904237747 0.355597466 0.175205275
0.935610652 0.361922681 0.188994184
0.962935030 0.364959061 0.201138198
0.995825410 0.370778114 0.216065526
0.999240935 0.377609193 0.228589565
1.000000000 0.382922083 0.243516937
0.999240935 0.390512288 0.263377607
0.999240935 0.396584302 0.266413987
0.211258993 0.300569534 0.089943007
0.211258993 0.300569534 0.083871014
0.220240504 0.296141982 0.079949237
0.236938804 0.295509517 0.079696171
0.258697480 0.300442994 0.082479559
0.264769524 0.300442994 0.085515931
0.289184332 0.292726159 0.082985654
0.314610958 0.292346507 0.082100011
0.339278698 0.296394497 0.082985587
0.363567531 0.296394497 0.086021960
0.399367750 0.302340001 0.088804610
0.433523208 0.310562789 0.093990996
0.467046142 0.317267627 0.097659521
0.500695586 0.321062982 0.097912520
0.537128329 0.330170572 0.097912528
0.578494549 0.341429621 0.105249807
0.616192222 0.348766804 0.111068808
0.651106656 0.353447080 0.116002150
0.690575957 0.362555504 0.128146946
0.730170846 0.366097152 0.137507647
0.767615438 0.369133234 0.146742254
0.802277267 0.373181522 0.153573617
0.833270490 0.379127026 0.157368988
0.872738957 0.382163405 0.172549397
0.907273769 0.387476474 0.187349662
0.939278841 0.392283320 0.201138347
0.969007015 0.395319104 0.213282987
0.996331394 0.398355484 0.225426972
0.997343183 0.406831354 0.237697467
0.997975767 0.412270784 0.251612693
0.999114394 0.418089747 0.270461559
0.996204555 0.429981470 0.296774000
0.229222000 0.336875737 0.096014999
0.229222000 0.342694730 0.092852876
0.231372774 0.340543956 0.091081873
0.245035037 0.339026034 0.088804580
0.268058568 0.341935724 0.088172004
0.291840881 0.336875737 0.088678062
0.300442547 0.336875737 0.091714449
0.327134520 0.335483909 0.094370872
0.353953063 0.338772744 0.096141778
0.378241837 0.338772744 0.094876602
0.399620742 0.338772744 0.089184128
0.436053514 0.344844729 0.094243996
0.470335484 0.353067517 0.099177644
0.503984928 0.359898835 0.101454869
0.540417671 0.366350293 0.106767870
0.581657410 0.375458509 0.111574866
0.621125817 0.384060860 0.117141187
0.656546116 0.388488322 0.122074723
0.693738103 0.393042713 0.134218946
0.735989928 0.399367750 0.138013646
0.773687482 0.402529866 0.150663733
0.809108138 0.405565977 0.160784006
0.841366112 0.409740716 0.166223615
0.872485936 0.415559769 0.181404039
0.907400310 0.420872867 0.196584404
0.940796614 0.428336501 0.211764529
0.971663237 0.434408545 0.225427002
0.996584415 0.437444299 0.237570986
1.000000000 0.440480679 0.252371818
0.998987854 0.445541084 0.270082027
0.999114394 0.448577017 0.286653847
0.996078014 0.454649001 0.303858012
0.249462247 0.379380226 0.102086991
0.245414257 0.379380494 0.099051386
0.253636777 0.376976460 0.098165996
0.257937968 0.375205249 0.099430837
0.275395274 0.377482533 0.097912535
0.299430668 0.376344234 0.096268252
0.321695179 0.375332236 0.098798051
0.335736483 0.376976937 0.100189731
0.363820106 0.380012661 0.103984736
0.389373720 0.381277502 0.102213509
0.414801121 0.381277502 0.102340251
0.438077241 0.383301765 0.098291993
0.473371387 0.390512109 0.104363993
0.507020831 0.399114251 0.108791761
0.543453574 0.403415471 0.116634980
0.584693253 0.413915008 0.112586737
0.624162078 0.421505213 0.120176934
0.661859334 0.426944822 0.126122728
0.701075256 0.429981202 0.138266742
0.739026010 0.433776498 0.146109894
0.777735710 0.439848512 0.156735986
0.813156366 0.441998750 0.170904249
0.846426249 0.444149494 0.179379746
0.876787066 0.450221509 0.194560155
0.907400310 0.456293494 0.207716256
0.940796614 0.459582508 0.221505314
0.972169042 0.465781331 0.235041186
0.994939625 0.468817323 0.245666981
1.000000000 0.473877341 0.260467827
0.998228788 0.478684485 0.280961394
0.997975767 0.481973648 0.299810231
0.996078014 0.485009253 0.311954260
0.259329349 0.411258638 0.105881996
0.257811636 0.409361392 0.105123378
0.263503999 0.407590091 0.103099354
0.276533663 0.405186266 0.105502844
0.283744186 0.404806703 0.107779548
0.303478569 0.406324923 0.104743928
0.321568638 0.405692637 0.103352323
0.343706638 0.407337070 0.105881996
0.364958644 0.411132544 0.108918190
0.392662495 0.414547801 0.110436283
0.416571975 0.414674282 0.108791865
0.444149345 0.415559888 0.110056743
0.470714658 0.420872986 0.110436283
0.504111052 0.429474652 0.116002284
0.539658189 0.432511061 0.122454055
0.579759598 0.441619307 0.121694840
0.619228363 0.450727254 0.119417831
0.655660927 0.456799269 0.127893627
0.697153687 0.460341632 0.139025658
0.734092414 0.464516342 0.148387000
0.773940802 0.469449997 0.162428737
0.807337463 0.474510133 0.174572989
0.840480804 0.474763125 0.186463982
0.871853530 0.479822993 0.200632274
0.904490948 0.484756619 0.214673996
0.936242640 0.490322649 0.227956682
0.968627036 0.490322649 0.239595428
0.991144419 0.492726415 0.248703182
0.998734832 0.499557644 0.265401453
0.999367416 0.503352642 0.281340748
0.997216642 0.507653654 0.305629551
0.997216642 0.510436296 0.318785638
0.252751023 0.424162060 0.106894061
0.258317739 0.424415082 0.109930381
0.267046273 0.425553322 0.108665287
0.277672201 0.428589255 0.108665027
0.292599559 0.431119591 0.114357546
0.307779938 0.428083211 0.111321934
0.319165349 0.425300419 0.106767997
0.334345669 0.425553381 0.104617350
0.357116014 0.428842217 0.108918190
0.387476027 0.434915006 0.121062964
0.407210767 0.434915066 0.113852128
0.433270007 0.435168028 0.112333804
0.463630289 0.438330412 0.116255254
0.494244039 0.446932077 0.122327968
0.527640462 0.449968487 0.122327968
0.565338314 0.457305789 0.124731220
0.603289306 0.464895993 0.128273219
0.639721930 0.470968038 0.131688982
0.676154017 0.477040052 0.137761012
0.711827695 0.483618081 0.145857319
0.753700137 0.488931030 0.160151944
0.794181108 0.493738145 0.175078988
0.821631968 0.496774524 0.181657001
0.854901850 0.499810159 0.194054067
0.889563560 0.503099322 0.208222315
0.924604654 0.507274032 0.223149642
0.957242072 0.512334049 0.238077104
0.984566450 0.512334049 0.247185484
0.995698810 0.520050824 0.265654802
1.000000000 0.523593009 0.282605946
0.999746978 0.524352074 0.298039168
0.999746978 0.524352074 0.322327971
0.274003386 0.478810787 0.119038828
0.274003386 0.481847167 0.122074440
0.286021322 0.475648403 0.120809764
0.294876546 0.474130392 0.117773667
0.301581413 0.476787210 0.117773414
0.313851923 0.476660699 0.123465925
0.336622626 0.476154625 0.128019989
0.352814674 0.477166474 0.123339690
0.370777667 0.479443192 0.119038828
0.393548012 0.480455339 0.121062972
0.423908710 0.477799237 0.124478124
0.449715227 0.479443520 0.120936245
0.478810698 0.482985377 0.121442184
0.509424448 0.489436805 0.125363573
0.542820811 0.492473215 0.131435573
0.576217175 0.495508999 0.133839369
0.612396896 0.501327991 0.139911607
0.648829639 0.507400095 0.146489829
0.685262442 0.513472795 0.149904996
0.713345766 0.525110841 0.150410995
0.752055466 0.526502073 0.159898564
0.794180930 0.526375413 0.174319699
0.830740392 0.527134478 0.187729001
0.861100435 0.530170858 0.205945820
0.887539566 0.535483837 0.218342826
0.918532610 0.539532065 0.231119394
0.951423109 0.542694807 0.244908124
0.981530845 0.542694807 0.262365848
0.990259409 0.548007786 0.268817365
0.996963918 0.549399197 0.288677931
0.999114394 0.550537586 0.309550583
0.996710598 0.557748437 0.331435561
0.283238620 0.526249349 0.128779188
0.292852610 0.524478197 0.139026210
0.295002848 0.525363803 0.133459821
0.307906300 0.519544423 0.133712992
0.315876245 0.519923985 0.133712798
0.330044001 0.519923985 0.131688803
0.340290844 0.519923985 0.135356992
0.364579618 0.521568656 0.136495709
0.384313613 0.523845553 0.130423889
0.407210320 0.523845553 0.128779188
0.434787720 0.525743425 0.134092122
0.463124752 0.526755333 0.137128249
0.490449220 0.527514219 0.134851336
0.519544780 0.529538333 0.135610044
0.550790429 0.532574177 0.141682595
0.584187448 0.538013756 0.142947614
0.617583811 0.539531589 0.149019614
0.653130949 0.544465125 0.154332787
0.689563811 0.552308738 0.150284857
0.722454131 0.556736588 0.160151809
0.755471230 0.563187838 0.169639543
0.793927908 0.562175572 0.184313595
0.830487192 0.562428594 0.200885296
0.865401804 0.567741692 0.216824800
0.898039103 0.568500757 0.235040978
0.924098670 0.572928429 0.247438326
0.953953087 0.575964689 0.259076536
0.980518878 0.577861965 0.271600097
0.994433999 0.578367949 0.288804770
0.993421972 0.586211205 0.303731948
0.995193005 0.585705221 0.324731201
0.993674815 0.588741601 0.342947602
0.295382977 0.574826181 0.139405385
0.302972794 0.567236006 0.145477772
0.313219637 0.564832151 0.148640230
0.316255242 0.563567340 0.148387000
0.328020334 0.561290026 0.153446987
0.343200237 0.562428355 0.147374988
0.359392494 0.560910583 0.144338876
0.375205398 0.562554896 0.147121906
0.398735076 0.565591276 0.145604089
0.422264218 0.566350400 0.144085690
0.447944254 0.567742050 0.146742180
0.475268751 0.570778310 0.153826445
0.501455009 0.572675586 0.153447196
0.528652847 0.570272386 0.150284380
0.559013188 0.572043180 0.153826833
0.590259433 0.577482581 0.158127993
0.622137964 0.580518544 0.153573811
0.655534506 0.581150949 0.162681580
0.691082001 0.588488162 0.158886969
0.726249218 0.590512335 0.166224003
0.763061464 0.595066428 0.184819922
0.798482120 0.598102331 0.198988169
0.831878483 0.598861396 0.216065690
0.866919637 0.604933381 0.231246099
0.898039103 0.607969582 0.247185364
0.930044115 0.609360874 0.262618363
0.958507061 0.611891150 0.275774986
0.985831678 0.613914907 0.287918746
0.993421793 0.615812540 0.303478628
0.997975826 0.615053356 0.320430160
0.993674815 0.622390747 0.341682583
0.993674815 0.620620191 0.358127981
0.314231545 0.622011125 0.154079959
0.317899734 0.612397134 0.155344948
0.324224949 0.606071949 0.154965356
0.333207011 0.603035688 0.159266159
0.338519692 0.600759089 0.170271590
0.354206085 0.603794754 0.164958552
0.373181283 0.602403402 0.159519136
0.393168688 0.602023959 0.157748282
0.415686071 0.605059624 0.161417037
0.436938494 0.608096004 0.164452657
0.460468143 0.608222544 0.163314149
0.486780643 0.609614193 0.168121248
0.513599157 0.612777114 0.173434556
0.538393140 0.612777114 0.168121532
0.568753779 0.612777114 0.168500975
0.598482013 0.616951525 0.171410561
0.628842592 0.619987547 0.173054934
0.659835100 0.619987547 0.167109132
0.693232358 0.623023152 0.176217526
0.729411602 0.624541104 0.184440121
0.766476631 0.627071142 0.198102444
0.803921700 0.632131279 0.218342975
0.837191582 0.635167599 0.230486989
0.870081902 0.640733540 0.245161459
0.898924291 0.644528806 0.259709269
0.928272903 0.646932423 0.276660532
0.956609607 0.648956060 0.288804561
0.989373446 0.648829520 0.306767553
0.996710598 0.652118981 0.323592365
0.996710598 0.652245522 0.339405298
0.996710598 0.649715126 0.354459137
0.996710598 0.652751565 0.375711560
0.335483968 0.652371943 0.178368002
0.341555953 0.652371943 0.184439987
0.340923160 0.647058964 0.179253772
0.342947364 0.642504752 0.174952924
0.350664496 0.640227497 0.176344380
0.371916890 0.643263936 0.179379985
0.387602597 0.643769920 0.176597282
0.403288692 0.643516958 0.174952924
0.422011107 0.644528806 0.176723957
0.449082524 0.647564411 0.182669461
0.470334858 0.647690952 0.176976949
0.495888263 0.647690952 0.177482694
0.523212969 0.650221288 0.181024656
0.550537884 0.655281961 0.183301941
0.580897927 0.655281961 0.186337560
0.608854771 0.657685161 0.184313819
0.637950420 0.659455955 0.186590970
0.668943524 0.659455955 0.191397935
0.702340007 0.659455955 0.197469950
0.738519788 0.665274918 0.212144330
0.773054719 0.667045951 0.220872939
0.806957424 0.668564081 0.230487004
0.840227962 0.671600401 0.242631018
0.870588005 0.674636006 0.254775792
0.898924291 0.677925289 0.267172962
0.929031968 0.679569960 0.286527634
0.959645987 0.679316938 0.310056955
0.977861941 0.676280558 0.322200954
0.994686782 0.681467652 0.342820764
0.999746978 0.683744967 0.361796349
0.999746978 0.682606280 0.377988905
0.999746978 0.680076063 0.390891969
0.328905642 0.654901981 0.177609354
0.337760985 0.654901981 0.180897981
0.343832970 0.657052755 0.180518776
0.345224530 0.654143214 0.176470995
0.350538015 0.651486337 0.176091447
0.364579588 0.652118981 0.174320042
0.380771965 0.655155361 0.174825996
0.397596329 0.658697367 0.176976636
0.416192204 0.660974383 0.180012733
0.441492856 0.661986232 0.184060991
0.465780854 0.667678714 0.186843649
0.487033248 0.665654480 0.184819654
0.515116632 0.666033983 0.189373642
0.545730352 0.670208991 0.195192978
0.573561311 0.672738612 0.193168581
0.601518154 0.675142467 0.198608607
0.630360365 0.676660359 0.198229373
0.661353350 0.677292943 0.201771349
0.694750369 0.679443717 0.207843378
0.725363374 0.685009718 0.213915363
0.759898841 0.685388982 0.221505255
0.793295503 0.686527371 0.229727760
0.826565623 0.691334546 0.243643016
0.856926382 0.694370806 0.255787790
0.885009646 0.697406411 0.267931998
0.915117025 0.699051023 0.282858968
0.948007762 0.699557066 0.304490775
0.975332320 0.701075315 0.321189344
0.990891457 0.700695753 0.335989475
0.998987854 0.702973008 0.353446811
0.999114394 0.703858376 0.370651454
0.997216642 0.704617023 0.386590987
0.338772744 0.692852437 0.197343722
0.345983386 0.687160194 0.200379342
0.352940977 0.693105459 0.201011747
0.360278130 0.691081882 0.194180965
0.364199966 0.686780632 0.192789540
0.370271981 0.685262442 0.195825517
0.394434035 0.683997273 0.193421721
0.407969713 0.688678384 0.190132722
0.425679922 0.693232477 0.195192724
0.447691739 0.693232477 0.199367464
0.471979707 0.695256472 0.202403590
0.498038977 0.699051201 0.207210466
0.521568358 0.697153449 0.206071824
0.552687764 0.699430704 0.211638018
0.578368187 0.702466786 0.211891055
0.605692804 0.703605294 0.214168340
0.633017182 0.708159447 0.221758544
0.662365258 0.708285868 0.221631989
0.693232179 0.708791971 0.222644001
0.725743055 0.710815966 0.232510984
0.756103396 0.716888011 0.238583460
0.786464512 0.713851810 0.241619065
0.817204475 0.717140913 0.253130704
0.849336088 0.720176935 0.265275031
0.883112311 0.723213136 0.281214744
