Assets/EldamarStudio/100 Retro LUTs Pack/LUTs/cube/Beth LUT.cube
LUT_3D_SIZE 8
DOMAIN_MIN 0.000000 0.000000 0.000000
DOMAIN_MAX 0.903226 0.903226 0.903226
0.070588000 0.039216001 0.031373002
0.181404546 0.050980002 0.055660997
0.320556283 0.054142904 0.063504092
0.448956281 0.049335998 0.061100997
0.604048193 0.082100183 0.086907193
0.767741501 0.123212732 0.121569000
0.906768262 0.175458282 0.159772292
0.998734832 0.231498823 0.205439806
0.138014004 0.152814999 0.065528452
0.212017551 0.149272546 0.055281546
0.340543658 0.153194547 0.070588000
0.474509716 0.166856080 0.083112098
0.632637799 0.185578898 0.101833992
0.783175230 0.219355077 0.127261251
0.924224854 0.254649073 0.168753833
0.998734832 0.291714191 0.230487078
0.199114203 0.267173082 0.083871000
0.237445086 0.264010191 0.076407552
0.336243123 0.256926090 0.079949193
0.457937807 0.281593829 0.089310899
0.605566204 0.308539063 0.104996808
0.763820469 0.335736841 0.141429350
0.904237747 0.355597466 0.175205275
0.999240935 0.377609193 0.228589565
0.259329349 0.411258638 0.105881996
0.283744186 0.404806703 0.107779548
0.364958644 0.411132544 0.108918190
0.470714658 0.420872986 0.110436283
0.619228363 0.450727254 0.119417831
0.773940802 0.469449997 0.162428737
0.904490948 0.484756619 0.214673996
0.998734832 0.499557644 0.265401453
0.295382977 0.574826181 0.139405385
0.328020334 0.561290026 0.153446987
0.398735076 0.565591276 0.145604089
0.501455009 0.572675586 0.153447196
0.622137964 0.580518544 0.153573811
0.763061464 0.595066428 0.184819922
0.898039103 0.607969582 0.247185364
0.993421793 0.615812540 0.303478628
0.338772744 0.692852437 0.197343722
0.364199966 0.686780632 0.192789540
0.425679922 0.693232477 0.195192724
0.521568358 0.697153449 0.206071824
0.633017182 0.708159447 0.221758544
0.756103396 0.716888011 0.238583460
0.883112311 0.723213136 0.281214744
0.991650879 0.728779435 0.346236616
0.440101266 0.850853562 0.331562281
0.457305551 0.835041106 0.322074711
0.494370461 0.840733826 0.319165260
0.579000592 0.840733826 0.330929846
0.675395429 0.845540881 0.343959272
0.779127240 0.849842012 0.360278100
0.889437020 0.852498293 0.382542849
0.987222791 0.847944260 0.425679624
0.531055987 0.940164804 0.451486588
0.531815052 0.937634468 0.438709885
0.567615509 0.941555798 0.440354496
0.628083587 0.941555798 0.445920587
0.708032787 0.942820966 0.463630766
0.795572460 0.945477784 0.482226312
0.890195966 0.944085777 0.498165458
0.981909752 0.942820907 0.522200763
0.118785545 0.067046449 0.135989547
0.199493647 0.063124545 0.131688997
0.322960109 0.079949193 0.144591644
0.440733612 0.109677188 0.164958537
0.600632846 0.141049996 0.182542980
0.763946652 0.176976472 0.210879102
0.915369987 0.223529741 0.253510535
0.998734832 0.278052002 0.289057374
0.162681550 0.159519553 0.143073559
0.223403081 0.152814999 0.137128100
0.325616658 0.166097194 0.156356648
0.461985826 0.186843634 0.166097090
0.620873034 0.218975350 0.197090447
0.786717474 0.250727087 0.228462830
0.913345993 0.282732576 0.248956084
0.997722745 0.323466092 0.297659695
0.213156193 0.266414076 0.153953463
0.252371997 0.265655011 0.150790632
0.329538554 0.260088265 0.159898996
0.453637183 0.289436728 0.173560724
0.606325150 0.319544375 0.189879730
0.769133568 0.348639995 0.224921077
0.903858304 0.374952465 0.258823723
0.997722745 0.402656466 0.310562640
0.276154011 0.419481099 0.187476203
0.299177527 0.416698426 0.182795808
0.377988905 0.422517180 0.181910083
0.475016087 0.429980636 0.183807641
0.624414742 0.460974067 0.211765006
0.770904720 0.476913601 0.229475275
0.906894386 0.494497091 0.278052092
0.995066166 0.509044707 0.326122582
0.309551179 0.582542837 0.214800924
0.344971210 0.573434532 0.216192082
0.408601850 0.574572921 0.214927450
0.511575103 0.586843371 0.225173727
0.633396864 0.588740945 0.228589386
0.767488837 0.601644397 0.260974020
0.899683475 0.616318882 0.306009054
0.996331334 0.626945019 0.363187432
0.366477162 0.707652986 0.264769018
0.377988547 0.698292196 0.258950084
0.445414335 0.703605294 0.259076267
0.532321155 0.706261694 0.272106528
0.639721692 0.712207437 0.276660502
0.761163712 0.719544888 0.292599261
0.885136008 0.729917705 0.338393301
0.989626706 0.737508059 0.398861617
0.452877820 0.851866245 0.386084378
0.471853286 0.847438276 0.386337847
0.517900288 0.845793962 0.377103060
0.595446050 0.849335611 0.391271472
0.682732522 0.850600898 0.398734897
0.782542765 0.851486742 0.408475578
0.896141529 0.853510559 0.419101804
0.985958099 0.848323822 0.459835500
0.556103349 0.941935360 0.489057422
0.553700209 0.945224166 0.481973290
0.579127192 0.940544248 0.479443163
0.640733480 0.945098221 0.490828156
0.712080956 0.947121978 0.499683768
0.800000131 0.949398816 0.520303607
0.893484950 0.945730507 0.533206761
0.977355838 0.951296628 0.555471122
0.148893088 0.074510001 0.248324186
0.217078090 0.074889451 0.239342541
0.318153083 0.088551901 0.231878281
0.444275975 0.119038187 0.254901737
0.585199296 0.157494992 0.279696196
0.740037739 0.206198633 0.310562819
0.883871317 0.274003774 0.357115656
0.990512192 0.338266969 0.400379270
0.199873209 0.173181176 0.238962993
0.242884085 0.174319625 0.238963082
0.330297649 0.177482530 0.240481079
0.454775721 0.201770738 0.265907735
0.596837401 0.234661624 0.298924655
0.758633435 0.277292907 0.334977746
0.889057517 0.327008098 0.363440901
0.994307041 0.370398164 0.408602029
0.234408990 0.268691093 0.238204092
0.272359550 0.274257004 0.245540634
0.349525273 0.278052092 0.260088205
0.450853825 0.294876665 0.267805099
0.592156649 0.331309378 0.298292279
0.753067493 0.364959091 0.330423653
0.886274517 0.397849262 0.371157348
0.994939983 0.442504734 0.414421171
0.284630001 0.420619667 0.282226205
0.316381663 0.414294749 0.284630001
0.381404549 0.422517300 0.288425088
0.475901276 0.421632081 0.287286580
0.614927411 0.455408096 0.317394078
0.754332602 0.481973201 0.345856905
0.885262787 0.505882621 0.384566367
0.991397560 0.533586323 0.431625575
0.333080173 0.577229559 0.327387393
0.356736004 0.571536958 0.321948171
0.417457253 0.573434472 0.316255391
0.510689378 0.574572861 0.322580278
0.626692355 0.582036555 0.332827389
0.757748365 0.602782905 0.365717977
0.883997560 0.618975282 0.401012152
0.988488138 0.641113043 0.453763485
0.387855828 0.705376148 0.363314271
0.407589912 0.699430466 0.365844309
0.462618709 0.699557483 0.357621938
0.544845104 0.703478634 0.371916562
0.644781649 0.707779825 0.378115177
0.758507431 0.718026638 0.394560546
0.877292991 0.732953906 0.430487365
0.986211061 0.745983481 0.489689916
0.487160057 0.847185373 0.460468173
0.506767988 0.841872275 0.468437999
0.546869099 0.845414579 0.465781093
0.613662302 0.846679330 0.469702631
0.696774244 0.847944260 0.477672368
0.788361549 0.848703265 0.485136002
0.884882987 0.850348055 0.498039097
0.980645061 0.847944319 0.527261138
0.579126894 0.951169908 0.551423132
0.580392063 0.945350766 0.551170111
0.610879064 0.944212615 0.546995878
0.660847843 0.946236491 0.552688003
0.728146851 0.944718659 0.565211713
0.807463646 0.947121859 0.578241765
0.892219782 0.947248697 0.590512156
0.978747666 0.946110010 0.605186462
0.181024998 0.090828992 0.379000276
0.244402289 0.095129542 0.377102792
0.343579829 0.105376355 0.371157289
0.443896651 0.124477997 0.366097629
0.582795501 0.163694084 0.391524255
0.738772452 0.213282734 0.423656166
0.877672255 0.287160277 0.457937896
0.980265796 0.389373600 0.504743814
0.239848092 0.195066184 0.388994634
0.275775015 0.192663088 0.359266371
0.352940828 0.199747100 0.370398372
0.455534637 0.205186173 0.373561263
0.600379765 0.239342541 0.410878927
0.751423419 0.279063821 0.437824190
0.882858992 0.356736004 0.478304923
0.985958040 0.435926706 0.528779209
0.262998432 0.298039436 0.376723379
0.295383006 0.292093277 0.355344445
0.365971118 0.299178094 0.366477281
0.455534726 0.307780176 0.377482265
0.592536092 0.338267088 0.407589912
0.734977603 0.378115207 0.438836098
0.864769101 0.439342201 0.486148030
0.977735698 0.489942908 0.529158771
0.289690346 0.416951269 0.383302003
0.325743347 0.414548069 0.384820074
0.399493635 0.433396369 0.401265115
0.490322649 0.442757994 0.406324923
0.617204547 0.463503838 0.435294002
0.739026070 0.497280508 0.465907723
0.863630533 0.535863221 0.502213955
0.976976633 0.573813915 0.550411105
0.355471253 0.575838149 0.434914917
0.379506618 0.569765806 0.424794644
0.440986484 0.567488909 0.431499183
0.521188855 0.574193537 0.438456655
0.622643709 0.578494728 0.443137228
0.742441654 0.604427755 0.477798969
0.866793215 0.631119788 0.520936072
0.976976573 0.661353469 0.562302232
0.424161851 0.695762157 0.469576269
0.439974666 0.689689994 0.468058288
0.488804460 0.697153568 0.471726716
0.558886588 0.701454699 0.474004030
0.652245581 0.706261754 0.484756559
0.752435148 0.715243459 0.493232250
0.869576216 0.731435776 0.534345210
0.969765902 0.754965305 0.580644965
0.528146923 0.839595199 0.564579308
0.540417254 0.836179256 0.552688301
0.572043121 0.837191880 0.554332614
0.631119907 0.840733826 0.561795890
0.706514835 0.841998875 0.567995071
0.790006280 0.843263686 0.574446917
0.877040029 0.847438216 0.582416236
0.969513178 0.849588990 0.609867096
0.606451631 0.946616173 0.622264266
0.611132383 0.942947447 0.623023391
0.637064993 0.940417469 0.627324522
0.683997452 0.941555798 0.629474938
0.740164280 0.943073988 0.635800421
0.815686405 0.944212615 0.646552622
0.892219782 0.945224404 0.655787289
0.979379773 0.946869195 0.662112474
0.229601383 0.127640992 0.531056404
0.281720638 0.134345353 0.526375592
0.373940110 0.141682282 0.528020203
0.476407200 0.161290273 0.522074759
0.596205115 0.179253191 0.518659174
0.743832886 0.225427181 0.548133910
0.875395298 0.306768268 0.566477060
0.982668996 0.402277142 0.599620521
0.269323349 0.227830365 0.544844985
0.316508383 0.225932926 0.521695197
0.381530404 0.229854628 0.529031932
0.490069628 0.242884174 0.529917717
0.603162587 0.249462739 0.527134418
0.755344450 0.295635641 0.556230366
0.878178656 0.361796170 0.575838089
0.982542515 0.446932435 0.612776995
0.299304187 0.334472090 0.518659174
0.334345371 0.330929637 0.511575103
0.390765399 0.333713174 0.512207448
0.482226729 0.337887645 0.511068881
0.591524303 0.348513335 0.513093293
0.733206451 0.391144723 0.547880888
0.863504231 0.451107174 0.584313571
0.970651746 0.520556748 0.627071381
0.319797188 0.449209183 0.521948159
0.352308631 0.445920259 0.517267287
0.422896743 0.450474381 0.523086607
0.516382158 0.471726984 0.535230994
0.617077768 0.487792641 0.542188168
0.739531875 0.518785417 0.573181570
0.852245569 0.560278356 0.607210696
0.954838574 0.608602464 0.649968326
0.373561174 0.574193358 0.532574177
0.389879584 0.570272326 0.531056404
0.454269260 0.576470435 0.537254632
0.549146175 0.598102629 0.558886707
0.639342189 0.601644337 0.566350400
0.743959546 0.622517407 0.591144919
0.855914176 0.649589181 0.619734406
0.959645629 0.681846976 0.659329534
0.455028415 0.693485022 0.565591097
0.470588356 0.694244027 0.567615509
0.516508639 0.697153568 0.574446738
0.582415938 0.702593327 0.581151187
0.657811821 0.707400441 0.587096930
0.746236682 0.718406200 0.603162408
0.856040716 0.740037978 0.632257998
0.960404694 0.763187826 0.671853065
0.571031213 0.831372499 0.647691250
0.576850116 0.829221904 0.644908190
0.603162348 0.833649397 0.646932304
0.640101254 0.833523273 0.645920038
0.715243399 0.841492772 0.657179356
0.790006280 0.841619492 0.661606729
0.873877466 0.844022870 0.667425752
0.962049067 0.851866126 0.697280347
0.638077080 0.944212615 0.710309803
0.631752074 0.935610473 0.699051261
0.654395819 0.936369658 0.696900666
0.697153628 0.938646615 0.704490781
0.749652326 0.940417409 0.706894219
0.821758687 0.941935360 0.712586820
0.894243836 0.944339037 0.724351823
0.970271945 0.945477784 0.733965635
0.272485733 0.178241730 0.689563453
0.315875977 0.183933988 0.686021566
0.399240851 0.194686830 0.684376776
0.511321783 0.213788986 0.687539697
0.633143604 0.235673264 0.682099879
0.760025442 0.258317471 0.679822743
0.881594002 0.327514023 0.689436972
0.987096786 0.421252638 0.704743743
0.304870278 0.266666532 0.687539697
0.339784533 0.271347344 0.687665761
0.417330831 0.278557658 0.693990886
0.528905451 0.289057285 0.691081285
0.638583362 0.298671633 0.681720257
0.754585683 0.312081009 0.679317176
0.874130070 0.373814106 0.685515285
0.979379833 0.457685053 0.700695872
0.343832761 0.385452181 0.685262740
0.365591437 0.382542640 0.675774932
0.433016926 0.381530493 0.675648510
0.522580445 0.389753670 0.667552471
0.640986621 0.404301167 0.671853185
0.745857418 0.415559769 0.671094060
0.865654707 0.462871373 0.686653733
0.973054767 0.531435788 0.717140794
0.385325730 0.491208076 0.665654838
0.407842904 0.498418987 0.665275216
0.473750830 0.503099144 0.669323206
0.549778700 0.511321664 0.662491798
0.644528806 0.517141044 0.664895654
0.744085670 0.524857461 0.669955492
0.850600898 0.568374336 0.689437270
0.956483006 0.619228244 0.723339736
0.425553530 0.607337356 0.669449747
0.449842155 0.610373259 0.669955552
0.505502999 0.611637890 0.666034460
0.583807528 0.622264385 0.677672327
0.669449925 0.633143604 0.683870971
0.751423359 0.644908190 0.683238268
0.849968493 0.669955671 0.711954713
0.952687860 0.705629408 0.744971752
0.471600175 0.708791435 0.673371434
0.494244069 0.706641316 0.665907443
0.537381470 0.709804058 0.674889088
0.605313063 0.715369999 0.681467772
0.687160015 0.732194901 0.700062871
0.767868459 0.736622512 0.707147777
0.858317256 0.755091727 0.732953906
0.954458952 0.781277478 0.758507490
0.585705042 0.832384288 0.723972142
0.593548715 0.839595199 0.721062601
0.627577245 0.836938381 0.732700646
0.672611892 0.840480864 0.738772571
0.735104442 0.837697446 0.748007536
0.790385783 0.841745555 0.745856941
0.867552280 0.848197281 0.749904990
0.956482768 0.857684791 0.774067104
0.680202544 0.942820966 0.790765464
0.682732582 0.939026117 0.782542646
0.706388235 0.936875343 0.786337554
0.737887442 0.938393354 0.793927848
0.776470482 0.939658582 0.788361728
0.826691866 0.940164804 0.794560492
0.897027135 0.944465280 0.799620628
0.967615783 0.948260605 0.810879529
0.319544584 0.253510565 0.831878543
0.357748240 0.257179022 0.828969300
0.436559200 0.269196570 0.832890272
0.542567909 0.287160009 0.826185942
0.662112653 0.309298187 0.824415267
0.772296011 0.337254763 0.816698253
0.889437020 0.363946557 0.810372949
0.981657028 0.441492617 0.800885260
0.350158274 0.328146338 0.829221845
0.382795841 0.331688821 0.819481552
0.456040382 0.338393182 0.829222143
0.553826571 0.350031555 0.825047553
0.657305658 0.366097629 0.821252346
0.775458455 0.386843354 0.813029826
0.885136008 0.407084227 0.808096111
0.974952638 0.473750621 0.806704521
0.401644349 0.440227568 0.810120344
0.427830815 0.439468473 0.816445291
0.488045454 0.445667177 0.817330599
0.569259822 0.452625185 0.814674139
0.672359288 0.464389563 0.811005533
0.775458574 0.474509567 0.804680407
0.878431261 0.490955174 0.805439472
0.968501091 0.544212520 0.802150428
0.467552274 0.560531199 0.808222651
0.490954816 0.560151577 0.804427624
0.539405406 0.563693762 0.802782953
0.602530241 0.569513261 0.798734903
0.682858825 0.572549343 0.803795338
0.772675276 0.578241706 0.800885499
0.866413653 0.584692895 0.798102617
0.958254039 0.627451003 0.807969451
0.506894410 0.651739180 0.799241006
0.526502132 0.658064544 0.803668618
0.567236006 0.661227226 0.799873412
0.630360723 0.667172790 0.801138639
0.698292255 0.668184400 0.802277029
0.774572849 0.673877239 0.798355341
0.858064532 0.679316878 0.801644325
0.944339037 0.711827755 0.820873022
0.539531529 0.743580163 0.800759256
0.552182078 0.747754693 0.803415596
0.591650784 0.752055407 0.799620748
0.647312045 0.754712164 0.801264763
0.717014194 0.758886814 0.805566251
0.786084771 0.763314247 0.812270761
0.864009798 0.772675455 0.818722546
0.945983529 0.798987687 0.837191701
0.593042254 0.840101242 0.803794980
0.597469807 0.838836133 0.805566251
0.632384539 0.839974761 0.806198359
0.679317057 0.844655275 0.811005533
0.738899171 0.846299529 0.811764598
0.808095932 0.853510559 0.829222023
0.875395298 0.855787277 0.832258344
0.953320801 0.869576097 0.852751136
0.686021805 0.938013911 0.846932411
0.693358362 0.940164804 0.845287979
0.718406260 0.937887490 0.849841833
0.749778390 0.936495781 0.852877915
0.795319438 0.945856988 0.863124430
0.847185194 0.943326890 0.867425680
0.892219782 0.945098221 0.869702935
0.964452744 0.941429675 0.870968044
0.391144812 0.348133922 0.941555798
0.425300658 0.349146247 0.940544248
0.487665892 0.363187730 0.944085777
0.573687494 0.381530583 0.942568004
0.676660538 0.404933572 0.934724569
0.787096739 0.428462863 0.940037787
0.896014810 0.463377327 0.936369658
0.991017938 0.495888770 0.929790795
0.423150092 0.411132038 0.943706334
0.449968517 0.408602059 0.938772798
0.503984630 0.418722332 0.940796912
0.588741362 0.433649629 0.940417469
0.681214333 0.452498525 0.939784825
0.790765405 0.476533800 0.936242759
0.894117534 0.500189424 0.922074676
0.992030382 0.523465812 0.922960222
0.484629959 0.512966216 0.933712780
0.508159220 0.512080848 0.938899517
0.548893154 0.517647207 0.923845530
0.618469000 0.524983883 0.927260756
0.703352451 0.537887275 0.930929422
0.797849357 0.551170170 0.927008152
0.893864453 0.567741811 0.925363541
0.984566629 0.580644846 0.923845530
0.551549554 0.622390807 0.918532729
0.568753779 0.621631682 0.926122785
0.600885451 0.626692176 0.925110698
0.659203291 0.631625772 0.927134633
0.724224925 0.636812210 0.919291377
0.806704521 0.642125070 0.920429885
0.888171971 0.652624726 0.919165134
0.975331962 0.655534625 0.915369928
0.586590827 0.709930360 0.920430005
0.604048014 0.710309744 0.918152988
0.633017004 0.712586820 0.916761637
0.685642183 0.719164968 0.918911815
0.741049945 0.721948028 0.919291615
0.809867084 0.727767229 0.919924021
0.886906803 0.729790986 0.915369987
0.970398426 0.732574344 0.919544578
0.616824806 0.792536438 0.918911934
0.628463149 0.791903734 0.921568334
0.658823669 0.793801546 0.917773545
0.701328278 0.794560492 0.916887999
0.760784149 0.800505698 0.919291615
0.821252525 0.805565894 0.916002572
0.889183998 0.805439353 0.918279350
0.956736028 0.810246587 0.919038653
0.647565126 0.880076289 0.916128755
0.653763533 0.875774860 0.921568334
0.682099819 0.872612357 0.917140961
0.720556617 0.873750746 0.919923961
0.774067104 0.875774920 0.916382074
0.832510769 0.877799034 0.917647243
0.892219782 0.880076289 0.924731255
0.954585612 0.886906803 0.928399801
0.691840589 0.949398816 0.907400131
0.693737984 0.946109951 0.920050621
0.716508746 0.946110010 0.920809627
0.756736457 0.946616173 0.926122427
0.795699000 0.946869195 0.920430005
0.854142845 0.949905038 0.929664671
0.906767964 0.945730567 0.932320833
0.959645987 0.951928794 0.937507927
