Assets/EldamarStudio/100 Retro LUTs Pack/LUTs/cube/Beth LUT.cube
LUT_3D_SIZE 5
DOMAIN_MIN 0.000000 0.000000 0.000000
DOMAIN_MAX 0.903226 0.903226 0.903226
0.070588000 0.039216001 0.031373002
0.288677692 0.054901998 0.065022290
0.521821797 0.061479993 0.069955580
0.806198299 0.137381256 0.125616997
0.998734832 0.231498823 0.205439806
0.177861989 0.229222104 0.082353003
0.299810112 0.222011685 0.076154292
0.525110781 0.257685393 0.090575702
0.802024007 0.306388706 0.139658123
0.997469962 0.348513544 0.223782644
0.274003386 0.478810787 0.119038828
0.352814674 0.477166474 0.123339690
0.542820811 0.492473215 0.131435573
0.794180930 0.526375413 0.174319699
0.990259409 0.548007786 0.268817365
0.360025138 0.745477259 0.227703989
0.430233985 0.729158342 0.224541262
0.589120805 0.740923703 0.237950534
0.791524112 0.752308428 0.268943995
0.992409945 0.757874787 0.365464956
0.531055987 0.940164804 0.451486588
0.556989312 0.941555798 0.438836277
0.662492037 0.942188382 0.458697170
0.817583978 0.947754502 0.484250575
0.981909752 0.942820907 0.522200763
0.138266698 0.069955997 0.216445401
0.280202687 0.081720419 0.203035682
0.502846420 0.134724990 0.239342406
0.778494418 0.220114112 0.294370830
0.993295252 0.316255689 0.364958793
0.215433702 0.224668100 0.204048395
0.311574697 0.237065107 0.216824681
0.504870415 0.276027828 0.249841809
0.784693241 0.332574129 0.303099275
0.996204793 0.404554099 0.380012393
0.296521097 0.485389173 0.262618691
0.370777816 0.480075777 0.268184781
0.537887514 0.490828484 0.275015652
0.784060657 0.537254691 0.325110555
0.990765274 0.577102900 0.406198382
0.403795123 0.745857120 0.360783964
0.457558542 0.740544140 0.350537539
0.604301214 0.743832946 0.370651513
0.793168843 0.754965007 0.391524136
0.986464202 0.769259870 0.470967621
0.571030617 0.951676071 0.532447815
0.591650605 0.946742654 0.525743425
0.685642064 0.945477366 0.541682601
0.826185942 0.950663984 0.564326227
0.980012774 0.945097864 0.588488281
0.208602414 0.105249576 0.469575793
0.337381393 0.126248986 0.458444208
0.517267346 0.154332832 0.447311789
0.789626539 0.241113111 0.495761961
0.986464381 0.405692577 0.555218399
0.273624271 0.285515100 0.442125231
0.351802409 0.288424999 0.436938792
0.521189153 0.297912657 0.441492766
0.771916330 0.372548938 0.500316262
0.975458384 0.493484914 0.580392122
0.321062386 0.495129377 0.455914199
0.397596419 0.498039067 0.462745100
0.565718174 0.526502252 0.487286359
0.770904422 0.566350341 0.538266778
0.962428808 0.629728198 0.608222604
0.478810817 0.742821276 0.551043928
0.516255558 0.736622512 0.545224309
0.629728198 0.743453264 0.556230545
0.787855983 0.752941012 0.571916521
0.962681651 0.784693241 0.630993187
0.619987607 0.939532101 0.670462012
0.638583124 0.937887490 0.663883686
0.717394233 0.941555798 0.671727002
0.836938679 0.945097923 0.688045561
0.977482378 0.948007822 0.691840768
0.277546138 0.191398129 0.723972261
0.384819567 0.208349288 0.718026280
0.573814094 0.236812413 0.716382086
0.796458244 0.282605976 0.713219345
0.986590803 0.424541771 0.729032278
0.336242974 0.357115388 0.709803700
0.414041847 0.362049103 0.700442970
0.578747630 0.376850247 0.700695932
0.782036364 0.401897490 0.703226149
0.970524907 0.514737487 0.732321084
0.420999527 0.556989372 0.696268141
0.479063690 0.557242274 0.690954924
0.613788545 0.576849818 0.697153807
0.772169411 0.594433665 0.709171534
0.948387027 0.663756967 0.746995509
0.510056973 0.751296282 0.716888130
0.545730710 0.745477259 0.703985095
0.659456253 0.752308428 0.721694946
0.799241126 0.767995119 0.741556227
0.956482947 0.803288937 0.787603080
0.681467652 0.941809118 0.798102617
0.697785795 0.935357213 0.803036034
0.762175500 0.938899636 0.810246646
0.845667124 0.940923631 0.811764777
0.963820636 0.946742654 0.822011411
0.391144812 0.348133922 0.941555798
0.466413617 0.359898597 0.941555798
0.619860768 0.391904026 0.938899636
0.816951156 0.437317938 0.939025760
0.991017938 0.495888770 0.929790795
0.467425466 0.481846452 0.935736775
0.524604619 0.489310622 0.931688666
0.650347888 0.505629182 0.931055784
0.815306962 0.536748946 0.928525925
0.989120960 0.565464437 0.924351633
0.571663618 0.670335352 0.929790735
0.611891091 0.674889207 0.924351454
0.699683785 0.681467652 0.922580361
0.828463197 0.686653733 0.917647064
0.972928584 0.693864346 0.915369809
0.627956927 0.815306962 0.912586927
0.654269457 0.816065848 0.918026328
0.731056333 0.815433204 0.917394221
0.837950945 0.824541211 0.916761637
0.957495093 0.828462958 0.919291794
0.691840589 0.949398816 0.907400131
0.709171712 0.947627902 0.916761577
0.777482331 0.944718361 0.926502228
0.866286814 0.948639989 0.932194948
0.959645987 0.951928794 0.937507927
