Assets/EldamarStudio/100 Retro LUTs Pack/LUTs/cube/Beverly LUT.cube
DOMAIN_MIN 0 0 0
DOMAIN_MAX 1 1 1
LUT_3D_SIZE 32
0.000000000 0.000000000 0.000000000
0.003036387 0.000000000 0.000000000
0.003922000 0.000000000 0.000000000
0.005186839 0.000000000 0.001265161
0.008222548 0.000758999 0.003542452
0.011258936 0.006830999 0.000506065
0.014294676 0.010373322 0.002530322
0.018974997 0.010120292 0.002277292
0.025047194 0.009360999 0.000759096
0.031119980 0.015433002 0.003795486
0.045920130 0.018595871 0.006831129
0.057052251 0.023655996 0.007843000
0.067298993 0.029727997 0.008981644
0.079949066 0.036305998 0.012271000
0.098165825 0.048449989 0.018342994
0.111574993 0.058190800 0.019608000
0.128273189 0.070335187 0.024162190
0.148260564 0.084250569 0.032637995
0.163440987 0.093358979 0.038710009
0.175838009 0.102466650 0.044782005
0.191777468 0.113472477 0.050853994
0.209993988 0.125616997 0.059962124
0.228083491 0.137887493 0.074889503
0.243263900 0.153067917 0.083997905
0.262998283 0.165970996 0.097659692
0.282858968 0.179506645 0.112839647
0.301075131 0.195192993 0.128526121
0.319291890 0.213408977 0.146742880
0.348133922 0.236938626 0.167615786
0.374952376 0.261226922 0.190638930
0.399240941 0.287286192 0.217583567
0.423528999 0.317647010 0.250979990
0.009108387 0.000000000 0.000000000
0.006072000 0.000000000 0.003036387
0.004807387 0.002150774 0.000885613
0.005186839 0.004301225 0.000000000
0.008981547 0.005692549 0.000885613
0.017330935 0.003795387 0.000506065
0.020366676 0.007337064 0.000000000
0.025047418 0.008728613 0.004174610
0.031878676 0.008602098 0.004554002
0.040227588 0.012397395 0.000759099
0.049209483 0.024288382 0.003795483
0.064136639 0.027704258 0.006831127
0.077546023 0.033902738 0.008981644
0.091587774 0.042125031 0.012271000
0.104237825 0.051486373 0.018342994
0.120050788 0.058823381 0.022011193
0.134345561 0.068816997 0.025679998
0.151296794 0.081846759 0.032637995
0.166476592 0.093358979 0.038710013
0.178874329 0.105250008 0.047564652
0.194813386 0.116508372 0.053890094
0.212017745 0.127640739 0.061986383
0.228462994 0.137887493 0.075268976
0.252372265 0.153067917 0.093105525
0.267552078 0.168248281 0.102213897
0.287286252 0.183934361 0.117267355
0.307147145 0.201264992 0.133586124
0.325363904 0.219480976 0.146742880
0.348892957 0.237697631 0.167615786
0.376723140 0.264769375 0.188868165
0.402276784 0.292473346 0.216318935
0.426565409 0.320683390 0.254016399
0.013915226 0.002150774 0.000000000
0.008728613 0.006451774 0.000885613
0.014294773 0.002150774 0.001771226
0.013788838 0.005186839 0.001265161
0.016824547 0.008601999 0.001771226
0.022390934 0.010879161 0.000000000
0.026439225 0.006451677 0.004300999
0.034408543 0.011131996 0.004300999
0.042252094 0.012903096 0.008602096
0.051360071 0.015939489 0.006704775
0.060467869 0.023402996 0.007210870
0.073624246 0.033523254 0.010246740
0.087665997 0.039089356 0.012143999
0.101328261 0.048197031 0.014168258
0.111574985 0.057305407 0.018342994
0.126122788 0.066160768 0.022011193
0.141303182 0.073750965 0.029601382
0.155218408 0.084629960 0.036306418
0.167362034 0.095256180 0.040860239
0.181909934 0.107400239 0.049715426
0.197849691 0.117646962 0.060720768
0.215053901 0.129538000 0.067299224
0.230613738 0.140037715 0.077419236
0.254902035 0.155218139 0.095635779
0.272359461 0.170398504 0.107020512
0.288930744 0.185578868 0.116128884
0.308918148 0.203035995 0.132068127
0.327134907 0.221251979 0.147501886
0.350663960 0.239468634 0.167615786
0.383807570 0.266540140 0.195952117
0.409108132 0.296394795 0.221379176
0.429601789 0.323719233 0.257052779
0.024541158 0.006452000 0.000000000
0.015939159 0.011258839 0.000000000
0.019354772 0.011258839 0.001265161
0.029727999 0.007716838 0.000000000
0.032384161 0.009993549 0.003036387
0.034534935 0.013409160 0.001771226
0.038836479 0.015686002 0.003795160
0.044276152 0.016192319 0.009108162
0.054902159 0.020746322 0.008349065
0.063504495 0.023276649 0.010373324
0.073877290 0.029222161 0.010499839
0.085768245 0.037318092 0.013788740
0.098671637 0.046426479 0.019101642
0.110942192 0.055281159 0.019734193
0.122074574 0.063377410 0.022770576
0.133459955 0.073750958 0.025806352
0.147375181 0.081594191 0.029601382
0.162555560 0.091334984 0.041745983
0.172928363 0.101075210 0.046679202
0.186337531 0.112966172 0.055281520
0.200885311 0.120682895 0.063757151
0.219102100 0.131815284 0.074889287
0.234914958 0.144338787 0.081467308
0.259203017 0.159518912 0.097406812
0.276660293 0.173434451 0.107526861
0.293231994 0.187349647 0.119164817
0.310942084 0.203542069 0.130803168
0.328399748 0.222517148 0.150537714
0.355724275 0.241998628 0.170145780
0.383807570 0.266540140 0.195952117
0.417963594 0.298165560 0.227577567
0.433903009 0.325489998 0.257558823
0.044275545 0.012144452 0.000758999
0.033649545 0.015559612 0.001138547
0.033649545 0.016824547 0.002150774
0.042251546 0.016824547 0.003795386
0.052877549 0.016824547 0.000379548
0.052877549 0.013788935 0.003415935
0.058317643 0.020872772 0.005060451
0.064389989 0.027577417 0.006831449
0.070461996 0.032891002 0.011764904
0.076534003 0.032891005 0.008728514
0.088045537 0.038710002 0.008981547
0.099810086 0.046805829 0.012649995
0.110815637 0.055154640 0.018342642
0.120177060 0.064516060 0.027703999
0.135230958 0.070841089 0.031119868
0.145983800 0.080961600 0.034155741
0.156609997 0.090449445 0.037950642
0.169386566 0.097027436 0.042125531
0.184566975 0.109171465 0.054269560
0.196964011 0.121695004 0.063251361
0.209487528 0.128905728 0.071220994
0.222896695 0.135610566 0.077925578
0.241239935 0.150664464 0.087286942
0.265275031 0.165591195 0.099684000
0.282352805 0.178874016 0.107273996
0.299304068 0.190638989 0.117520645
0.317393601 0.203921616 0.133459985
0.332573950 0.225173965 0.157747984
0.361796349 0.246046796 0.176723644
0.391651154 0.270841151 0.200253144
0.417963594 0.298165560 0.227577567
0.439215988 0.325489998 0.254902005
0.053383932 0.015180064 0.006830999
0.053383932 0.021252064 0.009867387
0.051359929 0.024667773 0.005945934
0.057431929 0.025932934 0.006452000
0.068057932 0.025932934 0.009487935
0.068057932 0.025932934 0.003415935
0.075648256 0.033017319 0.011511676
0.082605995 0.037191868 0.010879066
0.088678002 0.039721999 0.009867064
0.094750002 0.045035001 0.014800516
0.103731871 0.050853997 0.017583869
0.113346182 0.058950249 0.020113675
0.122960225 0.065781221 0.021378646
0.132321060 0.070588067 0.021632001
0.144465819 0.082732826 0.033775989
0.157115921 0.089057863 0.037191868
0.168753982 0.097659796 0.043263737
0.181530565 0.105629057 0.050727218
0.196710974 0.112207085 0.057305943
0.209107995 0.127134427 0.063883938
0.223149732 0.138013735 0.074256994
0.236811921 0.147121996 0.083364993
0.250347555 0.159772083 0.090322554
0.271599978 0.171916872 0.105502963
0.286527574 0.186843559 0.113345996
0.303352565 0.198734730 0.123592645
0.323592871 0.209867135 0.139278993
0.341682345 0.228210360 0.157747984
0.359518886 0.246805906 0.176723644
0.385578722 0.270841151 0.200253144
0.412903547 0.298165560 0.227577567
0.439215988 0.325489998 0.254902005
0.072612323 0.033396319 0.007843000
0.072612323 0.034408320 0.008349065
0.079064094 0.036179319 0.011385452
0.081467479 0.038836159 0.010246838
0.088677868 0.040480770 0.014294676
0.090828642 0.042630997 0.012523676
0.098418318 0.047691640 0.016571674
0.104237705 0.053510606 0.019101709
0.110942319 0.055155095 0.016951319
0.120556317 0.059456326 0.023023322
0.127007872 0.068057999 0.023655869
0.134092510 0.074130505 0.028715994
0.142694667 0.080455668 0.031119321
0.152055383 0.083997354 0.030233998
0.164200142 0.093864828 0.037823986
0.176344305 0.098798186 0.045160998
0.188488320 0.107780054 0.052878056
0.200632304 0.117900051 0.061733060
0.213914976 0.125869334 0.065907620
0.228842333 0.132700369 0.074510008
0.240986794 0.145983472 0.080581993
0.254522651 0.156736314 0.091460995
0.266919613 0.169006810 0.100948490
0.285768211 0.183554813 0.116128899
0.302466601 0.197976276 0.131309271
0.317646980 0.211764619 0.139531985
0.337254822 0.223529309 0.152941316
0.355471313 0.241745546 0.171157300
0.383807898 0.265022278 0.194433972
0.407337099 0.288551480 0.214421481
0.435547262 0.316761494 0.241113275
0.464515984 0.345730633 0.270081997
0.095508993 0.049715411 0.014420994
0.095508993 0.048070703 0.016065702
0.100316472 0.053004406 0.018216476
0.104364537 0.051739246 0.013662543
0.107400246 0.054775544 0.015180162
0.112966634 0.060341477 0.018974997
0.122707084 0.065907635 0.020746000
0.126881406 0.065401994 0.021884711
0.131435797 0.069955803 0.023403093
0.142694414 0.074763186 0.032131705
0.150663689 0.081973538 0.032384705
0.156736210 0.089057513 0.036432698
0.163947046 0.092852995 0.041366059
0.173307762 0.096141703 0.042631026
0.185452521 0.106641404 0.050094694
0.195951968 0.112586886 0.056166694
0.206578180 0.118658885 0.060720898
0.219228268 0.129411995 0.071853563
0.232384428 0.137507752 0.076913454
0.244022787 0.145477414 0.085515358
0.258949757 0.153699756 0.096014984
0.271094531 0.166856408 0.102087244
0.283365160 0.179759488 0.113092877
0.300062984 0.194939911 0.128272891
0.316002250 0.206831276 0.138519987
0.332574308 0.223402977 0.155091688
0.351296484 0.238077119 0.165971056
0.370651603 0.258570373 0.183048680
0.396204919 0.282099605 0.206577912
0.426439136 0.304870129 0.230740160
0.454649180 0.333080173 0.253763556
0.485009402 0.363440990 0.283364713
0.120556287 0.063377999 0.027324094
0.120556287 0.060341612 0.027324485
0.124857642 0.064389773 0.028842680
0.129412025 0.069956027 0.031119836
0.126375645 0.067299187 0.016698547
0.133965924 0.075269036 0.023529258
0.143327102 0.081847101 0.028083190
0.151170194 0.084377095 0.027197804
0.152688190 0.081341095 0.026439093
0.161796585 0.090449482 0.041619487
0.170145318 0.096647993 0.043011095
0.178747505 0.101961091 0.047059089
0.185199440 0.108033001 0.051233549
0.194307134 0.108286031 0.054522194
0.205945835 0.118912078 0.063124508
0.214927286 0.126249090 0.068311095
0.225553289 0.133080199 0.074383289
0.234661669 0.142188579 0.079949498
0.249589086 0.148387119 0.089310877
0.259962350 0.158001363 0.097659655
0.272106320 0.167109445 0.107906081
0.286274165 0.177482218 0.119544156
0.298545390 0.192409605 0.125869915
0.313725173 0.206325009 0.140417293
0.328146458 0.217710286 0.148766577
0.345477402 0.231752053 0.161164075
0.364200145 0.250474155 0.179886162
0.385452509 0.274509877 0.195572510
0.410120130 0.298039049 0.216445133
0.434914380 0.321315348 0.242251366
0.466034085 0.347501278 0.269702643
0.496394902 0.377862096 0.297027081
0.147881463 0.081594013 0.042504482
0.147881463 0.078557625 0.033396881
0.152182475 0.079822786 0.029095720
0.158254504 0.083112173 0.032637522
0.162808433 0.085515976 0.040986560
0.159772053 0.085515976 0.031878952
0.162302345 0.090955496 0.041239973
0.169007212 0.097027496 0.046299979
0.176976979 0.102593496 0.047691494
0.183048978 0.108665496 0.053763498
0.189247489 0.114864007 0.057305880
0.199493974 0.118912272 0.062239483
0.209108010 0.124351852 0.066034496
0.215559527 0.132574037 0.066666976
0.224667907 0.135610431 0.072738975
0.231499001 0.141429499 0.074130498
0.242251694 0.147501498 0.078937680
0.255914062 0.154332593 0.089057885
0.265022486 0.163441002 0.104237527
0.277166486 0.175205499 0.110815525
0.289184004 0.185325742 0.118911736
0.301454455 0.195445970 0.129158482
0.313724995 0.207590014 0.141049549
0.328905404 0.216698408 0.153194323
0.341809034 0.228336483 0.160910979
0.358254611 0.244528651 0.173940659
0.379380554 0.265654534 0.195066571
0.400632888 0.286906898 0.216318905
0.427198261 0.308285773 0.232005283
0.449082911 0.331435889 0.256419867
0.472232580 0.360025525 0.288298160
0.505502522 0.399114490 0.324351490
0.175205871 0.093990996 0.043136999
0.178114995 0.096774355 0.048576515
0.178114995 0.095888741 0.043769903
0.176344156 0.100695707 0.047058865
0.174573317 0.107400224 0.056546323
0.181656927 0.112460867 0.047438066
0.191271514 0.109930545 0.053510450
0.197090745 0.114863992 0.061985996
0.204174861 0.121695094 0.064515993
0.210246861 0.129917860 0.066286996
0.216318861 0.130170867 0.069449872
0.222390875 0.136242867 0.074510001
0.232763857 0.140164644 0.080581993
0.242377922 0.145477742 0.084629998
0.248830140 0.151170284 0.090701997
0.257937938 0.156609863 0.091967002
0.264515877 0.162681863 0.095002994
0.274889112 0.170018852 0.102087118
0.286274821 0.181403980 0.110436052
0.295382529 0.190512359 0.125616357
0.305502743 0.200632602 0.130170599
0.316634864 0.210752860 0.140290871
0.328778863 0.222896859 0.155976862
0.341176659 0.234787911 0.162554935
0.358633727 0.246173576 0.181530401
0.374825954 0.261100709 0.193548322
0.395066261 0.280328870 0.208728865
0.418722421 0.299177408 0.222770423
0.439974785 0.320429802 0.241365939
0.465022385 0.348766595 0.265654474
0.489057690 0.378241837 0.296015054
0.520429850 0.411638021 0.328399867
0.200505972 0.112207241 0.049209252
0.203542113 0.115243629 0.057305507
0.206451237 0.118152983 0.065021761
0.208981559 0.116888143 0.060720984
0.204807490 0.122959957 0.067551993
0.208981812 0.130676597 0.066666313
0.214547634 0.133206919 0.068690568
0.221758693 0.133459955 0.074509956
0.228969246 0.138393402 0.080202512
0.237571239 0.144971475 0.082732506
0.243643239 0.149398997 0.087666117
0.251739472 0.153446987 0.088678248
0.257811487 0.159519270 0.094750248
0.267678529 0.163694248 0.100822248
0.273750812 0.169766247 0.106894247
0.278178692 0.177861989 0.108159252
0.287286341 0.182416171 0.111195244
0.294496834 0.188614815 0.117899820
0.305249929 0.199367523 0.125363529
0.314611167 0.208728343 0.135736883
0.323718756 0.214041725 0.145224512
0.333839238 0.223908991 0.151423246
0.346362978 0.236179486 0.167488754
0.364200056 0.250221252 0.179253504
0.378874481 0.264389575 0.192662790
0.392915815 0.277925640 0.211132169
0.409234375 0.295509249 0.224921241
0.430487126 0.313725233 0.240101233
0.452119052 0.336622298 0.255534470
0.476913393 0.361416638 0.279063642
0.504111528 0.391650945 0.307400197
0.535610259 0.419734001 0.335483730
0.229348272 0.135736629 0.068564281
0.232384667 0.138773024 0.075395368
0.235420495 0.141808853 0.082226507
0.237444311 0.143453151 0.085009284
0.242757991 0.140796989 0.079696283
0.242757991 0.147627696 0.084250279
0.245287955 0.151675954 0.087792315
0.250600994 0.155850708 0.091967061
0.254396260 0.159645990 0.094244346
0.265781254 0.163061157 0.099557355
0.270967633 0.167868286 0.106767990
0.277925253 0.173940286 0.108791992
0.285894990 0.180012271 0.111068986
0.292220026 0.186338022 0.117394023
0.299177647 0.193295628 0.124351636
0.303984791 0.200632468 0.127893642
0.308918417 0.207842827 0.130929634
0.318658769 0.211511627 0.137634203
0.328273237 0.220113978 0.146742612
0.337381363 0.229221940 0.155850992
0.345351189 0.237950370 0.166477278
0.355470926 0.241998628 0.171537146
0.367615610 0.253889650 0.183301613
0.385831892 0.268058181 0.197469905
0.402530253 0.283238262 0.212650269
0.420620233 0.299557298 0.228969291
0.431751996 0.315749705 0.244149700
0.450601161 0.334598273 0.261733264
0.474889398 0.358127624 0.281847090
0.499683768 0.385325789 0.302972794
0.527893782 0.415306807 0.330297202
0.561037302 0.440606922 0.354838282
0.264769047 0.162555039 0.102719970
0.268058419 0.165338397 0.105755642
0.270588279 0.168627262 0.109803803
0.273118079 0.170398027 0.109297991
0.272865027 0.170651063 0.103984997
0.272865027 0.170651063 0.103984997
0.275142312 0.172928348 0.105755709
0.281214684 0.177862063 0.111195058
0.289816976 0.183428064 0.115496032
0.295888990 0.189500064 0.115496039
0.299304128 0.192915902 0.123971932
0.303858042 0.197470024 0.127008066
0.310436100 0.204048038 0.129791066
0.316255063 0.210373074 0.135863066
0.325363427 0.219481438 0.144971445
0.332321048 0.226439059 0.151929066
0.338140011 0.232258022 0.157748029
0.345730126 0.238583043 0.164705649
0.357874930 0.244655073 0.173814043
0.366982698 0.253257394 0.182669386
0.374446481 0.264010072 0.195066690
0.382290035 0.274636060 0.206198901
0.394560516 0.281087548 0.209740534
0.406831056 0.293358833 0.222011074
0.421505302 0.308032751 0.236685306
0.440354347 0.324604392 0.253257364
0.464137048 0.343327135 0.271474093
0.485389382 0.364579499 0.286654443
0.514104962 0.387728989 0.311701775
0.542947173 0.415812403 0.337001950
0.571410179 0.447438180 0.363187581
0.601771057 0.483871013 0.390512019
0.289057791 0.183807403 0.111827567
0.295129806 0.183807403 0.114863962
0.294117630 0.188740984 0.126502186
0.297406524 0.191650391 0.131562233
0.303099275 0.192029953 0.128272980
0.300189406 0.194939822 0.128272980
0.300189406 0.194939822 0.123212971
0.304110974 0.200506091 0.130550101
0.311574668 0.206704825 0.139278725
0.320176989 0.207716823 0.136748403
0.326248974 0.213788822 0.142568141
0.327640384 0.215180397 0.145224825
0.333459675 0.220999405 0.149778828
0.343580186 0.231625438 0.160151809
0.346615791 0.240733802 0.166223809
0.355724186 0.249842197 0.175332204
0.361163616 0.255281597 0.180771619
0.367361963 0.260214955 0.186337546
0.382162929 0.268943816 0.198102802
0.388740987 0.275015831 0.204427838
0.397343129 0.283618122 0.213029653
0.405819118 0.294370800 0.221378699
0.415812880 0.305376291 0.224920899
0.430993289 0.320556730 0.240101308
0.447817802 0.337381393 0.256925821
0.465401739 0.354965150 0.274509728
0.485389292 0.373687893 0.293232441
0.506640971 0.394940227 0.313978821
0.530550182 0.410878956 0.331815362
0.559645712 0.438582957 0.353700131
0.590259373 0.470461756 0.380897969
0.623023391 0.502086997 0.417836398
0.318152964 0.209866777 0.130549788
0.319417983 0.207463592 0.135989979
0.321188986 0.209613815 0.147627816
0.323465914 0.215433106 0.153952986
0.331435770 0.217710406 0.150157794
0.330423653 0.218722537 0.150157794
0.332321405 0.224035591 0.145097792
0.332321405 0.222390875 0.147248492
0.336875409 0.227703989 0.158633798
0.344339073 0.230992988 0.160531104
0.350537598 0.236811981 0.166223720
0.354585320 0.240860239 0.170272246
0.356103420 0.242378429 0.171790138
0.364200026 0.250474542 0.179886028
0.371537149 0.259582400 0.188108787
0.379379779 0.268690795 0.196584597
0.386970371 0.276280969 0.204174787
0.392789364 0.282099754 0.209993571
0.406198561 0.292978942 0.222137928
0.413029611 0.299303979 0.228715986
0.424794316 0.307273746 0.232890725
0.436938733 0.318406105 0.243010715
0.448956579 0.331941754 0.251992583
0.461859703 0.344844908 0.264895678
0.477040052 0.360025257 0.280076087
0.495129555 0.378115118 0.298165560
0.513852000 0.396837860 0.316888034
0.535104156 0.418090194 0.338140398
0.551802397 0.441239744 0.356736571
0.586717129 0.461732984 0.369639337
0.618722320 0.491461337 0.391903788
0.649082780 0.520303607 0.428336620
0.348513365 0.234155178 0.153320372
0.348513365 0.235673755 0.165464759
0.346995175 0.233902603 0.165844604
0.350790322 0.239468545 0.178494215
0.358380735 0.244655639 0.174825728
0.357242376 0.243516982 0.175964385
0.362808317 0.247059181 0.172422186
0.365718186 0.251233459 0.171536878
0.367236197 0.250474185 0.179886177
0.373308182 0.256546170 0.185958177
0.374825984 0.261100382 0.190512389
0.380392283 0.266666442 0.196078435
0.384566575 0.270841181 0.200253174
0.388235360 0.274509996 0.203921378
0.396078587 0.282352775 0.211764589
0.403668582 0.289942771 0.219354793
0.414294362 0.300569385 0.229981363
0.420366973 0.306641370 0.236053348
0.430739999 0.317014396 0.246426389
0.440354377 0.323592395 0.248450205
0.450600922 0.333079934 0.258696914
0.465781331 0.344212323 0.264769167
0.480835170 0.359266162 0.279443473
0.492979199 0.371410191 0.292979211
0.507400453 0.385831445 0.305882245
0.521189153 0.399620503 0.319671303
0.540164292 0.418596178 0.339152455
0.562428832 0.440860420 0.362428814
0.584440172 0.460215122 0.376470447
0.606451333 0.486021399 0.393928140
0.645414174 0.510310173 0.408348948
0.673371196 0.537002146 0.440480977
0.378874123 0.257305115 0.178874120
0.378241539 0.262745321 0.195192546
0.376090944 0.263630748 0.195951730
0.376849711 0.264389694 0.193168968
0.385958076 0.272738993 0.201897144
0.383934468 0.270208597 0.205186486
0.389120817 0.271600306 0.203794807
0.394939691 0.274636418 0.204047844
0.398102552 0.277798533 0.207210556
0.404174566 0.283870548 0.213282555
0.402782857 0.287033409 0.216445431
0.406451494 0.293358535 0.220872968
0.412523985 0.299430519 0.226945132
0.418596059 0.305502594 0.233017132
0.424668133 0.311574697 0.239089131
0.430740118 0.317646712 0.245161131
0.438583136 0.325489938 0.253004372
0.450094700 0.337002128 0.264516532
0.456166744 0.343074143 0.270588547
0.467805266 0.350411117 0.271473765
0.480582118 0.359013110 0.278557867
0.493105680 0.371536672 0.292093545
0.508159518 0.386590540 0.304237545
0.520303547 0.398734719 0.318912059
0.534092247 0.412523419 0.331815124
0.549778521 0.427577317 0.343959272
0.562428594 0.440228045 0.355598032
0.586337805 0.464136541 0.382163405
0.612650335 0.481087774 0.395445704
0.638836026 0.502087116 0.411131948
0.663630128 0.527893603 0.429475129
0.693990946 0.552182376 0.456799567
0.409235001 0.287665993 0.209234998
0.406198591 0.290702373 0.218342587
0.403415769 0.293991238 0.221758023
0.402909786 0.296521187 0.222264200
0.407210559 0.300063461 0.226185977
0.416318953 0.303099096 0.232257977
0.416825026 0.303099036 0.233017012
0.419228286 0.304996759 0.234408692
0.422264159 0.308032900 0.237444893
0.425427049 0.311195016 0.240607023
0.428589910 0.314357877 0.243769899
0.435167670 0.323466003 0.246805757
0.442884058 0.332827032 0.251233339
0.448956132 0.338899106 0.257305980
0.455028892 0.344971865 0.263377994
0.461100996 0.351043969 0.269449979
0.467172980 0.357115954 0.275521994
0.474383593 0.364326596 0.282732636
0.483491957 0.373435020 0.291841000
0.495129943 0.385072976 0.303479016
0.509171784 0.392915994 0.312460721
0.523087025 0.401517987 0.322074831
0.535484016 0.413915038 0.331561983
0.547628045 0.426059812 0.343706787
0.559772015 0.438203961 0.356103987
0.576343715 0.453383982 0.368247956
0.595825076 0.470588118 0.379886091
0.611005425 0.485768437 0.388994485
0.634914696 0.504363954 0.407590002
0.661227167 0.524098217 0.428589404
0.687412977 0.545856655 0.449715585
0.712207019 0.567362070 0.465907991
0.456293762 0.334724754 0.256293744
0.456040710 0.334977776 0.257052690
0.457305312 0.338014156 0.261859298
0.456799388 0.339785099 0.262491733
0.457558304 0.341682732 0.264009923
0.457052678 0.347122192 0.267678738
0.458570749 0.347628117 0.268690735
0.460215032 0.347628117 0.273624450
0.465527922 0.350284725 0.279696733
0.474636585 0.355344623 0.284756631
0.477672279 0.358380973 0.287792265
0.480708659 0.361416847 0.286780655
0.487160116 0.369006753 0.289437085
0.493232131 0.375078768 0.295256346
0.499304235 0.381150842 0.298798025
0.507780194 0.389626801 0.307273805
0.514231741 0.396078378 0.313725382
0.520303726 0.402150393 0.319797367
0.527261376 0.409107983 0.326754987
0.536369801 0.418216407 0.335863411
0.550411463 0.430360377 0.344212383
0.563567638 0.439215541 0.352435142
0.573940456 0.449588746 0.361669719
0.586085081 0.461732805 0.373813808
0.605060339 0.476154327 0.383681297
0.620113730 0.490196049 0.396711022
0.638076901 0.506008744 0.410752803
0.655534506 0.518911779 0.424415171
0.676027834 0.539405167 0.438836575
0.700189650 0.559518874 0.458697230
0.730929554 0.578114927 0.474889725
0.766603112 0.593675077 0.480582356
0.489690006 0.373813719 0.293484986
0.491587728 0.373813719 0.299177706
0.495635718 0.374066770 0.295635700
0.498671651 0.377103150 0.297406465
0.499304205 0.377735734 0.297785997
0.497786403 0.380771726 0.300822407
0.499177724 0.383681476 0.303225726
0.495888740 0.386970490 0.304870427
0.501960456 0.388994455 0.312713742
0.516381919 0.395066470 0.318785727
0.517899871 0.396331578 0.320050597
0.522833705 0.401265204 0.324730992
0.525869846 0.404301077 0.323972374
0.531688690 0.410120189 0.329791456
0.541049719 0.419481218 0.337760776
0.543832839 0.424161524 0.336116254
0.554459393 0.434788108 0.346742451
0.561922848 0.440986603 0.353573442
0.569259703 0.445793450 0.359645456
0.574320078 0.452751070 0.370398074
0.585325718 0.465654463 0.377609193
0.598482132 0.474762589 0.383681178
0.607969463 0.482226461 0.391777456
0.623655796 0.494370490 0.400379479
0.636938989 0.506893992 0.412144005
