Assets/EldamarStudio/100 Retro LUTs Pack/LUTs/cube/Beverly LUT.cube
LUT_3D_SIZE 5
DOMAIN_MIN 0.000000 0.000000 0.000000
DOMAIN_MAX 0.903226 0.903226 0.903226
0.000000000 0.000000000 0.000000000
0.018974997 0.010120292 0.002277292
0.098165825 0.048449989 0.018342994
0.209993988 0.125616997 0.059962124
0.348133922 0.236938626 0.167615786
0.095508993 0.049715411 0.014420994
0.126881406 0.065401994 0.021884711
0.185452521 0.106641404 0.050094694
0.271094531 0.166856408 0.102087244
0.396204919 0.282099605 0.206577912
0.289057791 0.183807403 0.111827567
0.304110974 0.200506091 0.130550101
0.346615791 0.240733802 0.166223809
0.405819118 0.294370800 0.221378699
0.530550182 0.410878956 0.331815362
0.522074282 0.409234375 0.326881379
0.539405346 0.419355243 0.337254703
0.578241289 0.455661118 0.371284127
0.631878257 0.510183275 0.415054113
0.749019563 0.591903806 0.485642105
0.868690431 0.675015569 0.567615747
0.882099867 0.684250593 0.556862593
0.905882180 0.697912335 0.568374217
0.940037906 0.719165087 0.593548298
0.974319756 0.753446937 0.643769741
0.000000000 0.002277292 0.006831295
0.034028992 0.007210997 0.003922000
0.121695407 0.062492117 0.022263994
0.235420421 0.139658123 0.076534003
0.358506948 0.247311965 0.177988812
0.108918697 0.049715411 0.011765000
0.130170405 0.068690993 0.020619703
0.193295538 0.116761692 0.054016277
0.280581862 0.177608684 0.110942535
0.406957775 0.287918776 0.217330769
0.289690375 0.184439987 0.114484400
0.311954379 0.199493960 0.132827401
0.350537777 0.238076985 0.168121397
0.409108102 0.296394557 0.222770363
0.533839583 0.414168209 0.331815183
0.523592353 0.403921515 0.327767402
0.542315304 0.418722659 0.336242944
0.572043002 0.449462652 0.365085393
0.632510841 0.501075268 0.408475548
0.744465053 0.584313810 0.480329126
0.868690610 0.671726584 0.556482792
0.881340742 0.678557754 0.555597544
0.903226018 0.692599356 0.571031034
0.936116338 0.715116918 0.596204758
0.972042680 0.759645879 0.635926366
0.011765000 0.007843000 0.000000000
0.051360119 0.018342575 0.003922000
0.134092405 0.072612412 0.024161585
0.238709569 0.148513421 0.082479410
0.366983205 0.254522353 0.184566796
0.124604277 0.064769410 0.024541285
0.148134112 0.081467696 0.030739998
0.207337394 0.124604695 0.064136408
0.289057404 0.185452268 0.116761282
0.413409233 0.293105394 0.222517371
0.286400974 0.194307402 0.130929798
0.316888124 0.203415394 0.128526106
0.353826404 0.241366386 0.170145810
0.421252221 0.300948799 0.230360821
0.535737157 0.414168209 0.333080351
0.518279374 0.404301226 0.327767402
0.538393676 0.417710543 0.334977984
0.570018947 0.447438359 0.363061398
0.627957284 0.498418987 0.405186385
0.740796745 0.588614643 0.482732624
0.870082378 0.664515734 0.549398780
0.870967686 0.674383581 0.550790787
0.894749761 0.686653972 0.563820481
0.934345424 0.713852048 0.591018379
0.973687351 0.755471170 0.635926545
0.061859868 0.024541128 0.003922000
0.088045277 0.039595123 0.013788998
0.160910577 0.089310542 0.035673704
0.262871981 0.160910994 0.094243988
0.380391926 0.266666681 0.196078658
0.155218273 0.082100123 0.031752124
0.174826115 0.098418698 0.042504575
0.223023549 0.133459821 0.075268835
0.308032840 0.202150553 0.135483831
0.421252221 0.307526797 0.236938789
0.307653278 0.204047978 0.137380987
0.327008247 0.219101563 0.151423097
0.360025287 0.246299520 0.175711527
0.425173640 0.311701089 0.232258409
0.531688750 0.413156092 0.330423385
0.533712983 0.411132127 0.331689000
0.542821169 0.422264397 0.336875230
0.570651412 0.448070943 0.363693982
0.632764101 0.494497240 0.406198263
0.731056273 0.580139101 0.477166265
0.852245390 0.662871480 0.545097947
0.871220648 0.668437779 0.551928759
0.888551295 0.682479322 0.558633745
0.923212886 0.711574972 0.586084783
0.973054647 0.756103754 0.633649409
0.127007812 0.066793144 0.018342832
0.148513824 0.080455571 0.028842665
0.205439821 0.123719230 0.060214985
0.296647847 0.192409813 0.125742808
0.416065782 0.304996610 0.226438791
0.185705155 0.111195572 0.050094698
0.205439642 0.124604531 0.063503981
0.258064508 0.159898698 0.093232274
0.336875409 0.225679815 0.153826654
0.446805805 0.334092319 0.260467798
0.317141235 0.211890981 0.145224825
0.327893704 0.222011283 0.155344695
0.367488801 0.253763795 0.183174983
0.438203782 0.326755106 0.249335796
0.548766196 0.427198201 0.344845206
0.554712236 0.437950552 0.351296246
0.564579248 0.441998780 0.357621789
0.573940575 0.451992631 0.365717828
0.613788724 0.486274391 0.394054115
0.724225223 0.573307931 0.468690783
0.862112582 0.667172611 0.554711759
0.874003410 0.673750758 0.554332674
0.890195966 0.682100236 0.560531199
0.921189010 0.706008792 0.585452199
0.969133615 0.756230295 0.633269608
