Assets/EldamarStudio/100 Retro LUTs Pack/LUTs/cube/Beverly LUT.cube
LUT_3D_SIZE 8
DOMAIN_MIN 0.000000 0.000000 0.000000
DOMAIN_MAX 0.903226 0.903226 0.903226
0.000000000 0.000000000 0.000000000
0.008222548 0.000758999 0.003542452
0.025047194 0.009360999 0.000759096
0.067298993 0.029727997 0.008981644
0.128273189 0.070335187 0.024162190
0.191777468 0.113472477 0.050853994
0.262998283 0.165970996 0.097659692
0.348133922 0.236938626 0.167615786
0.044275545 0.012144452 0.000758999
0.052877549 0.016824547 0.000379548
0.070461996 0.032891002 0.011764904
0.110815637 0.055154640 0.018342642
0.156609997 0.090449445 0.037950642
0.209487528 0.128905728 0.071220994
0.282352805 0.178874016 0.107273996
0.361796349 0.246046796 0.176723644
0.120556287 0.063377999 0.027324094
0.126375645 0.067299187 0.016698547
0.152688190 0.081341095 0.026439093
0.185199440 0.108033001 0.051233549
0.225553289 0.133080199 0.074383289
0.272106320 0.167109445 0.107906081
0.328146458 0.217710286 0.148766577
0.410120130 0.298039049 0.216445133
0.229348272 0.135736629 0.068564281
0.242757991 0.140796989 0.079696283
0.254396260 0.159645990 0.094244346
0.285894990 0.180012271 0.111068986
0.308918417 0.207842827 0.130929634
0.345351189 0.237950370 0.166477278
0.402530253 0.283238262 0.212650269
0.474889398 0.358127624 0.281847090
0.348513365 0.234155178 0.153320372
0.358380735 0.244655639 0.174825728
0.367236197 0.250474185 0.179886177
0.384566575 0.270841181 0.200253174
0.414294362 0.300569385 0.229981363
0.450600922 0.333079934 0.258696914
0.507400453 0.385831445 0.305882245
0.584440172 0.460215122 0.376470447
0.489690006 0.373813719 0.293484986
0.499304205 0.377735734 0.297785997
0.501960456 0.388994455 0.312713742
0.525869846 0.404301077 0.323972374
0.554459393 0.434788108 0.346742451
0.585325718 0.465654463 0.377609193
0.636938989 0.506893992 0.412144005
0.715876222 0.567109227 0.467678785
0.662238836 0.527640820 0.430613548
0.669449866 0.531562269 0.435041457
0.678810835 0.540923238 0.440607548
0.695762157 0.552308917 0.452498257
0.717899919 0.564579546 0.464136750
0.747375250 0.587476552 0.482858807
0.779885888 0.613282859 0.499557287
0.839342177 0.644655526 0.523086667
0.868690431 0.675015569 0.567615747
0.884123981 0.679822922 0.556736350
0.886400819 0.682985425 0.560657680
0.898545206 0.691587627 0.565338373
0.917140782 0.701327920 0.573181450
0.935736835 0.714863658 0.589247406
0.955344796 0.731815338 0.614168346
0.974319756 0.753446937 0.643769741
0.000000000 0.000000000 0.000000000
0.007843000 0.003922000 0.000000000
0.036812000 0.017203998 0.005439998
0.085262284 0.039847996 0.014041998
0.145224646 0.077419378 0.033650000
0.205945283 0.121568531 0.060974184
0.272865534 0.169007286 0.102340274
0.351928771 0.238962799 0.168754235
0.045414094 0.012903451 0.005060451
0.053636547 0.024667548 0.001138547
0.075142093 0.037571095 0.009740546
0.120176829 0.062239446 0.024667548
0.163314357 0.092346795 0.041872352
0.223529741 0.134218544 0.075901091
0.279822797 0.175585017 0.108918533
0.349525779 0.238329902 0.169006974
0.127640992 0.060215093 0.024288097
0.136243090 0.077546000 0.032891002
0.159772202 0.087286547 0.038330000
0.186338007 0.108412445 0.048829641
0.229854733 0.137381464 0.074636444
0.268564254 0.172296003 0.107653446
0.330423683 0.220746085 0.154458910
0.408222586 0.297153324 0.220493048
0.227704287 0.139658630 0.072991632
0.238836184 0.145224527 0.088425092
0.250474364 0.155724183 0.085515536
0.280708551 0.177609175 0.110942177
0.308918536 0.205060080 0.136495724
0.342441618 0.231246009 0.160151467
0.397343636 0.277292728 0.205945626
0.460341036 0.346995384 0.268817365
0.340290725 0.234914273 0.180897981
0.350410998 0.234408736 0.168627635
0.363820523 0.249335840 0.177988634
0.381024748 0.267298996 0.196710721
0.412270725 0.295509011 0.224161729
0.451866060 0.330297381 0.256673068
0.495635629 0.381277472 0.300063103
0.578621268 0.452498555 0.366350442
0.485009521 0.370651722 0.289816529
0.490575492 0.376597077 0.290069729
0.502719641 0.384187371 0.304237664
0.523086488 0.400000274 0.319671005
0.548893273 0.426186025 0.340417475
0.581277668 0.457811475 0.367868453
0.632131457 0.506893992 0.407084167
0.713092923 0.566097379 0.464389682
0.651865959 0.518026531 0.424035728
0.662618399 0.526122510 0.427197993
0.672612429 0.536242723 0.431751996
0.690575421 0.550411165 0.447817624
0.707779765 0.563061297 0.461986184
0.736369252 0.583808005 0.476534009
0.769006848 0.602656841 0.496900529
0.818722188 0.638203621 0.519418061
0.875015855 0.666919470 0.553952932
0.885009646 0.674383640 0.560151279
0.884123921 0.680581927 0.558000863
0.895761847 0.686147928 0.564073384
0.917899907 0.697406530 0.578494370
0.930044472 0.713472486 0.588867605
0.952055156 0.732827187 0.614547849
0.975331903 0.752561271 0.641745567
0.000759096 0.000759096 0.000759096
0.009361096 0.004301451 0.000000000
0.046173193 0.014800997 0.006198899
0.095509090 0.043010902 0.012017544
0.158254087 0.086907193 0.036812194
0.216192082 0.132321090 0.066413991
0.282732368 0.180771366 0.114105180
0.361796051 0.248071060 0.177482545
0.039089095 0.016824547 0.001517999
0.048829637 0.024667643 0.007843001
0.083744094 0.038709644 0.013282902
0.128020540 0.070082545 0.024288097
0.177735284 0.103731543 0.046932094
0.238077074 0.143327191 0.081341088
0.295635521 0.186717436 0.120809726
0.365211695 0.250854075 0.174573272
0.133965999 0.064137094 0.018596090
0.142947540 0.071600541 0.028969001
0.160531193 0.089184090 0.032004997
0.191397741 0.112713188 0.053510636
0.237318292 0.143327206 0.080581993
0.280834764 0.178114831 0.111448348
0.338266999 0.224541575 0.158760175
0.420113802 0.300821900 0.227956787
0.236052930 0.142441288 0.084882639
0.242757991 0.149145633 0.085262284
0.262744725 0.160025626 0.098924629
0.283111632 0.180012271 0.117393993
0.312080711 0.203921720 0.136875182
0.345224351 0.236306265 0.161416635
0.397723198 0.284756303 0.211891174
0.476533741 0.354965419 0.278684199
0.345351100 0.236432463 0.161669463
0.348513365 0.245161280 0.170145541
0.364959121 0.254522294 0.181530476
0.383048385 0.269323379 0.198734984
0.412776560 0.297533214 0.225427181
0.445160925 0.330676824 0.256293535
0.496521264 0.384440362 0.302087337
0.577103078 0.451739252 0.367109329
0.489183724 0.371031046 0.289563477
0.492978930 0.371410728 0.295508921
0.499557376 0.387096733 0.305882484
0.517899871 0.402403563 0.320050538
0.546236753 0.424667805 0.342314810
0.583681166 0.458823562 0.367741436
0.633017123 0.501454771 0.407084286
0.711827636 0.564579427 0.464389563
0.646805823 0.515243292 0.419481367
0.660088539 0.530803382 0.425806731
0.666919708 0.535610378 0.439974755
0.687160015 0.546995759 0.445920169
0.709424496 0.559898615 0.455660999
0.732068241 0.579127014 0.473750561
0.767488837 0.603162527 0.489436984
0.821252406 0.641492724 0.520303428
0.864389658 0.670461714 0.550663948
0.875648141 0.674636126 0.551676095
0.877545655 0.678304732 0.552308798
0.894623220 0.686527550 0.563693821
0.908032954 0.698165655 0.574319959
0.927767336 0.710815847 0.589879751
0.950157583 0.730423808 0.610373139
0.972295702 0.759392917 0.633649349
0.008981644 0.005060354 0.000000000
0.023908548 0.007843000 0.000759096
0.054016195 0.020366903 0.009740545
0.103731640 0.051612996 0.016318996
0.160151631 0.093231998 0.041492805
0.219987378 0.131815344 0.072865091
0.288171977 0.183934271 0.114990279
0.367742002 0.257811785 0.181530654
0.057558641 0.016318899 0.000759096
0.069323540 0.030993260 0.010626356
0.094750091 0.042631548 0.016065547
0.136243090 0.068437539 0.026185740
0.181150824 0.107653543 0.045667447
0.236559093 0.145224541 0.085388996
0.302846372 0.196963936 0.128779337
0.373054981 0.263377815 0.184440151
0.135863453 0.076786995 0.031752355
0.149904728 0.077419192 0.028842190
0.175078839 0.098292455 0.040607095
0.204047844 0.117014542 0.060594544
0.243137449 0.148386747 0.085641839
0.291840613 0.185958534 0.117773637
0.344971627 0.236811906 0.165717974
0.418595642 0.307906330 0.230487093
0.241619647 0.153574005 0.086906999
0.238709375 0.156230539 0.095129542
0.264769226 0.162808180 0.096142083
0.289816290 0.183934286 0.114990279
0.318026274 0.212144271 0.137634277
0.355977029 0.242251724 0.171663538
0.405945897 0.293358564 0.219354928
0.481846690 0.362934917 0.282099694
0.352181762 0.238456726 0.168627650
0.352435201 0.246553078 0.172043085
0.366982818 0.258064538 0.189879730
0.384186924 0.269702822 0.199114531
0.411511809 0.297026902 0.226438925
0.448829979 0.335863292 0.260721087
0.504490852 0.385199368 0.304491073
0.580012500 0.458444178 0.373308241
0.493484974 0.371916473 0.291587710
0.492978930 0.377103001 0.297026902
0.499177814 0.385072649 0.309550822
0.519165277 0.403668731 0.321315706
0.548639894 0.427830726 0.341303080
0.583428502 0.459962189 0.373813719
0.635041296 0.505755603 0.411005646
0.712839723 0.563314259 0.461353809
0.650347888 0.520303607 0.423276633
0.664136469 0.526122689 0.433017284
0.670715034 0.532827079 0.432510823
0.685641944 0.545477629 0.442884207
0.704490840 0.564326108 0.461733013
0.735736907 0.583934128 0.477040082
0.768627167 0.602656603 0.493864655
0.830866456 0.643517077 0.523718953
0.868690431 0.668437779 0.546995580
0.872991621 0.675015628 0.550537646
0.881720603 0.678937614 0.553446949
0.893484592 0.685388923 0.562555432
0.905629158 0.695003033 0.573434174
0.929285347 0.713092983 0.589879751
0.952181935 0.730423808 0.606957436
0.976976573 0.754711747 0.635926425
0.028969193 0.010878997 0.004554189
0.037824444 0.014041804 0.001138644
0.068817191 0.026565192 0.011132197
0.115496635 0.057178997 0.020746354
0.168374181 0.096267991 0.039848190
0.233649522 0.138899729 0.081720538
0.296014994 0.191777274 0.125110283
0.373054981 0.259329587 0.191271320
0.077292986 0.035167996 0.013662353
0.081720635 0.039974902 0.005819450
0.105629086 0.052751545 0.019481188
0.145224631 0.079064094 0.027324287
0.191397727 0.112713374 0.054269638
0.248576820 0.152688086 0.093611643
0.309044719 0.203162625 0.134977743
0.372549146 0.265022099 0.188488156
0.155850902 0.082985193 0.032131907
0.162049189 0.095509186 0.042252000
0.180139184 0.104111187 0.046932291
0.211132452 0.124857634 0.066160642
0.247564897 0.155091807 0.090069897
0.294876724 0.191018194 0.120556481
0.351676077 0.239468455 0.168121368
0.430866748 0.311827809 0.239721790
0.241113275 0.152308643 0.080455184
0.258064628 0.154965281 0.093864888
0.271347523 0.168247983 0.104111291
0.293611467 0.188235432 0.122707076
0.323466182 0.215307087 0.146742448
0.359392554 0.249715179 0.177102923
0.408728540 0.296521336 0.221378997
0.479696244 0.365338445 0.283364892
0.345857352 0.241999179 0.175964370
0.363567382 0.251359999 0.182163358
0.373687297 0.259962082 0.189374074
0.391271561 0.277545840 0.206957817
0.422137976 0.305376381 0.234788358
0.458570838 0.337001950 0.258570820
0.508412361 0.386843592 0.306894183
0.580645144 0.456419975 0.371030957
0.490828574 0.373813719 0.291840285
0.497786015 0.377356082 0.296647370
0.507906616 0.386337817 0.307147741
0.523972332 0.402403384 0.322074622
0.548513710 0.425806463 0.339278907
0.585831702 0.460341662 0.374193281
0.634914637 0.508159280 0.412144005
0.709930241 0.564958870 0.462998182
0.648576617 0.523086309 0.423782468
0.666034222 0.526628733 0.424794614
0.672738850 0.534851313 0.434534997
0.682605863 0.544718623 0.444402218
0.705629230 0.563187659 0.461353570
0.734092057 0.581530750 0.475015789
0.770524681 0.604554057 0.495762169
0.835800052 0.646932244 0.527893424
0.861985743 0.668311238 0.543832779
0.872485638 0.672232985 0.549272597
0.875015914 0.674762964 0.553700030
0.891460717 0.683364749 0.560531437
0.905755937 0.693611801 0.569006801
0.923339605 0.711701572 0.584946156
0.947501183 0.730803192 0.607336760
0.977988362 0.751043379 0.635673344
0.054775480 0.021505257 0.005945744
0.063377991 0.027324481 0.007337449
0.093611740 0.042631257 0.014547647
0.133839279 0.066034347 0.024541641
0.185578987 0.106514804 0.051613189
0.242631465 0.146742731 0.086148001
0.303478509 0.197596535 0.130929545
0.377356023 0.263630539 0.193042532
0.095508993 0.042631354 0.012650004
0.102593280 0.050094802 0.014421255
0.128020540 0.062112633 0.020619543
0.158127993 0.086400829 0.035167899
0.197975993 0.117393985 0.059329282
0.253257751 0.157368988 0.095762245
0.311701477 0.205059975 0.130929530
0.375711322 0.266792983 0.185578510
0.171410486 0.093485348 0.038583349
0.179380193 0.104111284 0.039721899
0.191271350 0.110309988 0.051865738
0.219987184 0.129538551 0.071600452
0.260468006 0.158886984 0.090322547
0.301455051 0.196078628 0.134218723
0.356736124 0.243010610 0.175711632
0.432890713 0.312081039 0.236685619
0.255787462 0.158001274 0.093358733
0.260215014 0.163187832 0.101581179
0.273118287 0.176091075 0.105882630
0.299557507 0.191397727 0.118026376
0.326122791 0.218722433 0.150537744
0.363693714 0.249968529 0.184946015
0.409361392 0.296774119 0.224288374
0.478684306 0.359645814 0.282606006
0.359519154 0.247311994 0.172169179
0.365338534 0.256293625 0.179633170
0.378368169 0.266160548 0.199114382
0.395825654 0.279063731 0.212523639
0.418595940 0.308412373 0.227197930
0.455661178 0.339278758 0.264516175
0.501201749 0.386843562 0.306009203
0.569765747 0.453510284 0.366603076
0.497280478 0.375711471 0.297280461
0.495256215 0.380897999 0.298165470
0.506894171 0.391397476 0.309044987
0.525869846 0.404301107 0.323972374
0.550916970 0.427830696 0.345477700
0.585199177 0.456040710 0.371789962
0.631878376 0.502593458 0.408602476
0.696394742 0.555850565 0.456672698
0.654522538 0.515749276 0.427830726
0.657558739 0.522960305 0.428968966
0.665781140 0.531182826 0.430486977
0.679949164 0.540164411 0.439848363
0.702719688 0.556862652 0.456167012
0.731309175 0.579506516 0.472611994
0.767994821 0.600126088 0.491334736
0.832005203 0.648450553 0.527008235
0.854269564 0.661859632 0.544338942
0.865654647 0.663883805 0.538266838
0.869702816 0.669196844 0.548134148
0.884503365 0.679443359 0.557621539
0.902087331 0.689184010 0.564958930
0.921441853 0.702972651 0.584060490
0.944971442 0.726501822 0.606324792
0.973054588 0.754838526 0.637191594
0.087539569 0.041492708 0.008475997
0.096774258 0.045793738 0.012144452
0.117394187 0.062492188 0.022643803
0.153067648 0.088045642 0.035926998
0.196458191 0.117393985 0.061733089
0.252878189 0.156989440 0.092346705
0.312333971 0.209740564 0.133586287
0.381657094 0.267931521 0.197343498
0.111574538 0.058823727 0.020367000
0.125743255 0.070082255 0.025680263
0.146109834 0.077166550 0.032637551
0.179000646 0.101074994 0.046173092
0.216571823 0.128779352 0.070841350
0.270967990 0.167109638 0.101201728
0.320303559 0.209867001 0.142188281
0.382922053 0.268437624 0.197849631
0.183301896 0.106514804 0.048450287
0.189247549 0.112839997 0.053636644
0.209235102 0.123845711 0.062491994
0.231498823 0.139025733 0.075521640
0.268690884 0.166729897 0.104870282
0.314484656 0.205565825 0.138140440
0.365718007 0.251992553 0.181404173
0.430740237 0.320050627 0.240354255
0.263503939 0.166097626 0.098165631
0.267299116 0.169133395 0.105629183
0.282732189 0.179632828 0.110689543
0.303858280 0.195698991 0.130170628
0.331562191 0.221125633 0.148892909
0.368880391 0.255155176 0.184566364
0.417204559 0.301201552 0.228336558
0.480708480 0.362555087 0.282985449
0.363441110 0.251233280 0.181404188
0.372169465 0.259962082 0.186337888
0.379886210 0.266160578 0.197090372
0.391397923 0.279316753 0.203794912
0.419734359 0.303099275 0.227577373
0.458064616 0.341429472 0.262871623
0.503605127 0.382036716 0.302087367
0.568880141 0.445793808 0.358253777
0.505629420 0.384060919 0.302087486
0.509297967 0.393801272 0.312966466
0.517900109 0.402403355 0.320050359
0.531056345 0.410626113 0.329917818
0.548640072 0.428210169 0.345857173
0.575585425 0.452118695 0.365970731
0.626818299 0.496774316 0.402023703
0.687918663 0.551170409 0.446679294
0.647564590 0.517520547 0.422770560
0.656040549 0.517646968 0.426312536
0.659962118 0.525363564 0.428336263
0.677292824 0.537128568 0.436812282
0.693232059 0.552055478 0.450094640
0.723213255 0.569133759 0.469070464
0.761922598 0.595951557 0.491714269
0.823276103 0.638962865 0.522959948
0.848956108 0.655787170 0.540923655
0.854649007 0.664515734 0.540923774
0.861606359 0.669196844 0.548639894
0.877292931 0.674509943 0.551549554
0.895888507 0.685262561 0.566223741
0.912333548 0.700948656 0.579759479
0.941049814 0.722580791 0.602403462
0.977988124 0.758760631 0.630107582
0.127007812 0.066793144 0.018342832
0.129917681 0.069702700 0.021252297
0.154585823 0.086527832 0.032891002
0.182795823 0.108285822 0.049462430
0.232131630 0.141935334 0.079190336
0.282732546 0.180771559 0.116634898
0.341808826 0.233396724 0.167994976
0.416065782 0.304996610 0.226438791
0.150790632 0.083744660 0.033017296
0.150917441 0.084503658 0.025047097
0.172675535 0.097027078 0.039848279
0.205566019 0.119671166 0.057937995
0.242251515 0.150031358 0.084503390
0.294497073 0.190638825 0.123212822
0.348766416 0.238330111 0.166097730
0.419607937 0.301707804 0.229981259
0.199873090 0.120050713 0.057179093
0.212017640 0.126249298 0.066793531
0.225679979 0.137002081 0.074130267
0.252498418 0.154332995 0.091967151
0.289436936 0.183554918 0.116887920
0.335357100 0.223150074 0.155850798
0.387222916 0.273497909 0.202909634
0.455407798 0.342947662 0.268563986
0.274256796 0.171157449 0.104490839
0.281720370 0.178368270 0.107906185
0.292220086 0.187602922 0.120935932
0.312080830 0.207463279 0.138519987
0.345857114 0.236938536 0.166476950
0.383301526 0.269576222 0.198988006
0.433396906 0.322074711 0.244275898
0.500442624 0.387223214 0.304870248
0.368121386 0.256166995 0.184946194
0.374952555 0.260467857 0.189879835
0.374572992 0.262365580 0.187223390
0.391650826 0.275395542 0.204806834
0.423150212 0.303858161 0.233270183
0.460214734 0.346995294 0.265781134
0.515496373 0.395066440 0.313978255
0.581910312 0.456419945 0.363187641
0.519797444 0.402023822 0.320429713
0.521821797 0.405945629 0.322833627
0.526122630 0.407590210 0.325996310
0.532574296 0.410246551 0.329917639
0.538266897 0.416698366 0.335104465
0.569512904 0.448323756 0.361416608
0.628083467 0.497659951 0.404047906
0.692599833 0.550537527 0.450221539
0.682352781 0.538899064 0.440228015
0.685388863 0.545351028 0.445540667
0.691081464 0.548386812 0.447058648
0.699304342 0.555724144 0.454269469
0.708665252 0.561669827 0.461353570
0.724731028 0.577482760 0.468311459
0.751043856 0.601391256 0.486401290
0.824035048 0.638962865 0.518785357
0.862112582 0.667172611 0.554711759
0.872864902 0.673371315 0.550790787
0.879063725 0.675015569 0.555850804
0.883111537 0.677545607 0.557241797
0.894749761 0.686780572 0.557241738
0.914104581 0.700948656 0.579379916
0.937507808 0.719038367 0.598861396
0.969133615 0.756230295 0.633269608
