Assets/EldamarStudio/100 Retro LUTs Pack/LUTs/cube/Bonnie LUT.cube
LUT_3D_SIZE 8
DOMAIN_MIN 0.000000 0.000000 0.000000
DOMAIN_MAX 0.903226 0.903226 0.903226
0.035294000 0.070588000 0.137254998
0.056040544 0.078431003 0.141555548
0.090195999 0.086274996 0.147501811
0.115496635 0.095256351 0.151297003
0.173813999 0.112839997 0.162302196
0.238962993 0.135104254 0.178494737
0.331941545 0.163693696 0.194433704
0.463250905 0.202782974 0.217077985
0.059582997 0.090954997 0.134851098
0.068184994 0.099177547 0.141935095
0.097153902 0.103478901 0.150537908
0.131562188 0.114104547 0.157242462
0.185958534 0.129664540 0.167741999
0.252371728 0.150031552 0.181024998
0.343706548 0.176217288 0.201517999
0.461100131 0.214421362 0.231498823
0.083744094 0.133207098 0.163061097
0.103858456 0.141429558 0.171789989
0.130044177 0.148893088 0.170145184
0.164073631 0.157874733 0.174066991
0.219228283 0.172296003 0.182669088
0.285009474 0.192662999 0.196331352
0.372549266 0.224794194 0.216318801
0.503225684 0.266666919 0.253004551
0.136242986 0.204680637 0.191650644
0.148766279 0.212144181 0.191650644
0.172928289 0.220366731 0.197849542
0.218722641 0.234914273 0.205692634
0.277545810 0.248197183 0.219355002
0.339658350 0.265022099 0.227197900
0.427324563 0.291081548 0.244402289
0.553067565 0.336875290 0.285641849
0.206071988 0.303858191 0.225679994
0.220873192 0.313346207 0.230360180
0.245034978 0.319544196 0.236685902
0.285388738 0.330929756 0.244908437
0.348513365 0.346110195 0.261606157
0.418848634 0.364452928 0.278937191
0.508791745 0.392283350 0.303099275
0.624794602 0.437571377 0.343959540
0.319291741 0.442757994 0.303731740
0.328905284 0.448450714 0.304870069
0.357242197 0.453889698 0.312460363
0.396837384 0.459329635 0.317393720
0.457558692 0.473497897 0.339405537
0.520683467 0.489563465 0.358380735
0.603668749 0.514105022 0.386843741
0.703858554 0.561669827 0.435673714
0.465907544 0.579632998 0.399241000
0.483364522 0.589753270 0.408475697
0.505629480 0.592789471 0.416445524
0.540037811 0.597596288 0.431751907
0.583048582 0.606072247 0.441492766
0.634282470 0.618722558 0.459835738
0.694623590 0.637444854 0.487792283
0.772549033 0.673624098 0.532953799
0.664642572 0.742947459 0.565211594
0.679696381 0.750411212 0.568880320
0.689689636 0.750790775 0.575837553
0.708791792 0.759772360 0.587223411
0.738140464 0.767868400 0.596457839
0.775964499 0.778241754 0.610879183
0.813409328 0.791903675 0.642378092
0.863250911 0.805692792 0.673750758
0.046679452 0.074510001 0.149020001
0.055660997 0.075268999 0.149779007
0.087792903 0.090955094 0.161543101
0.124477990 0.103858449 0.163440540
0.178114831 0.117140837 0.175205633
0.248830184 0.143327191 0.192409545
0.331435800 0.169892579 0.209235013
0.455534637 0.200506285 0.234914660
0.063883543 0.090575546 0.165464997
0.075648546 0.099177547 0.161163554
0.101454645 0.107020542 0.165085450
0.135104552 0.117140733 0.172042727
0.187856182 0.132447898 0.183934361
0.255660921 0.157874539 0.195192814
0.344338983 0.180645257 0.215812832
0.470588446 0.213662550 0.250474244
0.083744094 0.140291095 0.168121547
0.107020639 0.143832639 0.177988991
0.123339646 0.149272546 0.178368449
0.167994738 0.161796555 0.189753190
0.222391099 0.176217377 0.196331441
0.285009384 0.195192903 0.206072092
0.376470387 0.224920794 0.230740011
0.501960754 0.264136910 0.265401363
0.139784649 0.207463279 0.200632200
0.151170105 0.213789001 0.198608652
0.174573094 0.215686530 0.210499644
0.215939268 0.231752276 0.211891547
0.277166188 0.243137434 0.226059541
0.340164512 0.262744993 0.241366178
0.432511210 0.292473108 0.262745023
0.556103647 0.334977746 0.298292071
0.200758830 0.303605348 0.240986541
0.216951206 0.309424192 0.242504537
0.234408721 0.314484626 0.244781733
0.284629822 0.326248825 0.258570194
0.344971508 0.335610598 0.270714700
0.412144005 0.356609821 0.286274612
0.503731728 0.387223214 0.312966645
0.622390807 0.437950820 0.355091810
0.314737439 0.437824249 0.306767732
0.325616270 0.440860301 0.319418162
0.353700250 0.443516910 0.324098259
0.393674642 0.454143196 0.329032093
0.449209571 0.467931718 0.344085902
0.513978541 0.481973529 0.363820732
0.598102450 0.507400453 0.389500022
0.700695515 0.558127701 0.438583404
0.456546068 0.573181570 0.405060083
0.474256814 0.582669318 0.408981532
0.492852449 0.579506397 0.417330593
0.530170918 0.587223291 0.430866718
0.573434353 0.602150440 0.449588984
0.629348755 0.614674449 0.466793120
0.695003152 0.639342129 0.494117558
0.773181319 0.670841515 0.536242664
0.663250923 0.734978020 0.574446559
0.673877478 0.745097756 0.573561132
0.681467056 0.749146223 0.580012321
0.704617381 0.753320396 0.585831702
0.734345615 0.760784447 0.598861396
0.772548914 0.776090622 0.619987607
0.808349013 0.786843896 0.643516898
0.856166601 0.809993684 0.673498034
0.047817901 0.071347095 0.159139901
0.063504092 0.082732551 0.170145079
0.093231998 0.094876900 0.177988991
0.133459732 0.107020639 0.192915902
0.188741282 0.123845898 0.199114189
0.261353374 0.151676357 0.217077985
0.341302991 0.178620994 0.238962993
0.475774676 0.209993899 0.274257094
0.063883543 0.099556997 0.168880552
0.077925541 0.096774444 0.174446538
0.102972642 0.111321993 0.186211452
0.144085988 0.123466350 0.191271082
0.198102385 0.141049996 0.207716808
0.265021831 0.165717646 0.226565287
0.356103361 0.192283258 0.245920375
0.482732296 0.229475275 0.282859087
0.091713995 0.142568097 0.188109100
0.115243092 0.145730108 0.206198901
0.137887180 0.150411084 0.206957996
0.175837725 0.166856080 0.215560108
0.228715986 0.184946179 0.226565182
0.299937099 0.202909470 0.241745725
0.377862334 0.230234191 0.259962112
0.512586653 0.269323081 0.300189823
0.147248194 0.210246637 0.221631989
0.154585630 0.213789091 0.229601175
0.185958624 0.225173637 0.232637376
0.222264379 0.234155372 0.243643284
0.271093994 0.247058719 0.250221550
0.343706459 0.266666651 0.265528172
0.442251563 0.295635760 0.292093456
0.559898734 0.340923548 0.333586365
0.214548185 0.307906300 0.262998074
0.220746383 0.309424281 0.277925521
0.248956382 0.315623194 0.274889171
0.286906809 0.324604839 0.284376979
0.343706369 0.339152187 0.296900988
0.417204291 0.359772056 0.316508293
0.510309517 0.389879555 0.342947274
0.625806332 0.441872209 0.388867825
0.323718816 0.437824368 0.343959451
0.329917729 0.441619366 0.344718397
0.360657543 0.444149464 0.351549447
0.396078467 0.452624977 0.362302542
0.450600922 0.466793388 0.370904535
0.513219714 0.483617723 0.389120489
0.600505769 0.507779717 0.418975472
0.700822473 0.563693583 0.463756889
0.465781271 0.572422564 0.432384372
0.478810638 0.575585306 0.436432660
0.494623333 0.582669377 0.442504495
0.534977913 0.588488042 0.453763723
0.577608764 0.601264834 0.465654552
0.632131457 0.616951346 0.485262245
0.696141601 0.639089584 0.515117347
0.772549033 0.676660597 0.557748258
0.661859453 0.738519669 0.583680928
0.670967877 0.740290999 0.587982178
0.682352841 0.745097876 0.592156887
0.704364121 0.751423001 0.603921294
0.734471619 0.761290610 0.612144172
0.770524740 0.767868221 0.630613565
0.810752630 0.785073042 0.654522121
0.861353636 0.801897526 0.686906755
0.061100997 0.080708288 0.200632289
0.072485641 0.086274996 0.203795001
0.102213554 0.097659551 0.213156089
0.154712349 0.107020639 0.225806281
0.211005837 0.130550355 0.237065345
0.272865623 0.152814999 0.253130972
0.353194296 0.186084643 0.280202359
0.485262394 0.219734147 0.319417983
0.077292651 0.098418646 0.215686098
0.089690447 0.111701444 0.217837095
0.114737540 0.112080991 0.224541634
0.162935108 0.125743359 0.233902544
0.220493540 0.144591838 0.242504731
0.283870846 0.165717557 0.259329468
0.366729915 0.198229000 0.285895079
0.491081774 0.233396471 0.331815451
0.095256351 0.143073648 0.245414093
0.111574642 0.152814895 0.236179635
0.144085988 0.159899086 0.240860626
0.190259278 0.172801644 0.252245188
0.247058734 0.188108996 0.264389753
0.312839925 0.207210541 0.284377187
0.401518106 0.239722088 0.314484537
0.525237322 0.274889380 0.348513484
0.151928991 0.219228283 0.267931998
0.158507541 0.221252546 0.277798712
0.189879626 0.229854628 0.276913643
0.234408632 0.238836274 0.288172275
0.287286460 0.254901826 0.289690077
0.357874483 0.272612363 0.317267269
0.450221270 0.302213997 0.346995264
0.566982925 0.346489429 0.377735615
0.222517192 0.312460363 0.315116972
0.232511178 0.318405837 0.312460184
0.263630658 0.322327644 0.324351370
0.296394795 0.328905374 0.334471971
0.355850816 0.345351100 0.344718367
0.423529446 0.368500829 0.366603285
0.518279493 0.398608178 0.392030537
0.632004976 0.448070794 0.432131648
0.332574636 0.438329935 0.387349635
0.348133832 0.444528729 0.395825624
0.368374705 0.446805865 0.397976011
0.404807359 0.455407828 0.408602029
0.458823532 0.466793448 0.419102162
0.523719370 0.488804370 0.434661388
0.600885332 0.517267585 0.460847825
0.709424436 0.562175632 0.504996657
0.468943924 0.577482581 0.469955891
0.487033367 0.582289815 0.476913363
0.506894112 0.583808005 0.484250635
0.536622226 0.589247227 0.491207927
0.584440172 0.603288889 0.507779777
0.639721751 0.621378779 0.524857819
0.703099251 0.639721572 0.548387170
0.781530678 0.677798808 0.594180703
0.661859214 0.739405572 0.602023780
0.671473801 0.741555750 0.601517797
0.684629738 0.748260260 0.617457211
0.706514716 0.753446937 0.625932753
0.737507820 0.758886755 0.637318373
0.772928596 0.773054600 0.655660808
0.811005831 0.788108766 0.679063976
0.865907729 0.806198418 0.705376387
0.081467383 0.087792799 0.256166995
0.094876997 0.089057647 0.256546557
0.125363901 0.095635995 0.267931998
0.174699187 0.110942349 0.279696375
0.229348183 0.132448003 0.299051166
0.299177796 0.154712260 0.318785399
0.385072529 0.181656986 0.341303200
0.505882144 0.225047812 0.386211187
0.093990996 0.110056542 0.266160369
0.109803900 0.112460345 0.267172962
0.138646185 0.119924091 0.276027709
0.180518627 0.129664645 0.286653996
0.241999179 0.148892999 0.304364651
0.306388617 0.169133484 0.323339581
0.398734808 0.200885639 0.351170033
0.506641150 0.243643269 0.394307554
0.117520288 0.155091986 0.288298279
0.135610089 0.157621905 0.299683630
0.158887088 0.166097283 0.304870069
0.204806730 0.174319834 0.314105064
0.269450009 0.189500198 0.330550283
0.339026093 0.209867075 0.346615940
0.419481367 0.242757887 0.375838071
0.542441487 0.278558046 0.417963237
0.158254191 0.224035278 0.332447827
0.165971100 0.227956980 0.337128520
0.200505987 0.230613723 0.343453646
0.246553093 0.242757976 0.350031465
0.302087188 0.255281270 0.360151380
0.377356172 0.277545750 0.376976818
0.466666669 0.311195642 0.412650287
0.584566593 0.345603824 0.444402009
0.220872998 0.317140996 0.376597166
0.247944638 0.324730694 0.386590749
0.264642358 0.328146487 0.390006274
0.311701387 0.338772744 0.401897162
0.364199996 0.353320390 0.409740537
0.443137378 0.371284187 0.424920738
0.532321393 0.401011974 0.451106936
0.638709664 0.443516999 0.485894799
0.347627968 0.446552992 0.447438180
0.354332715 0.449209750 0.455914170
0.377735794 0.453889906 0.460088730
0.419734359 0.463251084 0.468058020
0.467931926 0.471853226 0.474383652
0.528526485 0.487919152 0.492219925
0.613788545 0.522707164 0.519165337
0.715369880 0.562175751 0.556736112
0.484629989 0.581024647 0.528526485
0.493232280 0.581657112 0.533712864
0.508918464 0.588108718 0.537254632
0.541429162 0.594813168 0.541935265
0.585578442 0.610120356 0.555344641
0.647185206 0.624794364 0.575079203
0.708665252 0.643516660 0.595192850
0.785705209 0.682858706 0.634788215
0.644275784 0.741682589 0.637571156
0.659202814 0.742567837 0.641492784
0.673497617 0.749272585 0.647058725
0.698924482 0.754585564 0.657558501
0.730297148 0.761669755 0.668817341
0.776596963 0.773054600 0.687666059
0.816192389 0.792030454 0.710056603
0.857558727 0.811637938 0.737128198
0.107653253 0.086274996 0.334724724
0.116635181 0.092473187 0.337001920
0.149904728 0.104617350 0.352055758
0.197722629 0.112839900 0.358254224
0.256799459 0.132827446 0.378874362
0.328652471 0.156736001 0.397343725
0.414168447 0.186717257 0.426312745
0.528525949 0.224288717 0.471094370
0.115496732 0.114484094 0.345224291
0.130043998 0.114484094 0.347248703
0.156609803 0.119544543 0.358254135
0.203542084 0.134471744 0.370904535
0.257052541 0.147627831 0.382542729
0.335483760 0.173054993 0.407969505
0.427071512 0.203668296 0.438456774
0.536875308 0.242378235 0.477672249
0.136748731 0.162555352 0.373054922
0.150411189 0.164073542 0.385199368
0.176723465 0.165338203 0.384440154
0.224288628 0.177103087 0.395825624
0.287412971 0.192283452 0.409107983
0.360531121 0.215433106 0.428210169
0.449841917 0.247565091 0.455787361
0.558759928 0.287665904 0.499430627
0.163061529 0.227830365 0.413535714
0.177988738 0.231119275 0.417583913
0.213156030 0.234155461 0.420366734
0.262239277 0.245161384 0.433017373
0.326881796 0.264263004 0.445414275
0.396964103 0.285009474 0.461606622
0.482099921 0.312713623 0.485894740
0.593674779 0.356483191 0.530803382
0.238836184 0.322960109 0.461353451
0.250348270 0.328399837 0.466919720
0.281088114 0.334345311 0.471853107
0.320556641 0.341049939 0.474509656
0.379633367 0.359898835 0.487539530
0.457685083 0.378241539 0.502719462
0.545730472 0.405312926 0.528146863
0.648956478 0.440101266 0.564199805
0.360151470 0.448450744 0.524731457
0.368753999 0.451106966 0.525616467
0.392156631 0.458064467 0.528273225
0.430993021 0.461227328 0.535736501
0.474003732 0.474889189 0.546489716
0.540164471 0.489436984 0.559898496
0.622011006 0.519544721 0.576723933
0.718152881 0.556989193 0.605439544
0.494750261 0.583175004 0.599241197
0.502214074 0.577862144 0.588994503
0.520809710 0.584187567 0.601011872
0.542441428 0.593927801 0.605692923
0.592283070 0.607336998 0.618342698
0.648829997 0.627197564 0.632764518
0.716761291 0.647564590 0.652245283
0.791018546 0.689563692 0.679190040
0.651233613 0.738393486 0.705629230
0.659709036 0.742567599 0.698165774
0.666666865 0.745097816 0.701201856
0.688677847 0.752181768 0.706008852
0.720050573 0.762049258 0.710942507
0.767488599 0.776849627 0.726881623
0.817077875 0.795192719 0.749778450
0.862745047 0.815433264 0.773560703
0.133965999 0.092473283 0.452498257
0.150411010 0.098418549 0.456166834
0.176091090 0.105123289 0.461227268
0.228842631 0.113219351 0.473750561
0.292093545 0.132447988 0.492599487
0.362934709 0.156989440 0.509297967
0.446299553 0.194054574 0.530929804
0.547501504 0.235167503 0.562428892
0.145730570 0.113598801 0.464768797
0.154333010 0.118532516 0.459709078
0.184820086 0.127387539 0.469070256
0.234408632 0.137887195 0.481846899
0.295003474 0.155977115 0.496647894
0.374699712 0.179380178 0.516761541
0.456799716 0.210246533 0.541429102
0.550664186 0.254902124 0.567741752
0.155092001 0.165212095 0.481340557
0.168121547 0.166856378 0.489816815
0.203035817 0.174699381 0.494876564
0.249335930 0.187982202 0.507400453
0.317141175 0.202024102 0.520683050
0.391903758 0.224668190 0.536748886
0.476027668 0.254396170 0.557621539
0.570777893 0.298165470 0.587602913
0.186717346 0.239468575 0.526375532
0.199999824 0.239215821 0.520050406
0.230993092 0.248323992 0.527261019
0.285894990 0.257305622 0.536495864
0.351929188 0.272865415 0.548007548
0.421631932 0.295256287 0.561416626
0.508538902 0.326881647 0.585325897
0.606072366 0.368374437 0.610625923
0.266666472 0.340544075 0.559013486
0.277419627 0.341429472 0.570145249
0.301328301 0.345983446 0.566097319
0.342567831 0.353573740 0.575331807
0.402530372 0.364958882 0.585199237
0.477166235 0.388867944 0.602782845
0.559013307 0.415812731 0.617204487
0.653257370 0.451359719 0.646805942
0.386717260 0.461100757 0.614548028
0.395698845 0.464769185 0.617963314
0.416698098 0.470714569 0.618722379
0.450727671 0.474889278 0.624541104
0.500063360 0.485768557 0.631625712
0.553067923 0.501834452 0.643769741
0.632258296 0.527767241 0.661606491
0.720430136 0.564832389 0.687918723
0.512586832 0.586464226 0.676027834
0.524098814 0.582922339 0.668564260
0.537634254 0.588867664 0.673497736
0.565844178 0.599873543 0.681720197
0.605186701 0.613915324 0.689943075
0.663251221 0.633143783 0.701454997
0.726628542 0.657684863 0.720430255
0.795319080 0.691840410 0.742441535
0.668564320 0.732574403 0.765211880
0.667678833 0.738393426 0.758254230
0.679822803 0.740796864 0.765591264
0.696774125 0.749272585 0.767488718
0.729791164 0.762681842 0.774446249
0.772295892 0.777608693 0.787350059
0.820240259 0.798228979 0.796077967
0.871979892 0.827324450 0.823529005
0.159519166 0.098039001 0.599240780
0.174699664 0.098418549 0.602782845
0.210752994 0.109297730 0.610373199
0.263124645 0.122580826 0.618595839
0.328146636 0.140290990 0.626818240
0.399620622 0.171157628 0.639595449
0.490828544 0.212776363 0.664769232
0.580897927 0.257811785 0.685515404
0.165591240 0.127640978 0.607716620
0.184440136 0.125743151 0.601644158
0.211891443 0.135230646 0.607842803
0.264010280 0.150031745 0.620113790
0.330423862 0.164452896 0.633902788
0.409108013 0.194940090 0.648450434
0.491587549 0.233522803 0.665781319
0.585072279 0.279823095 0.681593776
0.179886252 0.178494662 0.619354725
0.198988095 0.173940197 0.626691759
0.225553185 0.187602833 0.624414742
0.281593829 0.195699081 0.638582945
0.350031286 0.216066092 0.646805644
0.429601520 0.241113186 0.668311000
0.513219416 0.279317170 0.680581808
0.602150619 0.324351907 0.701201797
0.206451640 0.251359969 0.642757416
0.223529637 0.254142940 0.654016376
0.261859894 0.259582520 0.655787170
0.315116793 0.274383634 0.664136648
0.383301795 0.290702105 0.672232985
0.456040531 0.313472509 0.680455446
0.544971466 0.346869081 0.697785914
0.632890403 0.388614625 0.715496778
0.301834166 0.363566995 0.683364987
0.306261808 0.363314360 0.685515463
0.329791129 0.359266162 0.687159777
0.367868155 0.368374527 0.689689815
0.437950522 0.379759580 0.697153628
0.508791506 0.408981919 0.711574972
0.588488162 0.437318116 0.724351823
0.676154077 0.476407200 0.739784777
0.450094670 0.502087355 0.725616813
0.457179248 0.500063479 0.724098623
0.471853316 0.501454830 0.729158580
0.492473185 0.504490912 0.730929732
0.522454083 0.501581013 0.731941938
0.580265522 0.522201419 0.743200541
0.657811582 0.544465363 0.755471051
0.733459771 0.577356219 0.776343942
0.569133222 0.625300229 0.766729891
0.582542598 0.624161661 0.770651519
0.593674839 0.625426829 0.771283925
0.617583752 0.636559546 0.779253423
0.648577094 0.645920396 0.782162905
0.695129454 0.661606729 0.795951962
0.742694080 0.671094537 0.796837568
0.807210863 0.704997122 0.821378589
0.693358719 0.752308547 0.816192627
0.702972889 0.753952920 0.820240438
0.712713361 0.758760571 0.824541330
0.731182754 0.763946772 0.833143353
0.755470812 0.773181438 0.841239810
0.786590636 0.795951843 0.846805692
0.835673630 0.817963004 0.866919816
0.889436722 0.846426547 0.888298392
