Assets/EldamarStudio/100 Retro LUTs Pack/LUTs/cube/Bonnie LUT.cube
DOMAIN_MIN 0 0 0
DOMAIN_MAX 1 1 1
LUT_3D_SIZE 32
0.035294000 0.070588000 0.137254998
0.041366000 0.070588000 0.134218603
0.043136999 0.070588000 0.133332998
0.046932161 0.073118001 0.135862991
0.056040544 0.078431003 0.141555548
0.065148935 0.078431003 0.144591942
0.071727000 0.083491646 0.145098001
0.081087992 0.086274996 0.146742716
0.090195999 0.086274996 0.147501811
0.090196006 0.086275004 0.141429037
0.098924875 0.092093997 0.146995738
0.106008992 0.094117999 0.149020001
0.115496635 0.095256351 0.151297003
0.130423993 0.098039001 0.156609967
0.142567992 0.098039001 0.153573588
0.157115802 0.105249800 0.157747999
0.173813999 0.112839997 0.162302196
0.191397563 0.118279576 0.165338427
0.206578001 0.121315978 0.168374047
0.224541724 0.127135009 0.176976353
0.238962993 0.135104254 0.178494737
0.256167114 0.141176000 0.177482858
0.283364981 0.141682014 0.180771500
0.307653010 0.153826818 0.189879909
0.331941545 0.163693696 0.194433704
0.359013289 0.171410337 0.200252667
0.390386134 0.178494990 0.208349064
0.426818848 0.190638989 0.211385459
0.463250905 0.202782974 0.217077985
0.503225327 0.214926958 0.230233938
0.546615779 0.227956593 0.246679202
0.592157006 0.243137002 0.258823991
0.044402387 0.076660000 0.131182998
0.035294000 0.079696387 0.143326998
0.049968548 0.079696387 0.142441392
0.054016612 0.078431226 0.138646230
0.055660997 0.079190098 0.136622101
0.062112547 0.084503770 0.147628337
0.071220934 0.084503770 0.150664076
0.077799000 0.087919287 0.146236300
0.086401105 0.089310609 0.143706322
0.093232393 0.089310616 0.144465432
0.099051386 0.092220485 0.144212395
0.112081252 0.096141741 0.150031611
0.122327738 0.098292254 0.152055621
0.133459672 0.101328358 0.154332608
0.145604387 0.104111001 0.159645587
0.157748386 0.106514797 0.159013003
0.173813999 0.112839997 0.162302196
0.192030147 0.118911989 0.165970996
0.209614396 0.124351591 0.171410426
0.227577403 0.130170628 0.174446747
0.245794088 0.136242613 0.179253638
0.262239367 0.144212127 0.181530610
0.283238500 0.150663897 0.186590508
0.304617405 0.159898818 0.189879909
0.333459944 0.167488992 0.196711004
0.363441020 0.175838053 0.201897383
0.395446122 0.183554992 0.208349064
0.426818848 0.190638989 0.211385459
0.463250905 0.202782974 0.222390980
0.504996538 0.216698185 0.230993196
0.547880948 0.231878355 0.245414346
0.589120626 0.249208987 0.261859596
0.044908226 0.087033547 0.127261221
0.046552613 0.085768387 0.137254998
0.054648772 0.082353003 0.147248775
0.062745221 0.083618164 0.144718453
0.059582546 0.083112001 0.138013542
0.063883774 0.087413095 0.144845098
0.072485551 0.090576001 0.145097911
0.078304939 0.088931292 0.146489233
0.084630102 0.090195999 0.141935095
0.093738489 0.090196006 0.144971490
0.104237996 0.097406872 0.149398997
0.114357993 0.098419003 0.151423261
0.127134860 0.101328127 0.155091777
0.136495769 0.104617223 0.155091777
0.148640051 0.109550580 0.157368779
0.162934989 0.112586804 0.165085003
0.176597193 0.115623191 0.165085003
0.193548337 0.121062763 0.166223809
0.210246965 0.127134770 0.167741999
0.228463024 0.131056011 0.171030805
0.248576730 0.139025733 0.175964922
0.268058360 0.145350769 0.179253638
0.287665993 0.153320506 0.184439987
0.310942680 0.162428916 0.193548128
0.334724784 0.171410769 0.198861778
0.363693863 0.176091090 0.202150777
0.394560277 0.184693292 0.208222717
0.423276305 0.195698991 0.217836678
0.463250905 0.209234744 0.222390980
0.501454532 0.223149955 0.234534964
0.548893154 0.236559138 0.248450413
0.594686806 0.250979990 0.269196779
0.048197322 0.092852838 0.128019989
0.051739324 0.093611613 0.137128383
0.057937935 0.090954997 0.139911607
0.069323160 0.087413006 0.146489680
0.064389609 0.089690387 0.141176000
0.067425773 0.090955220 0.143326774
0.075521834 0.093991160 0.143832847
0.083870873 0.096268453 0.143706322
0.088425070 0.094750062 0.144465223
0.097533323 0.095256001 0.147501484
0.107020840 0.100189716 0.152182162
0.117899984 0.105755836 0.154965267
0.131182641 0.105755836 0.156863004
0.140796989 0.108918063 0.157369003
0.152940989 0.114990316 0.159392998
0.166223958 0.118658803 0.162808344
0.182669178 0.122960024 0.169892162
0.197216973 0.125996411 0.169892162
0.211764827 0.131436005 0.167488962
0.228463024 0.135989800 0.170018971
0.251106739 0.141555727 0.174952462
0.270335138 0.149651989 0.180012852
0.291334480 0.155723989 0.183301494
0.316761643 0.163693756 0.194307178
0.341050148 0.172802120 0.199367404
0.364199787 0.181657478 0.205186844
0.392030150 0.185199156 0.207210839
0.420113415 0.198102444 0.221631527
0.460720569 0.213282809 0.228715822
0.502719402 0.227198005 0.232004970
0.541303039 0.244149417 0.245920211
0.593674839 0.254775137 0.269450009
0.059582997 0.090954997 0.134851098
0.059582997 0.097026996 0.143200397
0.059582997 0.098797999 0.141556010
0.062112994 0.099177547 0.138899386
0.068184994 0.099177547 0.141935095
0.071220607 0.096141934 0.141935095
0.079316869 0.097786225 0.144465327
0.088045701 0.100442708 0.147501722
0.097153902 0.103478901 0.150537908
0.106261522 0.106514513 0.153573528
0.112839542 0.107020542 0.156230330
0.120556250 0.110689089 0.157622010
0.131562188 0.114104547 0.157242462
0.146742508 0.114863575 0.157495499
0.159013003 0.121062830 0.163441002
0.171157613 0.124731183 0.165085450
0.185958534 0.129664540 0.167741999
0.203288987 0.135104135 0.172548994
0.215433016 0.138140529 0.172548994
0.230739921 0.143959567 0.176470801
0.252371728 0.150031552 0.181024998
0.276027679 0.155344546 0.185705408
0.291840494 0.161543056 0.189120531
0.319417924 0.167868093 0.198481917
0.343706548 0.176217288 0.201517999
0.366603643 0.185705215 0.202403530
0.390512526 0.194686994 0.209487543
0.420872509 0.200758994 0.221631527
0.461100131 0.214421362 0.231498823
0.503604889 0.227830514 0.236811996
0.544718206 0.241872132 0.242125198
0.581151009 0.263124555 0.260342002
0.065655001 0.097027004 0.146995872
0.065655001 0.103099003 0.150031492
0.065655001 0.104869999 0.147628009
0.068185002 0.106135160 0.144086003
0.074257001 0.108285934 0.144971490
0.080329001 0.108285934 0.148007870
0.088425256 0.107779995 0.150537550
0.095888935 0.108285934 0.153573722
0.103225902 0.109550901 0.156609908
0.112333521 0.112586513 0.159645528
0.121441871 0.115622863 0.159772009
0.128019929 0.118153192 0.162302330
0.136875287 0.119418226 0.162555367
0.149778903 0.117899962 0.160531104
0.164958507 0.127008349 0.163567483
0.177229598 0.130803183 0.167109191
0.190892190 0.136875197 0.169639245
0.206578344 0.144212514 0.172548994
0.221505031 0.147248909 0.172549009
0.239215732 0.153067946 0.183681011
0.256925941 0.159139931 0.188614801
0.276660264 0.163187936 0.191145003
0.294876873 0.164579451 0.192156926
0.325236917 0.173687845 0.204300955
0.345983565 0.182289571 0.211384997
0.366603643 0.192789331 0.209487692
0.390892059 0.203921869 0.206451938
0.429980904 0.212902993 0.218595922
0.465654522 0.224288657 0.230739906
0.506641269 0.236938894 0.242377952
0.548260510 0.249968529 0.254269183
0.587222993 0.266160935 0.272486001
0.074256673 0.110689320 0.154080003
0.074256673 0.111701325 0.152055621
0.076407447 0.115623094 0.155091777
0.079317003 0.117267482 0.153953165
0.085009545 0.119544543 0.155218005
0.088931315 0.117394321 0.156103626
0.097532995 0.117394321 0.154080003
0.106641382 0.120683312 0.158760324
0.113598995 0.123972312 0.163441002
0.120935842 0.128779158 0.168247834
0.130044192 0.126754865 0.163314328
0.143200576 0.129791245 0.163314328
0.151928991 0.132827342 0.165844351
0.162681729 0.132826999 0.166097030
0.175585210 0.135104090 0.169133410
0.188361630 0.141809285 0.172169805
0.202024192 0.148007452 0.175205439
0.217204556 0.155850589 0.176344007
0.232384682 0.158886984 0.172549009
0.247818038 0.164706007 0.181151330
0.271727055 0.170777991 0.191397578
0.292852759 0.175838128 0.197722808
0.312713802 0.177735791 0.202277005
0.335863650 0.186843589 0.204807013
0.357115626 0.195951968 0.212396994
0.382289618 0.205059990 0.218468979
0.410626143 0.215560064 0.218595803
0.448070735 0.224668175 0.230740309
0.482352614 0.236432657 0.240353957
0.524098516 0.250348181 0.252498418
0.566476882 0.266793281 0.265528232
0.605945349 0.286906987 0.282100320
0.078431003 0.122580700 0.158507288
0.088298410 0.125869706 0.155471325
0.074003778 0.128020063 0.155091777
0.087160163 0.128526449 0.161923006
0.095129706 0.130423695 0.164199710
0.096900932 0.128652930 0.159139723
0.103352383 0.131435990 0.161543325
0.114104696 0.131435990 0.161796287
0.122453995 0.137507990 0.167868480
0.128525987 0.143579990 0.173940703
0.139152572 0.142567828 0.170019001
0.147375256 0.141935259 0.167995006
0.162555635 0.144971639 0.167995006
0.172675371 0.148260415 0.170777708
0.183428109 0.151043415 0.175205410
0.197216988 0.152561605 0.176597089
0.213915184 0.158633992 0.179633468
0.229348555 0.166982695 0.182669133
0.244528979 0.171030968 0.179632992
0.258064657 0.175205708 0.184187353
0.275901705 0.181277692 0.190006256
0.301202118 0.188361824 0.198102266
0.322454482 0.192916170 0.206451714
0.343706906 0.202023804 0.209487721
0.367615700 0.209487274 0.212396994
0.392789334 0.219987318 0.221252322
0.426185787 0.229854688 0.228336349
0.461479843 0.240101442 0.239342168
0.496900499 0.250221670 0.250474572
0.535736561 0.264136881 0.256419718
0.578621209 0.280202687 0.269449890
0.617330730 0.302972704 0.284630299
0.083744094 0.133207098 0.163061097
0.096647777 0.137001991 0.158507288
0.088678226 0.142441407 0.159139901
0.080329061 0.142947167 0.159645915
0.103858456 0.141429558 0.171789989
0.103478998 0.142568097 0.162682086
0.110816091 0.143074095 0.161923006
0.119417988 0.148134008 0.167868480
0.130044177 0.148893088 0.170145184
0.136116192 0.154965088 0.176217958
0.148766637 0.156736091 0.175079122
0.156863093 0.157495201 0.174826086
0.164073631 0.157874733 0.174066991
0.179254025 0.160911053 0.174066991
0.189373776 0.166476995 0.179126993
0.204047889 0.169260010 0.181151092
0.219228283 0.172296003 0.182669088
0.241113067 0.177735582 0.186970457
0.256673008 0.183681101 0.190259129
0.269070208 0.187729359 0.193295449
0.285009474 0.192662999 0.196331352
0.303479016 0.198988020 0.199620262
0.324857891 0.208096415 0.205566481
0.346742898 0.217204198 0.211005911
0.372549266 0.224794194 0.216318801
0.402656615 0.232890412 0.222011223
0.435547143 0.245035082 0.234155893
0.468690515 0.257179081 0.243516535
0.503225684 0.266666919 0.253004551
0.546995282 0.278558165 0.263630748
0.584693193 0.296901077 0.269449651
0.621125996 0.315117091 0.284630090
0.104996487 0.148387492 0.172169477
0.101960875 0.145351112 0.163061097
0.099810235 0.151296780 0.164958522
0.102087006 0.155091822 0.165717512
0.112966076 0.153573573 0.162681624
0.109930463 0.162681937 0.174826384
0.122201316 0.153700501 0.168248177
0.133712769 0.153826788 0.169639722
0.142188191 0.161037117 0.176217958
0.148260981 0.164073497 0.176217958
0.163061097 0.170145497 0.179380119
0.172043040 0.173940763 0.182163253
0.178115502 0.175711975 0.182795838
0.185326040 0.176091462 0.180138990
0.200506419 0.179127082 0.180138990
0.217836976 0.184693009 0.182795808
0.231372699 0.190512002 0.185705304
0.244149476 0.195951596 0.190006092
0.268437535 0.198987991 0.199114487
0.281214714 0.204933524 0.202403843
0.297153950 0.210878998 0.205439746
0.315369964 0.216950998 0.208475620
0.333965510 0.223276034 0.211638480
0.358254343 0.232384443 0.214674085
0.384693265 0.241492778 0.222390801
0.414800614 0.250474632 0.229854479
0.447691143 0.260215461 0.237191528
0.478051901 0.272359461 0.249335498
0.508539081 0.281847298 0.253383845
0.555091500 0.292726427 0.265654445
0.602403164 0.309424549 0.281467199
0.627197981 0.336369485 0.293738484
0.114610866 0.166476995 0.181277871
0.111574516 0.163440600 0.172169477
0.110689126 0.162554994 0.169512868
0.112207323 0.169386283 0.177862018
0.120303743 0.172928408 0.182542741
0.124857806 0.171916798 0.174446866
0.129411861 0.178494871 0.181530997
0.140164703 0.176850155 0.179253876
0.149272650 0.182668865 0.183807999
0.157495111 0.187855482 0.188108996
0.169386864 0.185072869 0.185199112
0.184566468 0.189120606 0.186210990
0.195572421 0.191018134 0.186084762
0.205945909 0.191271171 0.183807865
0.221126273 0.194307446 0.189120874
0.231499061 0.197343677 0.191524073
0.245161369 0.204427540 0.197596326
0.256926268 0.211258456 0.202782869
0.274383038 0.214294851 0.205059975
0.293105721 0.220113873 0.208602369
0.311195731 0.226185873 0.213535994
0.330423862 0.231245995 0.217583731
0.348766357 0.235547215 0.220493123
0.370271802 0.244654894 0.220746100
0.399114549 0.251486570 0.228336275
0.425679833 0.261353850 0.238835961
0.454016149 0.272992074 0.247944117
0.484376878 0.287539840 0.255281717
0.522706747 0.297027022 0.262112737
0.562681675 0.309677303 0.276028007
0.608728409 0.325616568 0.291840732
0.639088988 0.348892987 0.299937010
0.123719253 0.182669252 0.186337739
0.120682865 0.185705110 0.181277856
0.121821508 0.186843753 0.184692994
0.125616342 0.185578585 0.182163000
0.132068276 0.190891802 0.190512285
0.136495993 0.191145182 0.186590984
0.140544251 0.193674996 0.183554739
0.148260534 0.196457997 0.187982455
0.158127919 0.199114352 0.188362002
0.168501034 0.203921512 0.191903993
0.180518731 0.205312863 0.195319384
0.190639243 0.208348989 0.194307253
0.205818862 0.211384892 0.195445895
0.218595773 0.212776497 0.194434255
0.230234146 0.217583656 0.196964249
0.248703435 0.218595803 0.202656716
0.257811457 0.221632183 0.207210511
0.270082533 0.228462920 0.213915259
0.285262585 0.231498972 0.213915259
0.303225696 0.237317994 0.214674354
0.319544733 0.243390456 0.217710257
0.341556013 0.248450369 0.222643867
0.362048984 0.251612961 0.225806251
0.385199159 0.258823365 0.229601249
0.409234792 0.271726549 0.234408289
0.438203871 0.277798980 0.246299654
0.464642584 0.288677990 0.259076238
0.496521145 0.302340150 0.268184632
0.532827258 0.314231634 0.272233009
0.572295606 0.326881677 0.280076206
0.615559816 0.343833089 0.299430966
0.651233494 0.365085512 0.310056984
0.136242986 0.204680637 0.191650644
0.135483891 0.208475634 0.189753383
0.136748761 0.212397411 0.193042517
0.140038118 0.215180472 0.196963653
0.148766279 0.212144181 0.191650644
0.152561575 0.213662580 0.193927944
0.155597955 0.215559959 0.193042323
0.163061559 0.218089640 0.193295360
0.172928289 0.220366731 0.197849542
0.185072973 0.224162132 0.198987991
0.197216988 0.226059407 0.201391637
0.207337245 0.229980901 0.205692634
0.218722641 0.234914273 0.205692634
0.233396322 0.237950668 0.208475992
0.242504701 0.243137285 0.208475992
0.260088444 0.246679276 0.213282987
0.277545810 0.248197183 0.219355002
0.287919194 0.251233578 0.224161997
0.303099632 0.254269332 0.224161997
0.321062654 0.260088295 0.225300640
0.339658350 0.265022099 0.227197900
0.355850875 0.271094620 0.231245637
0.379885912 0.274383277 0.234281987
0.404174447 0.280455261 0.238329992
0.427324563 0.291081548 0.244402289
0.453004628 0.303225636 0.252371669
0.481341064 0.310309768 0.266540080
0.514737427 0.322453916 0.278051645
0.553067565 0.336875290 0.285641849
0.591271400 0.350790799 0.295635849
0.628968835 0.368627578 0.308286220
0.667932034 0.390132993 0.326755285
0.155218035 0.236812055 0.200759038
0.157242432 0.237065032 0.201012000
0.160531282 0.238962770 0.203668773
0.163314208 0.241998911 0.203162834
0.167236030 0.244781539 0.201517999
0.173308030 0.241745934 0.201517999
0.176344275 0.240987033 0.201265037
0.184060991 0.243137315 0.202403679
0.196458042 0.246679127 0.206451938
0.208602056 0.255787522 0.215559542
0.220493048 0.256673038 0.213788867
0.231119305 0.258444279 0.216318995
0.242504641 0.261986405 0.220619991
0.257179052 0.265022010 0.221125990
0.266287416 0.268058419 0.221125990
0.282353014 0.273245037 0.225426987
0.299051195 0.277798831 0.230992988
0.313725531 0.281087577 0.235799998
0.328905970 0.284123987 0.235799998
0.347122014 0.289690048 0.239089355
0.367235720 0.293864757 0.242378294
0.387476236 0.297913015 0.246173069
0.406072468 0.304111511 0.252118528
0.430487037 0.310310006 0.252245009
0.453257322 0.318912297 0.257052571
0.477545649 0.328273356 0.264516383
0.505376101 0.337634146 0.273624092
0.538772464 0.349778920 0.282732457
0.579126596 0.366983026 0.294497043
0.620113611 0.383428156 0.310436428
0.657811582 0.401011974 0.328779578
0.691208005 0.425300032 0.350032002
0.182542384 0.255028814 0.209867418
0.173434764 0.258064419 0.212903023
0.177609399 0.258317381 0.219607756
0.180518821 0.260215133 0.217330828
0.182669401 0.263251275 0.208095998
0.194560409 0.266033918 0.219733983
0.193042070 0.262998313 0.217204303
0.197849274 0.267172694 0.214800686
0.209108084 0.271979481 0.214547664
0.223782405 0.270967901 0.218595922
0.233017281 0.277166426 0.224794403
0.246806070 0.277925402 0.224920988
0.260721147 0.281973630 0.228462994
0.275395006 0.289310753 0.233269989
0.284503371 0.292346388 0.239341974
0.298418760 0.295382798 0.239341974
0.314231604 0.299051195 0.240606993
0.328146845 0.302719384 0.241871998
0.338013560 0.308411956 0.241872013
0.358759969 0.311448336 0.250221342
0.379379719 0.315117121 0.256166995
0.399620235 0.319165379 0.260594517
0.418216467 0.325363874 0.264263302
0.445540905 0.334471494 0.267298907
0.474509954 0.345224559 0.274256706
0.502972782 0.356736362 0.282732636
0.532194436 0.367741883 0.291840732
0.560024798 0.377103299 0.300948411
0.590764999 0.391904205 0.312713623
0.630739748 0.407716542 0.330170989
0.669955611 0.424667567 0.348134369
0.703351974 0.446552396 0.362176001
0.195445806 0.278051972 0.216571987
0.188741371 0.283491373 0.219607607
0.192536756 0.282226533 0.220492989
0.198861793 0.284503579 0.225047186
0.201138794 0.287539780 0.217836544
0.205186799 0.284503669 0.223908812
0.216698274 0.289690107 0.225806311
0.216951311 0.289943069 0.226059705
0.224541500 0.296014875 0.226059496
0.236432493 0.296268255 0.229095474
0.248197660 0.301960796 0.235040992
0.257305533 0.303984791 0.235041246
0.270588458 0.305123419 0.236938804
0.284503579 0.311195731 0.242504805
0.297912389 0.314231336 0.244275808
0.316634774 0.317267597 0.247943997
0.328779161 0.321821779 0.249462187
0.342820942 0.325110584 0.251612782
0.357241839 0.327640623 0.255154788
0.377482176 0.333333135 0.261100352
0.400632262 0.340164542 0.268310994
0.421378583 0.345224768 0.273371130
0.439721465 0.351296782 0.276533991
0.462491900 0.358127683 0.281846881
0.492093563 0.364958584 0.289437085
0.522454262 0.376849949 0.297153771
0.552308619 0.388994128 0.305250049
0.579632998 0.400000215 0.314358115
0.609614193 0.412017792 0.328525841
0.641745687 0.434282124 0.345983356
0.679696381 0.451992184 0.363693774
0.713092804 0.470208585 0.374319971
0.206071988 0.303858191 0.225679994
0.206071988 0.312966168 0.231751993
0.209234953 0.309550941 0.231119186
0.214548185 0.307780176 0.231119186
0.220873192 0.313346207 0.230360180
0.225427181 0.311828166 0.229980931
0.229475185 0.311321974 0.233522996
0.241239697 0.317267478 0.233649522
0.245034978 0.319544196 0.236685902
0.253383696 0.321821481 0.239721715
0.263883740 0.326249182 0.241113007
0.274004102 0.329791397 0.245667055
0.285388738 0.330929756 0.244908437
0.298165798 0.333966017 0.250095010
0.313345730 0.337001950 0.250095010
0.328779191 0.341556013 0.255534589
0.348513365 0.346110195 0.261606157
0.358886749 0.351549774 0.264009982
0.376217395 0.352435380 0.268310964
0.397216767 0.356483191 0.272865176
0.418848634 0.364452928 0.278937191
0.440101326 0.372549176 0.285009176
0.458190858 0.378621191 0.288677990
0.482226282 0.384693176 0.294749975
0.508791745 0.392283350 0.303099275
0.536369145 0.398355365 0.313598961
0.566476941 0.410246372 0.320430040
0.594813406 0.422390878 0.329538405
0.624794602 0.437571377 0.343959540
0.653890133 0.452498525 0.358127356
0.688172221 0.477166355 0.382036388
0.722201228 0.492979199 0.395572364
0.220113561 0.331815124 0.236559004
0.226818129 0.341429144 0.247564957
0.230992943 0.340417325 0.246805802
0.235800549 0.336369544 0.245034575
0.236938998 0.335610539 0.245793581
0.248829976 0.340670556 0.240733549
0.251486570 0.341049790 0.242884144
0.256799549 0.341682136 0.246299565
0.268690556 0.346868724 0.247058660
0.274762571 0.346868724 0.250095069
0.284376830 0.349146008 0.248576686
0.293485254 0.352814794 0.250347555
0.304870486 0.355218500 0.255913615
0.319544166 0.358507156 0.258696973
0.333965540 0.361922950 0.258696973
0.348007560 0.366729945 0.265907764
0.363188118 0.372802138 0.273750961
0.380771548 0.378241539 0.280961156
0.395951986 0.381277949 0.280961156
0.415433347 0.384946167 0.284376919
0.436053306 0.391144723 0.289942980
0.457179129 0.399241120 0.296015143
0.472485989 0.405313134 0.301707625
0.498292476 0.411385119 0.306261569
0.524984241 0.420366824 0.315875858
0.553447068 0.428716123 0.327008128
0.578747272 0.436306208 0.339152128
0.609107971 0.448576689 0.348386973
0.638203621 0.464136630 0.361543387
0.667425692 0.481847137 0.376217514
0.694876611 0.496647954 0.389247179
0.731309414 0.514863968 0.419607997
0.241366029 0.362176001 0.242631063
0.250474423 0.362176001 0.260847807
0.250727206 0.363187999 0.258950233
0.252245396 0.364959031 0.254143000
0.258191466 0.369007021 0.254902005
0.267299086 0.362935036 0.260973990
0.271600366 0.367995024 0.258444309
0.276028007 0.370018989 0.259456247
0.284124017 0.371284097 0.262239099
0.296015024 0.374193966 0.265275478
0.307906032 0.374193966 0.268311143
0.317773312 0.378495008 0.268817008
0.329158694 0.382037014 0.271600008
0.343832999 0.382796019 0.276913017
0.352941394 0.388868004 0.276913017
0.369765967 0.392283201 0.284123808
0.387476444 0.397090435 0.290196210
0.405060410 0.402530402 0.293105960
0.420240074 0.405566037 0.293105960
0.435420424 0.411385059 0.298671961
0.453004509 0.417204022 0.306388259
0.473498046 0.423529327 0.314231277
0.496774077 0.429601997 0.319924444
0.514990866 0.435673982 0.316888094
0.538520038 0.446300000 0.328273296
0.568627357 0.456799656 0.342947662
0.603036165 0.466667056 0.357368946
0.633396804 0.481847376 0.369512945
0.658443928 0.491461098 0.378747821
0.686780393 0.508412182 0.393674940
0.715116978 0.526502013 0.408728600
0.740417123 0.539152086 0.419608057
0.290449083 0.412018090 0.282099724
0.291208118 0.412018090 0.283617795
0.293864727 0.412018090 0.288931012
0.293990940 0.412018090 0.285515368
0.298165590 0.414674550 0.285894930
0.302466810 0.415812761 0.289563745
0.309044749 0.412271082 0.290575743
0.313978374 0.415939391 0.287792683
0.320809484 0.417836845 0.289310366
0.330929726 0.420873225 0.294370502
0.345857114 0.423782378 0.289057493
0.353953093 0.421758652 0.290069371
0.363440752 0.424415082 0.292346388
0.376976401 0.426312387 0.298418403
0.391144782 0.429854721 0.303478360
0.407463998 0.435926735 0.308285981
0.424161881 0.437824100 0.315496713
0.440480590 0.440733969 0.320430368
0.455660820 0.443770140 0.324731380
0.473624468 0.452371716 0.330297351
0.488804340 0.454648733 0.332574368
0.508159280 0.459961891 0.338013709
0.532321215 0.467805386 0.344339013
0.553194165 0.473877400 0.354585499
0.573687673 0.482226670 0.360657662
0.598861396 0.492473036 0.372043014
0.629095495 0.502087116 0.384440422
0.654902220 0.514990807 0.398861736
0.682606161 0.530171216 0.411005735
0.712333858 0.543073833 0.423782557
0.743706524 0.564073205 0.441872329
0.771790087 0.585705459 0.458570749
0.319291741 0.442757994 0.303731740
0.323086739 0.446552992 0.307526737
0.326881707 0.446552992 0.305628985
0.325616539 0.447818160 0.303098977
0.328905284 0.448450714 0.304870069
0.338013649 0.449968547 0.318532646
0.343579739 0.451739311 0.309551001
0.349652171 0.450347990 0.314484715
0.357242197 0.453889698 0.312460363
0.367488950 0.458064467 0.315116733
0.376723588 0.461100578 0.315243453
0.389626741 0.460088253 0.315116704
0.396837384 0.459329635 0.317393720
0.408475488 0.462365478 0.322959721
0.423655868 0.465401888 0.325742751
0.439342320 0.468943715 0.331815362
0.457558692 0.473497897 0.339405537
0.471853048 0.475142449 0.344591975
0.484503448 0.479443699 0.348134011
0.500569463 0.484250396 0.354205996
0.520683467 0.489563465 0.358380735
0.537887335 0.490575314 0.360404730
0.561163962 0.497912467 0.366729707
0.582416356 0.505755723 0.378873736
0.603668749 0.514105022 0.386843741
