Assets/EldamarStudio/100 Retro LUTs Pack/LUTs/cube/Bonnie LUT.cube
LUT_3D_SIZE 5
DOMAIN_MIN 0.000000 0.000000 0.000000
DOMAIN_MAX 0.903226 0.903226 0.903226
0.035294000 0.070588000 0.137254998
0.081087992 0.086274996 0.146742716
0.142567992 0.098039001 0.153573588
0.256167114 0.141176000 0.177482858
0.463250905 0.202782974 0.217077985
0.078431003 0.122580700 0.158507288
0.114104696 0.131435990 0.161796287
0.183428109 0.151043415 0.175205410
0.301202118 0.188361824 0.198102266
0.496900499 0.250221670 0.250474572
0.182542384 0.255028814 0.209867418
0.197849274 0.267172694 0.214800686
0.284503371 0.292346388 0.239341974
0.399620235 0.319165379 0.260594517
0.590764999 0.391904205 0.312713623
0.341556251 0.468058109 0.314864129
0.382036448 0.481720120 0.327640861
0.454016656 0.496774524 0.349272251
0.563188255 0.521948218 0.381657124
0.722833633 0.593295276 0.455913961
0.664642572 0.742947459 0.565211594
0.683111548 0.750790775 0.574572682
0.717520356 0.760658026 0.592030168
0.789373636 0.778241754 0.617963254
0.863250911 0.805692792 0.673750758
0.049335711 0.072865292 0.159139723
0.083364703 0.089563996 0.171916410
0.155344695 0.113092579 0.184060693
0.284123689 0.155977130 0.212523982
0.471220732 0.210246861 0.262871653
0.081087992 0.128146991 0.179759994
0.117393695 0.135989979 0.187982693
0.194560274 0.159898683 0.204301134
0.309044689 0.199114695 0.233396575
0.506767690 0.253130823 0.284503579
0.181150988 0.254016250 0.239595294
0.204680830 0.270081967 0.245161414
0.283491701 0.287413090 0.261227131
0.400632530 0.317141384 0.290322810
0.592788994 0.392915875 0.345477194
0.350284398 0.466666669 0.348260701
0.382669270 0.474256843 0.363693982
0.451739371 0.493485361 0.376723409
0.562555671 0.521568418 0.410373122
0.719544351 0.591017962 0.482226402
0.661100447 0.741049767 0.578620851
0.682858586 0.745350838 0.583807647
0.719165087 0.755723834 0.605439305
0.785199106 0.775711596 0.634914279
0.858064413 0.805439413 0.680328786
0.073244996 0.086274996 0.221631572
0.103984572 0.093484998 0.235420406
0.185072407 0.119671412 0.257684976
0.302213818 0.162175581 0.283491701
0.493358761 0.216445401 0.349272639
0.102972709 0.135357410 0.255028397
0.139278993 0.143200412 0.261227101
0.219101816 0.166730002 0.280835122
0.331309080 0.204680413 0.309297830
0.518532515 0.264262974 0.371537209
0.181783825 0.266792983 0.316508800
0.215812400 0.274003386 0.324984401
0.300189376 0.292978972 0.347880960
0.421631932 0.323466092 0.377735525
0.605818748 0.392536610 0.436306238
0.359139979 0.475268960 0.433902532
0.394433826 0.478431284 0.441113114
0.461227208 0.492852539 0.453889817
0.568753958 0.524224997 0.485009104
0.728652656 0.592662692 0.547501206
0.660720587 0.728525758 0.616698384
0.670461774 0.744591892 0.628336310
0.714231610 0.754079342 0.647564769
0.779886127 0.774699330 0.673118472
0.860594630 0.806451201 0.726881862
0.116761126 0.088298991 0.364073128
0.149145827 0.099303998 0.374826252
0.237444818 0.124224991 0.395445704
0.362049133 0.162808001 0.430740118
0.527260780 0.228336647 0.489057928
0.131435558 0.149398699 0.396331251
0.171663284 0.149398714 0.400885403
0.253130972 0.174952269 0.424794525
0.379759729 0.208601981 0.456799537
0.556989253 0.275774926 0.517393827
0.198482126 0.271094143 0.459076256
0.236432686 0.284883082 0.472232819
0.325743377 0.300569087 0.485641658
0.449082524 0.336875409 0.508918226
0.619101882 0.397723198 0.563820243
0.393548369 0.477799118 0.563188255
0.423529118 0.486907125 0.565717995
0.478810817 0.499683797 0.575205564
0.588741183 0.527893245 0.601391435
0.739404917 0.589626908 0.638077080
0.655534446 0.738899291 0.728905916
0.670208752 0.743326843 0.724984109
0.704743803 0.753826499 0.723972201
0.780898094 0.779379725 0.741555750
0.863250971 0.817963421 0.782922149
0.159519166 0.098039001 0.599240780
0.200126410 0.107526705 0.610373139
0.293738395 0.132194817 0.622138023
0.421884805 0.179253832 0.647185504
0.580897927 0.257811785 0.685515404
0.174320102 0.161543563 0.617836893
0.210625812 0.171663538 0.620113611
0.309677243 0.189626992 0.640354156
0.443516821 0.233522981 0.662997901
0.596584618 0.313472807 0.697912574
0.241998821 0.298924565 0.665780723
0.276787043 0.300189793 0.664895475
0.366983235 0.325742960 0.678937674
0.501454890 0.365338087 0.698165417
0.654142618 0.430486768 0.728020132
0.483238518 0.533206761 0.741302907
0.498671770 0.534851193 0.737507880
0.539405346 0.540038109 0.744971216
0.622011244 0.557368815 0.756609619
0.751169920 0.607716799 0.786464095
0.693358719 0.752308547 0.816192627
0.708159447 0.757495463 0.824035585
0.741176128 0.768627167 0.839848399
0.799240649 0.799999535 0.849588573
0.889436722 0.846426547 0.888298392
