Assets/EldamarStudio/100 Retro LUTs Pack/LUTs/cube/Bruce LUT.cube
LUT_3D_SIZE 5
DOMAIN_MIN 0.000000 0.000000 0.000000
DOMAIN_MAX 0.903226 0.903226 0.903226
0.101961002 0.098039001 0.082353003
0.186337993 0.123213284 0.109803997
0.385831803 0.122201420 0.103226006
0.650348127 0.155977130 0.146110132
0.895888746 0.246046796 0.210752785
0.139911413 0.184693277 0.113092996
0.192915976 0.183680996 0.113092996
0.369133115 0.215433702 0.117647000
0.636685550 0.265781134 0.148766711
0.892978847 0.332953811 0.223149955
0.190891996 0.355723977 0.139278576
0.247185409 0.364579111 0.144845128
0.380644798 0.361669391 0.147122413
0.621631980 0.420493394 0.169006705
0.873624623 0.502339959 0.253257364
0.327640980 0.620999396 0.201138124
0.382921964 0.626818359 0.216571838
0.503225923 0.625553548 0.225300536
0.661100268 0.627830267 0.225679994
0.875901461 0.683744252 0.319038510
0.565211594 0.871094584 0.434408605
0.596584618 0.883111894 0.442251772
0.666413307 0.884123743 0.447564781
0.780518889 0.885388911 0.454016626
0.916887760 0.893231928 0.480328590
0.135610282 0.133332998 0.166729987
0.188614711 0.133332998 0.155598000
0.305755675 0.152308583 0.173940405
0.541808546 0.211511716 0.232763991
0.843390048 0.301960528 0.307779849
0.155597985 0.163440987 0.143832982
0.189626977 0.191903695 0.161796287
0.290702075 0.207590118 0.185072824
0.543200135 0.260594726 0.231498823
0.836432755 0.365338355 0.311068833
0.211511701 0.306641400 0.193168715
0.250094682 0.310309678 0.199747115
0.341050088 0.322074682 0.204680830
0.562175632 0.394686699 0.246300116
0.841619194 0.501074910 0.335357100
0.343073696 0.582416117 0.280328721
0.390891910 0.589626551 0.289689988
0.490828663 0.589626729 0.291081846
0.634029150 0.595572531 0.291840822
0.851739287 0.676786780 0.380392104
0.587729514 0.867805183 0.473877490
0.611385345 0.873244703 0.483491451
0.678178370 0.874003887 0.486400902
0.778620958 0.876660466 0.491967052
0.905755758 0.883870721 0.513598800
0.177861989 0.144465417 0.349145979
0.254016697 0.155977115 0.327008396
0.342694819 0.170651406 0.288425386
0.544844866 0.220746532 0.325110376
0.805060148 0.342820942 0.418595821
0.205945417 0.225932688 0.267805099
0.239341974 0.225933105 0.266540110
0.318153113 0.228842407 0.257685393
0.513472438 0.286780298 0.321442097
0.781530619 0.409867078 0.427450925
0.251106977 0.311954409 0.272738397
0.296900392 0.318153113 0.285768390
0.428336382 0.396964222 0.347248405
0.529411972 0.410752803 0.356103688
0.787476420 0.527260840 0.455281615
0.403035820 0.544212639 0.389879644
0.443390399 0.550410926 0.393042415
0.501328111 0.556609690 0.396710515
0.603668690 0.570019126 0.404554248
0.815180302 0.673371077 0.495888799
0.631246090 0.844276011 0.550031364
0.658317506 0.847564578 0.566097438
0.705123663 0.855407596 0.569133580
0.783174932 0.860594749 0.576976240
0.901201725 0.870462000 0.587476432
0.292346984 0.219861001 0.573940396
0.365970701 0.231498986 0.566982806
0.493485093 0.245287985 0.548007667
0.631752253 0.268817246 0.516129255
0.813662589 0.365844607 0.550158024
0.328779131 0.321821392 0.520303369
0.380771846 0.329285115 0.522327363
0.481720269 0.329664409 0.504237831
0.593168974 0.335231125 0.486527413
0.801391482 0.433523178 0.544844806
0.380265713 0.439848125 0.482099831
0.422264546 0.444781780 0.482479542
0.497406930 0.454269111 0.476534098
0.585325778 0.459456265 0.474510133
0.785831749 0.554712057 0.558253884
0.445414275 0.561163962 0.484756231
0.480329126 0.563441098 0.487286687
0.559772372 0.584313929 0.499683797
0.696394980 0.653257251 0.566982985
0.812903166 0.701075256 0.608855247
0.655787289 0.837444603 0.642884254
0.683870733 0.838456750 0.645920098
0.736748815 0.840733886 0.661480069
0.803795218 0.847311854 0.666792929
0.890701890 0.864895582 0.680455625
0.495888770 0.417583585 0.785957992
0.534724534 0.422770441 0.784313679
0.633143604 0.436432332 0.772296190
0.763061404 0.465275168 0.766097307
0.885388911 0.496014893 0.741555810
0.542314768 0.500442624 0.768627703
0.574699461 0.506388187 0.763187766
0.652371883 0.515622735 0.761543334
0.759898663 0.523718894 0.747754514
0.876660407 0.538393438 0.740670323
0.606957734 0.626565635 0.740923226
0.632131517 0.633143187 0.738899410
0.685388803 0.633776248 0.737634599
0.761543334 0.632764101 0.734092414
0.861985803 0.635167181 0.728020191
0.644908488 0.734724760 0.728272915
0.666413784 0.738140166 0.738899291
0.713219345 0.741682410 0.732194841
0.780771613 0.741302907 0.723339736
0.860341430 0.751928926 0.733206749
0.692093611 0.855407596 0.740290642
0.710309744 0.861985743 0.741935372
0.757368743 0.854775190 0.742947578
0.826565742 0.858317435 0.745224416
0.920556784 0.895888686 0.774193585
