Assets/EldamarStudio/100 Retro LUTs Pack/LUTs/cube/Bruce LUT.cube
DOMAIN_MIN 0 0 0
DOMAIN_MAX 1 1 1
LUT_3D_SIZE 32
0.101961002 0.098039001 0.082353003
0.101961002 0.098039001 0.082353003
0.104111224 0.100189775 0.084503770
0.113472320 0.104491003 0.088804998
0.131688997 0.110942543 0.095635995
0.149904996 0.120050937 0.107779995
0.168121636 0.121569000 0.109803997
0.186337993 0.123213284 0.109803997
0.205313101 0.126249090 0.110562898
0.226565495 0.129285485 0.113598518
0.259455860 0.123593003 0.110815868
0.290828496 0.121569000 0.111827739
0.322327644 0.122707352 0.112586647
0.355471075 0.125237033 0.109297998
0.385831803 0.122201420 0.103226006
0.423402756 0.123972185 0.106767997
0.461353362 0.128525987 0.114358187
0.498418540 0.134597987 0.122201420
0.537887037 0.140670002 0.125237048
0.571790099 0.143959358 0.133839354
0.610879481 0.148892999 0.141049996
0.650348127 0.155977130 0.146110132
0.683997512 0.165211990 0.149146482
0.723465919 0.177356005 0.152182102
0.758380830 0.187223285 0.162048995
0.793168962 0.197722986 0.172801659
0.829095185 0.210373074 0.181910068
0.862492323 0.225553438 0.191018447
0.895888746 0.246046796 0.210752785
0.932827115 0.265527934 0.230233938
0.966982603 0.286400557 0.248450205
0.988234997 0.313724995 0.266667008
0.101961002 0.098039001 0.088424996
0.098924614 0.101075388 0.082353003
0.109677389 0.103225611 0.084503770
0.118785545 0.107526615 0.091334999
0.131309539 0.114357702 0.101707995
0.146869376 0.126122937 0.113851994
0.162555054 0.125110671 0.105756000
0.183554634 0.126249313 0.108665287
0.205313101 0.128526390 0.112839609
0.226565495 0.129285485 0.113598518
0.256546736 0.135230988 0.116634868
0.285768658 0.131688744 0.111827999
0.316255629 0.129538253 0.108412392
0.350158036 0.128779352 0.104238003
0.388867408 0.131309032 0.109298006
0.421631992 0.133080408 0.110436186
0.458317757 0.137634382 0.114357799
0.495382905 0.143073976 0.120430179
0.534851372 0.146742791 0.128273427
0.577103138 0.152814776 0.128526390
0.609361410 0.158001393 0.136875257
0.645287991 0.164073393 0.144085869
0.680961072 0.171410486 0.149399474
0.720430315 0.186464399 0.158254102
0.757621944 0.194054395 0.163566992
0.791777611 0.206577972 0.172801659
0.825553477 0.222011119 0.182415992
0.856420338 0.234661832 0.194054067
0.895129740 0.247185364 0.211132258
0.927514374 0.272612363 0.224921197
0.961416960 0.295888752 0.241113335
0.991271377 0.316761404 0.263630599
0.110563003 0.106641002 0.094497003
0.107526615 0.109677389 0.092726000
0.117393777 0.108412229 0.090954997
0.123718999 0.115243323 0.095256224
0.130676761 0.121947996 0.104111224
0.152941167 0.125237092 0.109171219
0.163820446 0.133333445 0.116129003
0.182289466 0.133586049 0.108918294
0.206072196 0.135863230 0.112966098
0.228716269 0.135863230 0.111574769
0.254395962 0.139531985 0.114484094
0.288804740 0.139531732 0.115496226
0.319924265 0.137633994 0.111954227
0.353826791 0.136116266 0.108159259
0.385705143 0.139152348 0.108538993
0.422517389 0.144338816 0.114357963
0.455914170 0.148892999 0.115875773
0.492346734 0.154332593 0.118911989
0.531815231 0.157368988 0.126502186
0.569765985 0.163188010 0.129411995
0.606577933 0.167362735 0.133206993
0.640227795 0.174193650 0.142061904
0.677925229 0.181530505 0.149272993
0.717393935 0.192662910 0.156356886
0.754585803 0.205312997 0.165337995
0.791018546 0.212776661 0.174193323
0.824668109 0.228209838 0.184566766
0.855028868 0.241998881 0.196710765
0.889057815 0.251992732 0.207716644
0.928526103 0.274762690 0.225932941
0.960025430 0.302466810 0.242378399
0.992156982 0.321947992 0.269196779
0.118912160 0.120050162 0.098039001
0.114610612 0.123086542 0.098039001
0.120682940 0.121821389 0.098039001
0.135863006 0.118785322 0.099304162
0.131309092 0.130171001 0.104617156
0.152435109 0.129791215 0.104617156
0.170904309 0.135610312 0.113472320
0.185325861 0.142694443 0.117267452
0.207337171 0.145730257 0.115749255
0.231625825 0.146236330 0.113725640
0.255914152 0.147881031 0.112713128
0.284503490 0.149398893 0.113724999
0.318658978 0.147501156 0.110309646
0.354585767 0.147754192 0.110183135
0.383934379 0.150790572 0.109171256
0.417204440 0.154964998 0.113345832
0.454649001 0.161037311 0.116381839
0.488677949 0.167741731 0.118911982
0.527514040 0.172042981 0.126249164
0.562934577 0.176597163 0.128273353
0.599999845 0.182036728 0.133206993
0.634408414 0.186084986 0.138266861
0.673624516 0.194939658 0.146869183
0.713092923 0.204048067 0.154079840
0.749019384 0.212903157 0.162428856
0.786717296 0.223655820 0.172928154
0.823150098 0.233776227 0.186084956
0.855028868 0.248956606 0.199747160
0.886780620 0.262618810 0.211764663
0.922454119 0.279063910 0.223656118
0.959266186 0.305882186 0.240986750
0.989627004 0.326755166 0.269450009
0.121948451 0.135610089 0.098039001
0.117014319 0.137887388 0.098039001
0.119923994 0.137381315 0.098418549
0.128652930 0.134724706 0.099683613
0.143073544 0.131688997 0.102340452
0.149146318 0.137760997 0.102340452
0.169639543 0.143832996 0.111701451
0.189500317 0.149146006 0.116129003
0.209614545 0.154838547 0.117267549
0.233902559 0.157874942 0.120303929
0.258191168 0.158381000 0.116128802
0.284124255 0.159645736 0.113345549
0.312207550 0.162681550 0.110689096
0.342820585 0.162681550 0.102846451
0.376217693 0.165591419 0.106008574
0.410752803 0.169006735 0.110688992
0.445667207 0.173560828 0.114484094
0.484882563 0.180265948 0.116255142
0.521315396 0.189373583 0.128399938
0.555344403 0.193295360 0.130171001
0.592915654 0.197849542 0.133586451
0.631372690 0.203921542 0.139025956
0.667931914 0.210120052 0.142188087
0.707400382 0.219228446 0.151043460
0.743073821 0.226438999 0.160531282
0.777355909 0.233523205 0.170651525
0.816319048 0.243264064 0.183048576
0.852751791 0.258444428 0.201265335
0.884629905 0.275901496 0.216065675
0.918532312 0.293737948 0.229854405
0.952814579 0.311954200 0.243264034
0.983175457 0.330171019 0.258444458
0.124984063 0.153826877 0.098039001
0.128020450 0.150790483 0.098039001
0.133839086 0.153067768 0.100189775
0.141176388 0.153826877 0.102719776
0.149146318 0.152941391 0.105376065
0.158253938 0.149904996 0.105376065
0.174446702 0.155977011 0.110436067
0.188741222 0.158760011 0.109297782
0.203921422 0.161290005 0.105503000
0.230866954 0.166982546 0.111195549
0.255154908 0.170018926 0.117141061
0.279443562 0.168500736 0.113092937
0.305376619 0.171030641 0.109171294
0.333712965 0.177861929 0.105882064
0.367109299 0.177861929 0.111954063
0.407716662 0.183174998 0.112712994
0.441113204 0.188740924 0.116761386
0.472991526 0.195445642 0.121821858
0.512207031 0.204553992 0.128399953
0.548639774 0.210878938 0.134978011
0.588361502 0.214547724 0.138140261
0.628336310 0.219101921 0.142694324
0.664895535 0.225300431 0.148260862
0.704363942 0.234408841 0.154332876
0.743832886 0.243516624 0.165464938
0.775331914 0.250727326 0.175711662
0.804174244 0.258317918 0.185831934
0.840606987 0.270588428 0.198228940
0.877039731 0.285768807 0.208475888
0.912460327 0.301454633 0.222138122
0.946236551 0.318026185 0.237697974
0.974067092 0.336243004 0.255408078
0.130549997 0.169513315 0.105629317
0.131056070 0.169007242 0.105629317
0.140544221 0.172422633 0.109930322
0.147501484 0.173308149 0.112080999
0.152688235 0.172042996 0.113092773
0.161796391 0.171157375 0.110941999
0.170904636 0.170651317 0.108412318
0.190765694 0.175079033 0.111195318
0.206451744 0.175964639 0.109298088
0.230234459 0.178494647 0.117141321
0.252119303 0.184187189 0.113092676
0.278431565 0.187223062 0.117140934
0.307779968 0.188614607 0.114863999
0.339531749 0.195572644 0.113219291
0.370651364 0.195572644 0.112459995
0.408855379 0.205186635 0.120935798
0.448197305 0.211511627 0.119797513
0.480455101 0.217583627 0.122833990
0.518026292 0.224794298 0.128906012
0.559772015 0.231119335 0.134977996
0.596204758 0.239089057 0.141049996
0.635420561 0.244402319 0.144718453
0.671979785 0.250600815 0.149399474
0.711448193 0.259709239 0.157874689
0.748639822 0.266540319 0.166223958
0.787855625 0.274003625 0.178114980
0.818848491 0.281594068 0.188867807
0.851233184 0.295762300 0.201012313
0.887665927 0.310563147 0.218089819
0.918785453 0.325743496 0.234282166
0.952055573 0.344465524 0.252751589
0.982668996 0.367615640 0.272612333
0.139911413 0.184693277 0.113092996
0.138266698 0.186337993 0.109803997
0.140290827 0.187349990 0.110816002
0.154965281 0.189626828 0.119417995
0.159139544 0.186969995 0.119038448
0.163187936 0.186969995 0.110942066
0.177229598 0.186969995 0.112839609
0.192915976 0.183680996 0.113092996
0.210373282 0.188235372 0.112333901
0.227198079 0.190891996 0.117900066
0.250095159 0.196711004 0.119038671
0.272106558 0.202403441 0.114104547
0.301707923 0.205439344 0.116002291
0.337381035 0.211259022 0.116508357
0.369133115 0.215433702 0.117647000
0.405059963 0.221758693 0.117646806
0.444529146 0.232384488 0.126755178
0.481087685 0.238583133 0.125490412
0.517520249 0.244655430 0.130550295
0.557874799 0.254016429 0.134977996
0.598228753 0.258696735 0.142694712
0.636685550 0.265781134 0.148766711
0.674636245 0.271473676 0.152688473
0.715622902 0.282099873 0.161796093
0.754459262 0.288930982 0.167615280
0.790891647 0.296394646 0.180897966
0.828589141 0.303731710 0.194054067
0.858949840 0.317773402 0.207337171
0.892978847 0.332953811 0.223149955
0.925743103 0.349778891 0.239848167
0.954838574 0.366730303 0.261986196
0.988234997 0.392536700 0.283997715
0.148260906 0.199873090 0.118406095
0.148260698 0.202909485 0.113092996
0.145857096 0.203795090 0.111321993
0.151170000 0.202529922 0.112586901
0.168627098 0.201011643 0.124351457
0.167489037 0.202150196 0.112207159
0.180645093 0.199114203 0.112460189
0.198228702 0.198102102 0.116128802
0.217963085 0.194307178 0.118406095
0.224035099 0.203415573 0.115369715
0.246046647 0.208855003 0.118026555
0.269829363 0.214927197 0.118279584
0.294117719 0.220619738 0.114484094
0.327514112 0.224162057 0.114990093
0.360910475 0.233270302 0.121062733
0.397469610 0.241493091 0.120683193
0.432384372 0.247564897 0.123719186
0.473118484 0.256672651 0.130297422
0.509930134 0.262871951 0.133080035
0.549145997 0.273751080 0.138393447
0.588614821 0.281720340 0.143706635
0.626818240 0.284756243 0.150284901
0.669322968 0.288045615 0.156356901
0.711827755 0.299557179 0.164832100
0.752814770 0.308665186 0.173181370
0.790892065 0.316128850 0.181657061
0.827324212 0.325743198 0.198861092
0.858190954 0.337887168 0.213788435
0.888930798 0.352688015 0.228209898
0.925869405 0.367362320 0.245667174
0.954079688 0.386464506 0.262745112
0.987476110 0.407716900 0.287033916
0.145224512 0.215053499 0.121442482
0.154332906 0.218089893 0.118406095
0.152182490 0.218975499 0.117394000
0.152688339 0.217710331 0.116128840
0.162555099 0.216192052 0.115243077
0.174699873 0.225300431 0.124351442
0.186211482 0.216318995 0.122327805
0.198608488 0.212903276 0.121315971
0.211891085 0.215559587 0.121442482
0.227071494 0.218595982 0.121442482
0.244781479 0.221884623 0.115496226
0.269323260 0.227071524 0.116002284
0.296395123 0.233143985 0.117520481
0.324478507 0.239342451 0.118026488
0.357874870 0.248450041 0.124098472
0.396078259 0.259962112 0.125363514
0.429348201 0.267299294 0.129791185
0.460973740 0.271853060 0.136369422
0.506515026 0.280961454 0.133333042
0.546109855 0.289943337 0.144465715
0.585578740 0.299177736 0.150537744
0.623023629 0.306008607 0.152814522
0.657178938 0.309297979 0.153320506
0.699683785 0.318406373 0.159392521
0.742188573 0.329917967 0.174699575
0.781783819 0.340417624 0.189500466
0.818216622 0.350031972 0.201897487
0.854649365 0.362175971 0.214041471
0.880202472 0.376976788 0.226312652
0.920809507 0.388614714 0.245667398
0.962682068 0.401644081 0.268690586
0.984440506 0.422896504 0.290069520
0.148007870 0.236052871 0.118659131
0.151296526 0.239089265 0.121442482
0.164705902 0.233523101 0.120556869
0.166476995 0.235041156 0.120556869
0.171030864 0.238583192 0.118785650
0.183174998 0.237570927 0.115243062
0.195319772 0.241619319 0.121821776
0.207463861 0.237950876 0.119924292
0.219607875 0.239721641 0.119418226
0.232637495 0.242757469 0.121569000
0.250727743 0.239974856 0.118659124
0.270967990 0.243010461 0.118659124
0.296521634 0.248197407 0.121695220
0.324604988 0.254269868 0.123213023
0.360657513 0.260721326 0.121315867
0.391650707 0.272232741 0.129791051
0.429601550 0.282859206 0.129791200
0.465022266 0.289943159 0.134598553
0.506008983 0.299050957 0.145224780
0.543200731 0.305375993 0.147754386
0.584440351 0.318152845 0.155724123
0.624921143 0.327261001 0.159772128
0.662112474 0.330550373 0.161922872
0.696267962 0.339658767 0.167994872
0.736495972 0.348766565 0.174066871
0.774193645 0.360278308 0.186970115
0.809614182 0.370398879 0.200126261
0.848450124 0.377735853 0.217077851
0.884882867 0.392536670 0.234534830
0.913725376 0.407716602 0.247185543
0.951170325 0.420872450 0.266034454
0.978495002 0.438076854 0.287286878
0.153068006 0.259329498 0.121694997
0.160151601 0.262365371 0.124731377
0.161669508 0.258823484 0.123592734
0.173055053 0.254775405 0.122327894
0.176850259 0.261986256 0.122327998
0.192283243 0.263883561 0.122833639
0.202403635 0.259835571 0.118785642
0.216192693 0.262871534 0.124857992
0.228716254 0.263250977 0.122960158
0.240860268 0.265021771 0.123466216
0.258823484 0.264262855 0.122707129
0.277040243 0.263250977 0.123719245
0.297153980 0.266286910 0.123339996
0.322327763 0.271473974 0.124225222
0.356988937 0.277545989 0.128273159
0.390638858 0.290449232 0.126755446
0.424035251 0.301075429 0.137381256
0.462365597 0.310183644 0.137507990
0.500442743 0.319291264 0.145730719
0.539152741 0.327640504 0.153826907
0.575585008 0.333712488 0.153067529
0.616824925 0.347501248 0.159772128
0.656293511 0.353826493 0.164958999
0.693484902 0.362934887 0.171030998
0.729411542 0.372043192 0.179127261
0.767489016 0.379759490 0.186590567
0.802024126 0.390639007 0.199620068
0.839974642 0.399746984 0.219354615
0.872738361 0.411765069 0.231498957
0.907400310 0.423402995 0.249715418
0.938013971 0.438076824 0.265022576
0.968374491 0.453257263 0.286274999
0.164832637 0.290449262 0.126628637
0.170524895 0.292346537 0.128526390
0.176596642 0.291207939 0.129538223
0.177988306 0.286653817 0.127640501
0.184819981 0.289310634 0.124984354
0.201517984 0.293864638 0.129538357
0.212144315 0.294370621 0.127767354
0.225680053 0.290955216 0.124857992
0.242378443 0.293990821 0.131688893
0.255661011 0.294370264 0.130170509
0.272485614 0.293231934 0.128905639
0.289563507 0.292093277 0.128652617
0.307779968 0.292093277 0.131688982
0.326755106 0.295129657 0.125869960
0.358380675 0.300316304 0.131435573
0.392915756 0.312460423 0.135483801
0.426692247 0.325743169 0.135483995
0.461859256 0.334218979 0.144465432
0.497280002 0.342820644 0.143959373
0.537634432 0.351928979 0.151170358
0.576344252 0.362555265 0.158380911
0.613788366 0.369639426 0.158380643
0.653257489 0.381530404 0.167362511
0.692725897 0.390638560 0.174446642
0.728779197 0.399746925 0.183934286
0.767488956 0.408602268 0.194180936
0.802403688 0.415180355 0.203288704
0.836938858 0.426691920 0.222011074
0.869196594 0.439974636 0.236052811
0.901327908 0.452625036 0.251612753
0.936496139 0.462618232 0.273371547
0.967615306 0.477545619 0.295383006
0.184819996 0.331436008 0.130170956
0.184819996 0.331436008 0.130170956
0.191524267 0.331436008 0.132321253
0.198861167 0.330423862 0.133838996
0.202530056 0.328273028 0.133838996
0.214674056 0.328273028 0.133838996
0.224288315 0.333080053 0.134851068
0.237824038 0.334218711 0.132194713
0.257052124 0.332447946 0.130929932
0.278304517 0.335483551 0.140037552
0.293990850 0.332953900 0.138266876
0.309171259 0.330423802 0.135483772
0.325490057 0.328526050 0.134724602
0.344212085 0.328273028 0.138014019
0.371537209 0.331309438 0.134977639
0.404806972 0.340543985 0.140290767
0.439974546 0.352688044 0.145603999
0.473244995 0.363567054 0.145477489
0.503605127 0.369639069 0.142441109
0.544844747 0.379000396 0.147248715
0.585199177 0.391144753 0.156862959
0.624668181 0.404554158 0.166730002
0.664263010 0.413789004 0.172928497
0.703857899 0.423023134 0.182036906
0.738772810 0.432131320 0.193168953
0.776091278 0.441745669 0.206071973
0.816319048 0.451107085 0.217963099
0.843643427 0.460215449 0.227071479
0.876027822 0.474383146 0.244148985
0.910689235 0.488804251 0.264642179
0.944085777 0.503605008 0.287792206
0.983555019 0.515749037 0.318153024
0.190891996 0.355723977 0.139278576
0.190891996 0.355723977 0.139278576
0.199494004 0.355723977 0.141429350
0.211005419 0.355723977 0.141935244
0.220493078 0.355850399 0.139910996
0.226818830 0.361669391 0.139910996
0.236432508 0.364199698 0.150031641
0.247185409 0.364579111 0.144845128
0.263630807 0.362301975 0.134471998
0.287412882 0.362807930 0.130929932
0.305755377 0.362934411 0.137128428
0.321315229 0.364326239 0.137254998
0.337634265 0.364958793 0.137760773
0.356356800 0.364705771 0.141049638
0.380644798 0.361669391 0.147122413
0.403162360 0.362301975 0.141682222
0.435167372 0.370904356 0.146362782
0.470967710 0.381783813 0.152308568
0.506641507 0.387855828 0.154585868
0.545350790 0.402277201 0.154332832
0.583554447 0.410499811 0.161290243
0.621631980 0.420493394 0.169006705
0.661227405 0.432004958 0.172928497
0.703731418 0.444148988 0.182036906
0.738772810 0.453383684 0.191144705
0.774952650 0.465275049 0.206451222
0.813535750 0.478684396 0.224288121
0.843643427 0.490575403 0.236179858
0.873624623 0.502339959 0.253257364
0.915243745 0.511574805 0.276786536
0.951802850 0.523086786 0.301074982
0.974446595 0.540037811 0.324225008
0.204174802 0.392030388 0.141176000
0.201770991 0.384819597 0.141176000
0.212523758 0.386970371 0.145477548
0.221125960 0.388488233 0.146236643
0.231372595 0.388867587 0.143200263
0.249588847 0.386843592 0.141176000
0.253384292 0.395192921 0.141682044
0.264136612 0.394939899 0.148893118
0.277798980 0.393421680 0.142821088
0.298797995 0.395066410 0.141682804
0.312460601 0.395066410 0.140037984
0.330676585 0.395066410 0.142061993
0.348513424 0.395445943 0.144338995
0.368501037 0.394180775 0.148133844
0.392789572 0.393295169 0.147754833
0.419481367 0.392662585 0.151423201
0.443769783 0.391144782 0.148386806
0.475015789 0.399494171 0.154205993
0.504364192 0.410878986 0.159013167
0.543580174 0.420493364 0.166476995
0.583048463 0.437571466 0.170271993
0.619987249 0.445667595 0.176849931
0.658064663 0.454902053 0.180012792
0.698292017 0.464768797 0.186843902
0.736242533 0.476913363 0.195952281
0.771157503 0.487539560 0.207842901
0.809614062 0.501201808 0.227071062
0.845667064 0.513345778 0.244908065
0.871220827 0.520682752 0.252751768
0.905123532 0.536369145 0.274509728
0.945857167 0.547628343 0.302972555
0.970145166 0.564326584 0.330296993
0.220872998 0.425427198 0.145730197
0.219354793 0.420872986 0.145730197
0.226185963 0.420366764 0.150031358
0.235041186 0.419607967 0.152308971
0.238583550 0.423023283 0.150411204
0.257179201 0.423782557 0.150790438
0.272865504 0.421252519 0.144212380
0.280835181 0.426818490 0.144338906
0.294497192 0.424541175 0.148134187
0.312713176 0.426818490 0.151929483
0.328146935 0.426945001 0.153700322
0.344339192 0.426945001 0.154205993
0.363693833 0.426945001 0.154205993
0.384440213 0.424541175 0.158254027
0.404933780 0.424541175 0.152688414
0.430107594 0.424541175 0.154459193
0.454395980 0.426059365 0.154459193
0.481720358 0.424288750 0.155724183
0.506894052 0.435926616 0.161796212
0.542062104 0.444022745 0.167615175
0.580012918 0.454269260 0.174826190
0.617457330 0.470462054 0.180898190
0.653510511 0.477925658 0.184819981
0.692978919 0.489816278 0.193674996
0.730170548 0.501201749 0.203542084
0.765211642 0.511954486 0.212650463
0.802529931 0.523972094 0.228589252
0.843010426 0.536116362 0.249841616
0.870714426 0.544465125 0.259329647
0.902087152 0.554585576 0.279063910
0.939405620 0.571916819 0.303352177
0.971663356 0.587097168 0.334851176
0.235926583 0.454016536 0.154205993
0.239089131 0.454016536 0.154205993
0.244908333 0.456799358 0.159772143
0.252118975 0.456672698 0.161416575
0.252878070 0.452118695 0.159139961
0.261733472 0.463757396 0.164958999
0.279064298 0.459456205 0.157115996
0.296015561 0.456293404 0.152814969
0.310310155 0.458570123 0.153067976
0.328526139 0.458570123 0.159139976
0.346110165 0.457937717 0.163314417
0.364326537 0.459202707 0.167362317
0.382416219 0.458570123 0.167994589
0.404174596 0.458823144 0.168247551
0.420872957 0.459202707 0.160657838
0.441366136 0.458570123 0.159898788
0.465401322 0.459455729 0.161796182
0.486653686 0.461859554 0.158127993
0.513978183 0.464895964 0.164200008
0.545604110 0.470082551 0.167488649
0.580265880 0.477419376 0.173054889
0.615686536 0.487539202 0.179759979
0.649209440 0.499683946 0.186084971
0.688171923 0.514357626 0.198229000
0.724730968 0.526628494 0.209740579
0.760404646 0.538646460 0.218595669
0.794307113 0.547754228 0.229222000
0.836558878 0.559772432 0.250347853
0.866413414 0.569259703 0.264136821
0.897785783 0.580138981 0.284376919
0.933839262 0.593169153 0.312333614
0.973308444 0.608349562 0.336622417
0.238963023 0.487413049 0.160278037
0.254143387 0.487413049 0.160278037
0.261606961 0.491714031 0.168880567
0.269196838 0.493738174 0.172928631
0.277166128 0.491587967 0.168247610
0.283238888 0.497659951 0.171283990
0.294624001 0.496647716 0.166983038
0.309171736 0.494750023 0.166983023
0.325617105 0.495002985 0.171031013
0.346742988 0.495002985 0.171284020
0.362049103 0.492093861 0.168627158
0.379506588 0.495382965 0.170398310
0.396584660 0.497533321 0.170018986
0.413283050 0.495256007 0.165211961
0.440607399 0.498292387 0.168247566
0.457305789 0.496268153 0.165464878
0.479317129 0.495002985 0.167488992
0.504870474 0.495256037 0.170272037
0.526122987 0.495256037 0.164200038
0.553447366 0.498292416 0.167488679
0.585072756 0.503479004 0.174319759
0.618722141 0.511828005 0.183175176
0.652245045 0.523972034 0.192157000
0.688677847 0.536116064 0.204301029
0.723086298 0.546236336 0.214168295
0.758127332 0.558380723 0.219354987
0.794307113 0.572043061 0.223150030
0.830739856 0.581151426 0.241366029
0.862365603 0.590512156 0.265148669
0.892472863 0.601391435 0.288171947
0.924224794 0.614421606 0.312080622
0.958128035 0.629602015 0.333586037
0.280961394 0.548640072 0.185831383
0.282226384 0.548640072 0.180265367
0.293105781 0.548640072 0.182416141
0.299810380 0.549651921 0.187603012
0.307400286 0.546995401 0.185705185
0.315876275 0.548260331 0.188740954
0.321948379 0.551802754 0.189247012
0.335231066 0.549272418 0.185325742
0.350411475 0.548892856 0.187982365
0.367615908 0.550917089 0.192030370
0.394181222 0.548007250 0.186337858
0.409361333 0.544971645 0.185325727
0.427957386 0.546489775 0.186464369
0.446679771 0.545351148 0.184693366
0.466413766 0.545857191 0.190259308
0.486527354 0.546489775 0.190891728
0.503605425 0.545351148 0.189753383
0.526502311 0.545351148 0.191397801
0.549905062 0.545351148 0.187476024
0.582290113 0.548133731 0.186970025
0.603921711 0.547375202 0.186211109
0.633902609 0.552814782 0.191777483
0.669070184 0.564705789 0.200885832
0.702846169 0.571536720 0.210373014
0.734724879 0.583681285 0.227071583
0.767615378 0.593295395 0.241872340
0.802656472 0.604680479 0.253257513
0.839089215 0.613788843 0.271474063
0.870208979 0.625553370 0.289690048
0.905882478 0.636559129 0.311954528
0.936622322 0.649589121 0.335230678
0.962428987 0.664768994 0.358380377
0.309424460 0.589626729 0.196078002
0.301833987 0.589626729 0.195698738
0.315875769 0.589626729 0.203668505
0.321188986 0.592156708 0.204174563
0.326755106 0.591018021 0.202023983
0.337381661 0.589500189 0.197469801
0.349651992 0.592030048 0.201770738
0.360657692 0.593421698 0.203415453
0.374320090 0.591397464 0.202403635
0.387223482 0.593295157 0.207336977
0.408349127 0.590512395 0.203668728
0.429475248 0.589373767 0.201644734
0.448070973 0.588614821 0.205060080
0.469829321 0.589120746 0.207084015
0.488045692 0.587476492 0.208222732
0.506261706 0.587476492 0.207589984
0.525995910 0.590512455 0.206072181
0.546489537 0.590638876 0.205692738
0.572042823 0.589373708 0.203921527
0.598988116 0.588361859 0.207463473
0.626691937 0.591397464 0.207463473
0.644908249 0.589373708 0.205439731
0.675774992 0.597596288 0.211764976
0.707400143 0.601897478 0.219101831
0.742314756 0.612523556 0.233143568
