Assets/EldamarStudio/100 Retro LUTs Pack/LUTs/cube/Bruce LUT.cube
LUT_3D_SIZE 8
DOMAIN_MIN 0.000000 0.000000 0.000000
DOMAIN_MAX 0.903226 0.903226 0.903226
0.101961002 0.098039001 0.082353003
0.131688997 0.110942543 0.095635995
0.205313101 0.126249090 0.110562898
0.322327644 0.122707352 0.112586647
0.461353362 0.128525987 0.114358187
0.610879481 0.148892999 0.141049996
0.758380830 0.187223285 0.162048995
0.895888746 0.246046796 0.210752785
0.121948451 0.135610089 0.098039001
0.143073544 0.131688997 0.102340452
0.209614545 0.154838547 0.117267549
0.312207550 0.162681550 0.110689096
0.445667207 0.173560828 0.114484094
0.592915654 0.197849542 0.133586451
0.743073821 0.226438999 0.160531282
0.884629905 0.275901496 0.216065675
0.148260906 0.199873090 0.118406095
0.168627098 0.201011643 0.124351457
0.217963085 0.194307178 0.118406095
0.294117719 0.220619738 0.114484094
0.432384372 0.247564897 0.123719186
0.588614821 0.281720340 0.143706635
0.752814770 0.308665186 0.173181370
0.888930798 0.352688015 0.228209898
0.164832637 0.290449262 0.126628637
0.184819981 0.289310634 0.124984354
0.242378443 0.293990821 0.131688893
0.307779968 0.292093277 0.131688982
0.426692247 0.325743169 0.135483995
0.576344252 0.362555265 0.158380911
0.728779197 0.399746925 0.183934286
0.869196594 0.439974636 0.236052811
0.220872998 0.425427198 0.145730197
0.238583550 0.423023283 0.150411204
0.294497192 0.424541175 0.148134187
0.363693833 0.426945001 0.154205993
0.454395980 0.426059365 0.154459193
0.580012918 0.454269260 0.174826190
0.730170548 0.501201749 0.203542084
0.870714426 0.544465125 0.259329647
0.309424460 0.589626729 0.196078002
0.326755106 0.591018021 0.202023983
0.374320090 0.591397464 0.202403635
0.448070973 0.588614821 0.205060080
0.525995910 0.590512455 0.206072181
0.626691937 0.591397464 0.207463473
0.742314756 0.612523556 0.233143568
0.877419651 0.655154705 0.307906717
0.406072289 0.733206570 0.277039975
0.425426841 0.736875117 0.285894990
0.462745279 0.734977722 0.290449262
0.520809531 0.739405572 0.289942920
0.590385616 0.734851301 0.290955186
0.675522029 0.738772810 0.296900511
0.764579535 0.736495554 0.302846283
0.869070351 0.755597711 0.343959540
0.565211594 0.871094584 0.434408605
0.587476432 0.881467640 0.437823862
0.601644576 0.882858574 0.437191784
0.648070812 0.884123743 0.443896234
0.694370806 0.885641932 0.447564602
0.763314247 0.886148036 0.453510344
0.833522916 0.887666225 0.460341126
0.916887760 0.893231928 0.480328590
0.125869542 0.122327998 0.116002090
0.143073544 0.118405998 0.119544543
0.192789197 0.134471536 0.131309450
0.261353552 0.145477548 0.142314553
0.376976818 0.159139812 0.152688101
0.547121882 0.177102998 0.182669088
0.708285987 0.213915095 0.213029787
0.864136338 0.266160369 0.248197064
0.130550459 0.127387539 0.111321993
0.142694101 0.138773009 0.122707449
0.173560634 0.151676446 0.128525987
0.251865745 0.162302092 0.142314643
0.378241479 0.180265903 0.156736195
0.531056404 0.206072107 0.184187278
0.687286735 0.233016834 0.196963832
0.831499040 0.277039975 0.234282181
0.160404563 0.177102998 0.139152452
0.169386089 0.179886445 0.135989636
0.193168625 0.180645451 0.141935095
0.260088295 0.201391280 0.146995544
0.388867825 0.235800073 0.161796540
0.537634194 0.269070357 0.182416081
0.709297657 0.306261897 0.212650344
0.863251150 0.355091631 0.267299086
0.172675550 0.257558376 0.144845188
0.196331561 0.266287267 0.155977100
0.225932822 0.265021801 0.151549637
0.284629822 0.269323170 0.152814999
0.389500022 0.304617286 0.167235732
0.529917777 0.338519931 0.183681443
0.688551366 0.383428454 0.217077836
0.834408462 0.426565558 0.254648834
0.229980841 0.395699203 0.170778096
0.243137643 0.393548638 0.181783989
0.286653966 0.395951837 0.183807731
0.348893017 0.401771277 0.183301896
0.425679833 0.402530372 0.187982097
0.547501385 0.432258397 0.200126648
0.704870701 0.483365089 0.234282091
0.852118671 0.534977674 0.282985717
0.303099096 0.564073443 0.227071270
0.327387452 0.566982448 0.228463069
0.374320269 0.566603124 0.234914467
0.433776259 0.569386244 0.228969008
0.514611006 0.569765687 0.240860343
0.602150500 0.571283937 0.236938536
0.723086357 0.601138473 0.267678350
0.865780950 0.651612878 0.331435710
0.409866810 0.713725567 0.297153831
0.427071810 0.716635227 0.303352505
0.462239087 0.720556319 0.303984642
0.518532515 0.721189320 0.306008875
0.588614821 0.717520237 0.317900091
0.668690741 0.722201049 0.314231545
0.746868849 0.723465860 0.317140788
0.853004336 0.741682351 0.353826582
0.568374336 0.870082200 0.450221419
0.586843908 0.872738898 0.451106846
0.605818927 0.877545655 0.460088611
0.649589002 0.877925217 0.459582537
0.700695574 0.876660347 0.461353779
0.763061166 0.881467640 0.467931598
0.830487072 0.881847024 0.471473724
0.913852096 0.884503365 0.490322590
0.134092093 0.132574096 0.187223092
0.163440645 0.129791453 0.178241640
0.204553992 0.134092093 0.168501094
0.259329170 0.152561650 0.173940286
0.363441080 0.167741999 0.199873090
0.495762080 0.203668475 0.235041082
0.656167030 0.245920181 0.268564373
0.827956498 0.312586904 0.322959900
0.149399444 0.151676446 0.157242462
0.160278544 0.155218109 0.143327013
0.181404546 0.158760458 0.148893103
0.245288074 0.171283737 0.172422171
0.338772744 0.194813356 0.199114278
0.470714480 0.227703929 0.226439089
0.632764339 0.259708822 0.262365580
0.806577921 0.315243542 0.311068803
0.163188010 0.176344082 0.158254087
0.178368449 0.184187084 0.164579093
0.215433195 0.213156104 0.176217183
0.248324081 0.210752994 0.181404456
0.339911282 0.237444982 0.201265186
0.483744621 0.270209074 0.234281987
0.655534685 0.318026394 0.274889171
0.823529422 0.383807659 0.332068086
0.196584284 0.245034978 0.184440643
0.214294747 0.251360089 0.188741088
0.237697631 0.254901826 0.193801537
0.270208985 0.258823723 0.195445731
0.356609702 0.290575385 0.211891532
0.486401081 0.331562102 0.239595279
0.648956537 0.381656945 0.277925372
0.814041674 0.438962668 0.326375574
0.252372116 0.364959091 0.221631885
0.259582520 0.366223752 0.228462741
0.290575355 0.370525002 0.230234176
0.341935635 0.373181611 0.230739743
0.403542072 0.376723260 0.228716180
0.516129255 0.415053636 0.251739532
0.671347201 0.473118365 0.294623882
0.819734335 0.538392961 0.348260641
0.330170721 0.535357177 0.279823095
0.352814734 0.535230935 0.289437026
0.387349814 0.538772464 0.290449083
0.436938494 0.538013518 0.291967332
0.503984809 0.546616256 0.296142101
0.581910431 0.547501385 0.289816380
0.700569093 0.585705280 0.318153113
0.845920444 0.649968565 0.389247179
0.426059574 0.689310491 0.346236467
0.449715197 0.701075494 0.359645635
0.481594175 0.700948536 0.354585588
0.524351776 0.703731894 0.360910356
0.587223351 0.700948715 0.360910565
0.654522717 0.705376208 0.366856635
0.733965635 0.707147241 0.364705861
0.844023049 0.733839214 0.404174805
0.594307661 0.862744808 0.483491600
0.601391435 0.867299199 0.484376907
0.623782337 0.865907729 0.490575701
0.661100686 0.869829416 0.494623512
0.704743803 0.871979713 0.496394634
0.759645581 0.873118341 0.498545229
0.828209937 0.875901341 0.506388009
0.905755639 0.883364856 0.524984121
0.156356648 0.132827342 0.293231934
0.192789197 0.135609999 0.280834734
0.246047094 0.143453285 0.266034544
0.290322632 0.155218005 0.242125273
0.375205278 0.173181191 0.257052183
0.509171426 0.204301268 0.288424999
0.650853574 0.255660921 0.332447648
0.808348954 0.342820942 0.388108820
0.174067095 0.172801644 0.231878370
0.188488558 0.172801644 0.231498733
0.222517282 0.178747907 0.227577537
0.267552525 0.177103087 0.224541634
0.345983446 0.198355198 0.246426433
0.477799088 0.231119379 0.278557748
0.622264206 0.280834824 0.320050657
0.773561001 0.354206055 0.378620982
0.181783900 0.212776646 0.222137630
0.194181085 0.207969636 0.207463369
0.234661728 0.224541456 0.228462726
0.267931998 0.222137645 0.217710182
0.345351100 0.253890097 0.250727296
0.468817085 0.289057463 0.285515517
0.619354844 0.346615911 0.338393182
0.784313679 0.419354707 0.405945718
0.211891636 0.257305652 0.229221642
0.217710301 0.258444279 0.222391084
0.270209104 0.277672559 0.237570927
0.344844908 0.324604630 0.281467646
0.375332028 0.317900091 0.281087995
0.474762708 0.346489549 0.304237634
0.619101882 0.395319551 0.341555923
0.780265450 0.463251233 0.405818909
0.273750842 0.360278368 0.275521755
0.294624001 0.362175733 0.267805159
0.330170631 0.376470536 0.293864787
0.367868602 0.379506826 0.294876844
0.406071931 0.379886389 0.290195733
0.500442684 0.415559739 0.318785280
0.643137157 0.475521892 0.359266341
0.798734605 0.547881067 0.419860959
0.376470715 0.511827826 0.343073994
0.388867736 0.517267644 0.346995384
0.415559709 0.519670844 0.352561504
0.449968636 0.520429909 0.348133832
0.509171367 0.523845673 0.355597466
0.567488790 0.532574475 0.354459107
0.682353199 0.578747690 0.389500320
0.823655844 0.648829699 0.456293523
0.464136630 0.677166164 0.414927274
0.488045454 0.681340754 0.421631902
0.507400453 0.683870971 0.421758413
0.546616256 0.686147988 0.426059246
0.597975910 0.685009658 0.426439017
0.654142976 0.692852616 0.431119621
0.729285240 0.697406590 0.434535295
0.834029078 0.732321441 0.468437552
0.619101822 0.853004336 0.538772821
0.627957225 0.854142725 0.543706477
0.650727272 0.859708726 0.545603752
0.675774813 0.859708726 0.546362817
0.715749264 0.862365305 0.543706298
0.768753767 0.866033971 0.547248423
0.835800231 0.873371303 0.560531199
0.902466595 0.878051579 0.563567638
0.206071988 0.159898996 0.408855170
0.240480900 0.166223809 0.397090167
0.296900988 0.172422275 0.386970282
0.358760267 0.180645347 0.367362201
0.422770590 0.191904187 0.350917190
0.516635418 0.216571733 0.359772116
0.661733329 0.266160369 0.399367273
0.811005771 0.354838580 0.456040800
0.216066182 0.210752994 0.361164004
0.239721999 0.206451744 0.359898627
0.283111811 0.213029906 0.353573740
0.340670377 0.217457354 0.342694551
0.397090375 0.218975544 0.331815630
0.493105531 0.238203809 0.343833178
0.636939049 0.285895199 0.388741225
0.786717057 0.360657603 0.439089358
0.234914273 0.259203166 0.317141175
0.261733204 0.261985838 0.322201043
0.291334301 0.265528172 0.319418281
0.332827181 0.265528083 0.319544405
0.380645245 0.264769286 0.311828107
0.483238459 0.295256257 0.343326807
0.634408653 0.349272460 0.395445913
0.789626598 0.434787989 0.466666520
0.259203285 0.309677422 0.311954618
0.276786834 0.315243512 0.318405837
0.314737290 0.320682943 0.317141205
0.359392464 0.335989982 0.325363815
0.409993827 0.338646710 0.329664350
0.486907333 0.368754089 0.357368618
0.613408923 0.417963475 0.402656794
0.758254230 0.489436775 0.462491930
0.288172185 0.366603166 0.319544196
0.312966526 0.369259745 0.324857533
0.351802379 0.386211157 0.334472060
0.423023254 0.416698396 0.363061547
0.508412361 0.473118365 0.411258370
0.542061985 0.462998360 0.400758922
0.645667553 0.496774077 0.430993080
0.775964558 0.570018768 0.491081446
0.396458179 0.515875697 0.392915726
0.412396908 0.518532276 0.399873644
0.440607041 0.519544840 0.409234732
0.492726386 0.533839107 0.422264159
0.535357118 0.536115944 0.420999408
0.578874350 0.543959498 0.427577376
0.680328846 0.587476254 0.462871552
0.812650144 0.657431722 0.519671023
0.501328111 0.667552054 0.472485989
0.520809293 0.672485948 0.482858926
0.547501266 0.675268769 0.487919152
0.571283877 0.672865570 0.485894829
0.608602405 0.679949462 0.485642254
0.663124800 0.677925289 0.491967261
0.724351823 0.686148167 0.494243979
0.832258105 0.737381339 0.541555822
0.648197412 0.843516827 0.594560266
0.653130889 0.849336028 0.594686866
0.671600163 0.850727618 0.592030346
0.695888460 0.851107001 0.598355412
0.733080149 0.853004396 0.601138771
0.779000580 0.856673062 0.605059743
0.835294068 0.861479700 0.612270594
0.898671389 0.870714724 0.615433156
0.270082474 0.203668475 0.536495447
0.303099096 0.209487736 0.534218669
0.363946855 0.217330739 0.528779447
0.435041130 0.223529741 0.517647088
0.513725340 0.234787971 0.493991435
0.585199237 0.248576716 0.477672458
0.668058276 0.271980017 0.478810996
0.812650323 0.357748359 0.529664755
0.280708730 0.247438282 0.498671472
0.304237545 0.256166995 0.501834273
0.357495010 0.256419927 0.495635480
0.421125650 0.257558286 0.480961204
0.486780524 0.263503999 0.467805117
0.554332495 0.269323260 0.453004509
0.641998529 0.283744723 0.453763753
0.784946084 0.363440812 0.505629361
0.304490983 0.320556849 0.464642733
0.334598005 0.323845744 0.464136660
0.366856754 0.321695149 0.466666460
0.422770381 0.322959810 0.457179278
0.479063779 0.324477822 0.451739371
0.539025962 0.328146458 0.437191725
0.642504930 0.355850726 0.460847825
0.794813395 0.438582987 0.527893841
0.327893794 0.377103269 0.433523089
0.352434903 0.387855619 0.438836336
0.385325938 0.383807629 0.430613369
0.423782080 0.382921994 0.431752115
0.472232997 0.386590749 0.429474711
0.522327781 0.384566903 0.422897011
0.618975341 0.414927095 0.450980306
0.763694048 0.491081774 0.515622914
0.370398372 0.443896383 0.440986902
0.390132993 0.448070914 0.444908470
0.420620084 0.451739460 0.441619366
0.464389563 0.461227268 0.443896264
0.520050704 0.478937447 0.450853646
0.560278177 0.481973439 0.452624977
0.652751088 0.518406212 0.489057750
0.775331616 0.584946215 0.549778461
0.415053457 0.524731457 0.448323727
0.430739969 0.524351716 0.455281705
0.462871552 0.525743127 0.454142958
0.507906735 0.544339001 0.466793358
0.580392420 0.576091111 0.495762378
0.664010167 0.620872676 0.534598231
0.701328337 0.623529494 0.539531767
0.802782655 0.674256623 0.585831523
0.508159459 0.661227286 0.524225175
0.526881695 0.672232866 0.520177007
0.552308798 0.668437779 0.526122689
0.588614702 0.670335591 0.537254632
0.639089465 0.682985365 0.547375083
0.677545667 0.683364809 0.551802695
0.727008224 0.689816535 0.554332554
0.829348326 0.744086027 0.605818868
0.651486576 0.836432517 0.634028792
0.673750699 0.841619372 0.638709962
0.684882879 0.837697685 0.635040998
0.712586582 0.841872513 0.641998589
0.746236682 0.842378438 0.650853634
0.784313798 0.846299767 0.651106775
0.829474986 0.856925905 0.655028462
0.892219901 0.865401685 0.667552352
0.365591258 0.287160277 0.675395250
0.389247298 0.288551539 0.663250804
0.437697649 0.297406465 0.661985993
0.512966275 0.303984910 0.658064306
0.588361740 0.316255569 0.637697458
0.667679071 0.326122731 0.632637799
0.743959248 0.336495578 0.612270534
0.824035585 0.371284038 0.606957257
0.365970820 0.312840015 0.638962686
0.384566575 0.324604511 0.647944391
0.435420454 0.324984074 0.642378271
0.501960635 0.330423474 0.630487323
0.572043061 0.336369514 0.619101882
0.649335742 0.345351160 0.608602226
0.714737713 0.348387003 0.592536271
0.793421805 0.373308241 0.592156529
0.403036296 0.398608565 0.616445422
0.425806344 0.405313134 0.625174224
0.463630497 0.405566394 0.622770369
0.517267525 0.403921485 0.616824865
0.581151187 0.407084167 0.605313301
0.643769622 0.407843262 0.598355353
0.713599205 0.415686250 0.588108778
0.796837389 0.447312087 0.593675017
0.438203484 0.463251233 0.586084843
0.456166863 0.472232908 0.589753151
0.487919092 0.474636078 0.586844027
0.525996268 0.473877192 0.584819615
0.575711429 0.471094251 0.584440053
0.629854202 0.468817234 0.572295725
0.687412798 0.467172533 0.563061476
0.773181260 0.496394783 0.583301425
0.465781271 0.534218490 0.573054910
0.484250546 0.538772523 0.582289577
0.514358044 0.541049540 0.581783772
0.554838717 0.543453395 0.579886019
0.594433725 0.544212282 0.577229321
0.638203561 0.542315006 0.565844059
0.686148167 0.544339240 0.566350400
0.780392230 0.585578978 0.596584737
0.513978541 0.617963493 0.595825553
0.527513921 0.619607747 0.593548357
0.551802635 0.623023152 0.590765357
0.585705280 0.621125579 0.589247346
0.627324283 0.627703846 0.590006292
0.682099819 0.638456702 0.592536271
0.723845601 0.646552742 0.597723007
0.818848908 0.690322459 0.635547101
0.528020024 0.670461476 0.583175242
0.538519561 0.672738850 0.580392122
0.563061357 0.675901353 0.584187567
0.601518273 0.676660240 0.586970210
0.647817552 0.682226539 0.589753270
0.710689545 0.708159447 0.615686297
0.784819543 0.748893023 0.654142976
0.841746092 0.768121481 0.673624218
0.664136350 0.837191582 0.671220899
0.676786602 0.835293889 0.672865510
0.688298583 0.834408283 0.676280916
0.716255546 0.834028840 0.679823041
0.756609619 0.841113210 0.690702200
0.807463765 0.845540822 0.701834202
0.844022751 0.853763282 0.706767797
0.892599761 0.862365365 0.717647016
0.495888770 0.417583585 0.785957992
0.510942817 0.413915306 0.785578549
0.547628045 0.426818460 0.786084652
0.599493980 0.434282124 0.777229607
0.668184638 0.446805805 0.772928774
0.739025652 0.461732924 0.767868638
0.814168274 0.473371297 0.756736040
0.885388911 0.496014893 0.741555810
0.492346317 0.434282303 0.765717745
0.516255736 0.440480590 0.767236233
0.545350909 0.445793808 0.769512951
0.599114537 0.456673086 0.765844166
0.663883805 0.465780914 0.765717983
0.730929792 0.469955832 0.752055526
0.799999952 0.477545738 0.743453503
0.879063904 0.491966784 0.741808832
0.545350671 0.511574924 0.756230354
0.562049329 0.519038439 0.765717924
0.588361919 0.523845673 0.757874668
0.629727960 0.524478018 0.758759975
0.680961251 0.529158592 0.750411153
0.740417361 0.534092188 0.744718671
0.807336807 0.540290892 0.740670204
0.873371303 0.548513830 0.735357344
0.576344252 0.585325897 0.737001598
0.597343504 0.589121044 0.743453622
0.612270594 0.589247286 0.741935492
0.648323894 0.590638876 0.742820919
0.688804865 0.589500248 0.736116290
0.736116409 0.585958183 0.729538023
0.791777253 0.586717010 0.725236952
0.855028391 0.589247227 0.720176876
0.600758970 0.648956239 0.730423391
0.621252656 0.653636932 0.732321382
0.637064993 0.658949852 0.732827187
0.671220601 0.661353528 0.734345019
0.705123186 0.657052636 0.725616753
0.747628033 0.655914009 0.725363493
0.794813156 0.653510451 0.721315503
0.849841535 0.658949971 0.713851750
0.645414531 0.721821785 0.734092116
0.648956418 0.724983871 0.738393307
0.669196665 0.723465919 0.741935551
0.692346513 0.725616813 0.732321203
0.728779197 0.728779316 0.731688499
0.768121362 0.728905678 0.724604607
0.809993565 0.730297089 0.723339736
0.858317494 0.734471560 0.725110471
0.645035088 0.780771613 0.734345317
0.658443868 0.780518770 0.735104322
0.678810775 0.777103245 0.728019834
0.706514597 0.782416403 0.727008104
0.736875415 0.781657279 0.731182754
0.780139208 0.784819782 0.727260768
0.828336358 0.794939637 0.728146493
0.874889433 0.801264882 0.733839571
0.692093611 0.855407596 0.740290642
0.709804237 0.857179046 0.750157595
0.718911946 0.861226857 0.744212568
0.740164399 0.855407596 0.743326604
0.776090622 0.853004396 0.744465232
0.813662291 0.857305348 0.744212568
0.862618387 0.864136338 0.754711807
0.920556784 0.895888686 0.774193585
