Assets/EldamarStudio/100 Retro LUTs Pack/LUTs/cube/Carol LUT.cube
DOMAIN_MIN 0 0 0
DOMAIN_MAX 1 1 1
LUT_3D_SIZE 32
0.149020001 0.105881996 0.121569000
0.145983607 0.102846384 0.118532613
0.142947227 0.104111224 0.117647000
0.143706322 0.105881996 0.118912160
0.152814999 0.105122998 0.121569000
0.183174998 0.099050999 0.121569000
0.228715628 0.090449326 0.124098673
0.275648087 0.074763298 0.123845711
0.318153083 0.054269806 0.119291902
0.351549506 0.036053017 0.110183515
0.396584630 0.014927130 0.112713128
0.438077241 0.005819260 0.111701258
0.478684306 0.002783356 0.107527003
0.521189094 0.000000000 0.101707973
0.563693762 0.000000000 0.098671585
0.598987758 0.002403804 0.093232006
0.636938393 0.008475802 0.088678196
0.678178132 0.014421008 0.083112434
0.714610994 0.008348992 0.067932017
0.748260379 0.002276996 0.055534281
0.785452187 0.001897740 0.052877739
0.820873141 0.003922000 0.056925997
0.848324001 0.004427984 0.063250981
0.878684819 0.016572002 0.075395003
0.904491007 0.026439285 0.078431003
0.930170655 0.036938980 0.078431003
0.957495034 0.048577063 0.078937069
0.984819412 0.057685442 0.081973448
0.996204793 0.066793144 0.090322822
1.000000000 0.075901203 0.101201959
0.999114394 0.085894987 0.111574985
0.996078014 0.098039001 0.117647000
0.149020001 0.105881996 0.121569000
0.142947212 0.102846384 0.130676612
0.150664151 0.099810228 0.121188998
0.157115608 0.102339998 0.117647000
0.168374240 0.104743548 0.119291611
0.201391771 0.096015386 0.124604613
0.241872415 0.087413073 0.117014289
0.279569745 0.083238617 0.118026331
0.317393810 0.075522006 0.118532613
0.357621491 0.066413797 0.116255514
0.402656615 0.059835769 0.112966128
0.446173489 0.049336165 0.109677002
0.487792671 0.046426773 0.104490615
0.529791474 0.045794126 0.098671645
0.566730142 0.048576772 0.095635973
0.609234929 0.053383768 0.090196393
0.646046698 0.054016579 0.084124006
0.684250116 0.053890169 0.078937240
0.720682979 0.047818154 0.070967637
0.759899139 0.044528805 0.064136609
0.790006518 0.042504773 0.061986126
0.821884990 0.046426512 0.064010382
0.851359606 0.052751765 0.066034377
0.881720483 0.059076779 0.072359391
0.909803927 0.068944059 0.082226671
0.933459640 0.075269088 0.085895091
0.956989110 0.081467383 0.089057446
0.981783807 0.088045441 0.097153835
0.995825350 0.091840833 0.097533390
1.000000000 0.098418750 0.101960763
1.000000000 0.106261984 0.111195199
0.999114394 0.116255775 0.123718992
0.149020001 0.112333775 0.115117222
0.140797004 0.113599159 0.122074611
0.147627771 0.112713777 0.120429993
0.164832547 0.110942550 0.117141157
0.181024536 0.114863999 0.118659228
0.212650031 0.112839930 0.115875997
0.253636867 0.103731677 0.120050453
0.294497341 0.101201706 0.112586774
0.327134639 0.101707771 0.113345996
0.365464777 0.098418772 0.113345996
0.410879374 0.094496995 0.108285904
0.454396278 0.092473000 0.105249517
0.495762408 0.090069637 0.100442648
0.536749065 0.091081768 0.095382772
0.573181808 0.092220120 0.090449415
0.614421546 0.095509313 0.082859233
0.649336159 0.093991131 0.076787226
0.685768247 0.089690194 0.069449633
0.726754963 0.085135996 0.060341228
0.761670113 0.086148188 0.062871769
0.795445979 0.083111800 0.062492024
0.823023379 0.084882766 0.066540226
0.852244973 0.092599511 0.069196731
0.882605851 0.096647777 0.077293009
0.914990246 0.100696057 0.079190508
0.940923274 0.107021086 0.085515901
0.963440776 0.110056832 0.089563705
0.987729132 0.114484541 0.098671667
0.994939983 0.124351606 0.104111224
0.998228788 0.127388000 0.104111224
0.998734832 0.133080542 0.112966187
1.000000000 0.140923768 0.131941766
0.138899684 0.135357320 0.111068837
0.141176447 0.134598553 0.115875997
0.152182162 0.135484159 0.114610836
0.166856155 0.139279321 0.107273996
0.192662925 0.138520226 0.116382286
0.224794149 0.138899222 0.112586901
0.264009953 0.135609999 0.112333998
0.302340120 0.131814867 0.113092840
0.341809124 0.134092152 0.107779935
0.376217514 0.134092152 0.107273988
0.418722600 0.133712605 0.100189835
0.464769483 0.131435320 0.096141905
0.507274270 0.131435320 0.091966875
0.546616256 0.133839190 0.089057676
0.583048999 0.132827327 0.085009679
0.620493531 0.131435961 0.077799037
0.660468161 0.132195130 0.067678839
0.689057529 0.124984317 0.064136826
0.732068002 0.122580513 0.055787232
0.765211940 0.125110507 0.057811551
0.797975957 0.125616580 0.063251257
0.828336239 0.123592317 0.066287130
0.855913639 0.129158318 0.072232664
0.885135829 0.133333057 0.081341065
0.915243268 0.135104284 0.084883004
0.945730090 0.138140634 0.090069510
0.969006956 0.142188385 0.092093900
0.991777122 0.146742761 0.098165698
0.998734832 0.152688295 0.107147150
0.999493957 0.162049204 0.110942319
0.996457577 0.165085599 0.116255291
0.998734832 0.170778155 0.139784992
0.119544543 0.177103087 0.111448005
0.137760550 0.171790093 0.115622841
0.159519091 0.170398548 0.113219231
0.182416081 0.172296166 0.109171167
0.203288645 0.180645540 0.101202004
0.239721417 0.174572766 0.110309616
0.277545959 0.173560634 0.109677322
0.313725710 0.173181087 0.106641293
0.347881109 0.173181087 0.103605099
0.387349516 0.173181087 0.100569479
0.427957147 0.175331950 0.092473127
0.471979916 0.175078824 0.086654164
0.517900288 0.172801644 0.082479715
0.559646070 0.172801644 0.076153979
0.595952272 0.169892520 0.075774454
0.631499350 0.165212110 0.073244557
0.666793168 0.162176102 0.066034004
0.704996526 0.162555546 0.056546535
0.738393009 0.162555546 0.062618546
0.770145297 0.165338278 0.063883543
0.801644266 0.165717646 0.066919543
0.834408283 0.166097090 0.072359130
0.864768982 0.166097090 0.075395510
0.892346442 0.171663091 0.083997905
0.920429826 0.173181087 0.089690253
0.945856631 0.174572766 0.095761977
0.971663117 0.178241611 0.106894061
0.989879847 0.187349990 0.103858456
0.997469962 0.188108996 0.112966523
1.000000000 0.192283303 0.120556667
0.999493957 0.200379148 0.127261519
0.996457577 0.203415543 0.145477548
0.134724930 0.213535860 0.093232006
0.152940944 0.213535860 0.105375990
0.171157479 0.214674085 0.098798059
0.194181085 0.213408932 0.094497159
0.221505418 0.211005539 0.095129997
0.260973811 0.214041919 0.095129997
0.292346567 0.213029802 0.096647933
0.325869709 0.211385071 0.094497293
0.359266102 0.209613860 0.091461100
0.393421501 0.209613860 0.088425480
0.441619486 0.206704736 0.085389137
0.480581939 0.208728597 0.077292748
0.520177007 0.208475515 0.070335127
0.559646070 0.206198812 0.064009972
0.593042433 0.206198812 0.054901592
0.636559427 0.205692872 0.064136669
0.672485948 0.204680875 0.068690740
0.704996526 0.205313295 0.067931585
0.738393009 0.208095923 0.065654941
0.777356088 0.210879281 0.071726941
0.807716668 0.208222806 0.072991937
0.838077068 0.206198663 0.076027937
0.870840967 0.208601862 0.081467509
0.901201785 0.208601862 0.084503904
0.933333218 0.209613860 0.095382988
0.955976844 0.211005539 0.101834252
0.971663117 0.214547858 0.107400060
0.989879847 0.220746368 0.116002455
0.997469962 0.219228089 0.118279830
1.000000000 0.218468994 0.126375690
1.000000000 0.222643524 0.135357261
0.999493957 0.230739936 0.148513943
0.142315000 0.237318322 0.092726320
0.155470997 0.237318322 0.094750322
0.175837770 0.239468545 0.100442551
0.194434002 0.242504478 0.091461159
0.218722552 0.240227640 0.089057997
0.253889948 0.236812264 0.089057997
0.285768628 0.239847988 0.081467681
0.316128969 0.239847988 0.084756680
0.349398851 0.238456309 0.085136004
0.384566516 0.238456309 0.083871156
0.422390848 0.240607187 0.075774811
0.464895606 0.237571061 0.074762680
0.505249619 0.239594951 0.069449648
0.547248781 0.239595324 0.065528288
0.582922399 0.239595324 0.065527909
0.618722558 0.239595324 0.061227128
0.657811880 0.239595324 0.069702998
0.691081524 0.238962740 0.073118322
0.728272974 0.238203347 0.071979977
0.764705777 0.238709345 0.077293009
0.796584427 0.241745740 0.077672265
0.824920952 0.239595324 0.079063937
0.856673002 0.240986645 0.085009798
0.887033820 0.240986645 0.088045582
0.912840009 0.240986645 0.091081962
0.944085956 0.240986645 0.098292321
0.965591311 0.242378324 0.102340065
0.989879847 0.244402319 0.111448437
0.997469962 0.245034814 0.120303832
1.000000000 0.243769646 0.125110984
1.000000000 0.244655252 0.129917711
1.000000000 0.250474632 0.133839354
0.146742716 0.275015682 0.080961592
0.165464699 0.278305113 0.089184299
0.179126769 0.275521636 0.088045530
0.200379163 0.276027560 0.086021461
0.221252382 0.277925402 0.077672750
0.255913943 0.274383396 0.076407589
0.291714340 0.272612065 0.072106689
0.320430368 0.275648087 0.074510001
0.353067487 0.275648087 0.076028004
0.390385687 0.275648087 0.072486006
0.426818430 0.275268555 0.070335135
0.463630646 0.275901139 0.068943709
0.501960695 0.274003386 0.071220711
0.544971764 0.276533723 0.070208967
0.580012798 0.277925402 0.073244579
0.613156557 0.277925402 0.071473807
0.652625382 0.277925402 0.069955997
0.687033653 0.277292818 0.074510001
0.725489974 0.274256408 0.074510008
0.758886695 0.274003386 0.078431301
0.787982404 0.274256438 0.085388966
0.818342686 0.275268823 0.084376834
0.849968255 0.274636418 0.089816988
0.880329132 0.274636418 0.094370805
0.909424722 0.274636418 0.097406566
0.932321370 0.273244739 0.101834275
0.960910976 0.273497760 0.106135055
0.987096667 0.274636418 0.115243427
0.997469962 0.272991687 0.121062808
0.998355269 0.277925402 0.130044267
0.997469902 0.276154429 0.137887493
0.996711016 0.276913702 0.138646409
0.154333100 0.325869381 0.066540092
0.177103087 0.329664886 0.077166297
0.193548203 0.327134728 0.082479320
0.212523356 0.324604332 0.077672161
0.233396277 0.321568638 0.068944000
0.267552078 0.321189076 0.065528162
0.304237872 0.318658978 0.064010218
0.339405686 0.318152905 0.064642899
0.368248105 0.319671094 0.072991997
0.407716513 0.319671094 0.060847998
0.445034832 0.319038302 0.060215130
0.481467396 0.318026185 0.062492158
0.517141283 0.317267299 0.065148905
0.553321064 0.317520261 0.071220905
0.586717427 0.320556492 0.074762583
0.620746553 0.320430189 0.075268716
0.654902279 0.318912178 0.075268902
0.694244444 0.320177168 0.077166468
0.730297029 0.317520320 0.077546008
0.762681723 0.316508204 0.080328844
0.791524351 0.315749288 0.085641742
0.816825092 0.314737231 0.093485035
0.853004098 0.311701626 0.096774407
0.883364916 0.311069191 0.103479005
0.912207484 0.311828107 0.107273899
0.939911544 0.311195523 0.111701176
0.960658014 0.308665186 0.118279129
0.984440088 0.311448544 0.127387434
0.995445728 0.309930354 0.131182835
0.998987854 0.310942382 0.138519853
0.996710658 0.317141175 0.145477116
0.993674994 0.311069191 0.157621905
0.175585493 0.374446988 0.081720494
0.193801492 0.371410578 0.078684099
0.210120276 0.366603523 0.085009292
0.232764125 0.365591496 0.087286480
0.263757050 0.370145470 0.081088006
0.281973839 0.367109090 0.075016007
0.311068952 0.364199847 0.076660164
0.345097929 0.362808496 0.074509524
0.380392075 0.362175912 0.069955625
0.413788527 0.359139502 0.066919997
0.453257620 0.364958525 0.057685137
0.490575463 0.366603017 0.055154998
0.525869429 0.365464658 0.055281512
0.559393048 0.363061458 0.056040511
0.592789412 0.366097063 0.062112503
0.633396566 0.364326328 0.068057992
0.670841157 0.359899014 0.073750518
0.703352034 0.356609970 0.080202088
0.730676532 0.362681985 0.089310497
0.766729712 0.360025138 0.092473365
0.801011682 0.357115746 0.095509231
0.830992818 0.354206353 0.099810004
0.856040478 0.351170033 0.105882026
0.886401296 0.348134428 0.114990436
0.912207484 0.349778712 0.119418293
0.938140213 0.351296514 0.123845965
0.963693678 0.351170003 0.130423903
0.981910408 0.351170003 0.139531523
0.992409647 0.351296514 0.143326849
0.997975767 0.349399239 0.151675984
0.999873459 0.347755015 0.160151511
0.999746978 0.347501993 0.160657540
0.199746996 0.420113862 0.091081873
0.203415886 0.411258459 0.079316616
0.221631870 0.412523627 0.078431003
0.243896306 0.409993589 0.082732290
0.274509847 0.410372853 0.082732551
0.297785997 0.409866810 0.084250867
0.326122761 0.409360737 0.080708556
0.356483251 0.408348858 0.081340872
0.389626950 0.408348858 0.077039778
0.423023403 0.407463253 0.069702610
0.462238729 0.410246611 0.066666998
0.497659892 0.412270606 0.055534363
0.532068372 0.411131978 0.050853774
0.565971076 0.407842875 0.049589001
0.604680419 0.402909309 0.055660993
0.640480578 0.401138544 0.064136796
0.677419186 0.401138544 0.073750868
0.710815728 0.400505871 0.083870858
0.742694736 0.402023852 0.095255978
0.772801757 0.399747223 0.104364358
0.803288758 0.396710873 0.109550998
0.833649278 0.394686848 0.113599002
0.861733019 0.393674731 0.117900215
0.886527836 0.393421769 0.127007902
0.912334025 0.390386134 0.129284993
0.939405322 0.390765607 0.131688803
0.968247890 0.390765607 0.139278978
0.993674874 0.390765607 0.160404399
0.995952010 0.388108790 0.158886716
0.998987854 0.389626950 0.166729823
1.000000000 0.386211514 0.175331876
1.000000000 0.378114998 0.175331876
0.215938985 0.459582508 0.096141741
0.225047648 0.452498376 0.088045478
0.236812502 0.449968278 0.092599243
0.253763348 0.451739520 0.088804409
0.279949278 0.449841768 0.088804707
0.305881977 0.449841768 0.091840670
0.337254882 0.453889757 0.093864933
0.369259953 0.452245057 0.087539546
0.399241090 0.451106608 0.085642099
0.430107534 0.449841768 0.079064019
0.467299134 0.450727373 0.069702610
0.504743755 0.457811743 0.068690740
0.539279282 0.456673115 0.055407610
0.573814273 0.453383744 0.048829775
0.611511350 0.447311759 0.049588993
0.646552801 0.445667297 0.060088541
0.679949224 0.444149494 0.072232932
0.713472128 0.444781780 0.084250569
0.748260677 0.441998750 0.095003277
0.778874278 0.439215600 0.106388360
0.809234679 0.434282243 0.113598995
0.836685658 0.432131499 0.120683126
0.865654707 0.432258010 0.125996470
0.888045847 0.434155762 0.135104090
0.914358258 0.433902770 0.143453255
0.941429198 0.429475129 0.149019226
0.968753815 0.427704066 0.153953046
0.988488436 0.426186234 0.167615235
1.000000000 0.423529416 0.176091090
1.000000000 0.422264248 0.178368226
0.998229027 0.424161971 0.188235238
0.995952010 0.416571498 0.190512255
0.226944640 0.484629989 0.098039001
0.239089116 0.479696661 0.095382646
0.252245784 0.480202645 0.095382646
0.268564463 0.480202645 0.104364164
0.284503192 0.480202645 0.096015453
0.310309589 0.480202645 0.097533062
0.338140309 0.482985646 0.099430680
0.370398700 0.485262603 0.098165937
0.402277112 0.484503299 0.093611538
0.429601520 0.482606113 0.092093818
0.464516103 0.483618021 0.081467539
0.499810249 0.485136271 0.075142287
0.536242962 0.489690363 0.072865002
0.572675765 0.486907005 0.057431638
0.609107971 0.482605994 0.049968421
0.644275784 0.482479632 0.053257350
0.677292943 0.483618021 0.063504189
0.707020521 0.482353032 0.078051992
0.741935313 0.476281017 0.087666348
0.772802114 0.474130273 0.102973014
0.803162813 0.470335305 0.114737637
0.833523333 0.466287285 0.119797513
0.860974193 0.466034293 0.128779337
0.884250641 0.466034532 0.138899103
0.910057008 0.466793627 0.150284290
0.936495960 0.466287583 0.160784259
0.964832008 0.461226940 0.171916276
0.978241622 0.458823711 0.175585091
0.992662966 0.455787450 0.181657180
1.000000000 0.454522282 0.187855974
0.999114394 0.452751309 0.198355585
0.993295372 0.452245265 0.205692634
0.237824067 0.495003074 0.099050999
0.248956054 0.491714448 0.102087386
0.260847569 0.494371027 0.099177994
0.275522023 0.497913033 0.098671995
0.294117570 0.497407049 0.103099518
0.315369964 0.497407049 0.100063130
0.336875319 0.497660071 0.099810034
0.362555385 0.497913033 0.098418705
0.392157108 0.498925030 0.096394897
0.419481516 0.504997015 0.105502509
0.452371925 0.507906199 0.097659871
0.485768288 0.507147312 0.091081999
0.520050287 0.504617453 0.085009776
0.556483090 0.502087057 0.079190038
0.592915833 0.502087057 0.060974050
0.629095554 0.503731847 0.054775290
0.664516211 0.506261945 0.055028383
0.697406590 0.508159101 0.061606951
0.724731088 0.502087057 0.073750995
0.754079759 0.501075089 0.092726335
0.783934414 0.499177754 0.110436670
0.814041972 0.496901035 0.123592868
0.844149053 0.496774524 0.126881495
0.871346951 0.490828991 0.138899043
0.898418307 0.489310980 0.153320313
0.924604297 0.488804996 0.166603297
0.948640049 0.489058018 0.177988991
0.966856003 0.489058018 0.184060991
0.984819591 0.486148238 0.187476158
0.995698988 0.484376997 0.190512210
0.999367416 0.483365029 0.197849587
0.996331036 0.477293044 0.219101995
0.268184811 0.552688241 0.111194983
0.268184811 0.546616197 0.114231378
0.277166605 0.543327034 0.115116984
0.290702403 0.543453395 0.118911974
0.309297949 0.542694390 0.127134532
0.330550343 0.536875367 0.118279889
0.354332417 0.539405704 0.120303497
0.377988398 0.541809082 0.121062398
0.404301107 0.543453395 0.116634876
0.431625515 0.544465363 0.105502516
0.461859733 0.544718385 0.102972873
0.494876653 0.545350850 0.100695997
0.528273046 0.545857012 0.097153984
0.562555075 0.547628164 0.091334797
0.598987818 0.550663769 0.088298410
0.633016765 0.545856833 0.082100198
0.670082152 0.543200552 0.076028042
0.707653522 0.542694628 0.072612405
0.742947817 0.544591844 0.076786585
0.764706194 0.538519800 0.080581941
0.789753437 0.535610080 0.096900582
0.816318750 0.532574117 0.117520288
0.844149053 0.530170858 0.139025494
0.868437827 0.527134478 0.148133904
0.893358409 0.525742948 0.162428692
0.919670641 0.522959948 0.173434392
0.946362793 0.519671023 0.181277648
0.972928822 0.522454381 0.190132990
0.988487959 0.517141402 0.193548158
0.997216821 0.511701345 0.196584210
1.000000000 0.509550571 0.201391593
0.999367416 0.510689437 0.213030010
0.286527783 0.588741601 0.132953599
0.296141773 0.587476611 0.131182373
0.300442785 0.585705578 0.134218752
0.309298128 0.582922220 0.133206636
0.323339790 0.581783593 0.137760535
0.338519931 0.579759598 0.132700920
0.362302631 0.578874111 0.133712664
0.386590600 0.580265760 0.135103986
0.412397206 0.581783593 0.135103986
0.441366315 0.581783593 0.128146306
0.469196737 0.584187388 0.122200854
0.499557525 0.584187388 0.119165242
0.532574475 0.584187388 0.116508797
0.565970838 0.585452557 0.110689759
0.600252807 0.584187210 0.107653372
0.639089406 0.587223351 0.104616985
0.669449806 0.582669199 0.100063175
0.704111516 0.580898345 0.089943014
0.738773108 0.583934426 0.080581844
0.766097486 0.578620791 0.086021356
0.793042660 0.574446559 0.096647732
0.819354951 0.572422385 0.115369923
0.846679330 0.570651531 0.139278784
0.873244822 0.565338433 0.150663912
0.899810255 0.562302113 0.166603565
0.924225092 0.562175572 0.181910113
0.948513567 0.558633626 0.191524059
0.968247652 0.557874978 0.200632438
0.992156923 0.550537765 0.206830949
0.996710598 0.549778521 0.216950968
0.998481810 0.546489179 0.223402768
1.000000000 0.546489596 0.230992988
0.303225994 0.620620191 0.154205993
0.313852191 0.620620191 0.154205978
0.320176989 0.620620191 0.147880971
0.331309319 0.616825044 0.149652198
0.341176629 0.614800751 0.148386836
0.352182001 0.618216395 0.149904922
0.371410638 0.616698205 0.148893058
0.398735374 0.616698205 0.150284380
0.423023403 0.616698205 0.148766384
0.451865971 0.616698205 0.147248387
0.477799058 0.618089855 0.147501379
0.507147312 0.619102001 0.146489248
0.535231113 0.619102001 0.140037984
0.567236066 0.619355023 0.133206993
0.599367619 0.618848979 0.128905773
0.633017004 0.619102001 0.127387568
0.669450164 0.619102001 0.124351181
0.699304521 0.617330790 0.117646769
0.734472036 0.620367169 0.102087364
0.763820529 0.616571665 0.095509186
0.793042243 0.615433156 0.098165542
0.824415147 0.609361410 0.116382055
0.852498710 0.607337356 0.138266966
0.877040088 0.604048371 0.155976996
0.901328087 0.600253105 0.169639558
0.927261114 0.600000024 0.183681294
0.951549947 0.598102450 0.199114129
0.969765902 0.592030406 0.211258635
0.989879608 0.589753509 0.225300372
0.999746978 0.583175361 0.227577165
0.997596204 0.586210966 0.243643194
1.000000000 0.584440172 0.252245396
0.323339552 0.654649138 0.171157137
0.331182957 0.654649138 0.175458357
0.335357368 0.652118981 0.167109564
0.345350862 0.650853992 0.163187951
0.361669987 0.643643141 0.162428945
0.370271623 0.652498484 0.170271620
0.386970192 0.650853813 0.169259891
0.410499781 0.649462104 0.167868569
0.439974993 0.649462104 0.168247968
0.464263022 0.649462104 0.162175968
0.487919152 0.648829520 0.167109549
0.514357984 0.650094688 0.169892296
0.543706298 0.650094688 0.169133127
0.569260061 0.650094688 0.158760086
0.600759208 0.652751565 0.154585525
0.629221976 0.654016554 0.148892969
0.660467982 0.653130949 0.148639932
0.694497526 0.650727093 0.144971132
0.733965993 0.653763533 0.135863483
0.765085757 0.651865721 0.122454174
0.795445979 0.650727272 0.114863954
0.825553179 0.651866138 0.116508231
0.858570874 0.639848590 0.140417472
0.880329311 0.638330519 0.163187563
0.902213693 0.636053264 0.178367987
0.924224734 0.633902609 0.190385863
0.949019611 0.636432946 0.200505629
0.973434865 0.624794245 0.218595862
0.992409945 0.624667943 0.237571225
1.000000000 0.623023570 0.248450354
1.000000000 0.618975520 0.249715194
1.000000000 0.622011125 0.267931998
0.350663960 0.691081941 0.183301926
0.353700370 0.691081941 0.192409545
0.355091959 0.682479382 0.183807775
0.364200085 0.677672148 0.181530803
0.382922381 0.680075943 0.192788988
0.385958016 0.686147928 0.186717004
0.402150631 0.682353020 0.184440285
0.423655957 0.679822981 0.183048964
0.449209094 0.679822981 0.183807865
0.476406991 0.679822981 0.186464012
0.497785866 0.676913083 0.189120889
0.519291282 0.680202484 0.188361719
0.544718266 0.683491886 0.185831621
0.575332046 0.683491886 0.183048904
0.614800394 0.683491886 0.192156494
0.639088809 0.686148167 0.175964177
0.665654361 0.687412977 0.168627203
0.697533131 0.687159896 0.169259951
0.733965993 0.687159956 0.163187951
0.765085757 0.687412977 0.154079646
0.795445979 0.683364928 0.148260742
0.824794114 0.681088150 0.147248790
0.852498055 0.682353437 0.152561516
0.876786888 0.673245072 0.167741895
0.900822043 0.669449747 0.181403935
0.923465669 0.665022016 0.194939673
0.945983231 0.660721064 0.209614024
0.973308325 0.660721004 0.224794388
0.992409945 0.657052755 0.237570971
1.000000000 0.654522777 0.252245218
1.000000000 0.652118981 0.264136553
1.000000000 0.652371943 0.274003983
0.339025617 0.691334605 0.178747982
0.350411385 0.691334605 0.182289600
0.355597973 0.691334605 0.191397756
0.360657841 0.688045502 0.185073018
0.374699384 0.689563811 0.188108802
0.384946406 0.683618009 0.189246997
0.400632352 0.689689934 0.188235000
0.420493364 0.687919021 0.187096640
0.444402069 0.687919021 0.187855735
0.471726477 0.687919021 0.190891877
0.493231893 0.693358481 0.196710885
0.518532276 0.692346334 0.195698738
0.541302621 0.694623649 0.191523999
0.566476643 0.694876671 0.187096640
0.595825016 0.697407007 0.188614577
0.625680089 0.695003211 0.185705006
0.653763533 0.697280169 0.178494543
0.685388923 0.699177742 0.179633364
0.717520237 0.701327980 0.173561364
0.745604396 0.704111338 0.178621367
0.779759645 0.704111338 0.167615250
0.811890900 0.702846229 0.161922783
0.841112971 0.705502689 0.161290362
0.870714843 0.699051142 0.163187906
0.895003021 0.694497347 0.171536982
0.917899668 0.690069735 0.185451955
0.939658105 0.684503734 0.202023715
0.964705944 0.682226360 0.217204079
0.981404483 0.679570198 0.240354270
0.995951891 0.676534176 0.251233548
1.000000000 0.673497736 0.264389724
1.000000000 0.671599984 0.277292639
0.359898448 0.716761470 0.203036457
0.364452749 0.712966442 0.202277079
0.372295976 0.712966442 0.203921497
0.373307973 0.714231312 0.207969561
0.381530285 0.717267573 0.202909514
0.401264876 0.714231551 0.202909529
0.412776738 0.710183442 0.207210466
0.427703738 0.712966442 0.205565751
0.448956192 0.712966442 0.207589820
0.475142241 0.712966442 0.212903216
0.496647626 0.716887712 0.215053722
0.518153012 0.717014432 0.211258471
0.544338763 0.717014432 0.209360734
0.566603065 0.717267394 0.205312729
0.592283130 0.720303416 0.205312729
0.621505439 0.720429897 0.202403471
0.648830175 0.720429897 0.199367464
0.679569960 0.722833693 0.200759158
0.707400084 0.724604487 0.195951983
0.740670323 0.723845363 0.199114725
0.764199972 0.724983990 0.199493989
0.800632298 0.724983990 0.187349468
0.832763970 0.727134287 0.181404233
0.863124788 0.726375461 0.176090986
0.887033761 0.722580314 0.178747728
