Assets/EldamarStudio/100 Retro LUTs Pack/LUTs/cube/Carolyn LUT.cube
LUT_3D_SIZE 5
DOMAIN_MIN 0.000000 0.000000 0.000000
DOMAIN_MAX 0.903226 0.903226 0.903226
0.101961002 0.086274996 0.074510001
0.335736692 0.088551708 0.086274996
0.607463360 0.086274996 0.074510001
0.894370973 0.099051133 0.068563998
1.000000000 0.124225155 0.092852831
0.142820716 0.318405986 0.072865292
0.340670407 0.317773372 0.070588000
0.623529494 0.326628685 0.065654717
0.893485546 0.324604541 0.063377425
1.000000000 0.304996848 0.089689977
0.176470995 0.626945376 0.000632584
0.375964820 0.634535074 0.004554423
0.647944331 0.624415219 0.004554423
0.884883106 0.587096393 0.012397011
0.998735011 0.547248423 0.100189552
0.224541128 0.852119148 0.011890996
0.376217246 0.858697176 0.035926539
0.608981669 0.845287979 0.029475112
0.851233244 0.828589141 0.036559120
0.998734832 0.777356267 0.144844800
0.346742630 0.992409945 0.255534410
0.426059514 0.992662728 0.274130404
0.586337626 0.990385532 0.269575775
0.780898154 0.982542634 0.269323081
0.989879608 0.964832127 0.294496775
0.125489995 0.086907007 0.281467706
0.327893704 0.088551708 0.284756690
0.608475506 0.067931585 0.290322423
0.889184415 0.032384723 0.275268972
1.000000000 0.117393956 0.270967871
0.145730585 0.304996699 0.282732695
0.334092408 0.306641430 0.283111989
0.621252239 0.310562968 0.280835122
0.877419233 0.302719980 0.273624688
0.998355269 0.299177527 0.266919553
0.089437015 0.609234869 0.247438282
0.346489817 0.617204428 0.255281687
0.636812389 0.611638069 0.256293416
0.868817329 0.574699402 0.265022278
0.998987913 0.544971585 0.280834883
0.219354868 0.840733826 0.268057972
0.369765699 0.842378139 0.270461708
0.602150381 0.832257986 0.271473795
0.842378497 0.817204356 0.269702524
0.998734832 0.774066806 0.298924804
0.360657692 0.986843646 0.357748389
0.447564870 0.988741100 0.380645365
0.597217143 0.987096786 0.374193370
0.784440160 0.976090789 0.373434395
0.988487959 0.962934852 0.385705501
0.139910996 0.086274996 0.552561343
0.331182659 0.075775005 0.562681615
0.610120177 0.013535608 0.567615747
0.876027942 0.000000000 0.548640251
1.000000000 0.124604777 0.509297550
0.075016022 0.289943129 0.557748377
0.319038421 0.282479405 0.561037362
0.618848681 0.274889290 0.567235649
0.866287291 0.284124136 0.533206642
0.998987913 0.333586395 0.528020084
0.000000000 0.601517797 0.559013426
0.310562998 0.603162467 0.562302351
0.624415219 0.590385377 0.554458976
0.847944319 0.578620791 0.548893154
0.995445549 0.570145786 0.538140416
0.284250557 0.819481134 0.547628105
0.415180385 0.831246078 0.556988955
0.608728349 0.823402703 0.548260629
0.827957094 0.811006069 0.542314768
0.997343361 0.776343703 0.552182138
0.429095626 0.985199213 0.570904374
0.497659832 0.981910229 0.578874111
0.619101584 0.979253650 0.581277430
0.795066357 0.973434329 0.572801948
0.983807564 0.964959025 0.582036614
0.142188132 0.083365127 0.795446098
0.323339552 0.076154135 0.805565834
0.579000473 0.028083429 0.800632536
0.850221157 0.000000000 0.791398108
0.998987854 0.102593422 0.754838705
0.093105301 0.278557986 0.803288996
0.308918267 0.273877561 0.800000012
0.579886198 0.269702524 0.806072235
0.847311974 0.261606812 0.791777194
1.000000000 0.320556641 0.750158012
0.138266712 0.554079533 0.794054151
0.342947692 0.564579248 0.800506115
0.598861575 0.567868650 0.793674946
0.837824106 0.567236066 0.788488209
0.997090340 0.586843491 0.759392977
0.297153860 0.825679958 0.789374113
0.430360705 0.824414849 0.796584547
0.619101822 0.812017977 0.786211550
0.819860995 0.800252974 0.776723266
0.987982154 0.799873114 0.779633105
0.506388485 0.976849794 0.770904422
0.561669588 0.977988541 0.780012667
0.678684235 0.974067211 0.787476301
0.809108138 0.963693798 0.778368115
0.973434627 0.960025072 0.778747261
0.149020001 0.099430986 0.971536756
0.300063580 0.092852831 0.968247950
0.526249349 0.074509837 0.966856420
0.775711536 0.044908106 0.967235982
0.994813204 0.079949804 0.958380759
0.131056130 0.266034424 0.969892502
0.294243842 0.263504386 0.971157670
0.526248991 0.263757110 0.966603458
0.765591264 0.269955724 0.961669505
0.997090161 0.284503400 0.959645987
0.211638182 0.520303845 0.954965353
0.353953272 0.531182706 0.964958966
0.549146056 0.532827437 0.961036921
0.774319887 0.535736740 0.959012985
0.994940042 0.545983434 0.952561378
0.322960168 0.764199972 0.943959534
0.430107594 0.766856253 0.951928973
0.599873483 0.772675455 0.950917065
0.791271329 0.776344121 0.950284660
0.987476170 0.786337972 0.951928794
0.487792820 0.975331962 0.946489632
0.548260689 0.977988839 0.947122037
0.667552292 0.968880653 0.946615994
0.824035287 0.960025072 0.942947507
0.958254039 0.955850840 0.938772798
