Assets/EldamarStudio/100 Retro LUTs Pack/LUTs/cube/Carolyn LUT.cube
DOMAIN_MIN 0 0 0
DOMAIN_MAX 1 1 1
LUT_3D_SIZE 32
0.101961002 0.086274996 0.074510001
0.132321000 0.086274996 0.080582000
0.162681550 0.086274996 0.080202229
0.195572317 0.086274996 0.080961324
0.232005090 0.086274996 0.086274996
0.268437862 0.086274996 0.086274996
0.302340329 0.088804677 0.086274996
0.335736692 0.088551708 0.086274996
0.368374199 0.086274996 0.085515901
0.398734987 0.086274996 0.082479522
0.440733731 0.086274996 0.079443134
0.477166235 0.086274996 0.076407261
0.517393947 0.086274996 0.074510001
0.567995071 0.086274996 0.074510001
0.607463360 0.086274996 0.074510001
0.651739359 0.086274996 0.079316996
0.695762396 0.086274996 0.080834813
0.737634540 0.087539986 0.077798583
0.777103007 0.093612008 0.074762963
0.816572070 0.096900649 0.071726643
0.857938468 0.098039001 0.070588000
0.894370973 0.099051133 0.068563998
0.919038475 0.102087483 0.062871508
0.952434897 0.105123095 0.065907903
0.979000568 0.110435992 0.071220994
0.994939983 0.113724999 0.078684658
1.000000000 0.114737131 0.086780928
1.000000000 0.120809898 0.089816540
1.000000000 0.124225155 0.092852831
0.996457994 0.130803198 0.095888764
0.993927956 0.139025986 0.099809989
1.000000000 0.145098001 0.105881996
0.111068614 0.113599390 0.077545613
0.126249000 0.116634995 0.077545613
0.160910547 0.116634995 0.081467390
0.193042308 0.116634995 0.080202229
0.225933090 0.116634995 0.080202229
0.262365878 0.116634995 0.080202229
0.298797995 0.116634995 0.080202229
0.331055999 0.115876101 0.085135929
0.364579290 0.112840295 0.087792613
0.401771367 0.110563003 0.082479522
0.440860242 0.116381995 0.085262865
0.479190499 0.114611261 0.084503770
0.515876055 0.112460747 0.082479745
0.559139729 0.110816032 0.080582000
0.601391375 0.113599390 0.080582000
0.643263578 0.113599390 0.078178197
0.686654031 0.113599390 0.076280616
0.728526175 0.114231795 0.073623993
0.767994642 0.117899999 0.077798575
0.818595767 0.121189356 0.071979605
0.855281353 0.120430037 0.068690740
0.891334593 0.121315375 0.068564259
0.921948373 0.126375511 0.069069989
0.952434897 0.129411876 0.075015523
0.981277287 0.134724766 0.075774617
0.996584296 0.136622101 0.077545613
0.999493957 0.135483459 0.080202229
0.996963620 0.139025897 0.080708161
0.999620438 0.142441839 0.089057431
1.000000000 0.145477533 0.085768417
0.997343361 0.151169986 0.089057192
0.996963620 0.157242000 0.105881996
0.113724999 0.143074006 0.080581777
0.133206382 0.143959388 0.076280773
0.161290318 0.146995544 0.082732543
0.196457922 0.143200383 0.084503770
0.227704078 0.140923321 0.081594005
0.260594875 0.142694548 0.076280773
0.292726010 0.144844770 0.082732551
0.329158425 0.141555771 0.079443134
0.362049192 0.138772994 0.084503323
0.400126696 0.137128294 0.082606003
0.439595073 0.140670553 0.083112091
0.477039725 0.142694548 0.084124222
0.515749514 0.140923768 0.082985580
0.556483090 0.139152557 0.080455258
0.598987758 0.140291184 0.082353003
0.643643320 0.143074006 0.079949200
0.683111727 0.143074006 0.079949193
0.726881504 0.143074006 0.075774789
0.773940563 0.144591808 0.075774767
0.813788891 0.147628129 0.070714764
0.854016483 0.146869034 0.068437770
0.885388911 0.145856902 0.065654866
0.916382194 0.150790542 0.066413507
0.946742773 0.155850679 0.070461780
0.976976275 0.156862766 0.074129999
0.995951712 0.157368779 0.078304663
1.000000000 0.155091554 0.081593774
0.998608351 0.159772217 0.084882773
0.998734832 0.158507049 0.084250592
1.000000000 0.163314655 0.091587752
0.997343421 0.165844545 0.089689918
0.991777003 0.169386551 0.105881996
0.117520161 0.175964326 0.083618164
0.136242554 0.172169164 0.077545844
0.164832324 0.175585091 0.078431450
0.196963981 0.177356333 0.083744675
0.229980916 0.168627381 0.083744675
0.260341704 0.169006944 0.077292904
0.294497013 0.172042996 0.080835156
0.325616419 0.172675326 0.082985580
0.362808287 0.167362228 0.077672102
0.399747163 0.166856155 0.079696484
0.437823862 0.168500870 0.081087843
0.475268513 0.169513002 0.081087843
0.513978302 0.169513002 0.079949491
0.556736112 0.169766039 0.077672161
0.600252926 0.170778155 0.081720419
0.642631173 0.171916515 0.081214361
0.684882939 0.174699485 0.076154031
0.722580075 0.174699485 0.077925429
0.774699569 0.174699485 0.072485991
0.815180361 0.176217675 0.068943992
0.849715710 0.177988589 0.066666998
0.883112133 0.174952462 0.068691000
0.910942495 0.177482814 0.066413648
0.940164685 0.182416156 0.067172743
0.967995167 0.182669312 0.068943709
0.992409647 0.181151167 0.070967503
0.999493957 0.176091164 0.080075905
0.998734832 0.180645153 0.086906992
1.000000000 0.181277648 0.083744682
0.997470021 0.182289436 0.084756657
0.998355389 0.188361987 0.092599884
0.990764976 0.189120993 0.102087162
0.125869542 0.211258546 0.084756903
0.141808942 0.203668252 0.080581777
0.166603550 0.204174548 0.079569548
0.196584538 0.207337543 0.078431003
0.226565093 0.207717001 0.078051552
0.256925851 0.201644227 0.078051552
0.295635313 0.203162417 0.080581777
0.330170393 0.203795090 0.080328844
0.362428755 0.203035995 0.078051552
0.401897937 0.199999601 0.075015932
0.438456565 0.200252637 0.077798679
0.474889070 0.200252637 0.078051552
0.513598859 0.200252637 0.076913103
0.556103647 0.200252637 0.074130453
0.601518214 0.203162506 0.079949453
0.643390357 0.204554096 0.081594005
0.682479143 0.206072181 0.077798814
0.722580075 0.208475992 0.069576040
0.765084982 0.208475992 0.066540420
0.807210326 0.208475992 0.066666998
0.844022632 0.209614351 0.067046449
0.876660526 0.210626140 0.067932002
0.909930408 0.207843512 0.073624492
0.937507868 0.210879192 0.070588097
0.963314533 0.209361300 0.070967548
0.984440386 0.206704870 0.070208549
0.999873519 0.203415543 0.070967518
0.996837139 0.203415543 0.080075897
0.998734832 0.205692828 0.077419467
0.997217000 0.207969859 0.076660313
0.993421912 0.211511537 0.081214212
0.996457577 0.217583537 0.093359001
0.128905937 0.238582939 0.072612129
0.150158331 0.241619334 0.081720516
0.170398697 0.238330036 0.086147934
0.195699155 0.236812159 0.084882773
0.223529473 0.235041395 0.078051552
0.250853866 0.238077000 0.075015940
0.293864310 0.239595190 0.077545621
0.330170393 0.237697870 0.077292778
0.362049192 0.233396769 0.075774841
0.398861557 0.230360374 0.078051545
0.435420811 0.233143732 0.080834933
0.471853435 0.233649805 0.077798940
0.510563254 0.233649805 0.073877297
0.553067982 0.233649805 0.071094066
0.595572710 0.233649805 0.071094066
0.643390596 0.238962859 0.074509867
0.684376895 0.242504671 0.074003816
0.722580075 0.244907990 0.069323011
0.765084982 0.244907990 0.063504040
0.804807067 0.244907990 0.066034421
0.840986609 0.243010744 0.068564259
0.872359157 0.240986735 0.069070190
0.900822043 0.238203511 0.067552492
0.931182921 0.241239905 0.064516097
0.961037517 0.239721581 0.070588291
0.983428299 0.238077000 0.071220942
0.997090101 0.236558944 0.067678869
0.999873519 0.230739936 0.070967503
0.999493957 0.230739936 0.077419050
1.000000000 0.229475230 0.079696283
0.998987973 0.229222253 0.082732543
0.999493957 0.232763931 0.087286994
0.137001678 0.281087965 0.073118322
0.155724391 0.281594038 0.074636385
0.181277782 0.280328840 0.077293001
0.204554319 0.279822797 0.080076002
0.231372863 0.278937638 0.075142324
0.262998253 0.275522023 0.069955938
0.295382649 0.278557628 0.071979679
0.335989743 0.281594038 0.073371001
0.369639516 0.278937548 0.071979679
0.406072319 0.275901139 0.073244527
0.445034742 0.273624510 0.078810550
0.483491242 0.276660383 0.079822682
0.523845553 0.278304935 0.074762680
0.567742050 0.279949605 0.070588000
0.610246778 0.282226324 0.070588000
0.659962416 0.284630120 0.070588000
0.705629647 0.287539631 0.068943679
0.744718432 0.288930953 0.064895585
0.785325646 0.288930953 0.060721323
0.822517395 0.286400646 0.060468357
0.856293738 0.286400646 0.067299254
0.887033761 0.283997446 0.068563998
0.914611101 0.280834973 0.064516179
0.947375178 0.276660532 0.071094416
0.973181367 0.277419627 0.070335321
0.990512311 0.273244977 0.077292994
0.998608351 0.270967960 0.076787002
0.999620438 0.268943965 0.077798866
1.000000000 0.265654653 0.088551305
1.000000000 0.267425865 0.092852540
1.000000000 0.267679006 0.097659692
1.000000000 0.270714641 0.103984669
0.142820716 0.318405986 0.072865292
0.164326474 0.313472718 0.074510001
0.180771783 0.314610928 0.077799000
0.208096161 0.315369695 0.076533839
0.235800371 0.318026543 0.076154292
0.275521934 0.313219696 0.072612293
0.300695628 0.314737380 0.070841387
0.340670407 0.317773372 0.070588000
0.376344085 0.319291592 0.071347095
0.411891282 0.316255212 0.072232716
0.449588865 0.316508561 0.073118001
0.490701973 0.315876126 0.073497713
0.532447636 0.318912059 0.072359070
0.578241765 0.322201401 0.067046031
0.623529494 0.326628685 0.065654717
0.668311417 0.328020215 0.064010009
0.715370357 0.329538405 0.062491816
0.755977511 0.329538405 0.057178877
0.793422043 0.329538405 0.054143261
0.828463018 0.330044031 0.055534583
0.861100733 0.325616419 0.056293555
0.893485546 0.324604541 0.063377425
0.922833979 0.321568906 0.059835505
0.954712152 0.317014694 0.068943903
0.981277704 0.312207699 0.072865292
0.997216702 0.310816020 0.074256964
1.000000000 0.306008965 0.080076002
1.000000000 0.306008965 0.082353003
1.000000000 0.304996848 0.089689977
1.000000000 0.300569206 0.101454504
1.000000000 0.302719980 0.108918481
1.000000000 0.304996699 0.120303407
0.147375092 0.348766178 0.070588000
0.170904770 0.344212562 0.072865292
0.185831904 0.340670407 0.075015910
0.206578150 0.346489191 0.081087843
0.233143538 0.351802200 0.076913007
0.278304785 0.349146008 0.075395003
0.307653099 0.350410879 0.075901322
0.336115986 0.351928890 0.072106391
0.380898088 0.354965091 0.069829091
0.414294541 0.351928711 0.072865479
0.451359838 0.355471164 0.070082128
0.491081506 0.355724186 0.064769164
0.533965886 0.356862843 0.061733261
0.579759955 0.359646201 0.058949903
0.628336728 0.364706159 0.056420229
0.672865570 0.366730094 0.053384200
0.713093281 0.365971178 0.051106907
0.754965425 0.365971178 0.049968090
0.788614929 0.365971178 0.047311969
0.821252406 0.367994934 0.049082745
0.854269445 0.365338087 0.052498192
0.885895193 0.360278219 0.052751224
0.922074914 0.357242584 0.055787574
0.952435136 0.354206175 0.063630804
0.977482557 0.349652171 0.068943709
0.994939983 0.344212621 0.071220577
1.000000000 0.341682285 0.073750906
1.000000000 0.341682285 0.079316899
0.998481989 0.341682285 0.084629990
1.000000000 0.337381214 0.095003061
1.000000000 0.334598184 0.108918093
1.000000000 0.334598184 0.127134904
0.156483486 0.379126996 0.070587985
0.177735865 0.388235390 0.070587993
0.190512225 0.383681208 0.066413514
0.211131856 0.383933961 0.068437509
0.245287552 0.394306988 0.076912992
0.266539961 0.394306988 0.064769000
0.306641161 0.394180506 0.070841312
0.339911193 0.392662704 0.071220994
0.371789694 0.391397893 0.066793472
0.414294541 0.394433498 0.066793472
0.453510612 0.400126725 0.064010121
0.492852747 0.400000215 0.054902002
0.533586264 0.399367630 0.046552867
0.576723576 0.402150989 0.043769509
0.625300348 0.402150989 0.043769509
0.671473920 0.404807180 0.041239835
0.710816205 0.404680699 0.039721996
0.745857000 0.402403980 0.040860470
0.785325527 0.402403980 0.046932481
0.816192269 0.402403980 0.047058996
0.850474477 0.398734987 0.052878216
0.885642111 0.393674612 0.058570959
0.919038534 0.390639007 0.058823958
0.949399352 0.387602627 0.061859574
0.972928762 0.384566784 0.067425504
0.990133047 0.380012989 0.070587993
1.000000000 0.375079483 0.070714511
1.000000000 0.375079483 0.070714518
0.994687021 0.375079483 0.073624350
0.995951951 0.369766295 0.083871178
1.000000000 0.365211964 0.099810451
1.000000000 0.371030957 0.118026510
0.156863004 0.424035609 0.053130999
0.183934391 0.427324235 0.064769000
0.200885773 0.425679862 0.064769000
0.215306744 0.426185727 0.060215000
0.243769646 0.436811745 0.061733000
0.290322691 0.436811745 0.064769000
0.309044749 0.431751728 0.055154681
0.346869111 0.432637423 0.060341679
0.381530762 0.432890743 0.060088903
0.419734001 0.433776140 0.057938125
0.456419736 0.436811745 0.055028260
0.497912616 0.438836008 0.051992387
0.538266897 0.438962489 0.042505004
0.578747869 0.441745847 0.034155838
0.619354784 0.441745847 0.031499002
0.660720766 0.444149673 0.033902809
0.705249846 0.444149435 0.033397004
0.744845092 0.441113263 0.034029417
0.782036901 0.438836008 0.037824139
0.815939307 0.436053365 0.043896131
0.844528735 0.432131886 0.044149127
0.875901401 0.427071482 0.047185257
0.907147527 0.423908889 0.047185257
0.934724987 0.418089837 0.047438230
0.965085685 0.417330742 0.055028412
0.986843944 0.413535893 0.060341671
0.998987973 0.408981800 0.063883863
0.994180977 0.411385000 0.073497869
0.999494016 0.403415859 0.076154023
0.997976005 0.399114907 0.086274311
0.999114394 0.392916143 0.098798119
0.997090161 0.392915875 0.108918130
0.166983247 0.465528220 0.043011002
0.182163119 0.470588088 0.043011017
0.204933509 0.475268513 0.042504504
0.225173891 0.470461667 0.041239664
0.247185081 0.478051752 0.037444755
0.287286550 0.481340766 0.043516755
0.323213249 0.480328739 0.043010689
0.351296663 0.477545738 0.038836010
0.388868093 0.478684396 0.041872405
0.424035281 0.477419257 0.038836010
0.460467994 0.480328888 0.035800144
0.500948727 0.481340766 0.032763757
0.542314887 0.480202138 0.027451148
0.582036793 0.481214255 0.016951725
0.623276353 0.481214255 0.013915339
0.660721064 0.483618051 0.013662303
0.698671639 0.483618051 0.015180500
0.740164518 0.479949266 0.017078070
0.775205672 0.475521535 0.022897050
0.808855116 0.470461607 0.028716017
0.840354204 0.463630497 0.038583003
0.867805123 0.458444118 0.039089002
0.897153735 0.455534518 0.039215513
0.926375926 0.453257531 0.041113261
0.955977023 0.449715257 0.047944028
0.983554780 0.446932256 0.058444075
1.000000000 0.440860242 0.063377932
0.996963978 0.439342052 0.070967734
0.995445728 0.433776110 0.075142413
0.997975767 0.428210050 0.079949245
0.997975767 0.424161971 0.091713995
0.996078014 0.422264248 0.097786009
0.176470995 0.523213208 0.028969366
0.187855616 0.525869548 0.024035718
0.207843050 0.530803204 0.020240460
0.231625438 0.534218729 0.017710166
0.259329289 0.531183004 0.015054004
0.289689869 0.534977913 0.019608006
0.325110644 0.535989940 0.021758359
0.363820404 0.535989940 0.020620007
0.401012272 0.535989940 0.022138003
0.435167819 0.533333123 0.020240162
0.474889398 0.534977794 0.014927231
0.511954486 0.534851253 0.014168393
0.553320944 0.532574296 0.013409002
0.592789352 0.529537976 0.004554355
0.634408414 0.528652549 0.000632584
0.674383223 0.529917717 0.000000000
0.708539009 0.528779387 0.000000000
0.744971752 0.524478018 0.000632578
0.778874278 0.517899930 0.008728978
0.811132073 0.511827946 0.015054006
0.842631102 0.506135166 0.023782350
0.870967627 0.497026771 0.033902615
0.898292005 0.493485183 0.034282129
0.928652823 0.490449280 0.037318263
0.956736267 0.489310652 0.049462344
0.978620648 0.484882951 0.055407692
0.999367416 0.478810787 0.068058416
1.000000000 0.472738624 0.073624186
0.998481810 0.468943626 0.080075823
0.994939625 0.463504076 0.089437261
0.996710598 0.459582269 0.097280264
0.997216642 0.459076285 0.103858277
0.176470995 0.605693042 0.003668968
0.191903651 0.603162646 0.000885613
0.215686277 0.604174793 0.000253032
0.242252156 0.606451988 0.001012129
0.270715028 0.606325448 0.003668968
0.301075011 0.603289068 0.003668968
0.336495668 0.602530062 0.006198709
0.375711441 0.602783024 0.006198711
0.417710274 0.602530062 0.005186966
0.457179487 0.602530062 0.011258963
0.501454890 0.602530062 0.003289162
0.539405286 0.600758851 0.001771224
0.575078905 0.596837103 0.004554354
0.614548087 0.591018140 0.007590032
0.654016376 0.587982476 0.001518038
0.695382535 0.587350070 0.000253032
0.732321382 0.584061027 0.000253032
0.763694108 0.577862442 0.000885544
0.800126970 0.568754077 0.003921942
0.831499100 0.561923087 0.008728974
0.861606479 0.557748258 0.016445255
0.890196025 0.552940965 0.024541192
0.914737046 0.544085622 0.031119946
0.945097864 0.535230935 0.034788132
0.970904529 0.532195032 0.050980307
0.988488317 0.529412031 0.063504033
0.996078074 0.523339987 0.066034086
0.999114454 0.517267227 0.081214465
1.000000000 0.516255021 0.093484975
0.996963978 0.512713075 0.108412370
0.993927956 0.506894112 0.125110984
1.000000000 0.500822067 0.137254998
0.176470995 0.626945376 0.000632584
0.194687009 0.629981041 0.000632584
0.218722194 0.629601419 0.002150774
0.242251903 0.632763982 0.002024255
0.265022546 0.636811972 0.000632584
0.304111391 0.636685431 0.000632584
0.339532048 0.633649707 0.003162906
0.375964820 0.634535074 0.004554423
0.415180624 0.635420501 0.004680902
0.457179487 0.632890821 0.008222582
0.490828872 0.632890821 0.005566454
0.530803263 0.632890821 0.001265160
0.569006920 0.631119609 0.000632584
0.608476043 0.627450883 0.001518038
0.647944331 0.624415219 0.004554423
0.685009539 0.623782814 0.003289416
0.722707391 0.619228601 0.003289416
0.757242501 0.612017810 0.003921830
0.791018546 0.608222365 0.006957540
0.827451289 0.596331358 0.001644576
0.856926143 0.591144681 0.005692586
0.884883106 0.587096393 0.012397011
0.911701381 0.580518365 0.018975183
0.942062259 0.577482700 0.037191983
0.967868388 0.568627477 0.049968697
0.986590564 0.562808394 0.065022402
0.995572090 0.556736410 0.075142473
0.993042409 0.550664365 0.090322845
0.998735011 0.547248423 0.100189552
1.000000000 0.543073833 0.109930195
0.998735011 0.537887216 0.122707173
1.000000000 0.534218431 0.137254998
0.183681190 0.657811761 0.000000000
0.197090819 0.658444226 0.000000000
0.219607815 0.663630605 0.000000000
0.244149163 0.666666567 0.001518196
0.265022278 0.671220541 0.000000000
0.298418939 0.667172611 0.000000000
0.337760836 0.667046070 0.000126518
0.375838310 0.664010048 0.001518196
0.412271082 0.665527880 0.001518197
0.449842215 0.665781260 0.002909522
0.488425076 0.663250983 0.007337063
0.521821439 0.661227286 0.002277195
0.558254123 0.659709156 0.001138644
0.595446289 0.656672835 0.002656772
0.637065351 0.653637171 0.005692607
0.678937554 0.653004766 0.003922000
0.713852167 0.653004766 0.002403808
0.749399304 0.646552980 0.002783187
0.784566998 0.639974594 0.007590028
0.813535929 0.635799766 0.004680800
0.849968672 0.627450764 0.000506064
0.879822969 0.621884704 0.004048132
0.908412218 0.614294887 0.008855287
0.934219062 0.606704652 0.020240210
0.962302506 0.605945766 0.038456969
0.982542634 0.597216904 0.057938166
0.994686842 0.590638876 0.075142324
0.997343421 0.586464584 0.092220433
0.995066166 0.575837970 0.097280145
0.999367416 0.574572802 0.115243375
0.999114394 0.567994773 0.126628786
0.997596204 0.560404599 0.137254998
0.188235000 0.689689994 0.001518192
0.200379774 0.694244146 0.000000000
0.218090013 0.690954983 0.000000000
0.247438341 0.697027326 0.000000000
0.269576162 0.702719808 0.000000000
0.295382679 0.700063169 0.000000000
0.333333522 0.696015179 0.000000000
0.372801930 0.695888698 0.000000000
0.409993976 0.694370449 0.000000000
0.442631513 0.697406828 0.000000002
0.478810877 0.694623530 0.002783002
0.517267227 0.690069437 0.003795004
0.551802278 0.689310491 0.000000000
0.586084902 0.686780214 0.002403808
0.627324760 0.682479382 0.004174580
0.665275395 0.681846976 0.003921616
0.707780242 0.680329144 0.002403808
0.741809130 0.680329144 0.000632576
0.778241992 0.673877358 0.005819194
0.809361339 0.667298973 0.005060352
0.840860248 0.662365377 0.003542452
0.874256909 0.655281246 0.001518192
0.903858006 0.646173537 0.004048480
0.928146839 0.637065470 0.010373102
0.953194082 0.633270144 0.024794377
0.979127109 0.630487144 0.043010782
0.993169010 0.622011364 0.066539869
0.999240994 0.617963612 0.085768498
0.998861372 0.609993875 0.096774153
0.997849226 0.601897180 0.106134996
1.000000000 0.600126207 0.130423814
0.997596204 0.589247167 0.140290990
0.188867584 0.718785107 0.003289424
0.202277184 0.727260888 0.001518189
0.219354987 0.724730909 0.000000000
0.241366327 0.721947849 0.000632576
0.277040005 0.727640986 0.000253028
0.296267986 0.730676591 0.000000000
0.330297381 0.727387547 0.000000000
0.369133711 0.723972142 0.000632576
0.406325191 0.724098623 0.000632576
0.436686009 0.727135003 0.000632576
0.469323277 0.723719299 0.000632576
0.507400274 0.719924152 0.000000000
0.545730293 0.716635048 0.000000000
0.582163095 0.719417691 0.000000000
0.621252656 0.714104712 0.000000000
0.657811761 0.710942149 0.000632576
0.693864822 0.710056722 0.000000000
0.735104561 0.707020938 0.000000001
0.771537423 0.707020938 0.003036393
0.805186808 0.699936748 0.003922001
0.837950706 0.692726135 0.003922000
0.868690550 0.686274409 0.003289426
0.896141410 0.677166104 0.003289426
0.921442270 0.668058455 0.005819113
0.946995616 0.662871838 0.016065728
0.971283734 0.658444107 0.033269994
0.992030442 0.652372003 0.050980087
0.997976005 0.646299958 0.071979463
1.000000000 0.640227973 0.089183837
0.999367416 0.633523285 0.105122969
1.000000000 0.628083169 0.118911631
1.000000000 0.622011125 0.143200442
0.191904008 0.743074000 0.000253032
0.210119992 0.749145985 0.003289416
0.229980826 0.749019802 0.001518193
0.249715358 0.749272943 0.001265160
0.270968020 0.754965484 0.003289417
0.301328003 0.758001089 0.000253033
0.330676645 0.758507013 0.000000000
0.365085453 0.756356716 0.001644707
0.400253236 0.754333019 0.003668965
0.430614024 0.754459500 0.003668965
0.460974008 0.748767018 0.003668965
0.499683559 0.746995986 0.001644710
0.539658248 0.746490002 0.000000000
0.576091051 0.746742964 0.000000000
0.612523794 0.746742964 0.000000000
0.654016554 0.739026129 0.002403802
0.691208184 0.735230982 0.002150774
0.725996137 0.734345436 0.000000001
0.762428999 0.731309056 0.000000007
0.796078444 0.728526413 0.003036392
0.827577472 0.723086953 0.003922000
0.856166959 0.717014730 0.002909872
0.880961061 0.710562587 0.000253043
0.911321878 0.701454878 0.000253063
0.941176534 0.694624066 0.005060034
0.968247890 0.688804984 0.018848715
0.988994062 0.682732880 0.038836103
0.992030442 0.676660120 0.054016467
0.997976005 0.670588076 0.075015843
0.998228788 0.662745357 0.097532980
0.997216642 0.655661404 0.118152641
1.000000000 0.652372003 0.134092093
0.219987735 0.806325436 0.000000000
0.232637733 0.806831419 0.000253031
0.250853717 0.808602452 0.001138643
0.270208716 0.807464063 0.000000000
0.289943367 0.809361517 0.001138643
0.320303351 0.807590187 0.000506064
0.343073696 0.808096111 0.000000000
0.375964403 0.806451380 0.000000000
0.411638081 0.803415537 0.001138643
0.444022655 0.801391721 0.001138643
0.477166712 0.803921402 0.001138643
0.507526696 0.797849417 0.001138643
0.546995282 0.796331406 0.000000000
0.586464107 0.795825362 0.000000000
0.620367169 0.790765405 0.000000000
0.656799316 0.788362205 0.000000000
0.695509017 0.783048928 0.001138643
0.731435716 0.781151175 0.000000001
0.770019352 0.778114796 0.000000007
0.800885439 0.775079072 0.005566005
0.834282279 0.770145714 0.002909651
0.865528345 0.765085578 0.004174769
0.893611372 0.760531127 0.009234851
0.923972189 0.748766661 0.027830726
0.952055633 0.741935730 0.036938719
0.973560929 0.734472096 0.050980378
0.989753067 0.726502299 0.070208803
0.997343421 0.718152881 0.080835164
0.997722983 0.709424615 0.117267489
1.000000000 0.703225672 0.133965716
0.998861372 0.696900666 0.157747909
1.000000000 0.693864763 0.186211109
0.227577522 0.838962972 0.003794996
0.239721999 0.835168004 0.000000000
0.258064747 0.838962972 0.000000000
0.275015920 0.838962972 0.002529999
0.293738544 0.839342415 0.003415545
0.322580725 0.839341998 0.001897740
0.351043314 0.840733767 0.013282729
0.377229393 0.837444782 0.011638022
0.411638170 0.834914505 0.010626087
0.443896264 0.833017230 0.009487733
0.477292866 0.833902597 0.009487733
0.512460709 0.832763791 0.007589993
0.543959379 0.827830374 0.006451639
0.583681107 0.827071488 0.006198736
0.618722498 0.824288487 0.009487733
0.650727749 0.818722546 0.005692737
0.690195739 0.815686524 0.008728733
0.726122379 0.813282728 0.010752725
0.761796474 0.811511517 0.013282737
0.796711028 0.810373127 0.018848734
0.828968704 0.807336986 0.017330732
0.862365901 0.800253153 0.015306728
0.893864691 0.795319438 0.023529494
0.927767098 0.786717474 0.037697904
0.957748294 0.777229726 0.055913981
