Assets/EldamarStudio/100 Retro LUTs Pack/LUTs/cube/Carol LUT.cube
LUT_3D_SIZE 8
DOMAIN_MIN 0.000000 0.000000 0.000000
DOMAIN_MAX 0.903226 0.903226 0.903226
0.149020001 0.105881996 0.121569000
0.152814999 0.105122998 0.121569000
0.318153083 0.054269806 0.119291902
0.478684306 0.002783356 0.107527003
0.636938393 0.008475802 0.088678196
0.785452187 0.001897740 0.052877739
0.904491007 0.026439285 0.078431003
0.996204793 0.066793144 0.090322822
0.119544543 0.177103087 0.111448005
0.203288645 0.180645540 0.101202004
0.347881109 0.173181087 0.103605099
0.517900288 0.172801644 0.082479715
0.666793168 0.162176102 0.066034004
0.801644266 0.165717646 0.066919543
0.920429826 0.173181087 0.089690253
0.997469962 0.188108996 0.112966523
0.154333100 0.325869381 0.066540092
0.233396277 0.321568638 0.068944000
0.368248105 0.319671094 0.072991997
0.517141283 0.317267299 0.065148905
0.654902279 0.318912178 0.075268902
0.791524351 0.315749288 0.085641742
0.912207484 0.311828107 0.107273899
0.995445728 0.309930354 0.131182835
0.226944640 0.484629989 0.098039001
0.284503192 0.480202645 0.096015453
0.402277112 0.484503299 0.093611538
0.536242962 0.489690363 0.072865002
0.677292943 0.483618021 0.063504189
0.803162813 0.470335305 0.114737637
0.910057008 0.466793627 0.150284290
0.992662966 0.455787450 0.181657180
0.303225994 0.620620191 0.154205993
0.341176629 0.614800751 0.148386836
0.423023403 0.616698205 0.148766384
0.535231113 0.619102001 0.140037984
0.669450164 0.619102001 0.124351181
0.793042243 0.615433156 0.098165542
0.901328087 0.600253105 0.169639558
0.989879608 0.589753509 0.225300372
0.359898448 0.716761470 0.203036457
0.381530285 0.717267573 0.202909514
0.448956192 0.712966442 0.207589820
0.544338763 0.717014432 0.209360734
0.648830175 0.720429897 0.199367464
0.764199972 0.724983990 0.199493989
0.887033761 0.722580314 0.178747728
0.976091087 0.706514776 0.240733624
0.472106278 0.837191582 0.315243244
0.477798998 0.829601586 0.308539003
0.514611304 0.830613554 0.308286279
0.588994324 0.831751883 0.317900300
0.669196546 0.830740094 0.317647278
0.767742038 0.837697566 0.315370262
0.867552280 0.838456571 0.315876275
0.974066794 0.838962734 0.305755556
0.546868742 0.919291615 0.426691741
0.562808156 0.917141080 0.414547890
0.587096870 0.914863884 0.405945599
0.641619444 0.919291615 0.418722212
0.699430823 0.922327638 0.429474771
0.780771732 0.922454000 0.432510674
0.864389300 0.930676520 0.439342052
0.949272633 0.924477756 0.430613428
0.143959448 0.105881996 0.143832549
0.173181087 0.104364000 0.148513556
0.342441171 0.039721452 0.151297003
0.508159697 0.034155454 0.152435452
0.658191144 0.045034643 0.146489277
0.804553747 0.060974088 0.164199740
0.919417977 0.097786285 0.160910547
0.997090399 0.128020436 0.178115100
0.123466447 0.184946090 0.166476652
0.225300536 0.180645540 0.156736106
0.367868602 0.185325637 0.164958552
0.528146327 0.184566736 0.162302107
0.683365166 0.188108906 0.168121547
0.815433025 0.193168640 0.170904279
0.920556545 0.196331546 0.170777798
0.997469962 0.204554096 0.180898264
0.184187099 0.342820704 0.164958552
0.260215104 0.334598184 0.164199546
0.382416189 0.332195103 0.159140006
0.529664397 0.331056565 0.156356648
0.670714378 0.334598273 0.170904189
0.802909732 0.329538375 0.177482530
0.921695292 0.332574338 0.184187278
0.995445788 0.333459646 0.203288928
0.249462008 0.502213657 0.188235089
0.318912268 0.497533441 0.191777542
0.414421439 0.502593100 0.180265993
0.556230545 0.498924613 0.159519553
0.693864882 0.493485332 0.165591195
0.808601797 0.480961531 0.194686726
0.910562694 0.469449908 0.215939254
0.990891755 0.458823532 0.229095444
0.327514172 0.642631173 0.216571540
0.362428725 0.630107343 0.216318905
0.445161164 0.628842831 0.217330635
0.555976927 0.630866408 0.207463369
0.679443359 0.633143365 0.186717540
0.802529991 0.620240629 0.176976278
0.903478682 0.605819166 0.228589460
0.992409945 0.595699191 0.272991538
0.390385717 0.727893472 0.258570701
0.404048085 0.731561899 0.257811725
0.469323277 0.727640867 0.260341525
0.557748556 0.727134585 0.266666621
0.657937825 0.731562018 0.249335915
0.771536887 0.730803192 0.243896544
0.893990815 0.729158640 0.227198020
0.982795358 0.715370059 0.288551629
0.483111799 0.840606809 0.350284398
0.497027040 0.837318003 0.352055579
0.537887514 0.838962734 0.351929009
0.606072009 0.838077009 0.356483102
0.686780512 0.841365993 0.360910743
0.770904720 0.836306214 0.348766834
0.870841265 0.837823987 0.337634087
0.972422659 0.831878722 0.316887945
0.563820601 0.924477756 0.451992661
0.579000354 0.916761637 0.450474292
0.595319331 0.922201216 0.440860152
0.652498543 0.921821713 0.454269499
0.713978469 0.921947777 0.460088611
0.785705209 0.926755071 0.461985767
0.862492085 0.933839023 0.463757128
0.950663984 0.929790795 0.459455729
0.101201907 0.102719903 0.253763169
0.198229089 0.083997905 0.257685095
0.341556191 0.035293996 0.263251096
0.500948787 0.010626357 0.265907735
0.668437421 0.018596090 0.267931998
0.799873650 0.087286465 0.274383187
0.913852036 0.165085182 0.284503371
0.995445728 0.197470084 0.287918955
0.134850994 0.184946090 0.283618182
0.235167995 0.182163537 0.284123629
0.375711650 0.182922542 0.280834734
0.537508249 0.182163447 0.283997655
0.686401188 0.195445627 0.281593740
0.816698313 0.216192096 0.282099992
0.916255534 0.240860447 0.293738097
0.997469962 0.254269332 0.292346805
0.194307193 0.340797096 0.282099992
0.270335078 0.339658618 0.276154667
0.394054145 0.340038210 0.277293175
0.533965707 0.341176569 0.285515636
0.669829309 0.347881198 0.287539214
0.800885439 0.349778444 0.293738186
0.916255534 0.351802200 0.295382977
0.996710896 0.358887106 0.306515098
0.274383187 0.505755901 0.289563626
0.319417715 0.503352106 0.296774447
0.431625545 0.498924732 0.299936563
0.556609988 0.505629182 0.283111989
0.691840708 0.496647656 0.277419209
0.801391661 0.487539262 0.303352207
0.906514883 0.483491302 0.311574757
0.988867521 0.477672458 0.317520440
0.358001083 0.641872227 0.321062386
0.387349725 0.629981279 0.316887736
0.463124365 0.635547280 0.321948171
0.565718174 0.633143485 0.312966645
0.682479382 0.632384598 0.289816260
0.805312753 0.623023391 0.284756541
0.901454985 0.609740555 0.324478298
0.991650820 0.604680538 0.347122192
0.422011465 0.737634063 0.339152187
0.437065095 0.732194781 0.339785278
0.492979079 0.727893591 0.339911282
0.577735305 0.735104382 0.343074173
0.668058038 0.734724939 0.334724814
0.777102828 0.735483825 0.325616479
0.895129502 0.733586192 0.318659186
0.982542694 0.720177114 0.360657811
0.506008983 0.842758060 0.408728451
0.526249051 0.839847803 0.417836636
0.565717816 0.839342177 0.416445374
0.618343055 0.838962615 0.424668103
0.692852437 0.840227365 0.423782259
0.776850104 0.832763851 0.411132246
0.868690848 0.836306155 0.396205217
0.967615783 0.835167706 0.383301824
0.591397643 0.927640676 0.502719760
0.597216904 0.925490260 0.491967082
0.619228005 0.921315670 0.492219806
0.662492216 0.927893341 0.498039067
0.728905857 0.927134633 0.500569046
0.797723055 0.927767038 0.506135464
0.866033971 0.931561887 0.503731549
0.957874537 0.930170715 0.505755723
0.135230988 0.090702355 0.376723289
0.224794179 0.060974263 0.380771369
0.353320271 0.035294000 0.381404191
0.509550929 0.027450999 0.388488293
0.664895833 0.031878378 0.393801630
0.796584725 0.095508724 0.384060800
0.913472652 0.171157271 0.392915905
0.992156625 0.242631257 0.398481637
0.153953448 0.173940182 0.410878807
0.243643194 0.175078735 0.393674731
0.379886270 0.173434749 0.399114639
0.535104275 0.184440538 0.405439645
0.683238447 0.191777289 0.406198740
0.810752809 0.217583895 0.391777277
0.913978338 0.267046183 0.400126517
0.996204793 0.304364532 0.407463580
0.192663088 0.333713174 0.410499364
0.257685095 0.325489849 0.392030656
0.395319551 0.329791188 0.394433826
0.536242723 0.341935664 0.405060232
0.677672446 0.346236348 0.401897281
0.798228800 0.361416817 0.398228914
0.903984904 0.384187102 0.411891282
0.994939983 0.391903907 0.416065902
0.300316006 0.498165637 0.419101655
0.342188537 0.495762527 0.405565798
0.443643183 0.499304295 0.407590091
0.563187599 0.500442624 0.402403623
0.689816177 0.500822127 0.410626203
0.795192778 0.506388366 0.422390908
0.901707649 0.502213955 0.421505272
0.988994300 0.501075625 0.429348290
0.378620923 0.640986383 0.427704096
0.405566275 0.630740285 0.424668193
0.482479364 0.630360663 0.426565647
0.579380035 0.629601836 0.419861078
0.687665761 0.631119728 0.406831026
0.800758958 0.623909056 0.405565917
0.895256221 0.618722498 0.432637274
0.977861762 0.616065979 0.446932405
0.454016358 0.729285479 0.442631006
0.470588148 0.727514148 0.436559021
0.522200942 0.729917824 0.437824190
0.591651022 0.729158759 0.441619366
0.682606161 0.732700467 0.442884117
0.777102828 0.737001717 0.427197993
0.890449286 0.731941700 0.416698396
0.975079000 0.724731207 0.458064348
0.544844925 0.838329911 0.496647537
0.551549494 0.836558819 0.496647656
0.586463988 0.832637727 0.492346704
0.639468551 0.834535360 0.497280270
0.707400501 0.838583112 0.500695944
0.783554494 0.836432397 0.487665921
0.871979892 0.838962615 0.480961263
0.966223776 0.835167706 0.462365717
0.610626042 0.928778946 0.551296592
0.613535881 0.922706842 0.544718504
0.636053205 0.925110698 0.550411224
0.678937435 0.922833741 0.551929235
0.735736609 0.923465967 0.560025215
0.801011860 0.931815028 0.563946545
0.873877347 0.928399503 0.563567340
0.953193963 0.934977651 0.550284803
0.185578987 0.050980002 0.498165548
0.243643284 0.041872449 0.493105829
0.374573112 0.039215811 0.502973139
0.510816216 0.049335998 0.510816157
0.659835577 0.071853377 0.509297967
0.802403450 0.111954533 0.517014563
0.913978457 0.187602654 0.501454949
0.993674815 0.256419808 0.499810368
0.202909395 0.172296092 0.520936370
0.281087726 0.173434719 0.528273225
0.388235629 0.178241640 0.522960007
0.538393259 0.188361645 0.526122749
0.680581808 0.209993899 0.532954216
0.815433025 0.228209808 0.521062493
0.910057247 0.270588547 0.509297967
0.990765214 0.311195284 0.512966573
0.231878281 0.327514112 0.520303309
0.289816380 0.321189076 0.520177364
0.408349097 0.325110286 0.520303249
0.543074131 0.338772744 0.520682812
0.676913261 0.351676285 0.518532455
0.801011980 0.365844190 0.516255498
0.904491007 0.393295258 0.517141163
0.990385652 0.420366824 0.521062374
0.296647638 0.486021191 0.529032111
0.333839089 0.486400753 0.520303369
0.435293913 0.488298148 0.527007997
0.558380663 0.496521622 0.529284954
0.689057171 0.504364610 0.529791355
0.799114764 0.514104903 0.531688750
0.889563501 0.523086607 0.532321095
0.973940551 0.523339689 0.534724534
0.393169194 0.640227556 0.534345210
0.431625307 0.627071798 0.526502192
0.498165369 0.626945019 0.531182468
0.591144800 0.629601777 0.535863400
0.695129514 0.632384598 0.531941354
0.795572460 0.630866349 0.532827377
0.891334295 0.625553250 0.549525499
0.976597190 0.621505141 0.548260331
0.476280898 0.727640688 0.526502192
0.494117469 0.726375580 0.526628673
0.544844925 0.727134585 0.534597874
0.615559578 0.729538321 0.538646638
0.694370508 0.729538202 0.541935563
0.781783700 0.735736430 0.531056106
0.886906803 0.731941521 0.529285133
0.969259799 0.729664743 0.558254063
0.575964391 0.835547268 0.579253197
0.579759479 0.835420310 0.578494608
0.608728468 0.832890451 0.577229559
0.655914068 0.833902538 0.577861965
0.720430195 0.837950468 0.586970210
0.791777492 0.832004786 0.579000652
0.873118579 0.838709354 0.560910523
0.967615724 0.833902538 0.553826809
0.624541223 0.927513778 0.621884644
0.626818478 0.921315432 0.616824687
0.645287812 0.920682907 0.613788962
0.690701783 0.925489902 0.614800870
0.741935551 0.924731135 0.622390807
0.806831121 0.929158747 0.632637620
0.877799034 0.932574153 0.626059055
0.958254039 0.928652406 0.621884644
0.225300729 0.058823999 0.624920726
0.281467080 0.056799740 0.624920726
0.391018093 0.056799740 0.633649647
0.518026412 0.066919737 0.635547101
0.663883567 0.109930634 0.635293961
0.805186689 0.148513466 0.636685729
0.913978279 0.207337260 0.624288738
0.994939983 0.268057823 0.606577933
0.252371997 0.178621277 0.641366243
0.299430788 0.179506794 0.638709486
0.405565858 0.187729448 0.642884016
0.534472108 0.199367449 0.642631471
0.666793168 0.221631989 0.641366243
0.802276731 0.242378533 0.640227675
0.904870570 0.273244768 0.619481564
0.992662787 0.310815960 0.605059981
0.279190719 0.333965927 0.649715483
0.327007920 0.327261239 0.632763743
0.422770470 0.328399718 0.641492844
0.545856714 0.344845176 0.640606999
0.681214213 0.366350412 0.645540833
0.803541958 0.378747821 0.644149423
0.903731942 0.394054174 0.624415100
0.991144776 0.421505183 0.617457509
0.322074354 0.476154536 0.639974773
0.358633548 0.473498076 0.642757893
0.448829740 0.481341004 0.641113281
0.565971017 0.488298386 0.640227437
0.685388923 0.505123436 0.634661496
0.795445979 0.512460411 0.634661436
0.881847143 0.520556629 0.626059353
0.978494644 0.532827497 0.631878614
0.404553741 0.628968835 0.649209559
0.433016717 0.623908997 0.637065411
0.500569522 0.627830148 0.645161331
0.588741302 0.627450824 0.650474370
0.697026849 0.628968716 0.639342487
0.791271567 0.634788394 0.636306167
0.877925456 0.636052966 0.640860140
0.967995226 0.641872227 0.648956478
0.495508730 0.734598160 0.638330460
0.519038737 0.732321024 0.638962686
0.559519172 0.737760842 0.635167837
0.628968835 0.732827485 0.638962686
0.711068988 0.734598160 0.648450732
0.791777492 0.736622512 0.644528747
0.882732272 0.736748993 0.649209738
0.964452863 0.732068360 0.656293690
0.584440410 0.836306274 0.657684743
0.592789710 0.837065041 0.659962058
0.629981041 0.832258284 0.662998199
0.674889207 0.835040867 0.665907681
0.728652596 0.833902478 0.672991753
0.798734963 0.835547268 0.668058217
0.876913607 0.834155500 0.653004766
0.967868328 0.831878781 0.653510273
0.647691727 0.928399801 0.697153747
0.645920396 0.928020120 0.693105519
0.671347380 0.923845530 0.692725956
0.710436404 0.928652465 0.700442433
0.751928926 0.932194769 0.702719808
0.812776685 0.926502049 0.702466726
0.880329013 0.930297017 0.701075554
0.953067660 0.929158688 0.697786391
0.261733294 0.077419288 0.751170278
0.310309798 0.075141996 0.747627974
0.403668195 0.086780287 0.750537634
0.521189034 0.105502993 0.751043677
0.654395998 0.136242896 0.749019504
0.781024694 0.178494275 0.750031233
0.901201546 0.214674279 0.741429269
0.992662728 0.273750544 0.727640450
0.276660085 0.186464280 0.745351255
0.322960287 0.186590806 0.748007536
0.409487844 0.191650838 0.751802504
0.532194912 0.204174548 0.747754276
0.655660927 0.220873088 0.749272466
0.779127002 0.257684976 0.740417540
0.900189579 0.276533782 0.739911556
0.989626825 0.313598990 0.718911827
0.320556462 0.330677003 0.751296341
0.361669660 0.331941843 0.755597472
0.442884207 0.340796918 0.754838586
0.550157964 0.346742660 0.752687931
0.666160583 0.362935007 0.746869266
0.783934176 0.380012482 0.746742547
0.901328266 0.397975981 0.746742368
0.984060466 0.423023462 0.721442103
0.353699923 0.465148628 0.744338989
0.394940019 0.471347362 0.748387039
0.474509835 0.478810877 0.748007655
0.570525289 0.486527264 0.746616244
0.677545786 0.494876623 0.745603800
0.787222981 0.511321783 0.740923643
0.889310598 0.518405914 0.737634182
0.973560929 0.527893662 0.728905499
0.406831115 0.606704354 0.753826261
0.430613428 0.608602047 0.744592011
0.492852449 0.607463658 0.750664175
0.582795620 0.608222544 0.749525726
0.689057350 0.615306914 0.737508059
0.788614988 0.628716171 0.742567837
0.880329192 0.633396208 0.738267183
0.962175608 0.636812150 0.733080208
0.480329186 0.732447922 0.745224535
0.501328528 0.739025891 0.746869266
0.555218101 0.734724760 0.751423120
0.622011423 0.736369491 0.752435148
0.698418915 0.735104442 0.751043737
0.791397989 0.730550170 0.749905288
0.874889255 0.738646746 0.751423001
0.956609726 0.742947280 0.750157833
0.570524991 0.839468241 0.753826261
0.581150830 0.840101302 0.747880995
0.618469357 0.839342117 0.746110141
0.666287303 0.837823927 0.751549542
0.734598339 0.836306155 0.752308488
0.802150726 0.833523035 0.758001268
0.878684282 0.829981029 0.762302279
0.959392369 0.827704310 0.758507192
0.650474548 0.928146541 0.768121362
0.655534565 0.928779244 0.769892514
0.674762905 0.926628768 0.776976466
0.713219225 0.925869823 0.777103066
0.765085280 0.928399801 0.784819663
0.816571891 0.929664671 0.790512323
0.873624444 0.927134633 0.781150997
0.957115591 0.930676520 0.782669246
0.288931161 0.099430986 0.871094584
0.327767104 0.097533152 0.866540015
0.406578273 0.109297730 0.867931664
0.518785477 0.123466164 0.866919577
0.642631352 0.150790825 0.866919577
0.767868638 0.187223092 0.859455824
0.885768294 0.233270168 0.858191252
0.989753187 0.273370981 0.855281770
0.297153711 0.192409635 0.857305646
0.340543538 0.197596386 0.860847533
0.419354796 0.200252637 0.859202921
0.521189272 0.211132348 0.857305646
0.639721930 0.228462726 0.861227155
0.760025382 0.257052571 0.857937753
0.878684282 0.289563566 0.848830104
0.991650999 0.314357698 0.849083066
0.337128073 0.329918087 0.858823538
0.376217484 0.331562370 0.863883495
0.440986931 0.331309289 0.860594571
0.541302860 0.344718367 0.860467970
0.652624905 0.355724156 0.855281770
0.769765913 0.375458270 0.858823478
0.880329072 0.397849560 0.854649007
0.989120543 0.413915187 0.848829806
0.388488442 0.467552453 0.856420159
0.424920917 0.468311250 0.855661035
0.478178471 0.475015789 0.859582543
0.565591455 0.477672458 0.854269207
0.668184757 0.486654103 0.852877975
0.772042930 0.499304354 0.850094616
0.880455315 0.516888142 0.847058892
0.979379773 0.525363624 0.846046746
0.403921992 0.583681524 0.856040537
0.432005197 0.585072815 0.863124788
0.494623810 0.587855935 0.859709024
0.584819853 0.600885510 0.860847592
0.685009360 0.605439365 0.851233244
0.778368175 0.616065979 0.853384018
0.877672732 0.626565456 0.846679270
0.968627632 0.632384598 0.851612806
0.473624080 0.718785584 0.861227036
0.493232012 0.720177114 0.865148664
0.535104454 0.720809639 0.865148425
0.596204877 0.715622962 0.856293440
0.681340992 0.712460577 0.859709024
0.785831690 0.725489736 0.861732781
0.877672613 0.732954144 0.859329343
0.965085447 0.737887621 0.858443856
0.542314827 0.839721739 0.859329581
0.561922848 0.840733588 0.864010096
0.587729275 0.836938381 0.863883674
0.641998887 0.836685419 0.864895463
0.704870224 0.835547209 0.865148664
0.782036483 0.832005143 0.866160750
0.864009976 0.829222083 0.864389658
0.958506942 0.830613554 0.859202802
0.633016944 0.937634468 0.872359455
0.637444973 0.936622322 0.868564010
0.656672955 0.943959773 0.864515781
0.698924601 0.936116219 0.868058205
0.753952980 0.931055903 0.865527928
0.808854938 0.934977591 0.872738779
0.881720543 0.932320774 0.878178656
0.947880983 0.933712780 0.881593764
