Assets/EldamarStudio/100 Retro LUTs Pack/LUTs/cube/Carol LUT.cube
LUT_3D_SIZE 5
DOMAIN_MIN 0.000000 0.000000 0.000000
DOMAIN_MAX 0.903226 0.903226 0.903226
0.149020001 0.105881996 0.121569000
0.275648087 0.074763298 0.123845711
0.563693762 0.000000000 0.098671585
0.820873141 0.003922000 0.056925997
0.996204793 0.066793144 0.090322822
0.146742716 0.275015682 0.080961592
0.320430368 0.275648087 0.074510001
0.580012798 0.277925402 0.073244579
0.818342686 0.275268823 0.084376834
0.997469962 0.272991687 0.121062808
0.268184811 0.552688241 0.111194983
0.377988398 0.541809082 0.121062398
0.598987818 0.550663769 0.088298410
0.816318750 0.532574117 0.117520288
0.988487959 0.517141402 0.193548158
0.393295139 0.755218267 0.238457114
0.448956132 0.747375250 0.234914660
0.598987818 0.749651968 0.232637376
0.788488269 0.751296282 0.224794120
0.976344109 0.739152133 0.253889978
0.546868742 0.919291615 0.426691741
0.575205684 0.915116906 0.406957597
0.668310940 0.919291615 0.427450985
0.800000131 0.925489902 0.434534758
0.949272633 0.924477756 0.430613428
0.113346301 0.104237713 0.215812400
0.290702105 0.053510595 0.225300699
0.580392063 0.007843000 0.235420808
0.821884990 0.109045126 0.241998404
0.997469962 0.173687696 0.259582400
0.170018986 0.288425386 0.240354091
0.341682106 0.288425386 0.237065107
0.592788994 0.300189823 0.251106977
0.825174272 0.300442696 0.257305533
0.994939983 0.314864129 0.272612572
0.303858101 0.564452767 0.272106379
0.405819058 0.555850387 0.268816948
0.614673853 0.558127522 0.250854105
0.823782384 0.546363115 0.266160816
0.994307399 0.539152265 0.314610809
0.433649391 0.768247962 0.335356951
0.486906946 0.756229997 0.337887526
0.624162078 0.758127689 0.331688821
0.805186391 0.760784566 0.326375812
0.979253531 0.750031412 0.336875230
0.584313512 0.929411709 0.491334617
0.601770580 0.922833502 0.470967501
0.690575182 0.925490081 0.487665892
0.809866965 0.931055963 0.493738115
0.952561617 0.929158568 0.490069449
0.171916410 0.065907598 0.455154806
0.335104108 0.036938708 0.449589074
0.596331835 0.040606987 0.460341811
0.836559117 0.130676523 0.449335784
0.994939983 0.255787373 0.451866239
0.195825279 0.286780685 0.458064497
0.360657692 0.282479405 0.460341811
0.605186522 0.306388110 0.461353540
0.831625640 0.332574099 0.461353540
0.994939983 0.388488203 0.472738534
0.348640203 0.566983163 0.470208377
0.436811954 0.565971017 0.465275109
0.630993247 0.568248153 0.470208377
0.821505129 0.571157515 0.480582207
0.981277347 0.569513202 0.487792820
0.507147551 0.769512832 0.509677529
0.543706536 0.757874846 0.499051243
0.658443809 0.758760512 0.506135285
0.811005533 0.763314128 0.495003015
0.973434627 0.754838705 0.510942519
0.625173807 0.924477935 0.580644965
0.636685491 0.922580361 0.582416356
0.711321950 0.924477756 0.591271639
0.823149800 0.928399801 0.595192730
0.953193963 0.934977591 0.583427727
0.235421002 0.060847998 0.654269338
0.362175822 0.061859868 0.659456015
0.582289577 0.091713987 0.662112355
0.834535122 0.169766128 0.667046249
0.995192647 0.271600038 0.634661376
0.270335704 0.283871233 0.663377523
0.390385419 0.288425237 0.662492275
0.604806960 0.310942262 0.664010108
0.827071369 0.346869111 0.664895833
0.992662728 0.395951927 0.642757952
0.359772235 0.548007786 0.669323146
0.435547233 0.545097947 0.657431722
0.630739987 0.557874858 0.668311417
0.818216085 0.577988863 0.666287422
0.972801745 0.588108659 0.665654659
0.521821260 0.764958978 0.672738969
0.560025156 0.765338182 0.656925976
0.680328965 0.761416733 0.675142527
0.812017977 0.764958978 0.672865272
0.962934971 0.759140015 0.682605982
0.645414174 0.929411650 0.709550798
0.668311059 0.925869763 0.720303357
0.734598160 0.929411530 0.724604666
0.828715920 0.927766919 0.720935941
0.959392607 0.929411650 0.716761827
0.288931161 0.099430986 0.871094584
0.384060711 0.106261864 0.866160512
0.574699402 0.139278576 0.865780950
0.794433951 0.200126261 0.853130758
0.989753187 0.273370981 0.855281770
0.328526288 0.295256257 0.859835804
0.410626411 0.298418880 0.858823657
0.592030525 0.318405986 0.860088468
0.796584308 0.353953123 0.856546521
0.994939983 0.388108522 0.851359785
0.400759250 0.522327423 0.864515960
0.480835110 0.534471691 0.860847652
0.634155810 0.548513412 0.861859739
0.803415596 0.566223800 0.853637040
0.980012417 0.584566832 0.852751434
0.492346346 0.750158310 0.858950078
0.538899362 0.747375011 0.863630652
0.639974833 0.741429448 0.857937932
0.807337165 0.750284433 0.861732781
0.965338469 0.765211940 0.860467970
0.633016944 0.937634468 0.872359455
0.656673074 0.940164328 0.869070053
0.727007985 0.934345186 0.870335221
0.830613136 0.934977591 0.874256670
0.947880983 0.933712780 0.881593764
