Assets/EldamarStudio/100 Retro LUTs Pack/LUTs/cube/Carolyn LUT.cube
LUT_3D_SIZE 8
DOMAIN_MIN 0.000000 0.000000 0.000000
DOMAIN_MAX 0.903226 0.903226 0.903226
0.101961002 0.086274996 0.074510001
0.232005090 0.086274996 0.086274996
0.368374199 0.086274996 0.085515901
0.517393947 0.086274996 0.074510001
0.695762396 0.086274996 0.080834813
0.857938468 0.098039001 0.070588000
0.979000568 0.110435992 0.071220994
1.000000000 0.124225155 0.092852831
0.125869542 0.211258546 0.084756903
0.226565093 0.207717001 0.078051552
0.362428755 0.203035995 0.078051552
0.513598859 0.200252637 0.076913103
0.682479143 0.206072181 0.077798814
0.844022632 0.209614351 0.067046449
0.963314533 0.209361300 0.070967548
0.998734832 0.205692828 0.077419467
0.147375092 0.348766178 0.070588000
0.233143538 0.351802200 0.076913007
0.380898088 0.354965091 0.069829091
0.533965886 0.356862843 0.061733261
0.713093281 0.365971178 0.051106907
0.854269445 0.365338087 0.052498192
0.977482557 0.349652171 0.068943709
0.998481989 0.341682285 0.084629990
0.176470995 0.523213208 0.028969366
0.259329289 0.531183004 0.015054004
0.401012272 0.535989940 0.022138003
0.553320944 0.532574296 0.013409002
0.708539009 0.528779387 0.000000000
0.842631102 0.506135166 0.023782350
0.956736267 0.489310652 0.049462344
0.998481810 0.468943626 0.080075823
0.188235000 0.689689994 0.001518192
0.269576162 0.702719808 0.000000000
0.409993976 0.694370449 0.000000000
0.551802278 0.689310491 0.000000000
0.707780242 0.680329144 0.002403808
0.840860248 0.662365377 0.003542452
0.953194082 0.633270144 0.024794377
0.998861372 0.609993875 0.096774153
0.227577522 0.838962972 0.003794996
0.293738544 0.839342415 0.003415545
0.411638170 0.834914505 0.010626087
0.543959379 0.827830374 0.006451639
0.690195739 0.815686524 0.008728733
0.828968704 0.807336986 0.017330732
0.957748294 0.777229726 0.055913981
1.000000000 0.746236563 0.128652751
0.256166995 0.912334025 0.075395271
0.314737260 0.915369987 0.117520727
0.409108400 0.913978279 0.115370169
0.527893662 0.911701560 0.119038627
0.651486278 0.906135261 0.117900275
0.779759705 0.894497275 0.120176986
0.910057306 0.884250581 0.116887972
0.997469962 0.863124549 0.162302524
0.346742630 0.992409945 0.255534410
0.381404251 0.993674815 0.271473616
0.446047097 0.994939983 0.274130374
0.540923476 0.993674815 0.269196659
0.643896520 0.991017997 0.269955635
0.750790656 0.987096965 0.267552048
0.876913607 0.977988839 0.276660681
0.989879608 0.964832127 0.294496775
0.110562995 0.090195999 0.184566543
0.227324083 0.089437000 0.191650540
0.369512737 0.093738452 0.188488543
0.513598919 0.095762104 0.183428183
0.682353199 0.083238810 0.173560724
0.845540643 0.084756903 0.178873897
0.971790016 0.101833999 0.170777798
0.999620438 0.117773816 0.167235926
0.137634456 0.200252637 0.180265978
0.231625542 0.203415543 0.173181087
0.351422757 0.200252637 0.177862078
0.500189722 0.201011732 0.176344082
0.670588195 0.199114293 0.174952716
0.823529482 0.197975829 0.170398355
0.939278781 0.197216839 0.160278544
1.000000000 0.191650540 0.161922976
0.147881359 0.349904746 0.161037549
0.236685991 0.353826642 0.175585091
0.371410310 0.344338715 0.172422081
0.527261317 0.351422727 0.173687547
0.697027028 0.357748479 0.170904085
0.840480864 0.346363097 0.165464818
0.961669803 0.339405388 0.160404652
0.999240994 0.331562370 0.175079107
0.151043460 0.513472557 0.150411099
0.241745740 0.515117288 0.151296899
0.381783724 0.512333930 0.148134083
0.532827020 0.515243471 0.142314643
0.692346454 0.509424746 0.135483980
0.823276460 0.490322381 0.152181834
0.937128186 0.477040172 0.156862646
0.997975826 0.458570629 0.155217916
0.158507019 0.675522029 0.107020646
0.248703435 0.678684354 0.120809898
0.389120638 0.679949641 0.118279286
0.540038109 0.678811073 0.113978542
0.695635557 0.668184817 0.110436186
0.830234110 0.648576677 0.119544446
0.939026058 0.620872974 0.150917366
0.996078253 0.599493921 0.175205544
0.214674294 0.818975329 0.141429350
0.285895348 0.824288547 0.144845098
0.401391178 0.818595827 0.147501633
0.537760973 0.813662291 0.148260728
0.681088030 0.806071818 0.147501633
0.817330658 0.798355699 0.154206097
0.944845021 0.773181677 0.160657823
0.996204972 0.744212687 0.198608443
0.243643284 0.896901011 0.152055621
0.305123359 0.904364526 0.178241372
0.400632203 0.904491007 0.184313640
0.514105082 0.900695980 0.183428109
0.646426439 0.894370615 0.183048666
0.769386649 0.885009468 0.181024820
0.902593255 0.876786947 0.183934376
0.994939983 0.855407834 0.199620605
0.344212830 0.987476408 0.302340180
0.384440541 0.993295252 0.303352088
0.444908172 0.993295252 0.311195195
0.537634254 0.988487959 0.305502713
0.639974535 0.983681202 0.306388527
0.753953159 0.980012596 0.302340060
0.872738719 0.970904648 0.305249959
0.993295252 0.968501091 0.328146785
0.127007991 0.083871000 0.312587202
0.222264543 0.089816548 0.315369725
0.362049192 0.086274996 0.320430189
0.516255260 0.082100257 0.327514112
0.691840410 0.028589815 0.315749288
0.852751374 0.002024260 0.313472301
0.972928584 0.051613189 0.306514829
1.000000000 0.114864074 0.301328272
0.136496007 0.194813550 0.304870099
0.226185635 0.192030191 0.311448544
0.357748538 0.191650644 0.313851714
0.509677708 0.186590999 0.314610749
0.679696739 0.168627203 0.306515008
0.827577293 0.163820207 0.299051553
0.948387027 0.177103281 0.291967154
1.000000000 0.181783795 0.285768270
0.135862902 0.335357308 0.304744184
0.228589550 0.342820764 0.322074205
0.367489189 0.340038180 0.314990193
0.526502192 0.343200266 0.317394108
0.696647346 0.343327224 0.311069220
0.838962674 0.338646173 0.303225994
0.959392786 0.333080351 0.304111153
0.997343183 0.331056237 0.305123240
0.060721092 0.512840390 0.293231934
0.193168640 0.515243530 0.294749916
0.371663630 0.517647326 0.296394736
0.533333242 0.512966275 0.288551629
0.688930929 0.502466738 0.293991029
0.820999324 0.488424808 0.299051285
0.939531684 0.477166384 0.292473108
0.997216821 0.459076375 0.289437294
0.098545283 0.670082390 0.279696405
0.217330739 0.676407218 0.284377187
0.376217216 0.678052068 0.283618003
0.531815529 0.669702709 0.282479644
0.687413037 0.663883507 0.277293205
0.822264254 0.641999006 0.279823095
0.934345126 0.621632099 0.297027111
0.999240935 0.598861337 0.305882305
0.212776735 0.819734514 0.308792204
0.283618093 0.818343103 0.315117031
0.399367481 0.818343103 0.310689420
0.534471989 0.812523663 0.308665186
0.678051949 0.801897287 0.303858280
0.814041793 0.790892124 0.303099185
0.936622560 0.769259810 0.305376470
0.997216880 0.742188513 0.332068175
0.249082893 0.889816284 0.296900988
0.313725352 0.897153497 0.310689449
0.401518017 0.899177909 0.314990193
0.518026352 0.894876599 0.311701179
0.641239941 0.890449047 0.317267299
0.767741680 0.882732272 0.309424192
0.899051189 0.875648499 0.313219190
1.000000000 0.854016721 0.330170453
0.366476953 0.987096965 0.378494918
0.395699084 0.987349808 0.396331459
0.465780944 0.983427823 0.404933661
0.547627866 0.990006149 0.401897281
0.646932423 0.981530666 0.394687176
0.755597591 0.974825919 0.390638649
0.872359574 0.968247950 0.396837264
0.990512192 0.960404873 0.407210737
0.127766997 0.086274996 0.476407290
0.225680083 0.085515901 0.475901634
0.366350651 0.080455460 0.476660728
0.519038618 0.059835717 0.482606262
0.705249965 0.004807003 0.485768467
0.853763700 0.000000000 0.479316652
0.968880534 0.024288345 0.456167281
1.000000000 0.145983443 0.446552783
0.123971999 0.188108906 0.466287285
0.227071434 0.184187084 0.472612172
0.362049192 0.185831994 0.478431642
0.514357865 0.170145094 0.474889219
0.683744609 0.154079556 0.472106457
0.828842640 0.146489382 0.456167191
0.949146271 0.162934899 0.442124993
0.998734832 0.205945358 0.437318385
0.101201460 0.334977835 0.475901514
0.198355198 0.331436127 0.487033665
0.360151738 0.329538465 0.481467634
0.536369622 0.332321078 0.487413198
0.702593625 0.332321078 0.481214195
0.839468539 0.331815451 0.463883460
0.959012866 0.349145830 0.469070464
0.998481810 0.363187641 0.460721165
0.027830720 0.515749633 0.473750561
0.180771649 0.516508698 0.480455637
0.354079485 0.518532276 0.481720388
0.538140357 0.505123258 0.474256933
0.687160254 0.502846301 0.467804879
0.814800560 0.492346644 0.462365836
0.935357213 0.484376907 0.455787271
0.998734832 0.477799058 0.447944283
0.020113915 0.674130142 0.460974097
0.193674833 0.677166283 0.459582627
0.369007170 0.678811073 0.464642286
0.533839285 0.671473742 0.460088491
0.689816236 0.663883448 0.460721284
0.818848670 0.645540714 0.454142839
0.926628590 0.629095674 0.468817174
0.994939685 0.615053773 0.462492108
0.266287237 0.816192091 0.480581999
0.319291532 0.814548016 0.481720448
0.423655957 0.812144101 0.482100010
0.544718266 0.811005712 0.479949534
0.685136139 0.801517844 0.475395560
0.817330718 0.792536318 0.472991526
0.932827413 0.767362297 0.468564272
1.000000000 0.749778628 0.487286270
0.300442636 0.899936974 0.462239057
0.351802468 0.902340055 0.478937179
0.434155494 0.896015286 0.470335364
0.533966005 0.894370615 0.471853286
0.656672776 0.888551652 0.469955564
0.776091218 0.883870840 0.464263022
0.901581287 0.876407504 0.461859643
0.997469962 0.857937813 0.465654731
0.408475786 0.984693170 0.514863789
0.439089179 0.984440207 0.519797444
0.501454949 0.983428001 0.527008295
0.571537018 0.984945774 0.525743425
0.659582555 0.978367925 0.518658996
0.760784566 0.975584745 0.520556331
0.874509871 0.966603398 0.517393827
0.989120841 0.969259799 0.525616705
0.138772801 0.080834813 0.637824357
0.231625542 0.076913200 0.635420561
0.367615283 0.069829099 0.635420561
0.525743306 0.033523362 0.640227556
0.691208184 0.000000000 0.644149184
0.844402194 0.002403808 0.625300348
0.960278153 0.010752896 0.601138473
1.000000000 0.133839607 0.582036555
0.126375809 0.186211348 0.627071738
0.226312339 0.182669193 0.630740404
0.356483281 0.176344082 0.634281933
0.516761661 0.161163747 0.635547161
0.678557992 0.140417099 0.631752014
0.827577472 0.126122892 0.614673972
0.946110070 0.152688190 0.586590827
1.000000000 0.200126529 0.566982627
0.017330905 0.325237215 0.633776248
0.186970457 0.322074294 0.639847934
0.358128011 0.321315199 0.647312105
0.527007818 0.317773551 0.648956358
0.699177921 0.311069191 0.642631352
0.835926592 0.318912089 0.617457271
0.952435195 0.344592005 0.601138473
0.994560182 0.376597166 0.591144979
0.017330635 0.497406542 0.636938572
0.176723272 0.500569344 0.649209619
0.348766834 0.497406453 0.643643081
0.525237083 0.495762378 0.639721632
0.687665880 0.490196347 0.627197981
0.813029885 0.499303907 0.610120475
0.928652525 0.500948668 0.601897717
0.997469962 0.508665442 0.594560385
0.037318356 0.670082331 0.621252358
0.212903067 0.680075824 0.641366243
0.376850188 0.675648272 0.636432469
0.536495864 0.668564200 0.630993187
0.686653972 0.659202993 0.623023391
0.802656233 0.648956239 0.619987369
0.918785512 0.638836324 0.616824925
0.998734832 0.637318373 0.609740555
0.292473197 0.807716787 0.633649647
0.351929307 0.811005533 0.632637382
0.449462444 0.807463467 0.634534955
0.567615211 0.802656293 0.636938751
0.682858944 0.796458006 0.631878376
0.811132312 0.790133178 0.620113969
0.921568751 0.774066806 0.626312435
0.997469962 0.758380711 0.631625414
0.369006991 0.899936974 0.617204189
0.419101566 0.897912562 0.631119370
0.479064018 0.898418784 0.624794126
0.554965317 0.893358588 0.617584169
0.664769113 0.890575409 0.614674270
0.781530261 0.884250581 0.609234631
0.897406459 0.877040029 0.607337356
0.992156625 0.861732900 0.606704593
0.456167012 0.986970127 0.636306167
0.489310503 0.987855732 0.648576796
0.535736680 0.980265677 0.647058845
0.601011872 0.984313607 0.645793974
0.681214154 0.974952877 0.644655347
0.770145714 0.972169697 0.637697637
0.877545893 0.966097593 0.638709366
0.982415974 0.962682009 0.642757773
0.145224527 0.080328740 0.764073431
0.230740011 0.081973456 0.769892693
0.357495099 0.069829099 0.768627346
0.503858268 0.045540903 0.771536708
0.661480367 0.000758999 0.766350269
0.810752451 0.000000000 0.766097665
0.955470979 0.000000000 0.742062211
1.000000000 0.098545231 0.720176876
0.125869647 0.174319819 0.750158191
0.219608009 0.175585091 0.760784268
0.349145740 0.168880343 0.756862640
0.495129436 0.154332995 0.754079819
0.645160973 0.138266638 0.753320694
0.800379694 0.110689536 0.748386979
0.931688547 0.117900275 0.731815457
0.997216642 0.169259712 0.700316548
0.062744901 0.318279296 0.764832318
0.192915916 0.313092768 0.761796117
0.344338924 0.307780087 0.767868459
0.499177903 0.306641608 0.766350329
0.660088658 0.306388289 0.761669636
0.816698372 0.297533303 0.762682080
0.940797031 0.319038421 0.738267064
0.998482049 0.356989354 0.717267632
0.052751370 0.471347272 0.750031471
0.191903561 0.474130094 0.762681723
0.346995622 0.474509627 0.759013295
0.496394664 0.472485930 0.756736457
0.652498364 0.474509478 0.751929343
0.802656651 0.468563884 0.742441475
0.915622950 0.475901455 0.718279362
0.996204793 0.490322918 0.711322188
0.146236643 0.635800123 0.759012938
0.240101203 0.645414472 0.761290014
0.386084676 0.641745389 0.758001029
0.526881754 0.644528747 0.756989360
0.662112415 0.642631352 0.751169801
0.794687212 0.634788394 0.743200779
0.905629516 0.646173418 0.733965755
0.992662787 0.646679521 0.736369669
0.286021471 0.803415477 0.766097665
0.343327016 0.798355699 0.772169709
0.445287734 0.800632596 0.770524979
0.556356549 0.793295443 0.763441086
0.678810954 0.787729442 0.760657966
0.799620509 0.775964439 0.748386979
0.893484950 0.771916509 0.757874787
0.991777062 0.768753886 0.748260438
0.356356710 0.887792468 0.724984229
0.414927453 0.888804555 0.738393188
0.479317188 0.888804555 0.732320964
0.577862024 0.884756565 0.740543962
0.682099879 0.882606268 0.741808772
0.776723325 0.878684282 0.739658415
0.888804555 0.875015795 0.733712733
0.987222910 0.859709263 0.737128198
0.502846360 0.979126990 0.749398708
0.533586383 0.980771422 0.753826857
0.573813915 0.973940551 0.757748425
0.640354276 0.975584745 0.761416614
0.699051380 0.975964546 0.755977333
0.784313738 0.965718031 0.748513460
0.877293229 0.964832425 0.754332721
0.974699616 0.963061213 0.753446877
0.145730570 0.088551708 0.879317284
0.221125796 0.085895449 0.879063845
0.342694402 0.082353003 0.876281261
0.481973261 0.056546710 0.875901639
0.628842473 0.024288289 0.874889374
0.770904422 0.000000000 0.872359455
0.923086286 0.000000000 0.869196534
0.997722745 0.054143120 0.845794141
0.122960187 0.167741999 0.862745285
0.214041993 0.167236000 0.868311405
0.333586574 0.161922842 0.870082200
0.476154357 0.154459089 0.866793275
0.616824806 0.142694384 0.865275085
0.763820648 0.123845808 0.860974014
0.905629694 0.103858262 0.855407834
0.998102307 0.142947510 0.831625521
0.086021572 0.300948888 0.866919458
0.196710795 0.300695866 0.872991741
0.330044210 0.300822377 0.871473491
0.477293074 0.298165649 0.869576097
0.626312137 0.297786206 0.872359276
0.769259930 0.296142101 0.863250971
0.916255534 0.300822377 0.859709263
0.999620438 0.334472120 0.848576665
0.089184187 0.449082643 0.867552280
0.208222806 0.453636885 0.867172837
0.340543866 0.455787539 0.864389420
0.479822904 0.456799269 0.861353576
0.626565456 0.454648912 0.856040657
0.763946772 0.453889847 0.856420279
0.904491067 0.453004330 0.852498293
0.997469962 0.467931718 0.830360770
0.182289377 0.604301155 0.859076500
0.261985838 0.606198788 0.867046058
0.381404191 0.613662362 0.864389360
0.508665383 0.619355023 0.864136696
0.639595151 0.616065979 0.858950198
0.770904481 0.617330790 0.858570516
0.901581049 0.613662183 0.848323762
0.990385771 0.627071142 0.827198207
0.308918297 0.761290193 0.867046237
0.352055788 0.765971124 0.869702756
0.437191665 0.766603351 0.865148544
0.544338763 0.765844345 0.859076440
0.661100686 0.765338659 0.864516258
0.777988732 0.758254230 0.858317494
0.898418665 0.763440907 0.852498233
0.986970246 0.768247962 0.846173644
0.343073994 0.884882987 0.857432008
0.380898088 0.888424993 0.849968553
0.460721195 0.884124100 0.856799364
0.562682033 0.880329013 0.851739645
0.671727121 0.875522196 0.852119088
0.780898213 0.870841265 0.848956585
0.885515511 0.869196534 0.851866245
0.970904768 0.862998247 0.855407834
0.497533053 0.975079238 0.832637727
0.525616407 0.970145643 0.852371991
0.564452827 0.968500972 0.843010843
0.639215708 0.966856599 0.848070800
0.721695065 0.967742026 0.856546640
0.812144220 0.960530877 0.856673121
0.882606268 0.955850780 0.856925845
0.973181486 0.954838336 0.863504291
0.149020001 0.099430986 0.971536756
0.220366701 0.095003299 0.968880653
0.330930114 0.093358904 0.968753934
0.457938284 0.082353003 0.972549021
0.598229170 0.065021984 0.968500793
0.737507761 0.051739093 0.964958966
0.872232735 0.046426151 0.960657537
0.994813204 0.079949804 0.958380759
0.134471834 0.165085271 0.963061512
0.212144256 0.161543384 0.954712510
0.325110376 0.162808463 0.963820398
0.457431823 0.162681639 0.966097593
0.589753151 0.155597553 0.965338588
0.727514148 0.144971192 0.956230164
0.862365544 0.136622399 0.949019551
0.993168533 0.145856813 0.947628200
0.117646806 0.295129836 0.967615783
0.197090536 0.295762211 0.961669803
0.324604630 0.297913015 0.964832425
0.457558364 0.297154099 0.965718031
0.592030525 0.295888752 0.961416721
0.732447624 0.300316215 0.961923003
0.873118520 0.303731859 0.956482947
0.994307160 0.319417924 0.957115650
0.141935378 0.433523118 0.961796463
0.232764125 0.435673565 0.960657835
0.339405268 0.442378253 0.958886445
0.461859465 0.447438270 0.956356704
0.597596347 0.445793897 0.956609547
0.728146493 0.444655269 0.952687979
0.862998188 0.445035100 0.944845021
0.990132928 0.452625096 0.952814817
0.217963368 0.582669020 0.955091774
0.288677901 0.591144979 0.955976784
0.385705084 0.596711218 0.958380818
0.501960814 0.601644576 0.953067422
0.617457390 0.601770997 0.951296568
0.740417659 0.600758851 0.955597460
0.867552280 0.600885391 0.947754323
0.988488019 0.609108269 0.947248578
0.327261001 0.733333528 0.952055752
0.367868096 0.736116230 0.950790584
0.448576897 0.740543723 0.957747996
0.544718504 0.740417659 0.952435076
0.655281246 0.746615946 0.950917125
0.763187766 0.747501791 0.955091715
0.871347427 0.748892725 0.948766708
0.989247084 0.755977333 0.949145973
0.369133592 0.851359844 0.949652076
0.418216169 0.855408013 0.941429675
0.476280868 0.857558310 0.943833292
0.566856265 0.859076500 0.950537801
0.667425632 0.858317316 0.948386967
0.770651579 0.861859739 0.946742654
0.874004185 0.862239301 0.943074226
0.970525265 0.866539836 0.944085777
0.487792820 0.975331962 0.946489632
0.512207627 0.973560929 0.949272633
0.559645891 0.974699676 0.951169908
0.630486786 0.969007194 0.945477486
0.712839782 0.966223836 0.945351005
0.801517725 0.963061213 0.943959653
0.885641932 0.954458833 0.946363091
0.958254039 0.955850840 0.938772798
