Assets/EldamarStudio/100 Retro LUTs Pack/LUTs/cube/Cindy LUT.cube
LUT_3D_SIZE 5
DOMAIN_MIN 0.000000 0.000000 0.000000
DOMAIN_MAX 0.903226 0.903226 0.903226
0.105881996 0.062744997 0.078431003
0.250094712 0.109803997 0.127767280
0.426312804 0.154965416 0.153700411
0.690702260 0.238330126 0.222644120
0.991144776 0.303351998 0.292978972
0.142188698 0.235040694 0.138266698
0.226185992 0.237317994 0.146109715
0.403415412 0.276913673 0.184693277
0.678937674 0.342315137 0.238330275
0.987602711 0.393295705 0.299556971
0.180391997 0.417836398 0.222263992
0.245541111 0.426692098 0.233143702
0.385199368 0.425047785 0.226818413
0.668184400 0.512333691 0.262112558
0.986717165 0.562934399 0.315876216
0.226565123 0.717141092 0.269702882
0.315243393 0.716761649 0.279823005
0.488931239 0.721062362 0.281720430
0.701455116 0.722960114 0.281467140
0.974825799 0.760784268 0.371916533
0.455660552 0.950663984 0.481846750
0.507147551 0.960151672 0.497153550
0.632637143 0.953826368 0.508665144
0.795825243 0.947627962 0.518279612
0.978114963 0.941429675 0.553700209
0.126122996 0.116002291 0.242884696
0.211511701 0.132067993 0.215433702
0.348513395 0.208602414 0.265148699
0.597469926 0.282353014 0.315116853
0.959519446 0.334091991 0.374446511
0.165717706 0.217077985 0.219987705
0.211511686 0.232763976 0.239595264
0.336748809 0.275269002 0.276913702
0.592283547 0.342947274 0.326122552
0.959392607 0.408728659 0.382542819
0.209487721 0.380518377 0.291587830
0.243896395 0.391397685 0.286021680
0.351170391 0.396584094 0.295888692
0.613915145 0.488551646 0.330550522
0.961669862 0.568627357 0.398355246
0.239595279 0.685768545 0.339405417
0.318152696 0.687413216 0.343706697
0.469702661 0.691334248 0.346236289
0.678937674 0.699810266 0.352434993
0.959645629 0.754838943 0.446173191
0.484882683 0.953193784 0.539278746
0.533965588 0.949019670 0.558633566
0.646299601 0.948007762 0.567362547
0.796837270 0.943073928 0.576850295
0.973560810 0.936242759 0.605692267
0.143200412 0.166096985 0.406704813
0.229854688 0.187982291 0.385452092
0.338013560 0.220366567 0.360278428
0.574319839 0.288298994 0.428336412
0.912966430 0.370271951 0.515369773
0.192536280 0.273624301 0.346869111
0.233396396 0.276913285 0.346869111
0.321695417 0.291587830 0.354712099
0.541555822 0.349145979 0.421505362
0.897912323 0.451739043 0.532447755
0.222263992 0.381909966 0.374699354
0.274636418 0.397216678 0.382795691
0.359013408 0.417836398 0.399494410
0.565844297 0.478051633 0.447691113
0.909044743 0.587349653 0.554711759
0.277545720 0.642630935 0.463757396
0.330676913 0.653763533 0.473877102
0.453004092 0.660341382 0.470967829
0.635800064 0.677925408 0.483997405
0.926881552 0.766097546 0.601771235
0.539910972 0.942188382 0.663250744
0.585704982 0.935610354 0.683364868
0.669829428 0.934977770 0.682985544
0.804427624 0.937254906 0.694750190
0.950031400 0.937002003 0.720935762
0.162808001 0.257938147 0.666287363
0.274003983 0.263504416 0.652118862
0.433017373 0.280202150 0.622770667
0.591777384 0.296141982 0.586843550
0.919291317 0.388361722 0.683871090
0.212776870 0.347248375 0.599873245
0.281214565 0.350158155 0.594054282
0.419607967 0.352814555 0.587729335
0.570525110 0.360910982 0.569133222
0.907147467 0.470461756 0.688425183
0.248956561 0.467299134 0.565211833
0.300442696 0.477166384 0.568753958
0.421252370 0.485262781 0.571410537
0.588741660 0.511195481 0.595193267
0.879316866 0.639089167 0.716635108
0.304111242 0.651486278 0.607337117
0.361036956 0.660847485 0.614800692
0.515749574 0.694117963 0.653637111
0.661353171 0.719038367 0.681847095
0.894876480 0.791271210 0.773055077
0.648197234 0.920556784 0.801770985
0.690322161 0.920809507 0.810879171
0.733965635 0.922201097 0.819481194
0.812650084 0.927134633 0.812650084
0.933712721 0.929411650 0.837697566
0.242251620 0.379506618 0.944212615
0.346489340 0.381783634 0.938013911
0.528399765 0.398482025 0.929790914
0.750031412 0.425426573 0.921062469
0.967741609 0.458190560 0.898544908
0.301201582 0.477925479 0.919670939
0.377482355 0.483870715 0.921947777
0.542188644 0.494623572 0.917394221
0.752814770 0.506388307 0.906641066
0.955850661 0.527513981 0.895635486
0.418342978 0.658064604 0.903099179
0.484123677 0.662365437 0.901075125
0.598102391 0.664642632 0.898544729
0.751549602 0.667299449 0.888678193
0.925363362 0.679696143 0.884756386
0.513725519 0.801138759 0.885009468
0.555344701 0.799999893 0.883238316
0.657305539 0.807969928 0.883111894
0.776090920 0.814547956 0.881467640
0.906261802 0.835800171 0.891587675
0.674003363 0.927134693 0.891966820
0.706641376 0.929664671 0.902719676
0.766603589 0.929790795 0.899051189
0.856672883 0.930676520 0.918026805
0.941555798 0.938772798 0.940164745
