Assets/EldamarStudio/100 Retro LUTs Pack/LUTs/cube/Cindy LUT.cube
LUT_3D_SIZE 8
DOMAIN_MIN 0.000000 0.000000 0.000000
DOMAIN_MAX 0.903226 0.903226 0.903226
0.105881996 0.062744997 0.078431003
0.171663091 0.087792993 0.107779540
0.275142193 0.110562898 0.125489995
0.374952644 0.133965999 0.128905639
0.491208196 0.176217183 0.173181191
0.648197234 0.225173727 0.215559989
0.830233872 0.268943727 0.253257275
0.991144776 0.303351998 0.292978972
0.133712545 0.160278544 0.112080991
0.174066991 0.167741999 0.117267452
0.269703031 0.183048546 0.130550444
0.364832550 0.196711004 0.146236554
0.475648195 0.229095727 0.178114831
0.630107939 0.271980017 0.215432987
0.817710280 0.306767821 0.253257275
0.983554780 0.338519692 0.294244140
0.150537997 0.256293088 0.147375092
0.179506987 0.256672651 0.146109655
0.240607098 0.257052183 0.153700098
0.339658648 0.281341016 0.172422275
0.456673056 0.314990193 0.206831098
0.623782098 0.352940947 0.237824351
0.821505249 0.387982368 0.263377994
0.987349629 0.415812939 0.306388080
0.166476637 0.354838282 0.201770633
0.193548292 0.359519184 0.204933643
0.250727087 0.358760267 0.203415647
0.329538643 0.364326268 0.212396994
0.452751368 0.402909607 0.227577537
0.609487712 0.446806014 0.248450384
0.807336807 0.482605994 0.270714641
0.980897963 0.511954606 0.308918417
0.192789197 0.481846988 0.253131002
0.222643897 0.488804370 0.240227640
0.278937280 0.488045275 0.247817904
0.355597466 0.490322560 0.250095010
0.451992184 0.495129555 0.250979990
0.617077708 0.551043689 0.261859983
0.813662469 0.593042433 0.279823095
0.984566569 0.616698205 0.328146636
0.221505255 0.675648212 0.268690765
0.259582818 0.678051889 0.270082206
0.327387452 0.675521731 0.278810740
0.420873016 0.677545488 0.277419388
0.532194912 0.677924991 0.275269002
0.655914187 0.679443181 0.272359252
0.822770298 0.714484453 0.298798442
0.978874028 0.731435657 0.359772414
0.292725980 0.836812317 0.321821272
0.313978553 0.841366291 0.320176989
0.385072559 0.842125297 0.324857473
0.488298893 0.843010545 0.328525931
0.594433546 0.839974761 0.325616360
0.718659043 0.834914565 0.327767015
0.848197579 0.833523333 0.339784980
0.966856301 0.832637727 0.411638260
0.455660552 0.950663984 0.481846750
0.477925599 0.961036921 0.493864119
0.519544661 0.959645808 0.495635688
0.586590588 0.955977023 0.501581192
0.673877180 0.954458833 0.506767750
0.768500626 0.947374880 0.514231563
0.876786947 0.944971561 0.530044138
0.978114963 0.941429675 0.553700209
0.118026547 0.102340452 0.160658002
0.170145094 0.099177547 0.155977085
0.246932194 0.135610089 0.190132648
0.317773551 0.177102998 0.201391190
0.428083837 0.218975544 0.240480900
0.587729156 0.255913913 0.270208567
0.788614511 0.287286550 0.293105990
0.975711405 0.322074383 0.333333522
0.141935095 0.152055994 0.149272546
0.166603550 0.159899011 0.178368449
0.220999092 0.180265993 0.183807552
0.309171647 0.206072196 0.206199005
0.420366734 0.243263543 0.235547349
0.574826360 0.282100201 0.272359580
0.774699271 0.316508591 0.288677812
0.967109442 0.341682106 0.326501966
0.154459000 0.237445086 0.192030087
0.185452446 0.240227655 0.197975561
0.230107546 0.238204092 0.204554096
0.303985059 0.269955724 0.218216449
0.423023254 0.307147264 0.252877742
0.579506516 0.345477462 0.272739023
0.786084712 0.385072827 0.298039347
0.975964308 0.414041907 0.333839059
0.177102998 0.337254733 0.227957085
0.202277005 0.338393271 0.239468545
0.242884189 0.341556102 0.235800087
0.306262076 0.345477372 0.239848092
0.416571468 0.387349814 0.255408108
0.577356160 0.430740088 0.280961633
0.779885828 0.479822606 0.303731620
0.962555587 0.507021070 0.337254941
0.208349362 0.460847795 0.278431207
0.219481185 0.466034174 0.274130374
0.275521636 0.468437493 0.274762541
0.342314988 0.471220732 0.276660204
0.428842843 0.475901604 0.280708194
0.593421757 0.534977674 0.290829003
0.790259480 0.583681226 0.308791906
0.963314235 0.615180373 0.350411385
0.222264349 0.652498245 0.294876814
0.258190751 0.652371764 0.300569266
0.317646742 0.657811463 0.298671871
0.411511719 0.657811463 0.297406644
0.510436356 0.661353886 0.297027111
0.639721632 0.663251221 0.300948799
0.812903464 0.707906663 0.331815451
0.967488766 0.726502001 0.388108641
0.282352984 0.829221845 0.341429561
0.319291562 0.833396733 0.349272549
0.384060889 0.829980850 0.351676285
0.480328798 0.828083575 0.349525541
0.585578740 0.832764149 0.355850846
0.707273543 0.825806379 0.354585379
0.842251778 0.830233991 0.361923009
0.960911036 0.828209996 0.441998839
0.465022236 0.949652076 0.508791566
0.487918705 0.958506942 0.511448383
0.531309068 0.955471218 0.518912137
0.594307184 0.953193963 0.523718834
0.678304732 0.948007762 0.521694779
0.774319708 0.947628200 0.536875427
0.872232854 0.942694843 0.544592083
0.969133794 0.938520074 0.570904553
0.121569000 0.114484094 0.264896005
0.173687443 0.119923994 0.253131092
0.232004985 0.143453091 0.238204092
0.311574638 0.188488439 0.260974079
0.402024090 0.236685902 0.296394885
0.536748707 0.274257004 0.325237095
0.735863268 0.304996818 0.358886898
0.951929212 0.339658260 0.393168986
0.154079542 0.172422186 0.221758187
0.181151107 0.183428094 0.230487004
0.215939552 0.191650540 0.238329992
0.286021173 0.222137734 0.264137000
0.384313732 0.261733204 0.293864787
0.519165397 0.299810350 0.326502234
0.724098563 0.329538345 0.351043284
0.942694426 0.363567352 0.387856096
0.171030998 0.239848182 0.236686096
0.187729537 0.251992553 0.252372116
0.231246084 0.256293058 0.257811278
0.283238560 0.278178096 0.271094084
0.379127085 0.310309887 0.307274103
0.531815290 0.347501755 0.331182837
0.739784956 0.386970103 0.357874572
0.948513508 0.427704096 0.400253087
0.200632185 0.323971808 0.275395632
0.208855450 0.330677092 0.287666082
0.243770093 0.329411656 0.282479644
0.291460991 0.338899553 0.288045526
0.386084497 0.371284157 0.308285624
0.541555882 0.418595731 0.336875290
0.744591951 0.466793180 0.357621640
0.942694366 0.512207270 0.406071931
0.220240191 0.438709557 0.316002101
0.237191543 0.443769842 0.318658650
0.275901288 0.445794076 0.319797367
0.325869352 0.444908291 0.313472182
0.405692458 0.457558483 0.319797218
0.560531259 0.516129196 0.341682166
0.766729772 0.573434472 0.369006813
0.947627902 0.616192162 0.423402905
0.246173099 0.626059115 0.349272460
0.266919523 0.631498992 0.350411087
0.320682824 0.629981041 0.351549745
0.399873644 0.636305988 0.352181852
0.500062883 0.635800362 0.355092108
0.615433455 0.641366422 0.355471432
0.795572519 0.693611801 0.390638649
0.957368553 0.724731088 0.458064318
0.297406465 0.811638534 0.406198531
0.327766806 0.815306664 0.409107924
0.387476176 0.817077696 0.408728451
0.482226551 0.816698194 0.408222824
0.581657231 0.816192389 0.414927393
0.700316012 0.819860995 0.413535744
0.827830434 0.820999444 0.431372643
0.952561736 0.828589499 0.506641269
0.492978811 0.946868956 0.555724084
0.514231443 0.948260367 0.565085053
0.550410986 0.945983589 0.573813975
0.609234333 0.946869135 0.576217234
0.687412739 0.944085777 0.577102840
0.773054540 0.940037966 0.587223172
0.870335281 0.940670550 0.598102033
0.968247890 0.937507927 0.620872915
0.130550355 0.139025643 0.360910624
0.172801733 0.151170090 0.344338745
0.242631450 0.173560634 0.333839178
0.299304277 0.190006629 0.320556283
0.403921545 0.242125198 0.348260641
0.533333361 0.280202746 0.386337906
0.717140794 0.309930354 0.423782289
0.918658555 0.371157646 0.473750651
0.170524642 0.212017536 0.319797188
0.180645540 0.213535532 0.306767732
0.228462741 0.215053737 0.307906270
0.284882635 0.232384637 0.312333733
0.378747851 0.266793430 0.342061609
0.507779896 0.298165649 0.377609193
0.697912931 0.335357100 0.415939361
0.909803927 0.390258998 0.476913393
0.185705096 0.271347106 0.309551090
0.201391280 0.269576162 0.308412462
0.240986630 0.280202538 0.316635102
0.287159622 0.294750005 0.318912089
0.370904624 0.321694732 0.353067517
0.499936819 0.354206294 0.383934379
0.701075137 0.394939780 0.425679922
0.917520225 0.452245384 0.487413108
0.204553992 0.332321286 0.317267269
0.222137645 0.339278996 0.327007920
0.270082474 0.356483281 0.350663841
0.301581293 0.357621640 0.354206294
0.385072619 0.381910026 0.365085304
0.509171188 0.420619994 0.391018271
0.704870164 0.471473575 0.433396608
0.917267203 0.528905809 0.497533083
0.243010789 0.440733761 0.375332087
0.257431716 0.437950492 0.371537000
0.285262376 0.441492856 0.374319643
0.329538405 0.442631394 0.376976192
0.403415382 0.455914199 0.376976371
0.541935444 0.507527053 0.407083929
0.737254798 0.567615449 0.448576927
0.926375747 0.625806391 0.512966216
0.259835660 0.605439484 0.419228375
0.276660204 0.608855069 0.417584062
0.325110406 0.612017810 0.418089718
0.393548638 0.613535762 0.419101864
0.484376699 0.619354546 0.417204529
0.587729514 0.632384717 0.428083718
0.771790087 0.685768545 0.475648224
0.939405501 0.732827306 0.551043570
0.323592633 0.796584249 0.489310622
0.347375154 0.804048121 0.495256096
0.401770890 0.803795218 0.493232161
0.484503537 0.803288937 0.492346555
0.574446678 0.805692732 0.496774167
0.687539518 0.810879350 0.503731787
0.812397182 0.808855176 0.514737904
0.938140452 0.832131505 0.590512276
0.530044019 0.941682637 0.640607238
0.554206014 0.939279079 0.644529045
0.584819257 0.942947447 0.641745508
0.636306047 0.940543950 0.644275546
0.702340305 0.941303194 0.648450196
0.782289743 0.936242759 0.657431841
0.866793394 0.937381387 0.669828892
0.959139824 0.936242819 0.684756398
0.150537804 0.190385997 0.455914170
0.191650733 0.202529833 0.451233178
0.258697093 0.213029996 0.433902591
0.319544405 0.234408990 0.424161911
0.387729377 0.244402364 0.408855170
0.532321453 0.287286729 0.452751189
0.720303535 0.310183376 0.511448145
0.914357722 0.379633129 0.564326167
0.178747997 0.253510535 0.421758622
0.204933539 0.254395723 0.410625905
0.249082997 0.256546736 0.412396908
0.312713265 0.267299086 0.406324834
0.374825835 0.271094173 0.398608446
0.513978720 0.309551001 0.451233387
0.708412468 0.338140547 0.504364431
0.902846396 0.402023971 0.560024977
0.208602101 0.304744005 0.394181103
0.224288091 0.313472182 0.391397744
0.261733085 0.311068982 0.398102313
0.307273984 0.315749288 0.394560635
0.371410370 0.326755196 0.397976011
0.504996479 0.360405087 0.445161104
0.698292553 0.403542280 0.509930372
0.900948703 0.479443252 0.582795858
0.224541441 0.358760178 0.397722721
0.244149461 0.362681985 0.403921545
0.282859087 0.376470536 0.405945271
0.328652650 0.389374107 0.418343067
0.393548638 0.403415471 0.430107474
0.517014802 0.437824398 0.470714658
0.691208005 0.488298625 0.520556331
0.880202651 0.559645951 0.600505650
0.244655192 0.441113204 0.419101983
0.265781194 0.446046829 0.428715974
0.303225964 0.462239176 0.438836277
0.370145530 0.488424808 0.464642584
0.426059365 0.492726386 0.461353362
0.539658248 0.525236964 0.486021399
0.720303714 0.576470673 0.541176260
0.895761907 0.646426141 0.617456973
0.283997715 0.605439663 0.495508939
0.310183376 0.608602285 0.500822067
0.353699923 0.614041686 0.502846301
0.409740359 0.619481206 0.504111648
0.482858926 0.616698205 0.508159637
0.587096453 0.630866945 0.513093174
0.757621944 0.690828443 0.571916223
0.914484501 0.747627974 0.648197412
0.375837743 0.784946442 0.587096453
0.398102760 0.788741291 0.584946156
0.430233836 0.792030394 0.584946275
0.490322918 0.792283297 0.583934367
0.575331867 0.799114466 0.590385437
0.677545965 0.799367249 0.594939828
0.795698702 0.805313170 0.610752583
0.926122427 0.836558819 0.685009420
0.575964630 0.935989738 0.709550858
0.588994086 0.932447612 0.725363493
0.614168108 0.935357153 0.718279362
0.661353588 0.933459461 0.719924033
0.719164968 0.930803001 0.723466098
0.785578609 0.931182563 0.728273094
0.865022182 0.930170357 0.738393307
0.946742594 0.932574153 0.756103933
0.158760265 0.244781733 0.614674449
0.208475813 0.249209285 0.614294887
0.292220205 0.259456098 0.604300976
0.372296095 0.265275359 0.580518663
0.455534458 0.274257004 0.556609452
0.540164471 0.288045764 0.540290475
0.726249099 0.318152994 0.608475447
0.917520344 0.382542521 0.655787289
0.187349811 0.289943188 0.575331986
0.214294553 0.289436728 0.573307872
0.283491284 0.292726457 0.566729605
0.361669362 0.297659785 0.555091560
0.436306119 0.302846521 0.538393080
0.523339868 0.314231485 0.535230875
0.709171355 0.345097810 0.591650784
0.903605223 0.405692786 0.653636813
0.213283002 0.353320479 0.541935384
0.236938536 0.352182001 0.533712745
0.293864906 0.352435082 0.537634134
0.352308542 0.352940947 0.528526306
0.425933063 0.356103629 0.522707105
0.515622795 0.366730094 0.525869846
0.705249786 0.408475846 0.597090065
0.899810433 0.487159967 0.662618458
0.232005090 0.412650257 0.514104843
0.259076625 0.414674014 0.521315575
0.299177974 0.416192025 0.516128898
0.359013081 0.424541265 0.516255617
0.425427109 0.422138274 0.515117168
0.523972094 0.439342380 0.536242843
0.695129454 0.491334707 0.596457839
0.873877466 0.577608883 0.672991931
0.256672919 0.479569912 0.527513981
0.267805189 0.493737996 0.524984241
0.323339432 0.499683559 0.527767360
0.390892088 0.521189034 0.545350909
0.470588177 0.537634075 0.568500876
0.569259822 0.555597901 0.588614941
0.713725090 0.607590258 0.639469028
0.873624325 0.685515225 0.716887951
0.283870727 0.608981729 0.565844238
0.304743975 0.611891210 0.566097260
0.365338713 0.622137904 0.580139399
0.442884117 0.639721513 0.597469687
0.533585966 0.665654480 0.622517467
0.612776756 0.669449449 0.630233943
0.749019563 0.708791673 0.673877239
0.890069544 0.764452636 0.734851420
0.402529836 0.782163322 0.661733031
0.435926378 0.785578728 0.662618458
0.482605934 0.785199106 0.671600342
0.543327034 0.790385544 0.685135841
0.603415489 0.792283058 0.687539518
0.684250474 0.796205044 0.690575719
0.782669306 0.811511576 0.705249727
0.912460506 0.846679032 0.770904303
0.644149363 0.920303702 0.793674648
0.666287184 0.923086464 0.792789459
0.682732403 0.921315730 0.793421745
0.707020760 0.923213124 0.794054329
0.738519907 0.924477756 0.794307232
0.792915642 0.926375508 0.795698702
0.866160810 0.926755071 0.809740484
0.937507987 0.929158688 0.819734275
0.170904279 0.297659695 0.804427505
0.226818547 0.300948709 0.798228800
0.320430189 0.304743767 0.800505519
0.429348588 0.307779998 0.788235188
0.544085920 0.312587202 0.770651519
0.648576975 0.320430279 0.750664115
0.768753827 0.324478269 0.737760544
0.919924021 0.395192623 0.758760393
0.197470009 0.337634265 0.775078833
0.245667562 0.333965808 0.776597023
0.320556283 0.336495638 0.771789908
0.423529267 0.341176629 0.765464902
0.533965647 0.344592273 0.758507073
0.646046758 0.349778742 0.745603621
0.750790536 0.351043582 0.720809817
0.903605282 0.416824579 0.747375250
0.212270692 0.404933363 0.749272525
0.246046886 0.407210678 0.751296341
0.329032302 0.405692458 0.754332542
0.419607669 0.412270725 0.742314756
0.524604678 0.411132097 0.734345496
0.627830446 0.414294571 0.721062481
0.745983541 0.417457283 0.718026459
0.902719915 0.498165786 0.754711986
0.245160908 0.490069538 0.726122916
0.279949665 0.492473185 0.724730849
0.337760895 0.491207927 0.719797373
0.422770560 0.496268243 0.713851810
0.513851941 0.493232161 0.711448431
0.614294529 0.493991256 0.707653522
0.729032159 0.506894231 0.711574554
0.882732391 0.586211264 0.757621646
0.268437445 0.577735484 0.708412409
0.299810171 0.582162976 0.712460458
0.361543179 0.584819555 0.711574674
0.440607160 0.592789233 0.714104772
0.523719490 0.591903448 0.705502510
0.618342519 0.594307423 0.705882311
0.732700706 0.619354665 0.727514386
0.870208919 0.687539339 0.785705507
0.316634983 0.678684235 0.717899799
0.342567623 0.687160015 0.720177114
0.399746746 0.684503257 0.721315444
0.478684098 0.691081882 0.722454071
0.579253614 0.708285809 0.737887323
0.667678952 0.718279481 0.751929462
0.767994940 0.745730460 0.773181260
0.884629846 0.798102200 0.823023200
0.414168119 0.785452545 0.744591832
0.432257861 0.789626956 0.738519549
0.480328798 0.791018248 0.740796685
0.554079533 0.794307292 0.755724251
0.646679342 0.806198359 0.773940384
0.734218717 0.830866456 0.802023828
0.806704819 0.834535003 0.807716489
0.894750059 0.865401745 0.852625251
0.655154824 0.914484382 0.837191463
0.666919529 0.920809329 0.832890630
0.691081405 0.918406129 0.843643188
0.734218836 0.920430005 0.853383899
0.786337554 0.920556784 0.860468209
0.823782504 0.924857318 0.870461941
0.870967627 0.925110817 0.871094227
0.926628768 0.934218645 0.877419531
0.242251620 0.379506618 0.944212615
0.284250647 0.375838220 0.941809118
0.368500829 0.384060711 0.941049695
0.474636257 0.392409980 0.936874986
0.593042314 0.405692756 0.925616443
0.718152821 0.423908591 0.920556664
0.849335909 0.435167402 0.910942733
0.967741609 0.458190560 0.898544908
0.264010072 0.409866869 0.934724927
0.293232322 0.416950881 0.918912232
0.371031076 0.421252370 0.929917514
0.479063749 0.430487216 0.924225092
0.594433606 0.439089149 0.925869823
0.716508627 0.449841917 0.916508496
0.841745675 0.461100131 0.902339935
0.962555408 0.475016028 0.894750178
0.312333763 0.503984690 0.916634798
0.340796918 0.506135166 0.920429885
0.406831115 0.506641030 0.921694934
0.502087116 0.510562897 0.919038534
0.600000143 0.518406034 0.909550726
0.725237429 0.527387679 0.907906532
0.829222083 0.534851134 0.897406578
0.955850601 0.546236575 0.893864512
0.391018033 0.603415430 0.901960611
0.413914949 0.607716262 0.900695503
0.459455967 0.612397373 0.906641006
0.529159009 0.612017393 0.897406518
0.623908579 0.614927232 0.898798227
0.719544411 0.613156259 0.892346501
0.826691866 0.616191983 0.885894895
0.930170953 0.625174046 0.878684223
0.438203543 0.698165953 0.892346621
0.462238908 0.700948596 0.897786140
0.516508400 0.704237878 0.891461074
0.574952364 0.708538532 0.887665927
0.644022584 0.707779825 0.883997262
0.729791462 0.707779825 0.883617759
0.821252227 0.707906127 0.882605970
0.916635156 0.720303535 0.884376764
0.503605187 0.782416523 0.886527658
0.517014205 0.783681393 0.891081452
0.562175691 0.780518770 0.885515630
0.618089557 0.788235307 0.883870900
0.683238268 0.794433832 0.887666225
0.752814412 0.792283237 0.882226527
0.824667811 0.792156756 0.880834818
0.904996634 0.812270522 0.888551533
0.562175393 0.854016244 0.890575767
0.577735543 0.859708905 0.890195966
0.608728409 0.858697236 0.882605910
0.659835219 0.859456003 0.884250522
0.718912244 0.861859262 0.883491516
0.786590993 0.869702816 0.891081631
0.850727260 0.869070232 0.896394610
0.903731763 0.894117534 0.910310090
0.674003363 0.927134693 0.891966820
0.693611383 0.930170298 0.898291826
0.713978291 0.926628709 0.902972698
0.749399006 0.925869823 0.897027135
0.793421865 0.924351633 0.902466595
0.843516648 0.926375508 0.913472533
0.893358350 0.935863197 0.930297017
0.941555798 0.938772798 0.940164745
