Assets/EldamarStudio/100 Retro LUTs Pack/LUTs/cube/Cindy LUT.cube
DOMAIN_MIN 0 0 0
DOMAIN_MAX 1 1 1
LUT_3D_SIZE 32
0.105881996 0.062744997 0.078431003
0.108918384 0.062744997 0.078431003
0.124857768 0.071346998 0.089183778
0.147374988 0.080961324 0.100569002
0.171663091 0.087792993 0.107779540
0.195951864 0.099936999 0.122959927
0.222770318 0.107020997 0.128020316
0.250094712 0.109803997 0.127767280
0.275142193 0.110562898 0.125489995
0.293358982 0.113598518 0.125489995
0.326122880 0.116634868 0.116761133
0.351423264 0.123719253 0.119797252
0.374952644 0.133965999 0.128905639
0.402024060 0.145857036 0.138520032
0.426312804 0.154965416 0.153700411
0.457811803 0.164073184 0.164073184
0.491208196 0.176217183 0.173181191
0.525237143 0.191397563 0.182921976
0.561670005 0.206577986 0.195066020
0.606451392 0.213409007 0.207210720
0.648197234 0.225173727 0.215559989
0.690702260 0.238330126 0.222644120
0.739152431 0.247691497 0.232005462
0.784692943 0.262871921 0.247185096
0.830233872 0.268943727 0.253257275
0.877166271 0.274762660 0.260467976
0.924731135 0.284377009 0.272106081
0.967235863 0.296520978 0.281214446
0.991144776 0.303351998 0.292978972
1.000000000 0.311195195 0.306894183
1.000000000 0.322959989 0.322074592
1.000000000 0.341176003 0.337255001
0.108918384 0.071853384 0.084503770
0.114990383 0.074889004 0.081467390
0.126628771 0.085641779 0.092220165
0.146110162 0.097406551 0.103605390
0.168627381 0.105629541 0.110815927
0.192915469 0.115117386 0.125996321
0.219734564 0.122201383 0.125996068
0.248703375 0.128273383 0.128020316
0.277419090 0.129538387 0.126249298
0.302466571 0.125743285 0.119417995
0.323592484 0.128778905 0.122327864
0.350411117 0.137887508 0.123845771
0.373813987 0.146869391 0.130803391
0.399240702 0.154965356 0.137760997
0.426312804 0.164073020 0.144592017
0.453004777 0.173181415 0.154965416
0.485136181 0.185325578 0.168627381
0.520430148 0.199873373 0.183554560
0.561670005 0.212649986 0.198102415
0.595319390 0.230613723 0.204680398
0.639848173 0.237697765 0.212523594
0.685642123 0.247438520 0.219607726
0.736242592 0.256673366 0.228969097
0.784692943 0.268943906 0.244149491
0.832511127 0.277292997 0.252498388
0.877419353 0.282479376 0.259076655
0.921188831 0.289943069 0.269576401
0.961163878 0.299557388 0.281214446
0.990385830 0.303731561 0.287665993
1.000000000 0.318279147 0.299050957
1.000000000 0.332447588 0.312080830
1.000000000 0.344212383 0.325111002
0.120556772 0.096014999 0.099177994
0.120176993 0.101201937 0.096141614
0.132700771 0.104237549 0.097406775
0.146615997 0.114357933 0.108792000
0.166350320 0.121695220 0.114484549
0.194180772 0.130803168 0.122580931
0.216698185 0.137381777 0.124731451
0.245667636 0.140164778 0.121695064
0.275268853 0.145224765 0.124478221
0.302593261 0.144718781 0.122327514
0.324098647 0.147374898 0.127008095
0.345351011 0.150411040 0.130044475
0.369513005 0.159899011 0.135989994
0.394054025 0.166476995 0.142315030
0.421378672 0.177482352 0.150284767
0.453004777 0.188741356 0.158760026
0.483365178 0.199367538 0.169386610
0.516761541 0.212650344 0.183175191
0.554712236 0.223276570 0.192283213
0.595319390 0.234534949 0.207716793
0.634408474 0.247058958 0.213788778
0.679696560 0.256420135 0.220872894
0.728905737 0.267678976 0.229854763
0.777482569 0.275775015 0.238962904
0.828209579 0.285515755 0.251612991
0.875395417 0.292979091 0.259076655
0.919670880 0.300316066 0.269197077
0.964073300 0.309424430 0.282985777
0.988614798 0.317520708 0.294117779
1.000000000 0.325869501 0.305502951
0.999114394 0.342441380 0.316255540
0.997849226 0.351549774 0.325870007
0.130676836 0.127640486 0.109803997
0.131435603 0.129917771 0.108032770
0.138772771 0.135104388 0.110562772
0.153953165 0.138140321 0.112333998
0.166856170 0.141556159 0.118405998
0.193674698 0.149778381 0.122327775
0.218975484 0.155091807 0.122833841
0.243896410 0.159139991 0.123719454
0.271221012 0.159139991 0.122201063
0.297027349 0.164199993 0.127766982
0.318532735 0.168627292 0.130044162
0.343580246 0.171663433 0.137887254
0.365970999 0.175838172 0.139784992
0.390259057 0.182163194 0.145857036
0.416571558 0.193295315 0.154965416
0.448703229 0.202909604 0.164073184
0.479570031 0.216319144 0.177229375
0.514231563 0.227830559 0.188108981
0.548893154 0.236938819 0.191777214
0.590638936 0.247311980 0.203668565
0.633143663 0.255154908 0.216824830
0.677672446 0.265275151 0.224921092
0.723592997 0.279822975 0.234282464
0.772169828 0.285894990 0.241492838
0.820493281 0.294244260 0.248323992
0.868057787 0.302087456 0.257811487
0.912587047 0.311195225 0.268437982
0.958886862 0.320303589 0.284377426
0.991144776 0.329411685 0.295635819
1.000000000 0.339025974 0.305755854
1.000000000 0.350284606 0.321821868
0.997343183 0.359393001 0.329412013
0.133712545 0.160278544 0.112080991
0.139404997 0.158001155 0.112460546
0.148007318 0.159898549 0.115243547
0.159645706 0.164705724 0.118405998
0.174066991 0.167741999 0.117267452
0.192282990 0.173813999 0.123339452
0.218469411 0.178115308 0.125869542
0.244655594 0.180771828 0.127134711
0.269703031 0.183048546 0.130550444
0.287918985 0.183048546 0.133586064
0.310562879 0.188488081 0.131941870
0.336748958 0.192536265 0.137887537
0.364832550 0.196711004 0.146236554
0.389373571 0.202783063 0.146995515
0.413788795 0.211764961 0.156103864
0.444908261 0.219607979 0.165591285
0.475648195 0.229095727 0.178114831
0.505502641 0.243010953 0.194180995
0.544971883 0.252118587 0.200253025
0.586844206 0.263630748 0.206325024
0.630107939 0.271980017 0.215432987
0.673877716 0.280075997 0.226818249
0.722580910 0.292093515 0.238962978
0.771410823 0.298418552 0.248323649
0.817710280 0.306767821 0.253257275
0.862618268 0.314484537 0.258444011
0.905755639 0.321442068 0.265401602
0.945224762 0.330550432 0.283618361
0.983554780 0.338519692 0.294244140
1.000000000 0.347248197 0.302339971
1.000000000 0.357115626 0.311574638
1.000000000 0.366223991 0.329791456
0.136748940 0.187602937 0.130296990
0.139784560 0.190638557 0.133333385
0.149778545 0.186210930 0.129411921
0.162682101 0.185958102 0.126628771
0.177103385 0.188994393 0.123339452
0.186210990 0.192029998 0.114231065
0.214547634 0.200632319 0.125363708
0.237824038 0.203795001 0.128905937
0.257558316 0.204300940 0.130929992
0.275775015 0.204300940 0.136622459
0.308538854 0.207210809 0.142567933
0.331815243 0.210752606 0.145098269
0.355724335 0.214926988 0.150790945
0.380265951 0.220999047 0.156103894
0.407590330 0.227071822 0.165211499
0.436811984 0.240860105 0.176723659
0.467678457 0.249968365 0.186843678
0.499430507 0.258191347 0.197469637
0.538899124 0.267298967 0.206325024
0.578368247 0.276407301 0.212397009
0.624035537 0.284124017 0.218468994
0.669576287 0.292219996 0.225553259
0.713472545 0.304237515 0.232890978
0.765085816 0.313345909 0.245035008
0.811638236 0.321948230 0.252118945
0.858570278 0.329664916 0.260467976
0.906135082 0.336748928 0.271094084
0.954332352 0.348766446 0.280581981
0.985831678 0.349905014 0.293485045
1.000000000 0.354964912 0.305122942
1.000000000 0.364199579 0.317140579
1.000000000 0.378367990 0.332827061
0.137254998 0.212396994 0.133332998
0.142820939 0.210373253 0.133839071
0.152308330 0.217710406 0.141176447
0.164453000 0.216065958 0.138266832
0.178368449 0.217078090 0.135989547
0.191777065 0.215812698 0.135483712
0.208475634 0.216318637 0.131435320
0.237191692 0.222138032 0.138646394
0.258823425 0.223782539 0.138772905
0.278811008 0.225553319 0.139531672
0.303984523 0.230992869 0.150664330
0.331309170 0.234029263 0.154712066
0.355344623 0.239342287 0.161163971
0.381277710 0.246805951 0.170019314
0.408602089 0.252878159 0.176850215
0.438330263 0.261353493 0.185957834
0.468690693 0.273244500 0.194940060
0.500948846 0.280961573 0.202403635
0.540417373 0.290069669 0.209614307
0.587476075 0.299177349 0.218469009
0.630740166 0.310183465 0.224541470
0.678684533 0.317520648 0.231625512
0.724604785 0.326502144 0.239089191
0.776217401 0.335610539 0.244023010
0.825553775 0.340164363 0.258444279
0.871347249 0.350157976 0.266666621
0.916761398 0.358507127 0.276154071
0.957242191 0.366603643 0.281214446
0.984819293 0.373181641 0.292978972
0.997469664 0.380265594 0.306894183
0.998355269 0.389626622 0.321568310
1.000000000 0.403162330 0.338393003
0.142188698 0.235040694 0.138266698
0.144971713 0.233649358 0.141555697
0.155344725 0.235926762 0.139784768
0.166223884 0.239974827 0.143832833
0.178747997 0.239215836 0.142314553
0.195192784 0.236179754 0.147880942
0.209613919 0.235673696 0.147501379
0.226185992 0.237317994 0.146109715
0.253510386 0.242631480 0.149146095
0.276533812 0.248323932 0.147880942
0.297406733 0.250980407 0.152814746
0.323339522 0.256672949 0.162175745
0.348766625 0.260847688 0.166350275
0.376091003 0.269450039 0.177229956
0.403415412 0.276913673 0.184693277
0.433143586 0.285388917 0.193168908
0.468058169 0.294496894 0.202276915
0.499430865 0.304237694 0.209740981
0.536875308 0.314357936 0.217837006
0.584693015 0.321821362 0.223403066
0.631372452 0.331182450 0.232257754
0.678937674 0.342315137 0.238330275
0.728147030 0.349272698 0.246679008
0.778241634 0.359898865 0.251233608
0.829221725 0.364453137 0.258444279
0.875015914 0.368880391 0.269450009
0.919797421 0.380518407 0.279822707
0.958507121 0.388867885 0.288551450
0.987602711 0.393295705 0.299556971
0.997722745 0.399620652 0.310183167
0.995066166 0.412650287 0.326249182
0.995066285 0.425553411 0.344465435
0.150537997 0.256293088 0.147375092
0.149778903 0.257811278 0.151929095
0.156862915 0.256925851 0.150158003
0.169260070 0.258949935 0.147627935
0.179506987 0.256672651 0.146109655
0.197723091 0.254396051 0.155218020
0.210879087 0.253131002 0.155218095
0.223149791 0.255534559 0.153700098
0.240607098 0.257052183 0.153700098
0.267931521 0.269196957 0.156736493
0.288045734 0.271221012 0.159139901
0.311575145 0.276028097 0.164452925
0.339658648 0.281341016 0.172422275
0.366730005 0.287413001 0.178494990
0.393548310 0.296015322 0.187096670
0.422517598 0.305123270 0.196963802
0.456673056 0.314990193 0.206831098
0.498038977 0.325363576 0.215307057
0.532068014 0.337634087 0.227198094
0.576343715 0.344212085 0.231752351
0.623782098 0.352940947 0.237824351
0.670588195 0.361290246 0.244402096
0.722327828 0.370525092 0.250600606
0.772169828 0.382669091 0.257305801
0.821505249 0.387982368 0.263377994
0.870461285 0.393928111 0.270968020
0.912966132 0.400000095 0.278052002
0.955470860 0.411638081 0.295761973
0.987349629 0.415812939 0.306388080
0.998481989 0.420620084 0.317520201
0.999620497 0.429348677 0.332321167
0.990512073 0.444529086 0.350538015
0.156609997 0.277545512 0.156483486
0.153573602 0.283618271 0.156483501
0.157115519 0.278684705 0.154585734
0.167235672 0.275142342 0.155218005
0.182542607 0.277925074 0.161290050
0.200759396 0.280961454 0.170398414
0.213915482 0.278684199 0.166856512
0.224415183 0.280708432 0.161037505
0.237571478 0.284377366 0.156736508
0.261859506 0.281340957 0.156736493
0.286274731 0.287665993 0.165591121
0.310309976 0.295509249 0.172296017
0.337001801 0.302213848 0.178494960
0.366730005 0.305629015 0.184567004
0.391017973 0.311701000 0.190639004
0.417836905 0.320303291 0.201644495
0.449841976 0.330929458 0.213661999
0.488930583 0.343579561 0.224414662
0.537507534 0.358759999 0.230487466
0.574319720 0.365464509 0.236812502
0.618848503 0.375331968 0.242757991
0.667298794 0.385325968 0.246932492
0.716255009 0.391777486 0.247564986
0.770904601 0.403921515 0.256673396
0.818469286 0.409234792 0.263377994
0.865654290 0.416445494 0.272232980
0.912966132 0.427324504 0.284124017
0.955470860 0.433396488 0.296267986
0.987349629 0.437065303 0.300695837
0.996457994 0.441872478 0.309424430
0.994180977 0.450601101 0.326755166
0.999620497 0.465781480 0.356610000
0.148134127 0.301707745 0.165591121
0.156736478 0.304869920 0.171410874
0.162302092 0.304490894 0.167109326
0.174193323 0.300695866 0.167109311
0.190259427 0.302846283 0.173561186
0.200885877 0.310942680 0.182668924
0.211511672 0.308918446 0.179126993
0.226565540 0.305882037 0.179632992
0.241745979 0.307400227 0.178620994
0.261732996 0.308665395 0.174319997
0.280202746 0.305628985 0.174319997
0.304490983 0.311701506 0.181403860
0.329917639 0.321062863 0.188614771
0.358507216 0.329411715 0.196457997
0.388108850 0.332826883 0.202529997
0.414800674 0.341302663 0.215812787
0.449715495 0.350411057 0.223909065
0.490195960 0.361163735 0.230613723
0.534218907 0.374066859 0.236685947
0.574446321 0.389247239 0.239974648
0.614800453 0.397596508 0.244022861
0.661353230 0.408728868 0.249082997
0.709930003 0.418722391 0.253004521
0.759012878 0.428083748 0.256546885
0.813662410 0.433396459 0.265654713
0.861100495 0.439215660 0.273750782
0.907147110 0.448829859 0.282353014
0.949651837 0.454901874 0.284882993
0.986843586 0.458317697 0.310309768
1.000000000 0.464895606 0.318912208
0.997976005 0.473877192 0.329032242
1.000000000 0.487033874 0.345224261
0.153193995 0.325995982 0.182795241
0.160278127 0.329032093 0.182795763
0.169386476 0.329791009 0.182289705
0.177229241 0.328020245 0.182542413
0.191650838 0.328020245 0.188994542
0.202403933 0.332194924 0.194813579
0.217583925 0.333206922 0.195319504
0.228336245 0.331815243 0.190891787
0.245793939 0.329917490 0.194307253
0.264010251 0.331688732 0.190765262
0.282226473 0.330929637 0.192536503
0.304491252 0.333965510 0.194560245
0.328779280 0.340037972 0.198355258
0.354712039 0.349651992 0.204553992
0.379759550 0.352688074 0.210625991
0.417836785 0.364579290 0.215812802
0.446679384 0.375205487 0.227957189
0.485895127 0.384187251 0.232005417
0.525617003 0.393548280 0.236685753
0.567362666 0.408475637 0.241998643
0.610626042 0.419860989 0.245034739
0.655281246 0.428969115 0.248070866
0.704110980 0.440101027 0.253257245
0.756482840 0.451107174 0.260088623
0.807589889 0.457685232 0.267678976
0.858064711 0.463504165 0.276786923
0.903099418 0.472106487 0.285389274
0.945604146 0.478178501 0.288425267
0.982795358 0.483618081 0.300189525
0.999746978 0.486654043 0.322201163
1.000000000 0.495255858 0.332953990
1.000000000 0.506262004 0.343200266
0.166476637 0.354838282 0.201770633
0.170271635 0.356736034 0.199873373
0.177355766 0.358760267 0.196837515
0.187476277 0.359898627 0.197722793
0.193548292 0.359519184 0.204933643
0.204174876 0.358760267 0.205692947
0.219101995 0.358760267 0.206199005
0.236305982 0.358760267 0.205692932
0.250727087 0.358760267 0.203415647
0.269323319 0.358760267 0.203415647
0.287539631 0.358760267 0.209740862
0.307526857 0.360531271 0.211638376
0.329538643 0.364326268 0.212396994
0.354585677 0.370651305 0.212650031
0.379380018 0.375458688 0.217836633
0.415180206 0.388108790 0.223782450
0.452751368 0.402909607 0.227577537
0.484377116 0.413788617 0.234788343
0.520809948 0.419860661 0.237318054
0.563947082 0.433143646 0.244275659
0.609487712 0.446806014 0.248450384
0.656040251 0.454902261 0.251486510
0.704616964 0.464009911 0.254648626
0.757242143 0.476154447 0.262744904
0.807336807 0.482605994 0.270714641
0.858443975 0.490069658 0.279823005
0.903985083 0.498671979 0.288931429
0.947122216 0.504743993 0.295635998
0.980897963 0.511954606 0.308918417
0.997849226 0.517394066 0.322201043
0.998229027 0.521315277 0.339532018
0.997722983 0.530170619 0.351928979
0.180391997 0.390512019 0.216191992
0.181657031 0.390259057 0.216951028
0.184692994 0.392156810 0.214800805
0.193042293 0.395445883 0.215560034
0.205693007 0.397722542 0.219101965
0.211765006 0.394686908 0.213029966
0.222644031 0.394940019 0.213283002
0.237824038 0.394687057 0.213536039
0.256293088 0.394434035 0.213283002
0.277545482 0.394434035 0.213283017
0.295888752 0.394434035 0.223909006
0.314864010 0.394687057 0.227956995
0.332827270 0.394434035 0.226818413
0.351803035 0.394687057 0.223782033
0.385199368 0.403795421 0.226818413
0.420240551 0.417457253 0.234408766
0.456167191 0.432637244 0.240986839
0.490449131 0.446173012 0.243896037
0.526881933 0.452245057 0.243896052
0.571410418 0.464136720 0.251486361
0.618595481 0.477925688 0.257052690
0.667425275 0.490322977 0.259835869
0.715875506 0.496647984 0.262871504
0.764326632 0.508791983 0.268817037
0.811132252 0.514357805 0.275395036
0.859202921 0.519923687 0.282605648
0.909298122 0.528779030 0.291967034
0.954838455 0.534851015 0.301075399
0.984945834 0.542820811 0.320050806
0.997849226 0.550158083 0.338014156
0.998735011 0.556736052 0.353953451
0.992662966 0.562808037 0.369133085
0.180391997 0.417836398 0.222263992
0.195572391 0.414800793 0.231372386
0.190385640 0.414547801 0.229981184
0.192030162 0.417710394 0.230740398
0.203289136 0.422011256 0.233776316
0.223908991 0.418974906 0.216065571
0.232511312 0.426059306 0.227703899
0.245541111 0.426692098 0.233143702
0.261353731 0.424288720 0.234029308
0.277545482 0.421758413 0.231498986
0.295888752 0.421758413 0.231498986
0.320177257 0.423782676 0.234028995
0.341050029 0.423909187 0.232890636
0.357874990 0.422011435 0.229854792
0.385199368 0.425047785 0.226818413
0.413788795 0.436559379 0.232257992
0.452119142 0.450854003 0.240480781
0.493864924 0.464769214 0.247691408
0.532953978 0.473497391 0.253004432
0.574952781 0.487918764 0.253004432
0.619987130 0.500568986 0.258697003
0.668184400 0.512333691 0.262112558
0.718911946 0.520935953 0.262871504
0.764453173 0.533079982 0.265907913
0.815180302 0.540670574 0.276407450
0.864136279 0.546110213 0.284503430
0.911827803 0.553320765 0.292219996
0.951802790 0.562175393 0.304111004
0.986717165 0.562934399 0.315876216
0.999367416 0.568374395 0.333459944
1.000000000 0.576217830 0.352814764
0.998735011 0.587096810 0.375205845
0.185198992 0.449968398 0.237950593
0.190765396 0.449335992 0.230234191
0.205945790 0.448450595 0.241492808
0.205186591 0.449715436 0.237191826
0.212776795 0.453510344 0.237571195
0.223908931 0.450474471 0.235546917
0.239848316 0.455154926 0.233143315
0.253890008 0.457684904 0.241745710
0.270588368 0.453889966 0.243263900
0.287413090 0.449209303 0.240227506
0.307906538 0.453889787 0.242504805
0.324098527 0.453889787 0.242504805
0.348766476 0.455407977 0.242504805
0.367994994 0.454142809 0.240733951
0.388867587 0.457179219 0.237697572
0.418595791 0.460214972 0.241871983
0.444402397 0.469323367 0.247944370
0.483744711 0.483112156 0.251739651
0.526755214 0.499303818 0.247185200
0.573813975 0.511574924 0.257305801
0.620113671 0.526755333 0.257305801
0.667172253 0.539405406 0.263377666
0.717267156 0.549778581 0.267678499
0.765085757 0.557368577 0.270714909
0.815180302 0.567235887 0.273750722
0.862618268 0.573434770 0.286906838
0.908665180 0.579506814 0.297026992
0.951929271 0.586717188 0.309170991
0.986084759 0.587855637 0.316508651
1.000000000 0.594939590 0.342820883
0.998229027 0.601391554 0.359518975
0.995193005 0.608981788 0.371663392
0.192789197 0.481846988 0.253131002
0.194307387 0.486401170 0.245541185
0.199873790 0.487919360 0.244529188
0.215053856 0.486654192 0.247818023
0.222643897 0.488804370 0.240227640
0.230993196 0.486907095 0.245160997
0.244655505 0.489943385 0.246172994
0.261480182 0.489563495 0.244781718
0.278937280 0.488045275 0.247817904
0.296394944 0.484250367 0.246299505
0.316002667 0.488298565 0.247564673
0.339278907 0.490322560 0.250095010
0.355597466 0.490322560 0.250095010
0.378874213 0.490069538 0.250095010
0.398355365 0.490575612 0.248323783
0.424667776 0.493611753 0.252498180
0.451992184 0.495129555 0.250979990
0.479443491 0.503732145 0.256420195
0.523213208 0.524098396 0.248703256
0.570018768 0.538519919 0.257305712
0.617077708 0.551043689 0.261859983
0.665654480 0.566224098 0.262871861
0.714357674 0.578747690 0.270714521
0.764326632 0.586211383 0.273750901
0.813662469 0.593042433 0.279823095
0.859708846 0.599367499 0.285641670
0.902087152 0.606325090 0.300062984
0.946616054 0.614421368 0.312206984
0.984566569 0.616698205 0.328146636
1.000000000 0.616192341 0.341303080
1.000000000 0.628336370 0.374193162
0.995193005 0.633270144 0.379253179
0.201264992 0.513472140 0.260215014
0.201264992 0.522580504 0.259076834
0.205313176 0.528020322 0.258823991
0.210246831 0.529158950 0.256926417
0.225806087 0.526502132 0.248956576
0.238456860 0.526502132 0.251739204
0.253131300 0.527767301 0.251612574
0.269955993 0.527134717 0.250600696
0.288678080 0.523339212 0.249083057
0.303858459 0.526375592 0.252118677
0.321947962 0.527514398 0.251612574
0.344971240 0.529158950 0.253636837
0.370777845 0.530424118 0.256799579
0.389247596 0.530424118 0.257052541
0.410499960 0.527767301 0.257431984
0.436559349 0.528273344 0.259709001
0.462998122 0.530424118 0.259455949
0.487286121 0.531056523 0.252245158
0.526755333 0.549272537 0.255281568
0.571157396 0.564073324 0.263251364
0.617963195 0.577988565 0.267931998
0.663883686 0.591777265 0.268943876
0.712460399 0.606578171 0.271979511
0.763567746 0.615180492 0.275015891
0.812270939 0.621378958 0.281973690
0.857938230 0.627324462 0.291081876
0.896900594 0.630360186 0.301201642
0.939152241 0.642125428 0.313472122
0.977735341 0.646299720 0.333712637
0.997849226 0.648323774 0.355218172
0.998102427 0.646552980 0.369892567
0.998102427 0.658696949 0.394180596
0.207337022 0.549905062 0.248071030
0.207337022 0.559013426 0.254143029
0.215939015 0.565970957 0.257305801
0.222264051 0.569260001 0.258823991
0.225806117 0.569006979 0.258064985
0.244022906 0.569006979 0.258064955
0.259203345 0.566476643 0.255787641
0.276028007 0.565591037 0.254649013
0.295003116 0.565844059 0.255155116
0.316002548 0.568880439 0.258191466
0.334092051 0.563188016 0.255408078
0.354332298 0.563946724 0.256673247
0.378367960 0.567868292 0.260847986
0.404428035 0.572928965 0.266160935
0.425680399 0.572928965 0.269196540
0.451739788 0.570272148 0.264769018
0.479064196 0.570778191 0.261227190
0.505502999 0.573561370 0.258317918
0.529791057 0.576597035 0.258317947
0.572042882 0.589247048 0.264136970
0.620493233 0.603541791 0.270462006
0.669576108 0.619481325 0.275015891
0.715496004 0.636939049 0.278051496
0.764073670 0.643011034 0.281087935
0.810626268 0.647058785 0.286401004
0.856419981 0.653130710 0.294117689
0.899936974 0.660721064 0.304238051
0.936368942 0.663757443 0.319418401
0.970651507 0.667552173 0.331688911
0.992156863 0.674130261 0.353700161
0.997343421 0.678684413 0.374699622
0.988994002 0.676913023 0.385073036
0.216192365 0.622517109 0.263757020
0.218975008 0.626059532 0.267046362
0.225426778 0.626565337 0.264516383
0.239468679 0.629474878 0.268184841
0.249715522 0.630613506 0.271979660
0.260720909 0.628209710 0.267172664
0.273877680 0.630740047 0.272232652
0.292093635 0.626565456 0.271600008
0.312207103 0.625806510 0.272359103
0.333459526 0.630866528 0.275395513
0.360152096 0.627956748 0.264263511
0.378368050 0.625932753 0.265275091
0.401138365 0.628209710 0.268311292
0.428463042 0.631878734 0.271727026
0.454775393 0.629348397 0.267172933
0.483238608 0.629348397 0.272612363
0.509424388 0.626691937 0.268058360
0.536748767 0.626565754 0.263757408
0.567489147 0.627451181 0.261606634
0.600126505 0.630486786 0.264389992
0.640733421 0.640733480 0.270462006
0.686780334 0.653130710 0.276533991
0.732068181 0.667425513 0.281340867
0.772675276 0.676154375 0.284377277
0.821252167 0.686780393 0.291967064
0.864516020 0.691334426 0.299936652
0.906768143 0.696141720 0.310057074
0.947754681 0.696900845 0.325237423
0.976217508 0.699936569 0.353699923
0.993422031 0.702972591 0.368374199
1.000000000 0.708285987 0.395192802
0.996584356 0.709045112 0.423276722
0.221505255 0.675648212 0.268690765
0.220746353 0.672991872 0.277419388
0.235673502 0.677419424 0.277799010
0.243516728 0.675648212 0.266667008
0.259582818 0.678051889 0.270082206
0.274762809 0.678051531 0.271600008
0.286400884 0.676280797 0.273750752
0.305123657 0.679316759 0.279822767
0.327387452 0.675521731 0.278810740
0.349778235 0.679316700 0.278431505
0.374952614 0.676660359 0.274509996
0.398102731 0.677545488 0.274383485
0.420873016 0.677545488 0.277419388
0.448450506 0.679569721 0.279696673
0.472485870 0.678178072 0.273624241
0.500316322 0.679443181 0.275269002
0.532194912 0.677924991 0.275269002
0.558886647 0.675521731 0.271094412
0.591018677 0.675521731 0.270588011
0.620620131 0.678304851 0.271220595
0.655914187 0.679443181 0.272359252
0.696394444 0.687539458 0.276407242
0.740796745 0.697785974 0.280961275
0.780265689 0.706894398 0.289310902
0.822770298 0.714484453 0.298798442
