Assets/EldamarStudio/100 Retro LUTs Pack/LUTs/cube/Connie LUT.cube
LUT_3D_SIZE 8
DOMAIN_MIN 0.000000 0.000000 0.000000
DOMAIN_MAX 0.903226 0.903226 0.903226
0.141176000 0.105881996 0.125489995
0.159519553 0.109803997 0.126249000
0.268058091 0.106641091 0.143453091
0.377229631 0.107020639 0.146236643
0.517140985 0.135483995 0.163819999
0.640480697 0.184060991 0.194054261
0.763946533 0.240480989 0.248323992
0.882858574 0.302213967 0.307526946
0.160784006 0.152435541 0.130171001
0.188488543 0.148134097 0.137634456
0.272738993 0.160278454 0.141935095
0.378873736 0.173181280 0.153320551
0.502214134 0.199367747 0.173940197
0.630739987 0.237824544 0.212397009
0.757368684 0.279696286 0.254649282
0.873624623 0.335104078 0.317647099
0.189627096 0.248450100 0.164579093
0.224921092 0.242504641 0.170904174
0.282099992 0.255534172 0.166983098
0.376850188 0.262871653 0.176343992
0.499937177 0.296900988 0.209993988
0.627197683 0.327007949 0.246805996
0.753067374 0.365844280 0.286780298
0.870335519 0.413915008 0.348639995
0.252751648 0.370018929 0.222517282
0.282859087 0.375584930 0.227956995
0.331056446 0.378241301 0.229601279
0.407463282 0.380645275 0.218595996
0.506135166 0.395192802 0.233396173
0.622390807 0.426945299 0.281973392
0.742694557 0.459709257 0.329664558
0.862618446 0.504490793 0.382036448
0.329158783 0.513852179 0.297153980
0.341556191 0.514737189 0.301834553
0.393421978 0.519418299 0.306388289
0.451739639 0.519923747 0.305882543
0.532827377 0.527387559 0.300822198
0.634281933 0.535483718 0.307147175
0.749146163 0.559392750 0.366603196
0.864009798 0.596331179 0.440354198
0.432763726 0.646426439 0.397596747
0.450980514 0.653130889 0.417204738
0.479822814 0.652371764 0.412776470
0.531182468 0.649589121 0.412017584
0.587096751 0.652371764 0.408855170
0.667931676 0.658317447 0.409234732
0.765211761 0.666413963 0.416571558
0.871600389 0.697659791 0.489057809
0.562302291 0.766223848 0.518532276
0.568627536 0.763946533 0.521315575
0.592030346 0.762302279 0.523845375
0.628336251 0.769513249 0.533712924
0.669070244 0.769513249 0.530044436
0.731056452 0.771789968 0.532574534
0.796964288 0.777988255 0.532574594
0.883618057 0.790006101 0.552308679
0.699936628 0.882732809 0.648829758
0.700568855 0.891207755 0.638582826
0.719670951 0.892473042 0.652751446
0.746868730 0.891840637 0.650094628
0.777482569 0.893231928 0.660594761
0.820999444 0.896394551 0.658064425
0.871094108 0.901074946 0.665780902
0.921947777 0.911574781 0.675142407
0.141555548 0.114484094 0.147375003
0.171283543 0.106640995 0.147754550
0.255913615 0.122707449 0.167362452
0.349145740 0.147754550 0.190132543
0.470841169 0.177862197 0.218342736
0.604174733 0.217077985 0.252245486
0.742820978 0.265528113 0.286021560
0.866666377 0.328905344 0.341935515
0.163061097 0.143453091 0.159898996
0.190891549 0.154838547 0.166982993
0.249209091 0.168121547 0.176723644
0.346363008 0.188108891 0.198355094
0.465275198 0.216318905 0.222264543
0.598228872 0.257811457 0.258190751
0.735610485 0.297659993 0.297659993
0.857558489 0.355850518 0.352181911
0.218342632 0.233902648 0.196331561
0.232384622 0.240607098 0.197470099
0.273118526 0.241366193 0.195192993
0.361164093 0.253763407 0.207590088
0.477545857 0.291713804 0.246426538
0.605312765 0.336116314 0.274130166
0.731562257 0.370145351 0.315243572
0.861859322 0.420240521 0.375331879
0.262365371 0.359013021 0.244276091
0.289563656 0.360657722 0.253383845
0.328273207 0.367362261 0.256167084
0.394054294 0.370018929 0.250727296
0.490828663 0.386084378 0.264010161
0.607590020 0.428083628 0.305629194
0.732953966 0.464516371 0.354458839
0.851612687 0.507527053 0.407590181
0.339531749 0.503731966 0.330297321
0.351676196 0.504617155 0.320303291
0.385704994 0.506894350 0.326755196
0.448956281 0.513978183 0.324351400
0.528399706 0.516761780 0.320809513
0.629222035 0.527261198 0.326755077
0.740796983 0.562555492 0.388740987
0.852625251 0.603162408 0.460594654
0.436812013 0.641366243 0.416698486
0.444528937 0.638962924 0.418595731
0.487159967 0.640101492 0.422138065
0.529538333 0.644781649 0.423656166
0.588741064 0.646805882 0.429601729
0.663883686 0.650348008 0.421631724
0.756356955 0.663251042 0.433902562
0.867299378 0.697280228 0.507906616
0.559139848 0.756483078 0.525743067
0.568627536 0.763567090 0.533712983
0.590133011 0.760405004 0.530550063
0.625047505 0.762682021 0.540796876
0.674256802 0.763820469 0.540417492
0.727387965 0.769006848 0.536369324
0.796078563 0.777608812 0.545604050
0.881973684 0.787982404 0.552561522
0.704996645 0.885009468 0.643010616
0.710942805 0.884503305 0.656167030
0.723845303 0.883112252 0.653257728
0.749272525 0.887286723 0.653763533
0.780898392 0.890828431 0.662239075
0.818595648 0.894496799 0.661986053
0.867678821 0.900189340 0.667931616
0.931815326 0.904364049 0.670841157
0.138772994 0.122327901 0.225679994
0.183807641 0.117647000 0.224161997
0.254775077 0.127767086 0.224161997
0.337634206 0.152435347 0.238962993
0.450474203 0.194307193 0.270335168
0.575079083 0.242378429 0.309171349
0.707526982 0.304744005 0.353320569
0.840733647 0.364073157 0.407337159
0.183048546 0.169386089 0.216319010
0.206958011 0.161416993 0.209614560
0.256293178 0.176344082 0.221378639
0.333713084 0.197470099 0.242884189
0.439088941 0.233902737 0.276280761
0.570271969 0.279316783 0.314484626
0.705755770 0.328905374 0.359139830
0.841619253 0.389373779 0.406578332
0.217203990 0.226439089 0.235041186
0.246932194 0.242125183 0.250854015
0.289943188 0.252245188 0.247565091
0.355724275 0.267552555 0.273118466
0.458317369 0.303225964 0.300063282
0.577102780 0.346236557 0.328652859
0.712080956 0.390132785 0.375964373
0.840733647 0.444402009 0.430866659
0.281720549 0.355976909 0.291713834
0.303985000 0.361923069 0.300822198
0.342441291 0.363441080 0.304744065
0.394433826 0.370904714 0.303225994
0.479822844 0.388488173 0.313345999
0.588614821 0.429601729 0.360278279
0.713599265 0.472359300 0.402909696
0.839721620 0.520809472 0.457938254
0.354079485 0.495888442 0.364326090
0.371789724 0.494623840 0.368121296
0.401897401 0.500569344 0.370525151
0.456419826 0.502593577 0.371030837
0.524984181 0.510057032 0.363441080
0.616571486 0.528020263 0.375711858
0.728526235 0.557874560 0.435420543
0.843137443 0.607843280 0.501834154
0.452625096 0.637065291 0.452625096
0.465275288 0.633902371 0.455028236
0.493864834 0.636559248 0.462112546
0.535483718 0.636938691 0.465780914
0.592410028 0.640986681 0.462112367
0.659203112 0.645287812 0.459329724
0.752941191 0.656925738 0.472485721
0.862238884 0.696394682 0.535736740
0.567868352 0.752814531 0.554838538
0.580771685 0.751802564 0.553320587
0.604680479 0.755470991 0.559392333
0.632131517 0.756103516 0.562049210
0.676786780 0.760784447 0.561796367
0.731056452 0.763946533 0.567615509
0.794560313 0.771031260 0.567109287
0.881467640 0.788615048 0.581657052
0.709550679 0.878937602 0.672612607
0.715243101 0.881467640 0.661733329
0.728146851 0.883364856 0.670588076
0.751675785 0.884123743 0.674762964
0.786084890 0.887412906 0.677293003
0.819228470 0.893990993 0.675774693
0.871347427 0.899304152 0.682226539
0.922833681 0.904870391 0.683871031
0.154079646 0.112080999 0.337381631
0.204174548 0.123086900 0.329159081
0.283744276 0.139152452 0.318911999
0.347501636 0.162555635 0.306008637
0.459202975 0.201770842 0.339658648
0.577735722 0.253763378 0.364199877
0.697279990 0.320682913 0.411385298
0.822770417 0.406830788 0.475395262
0.191904098 0.186970457 0.305123538
0.231625646 0.182922542 0.292472929
0.281341016 0.190385997 0.301708102
0.340797007 0.202150196 0.300822198
0.445667297 0.244908541 0.336495697
0.566856623 0.288678020 0.370651394
0.693991244 0.350790352 0.423782378
0.815939069 0.424035609 0.476913244
0.236432552 0.257052183 0.306262076
0.259076655 0.262112617 0.310310096
0.320556283 0.275395572 0.323592305
0.374952644 0.288677752 0.334218621
0.462744832 0.321568727 0.358127892
0.562808096 0.367488891 0.393674821
0.691713989 0.420366824 0.441745579
0.817963541 0.475142539 0.496268213
0.288677633 0.357115269 0.343074262
0.314990163 0.361416817 0.352181941
0.362808287 0.385452300 0.367109627
0.423150003 0.395192921 0.382289290
0.488045484 0.411638021 0.393674612
0.585199416 0.443390399 0.419860899
0.700062931 0.489943206 0.467552274
0.818342805 0.537381291 0.521568477
0.373687178 0.497912824 0.419355184
0.396078527 0.499810278 0.416318744
0.427450806 0.505376339 0.428589284
0.471726984 0.508918524 0.432131827
0.530423582 0.511195600 0.425300449
0.614294469 0.529285073 0.445793986
0.719670892 0.570398510 0.497912645
0.830360591 0.619734347 0.553067386
0.484124005 0.629222035 0.505376339
0.497153670 0.627324581 0.504237711
0.520177186 0.633143425 0.511195540
0.551549494 0.631878674 0.513725638
0.601012290 0.637444854 0.513219297
0.658950090 0.646426439 0.513978422
0.746868908 0.659708977 0.525869727
0.854142904 0.701201737 0.585199296
0.586337626 0.749398887 0.586843550
0.598734975 0.753446817 0.588488281
0.613282621 0.753826559 0.585958362
0.644655526 0.753320634 0.593042254
0.686274409 0.756483078 0.596964240
0.737760842 0.765211761 0.600252986
0.795319259 0.770145237 0.603162289
0.880328774 0.790891826 0.617583573
0.717140734 0.878810823 0.687539756
0.714484334 0.879190385 0.690955222
0.732827187 0.883617938 0.687539756
0.758253992 0.884123743 0.692472935
0.787855625 0.884503305 0.697786212
0.827956736 0.892852664 0.705376208
0.870841324 0.896268070 0.704237640
0.928146780 0.906893969 0.709677458
0.194307387 0.140923187 0.442631394
0.240227535 0.148892999 0.438836306
0.307906061 0.166097283 0.426186115
0.386590630 0.193548277 0.420999616
0.468564153 0.217836991 0.416065991
0.579633474 0.265527993 0.444402397
0.698924243 0.330550075 0.483491272
0.823782265 0.412270576 0.527640581
0.232384533 0.210246548 0.418216377
0.261733174 0.212397203 0.413914889
0.314610720 0.223276287 0.412397027
0.387097090 0.238583535 0.410626203
0.453130811 0.256167203 0.409740567
0.569892526 0.298671544 0.444908291
0.697280109 0.361796200 0.489690095
0.811637998 0.440986633 0.538267195
0.265654862 0.284250379 0.408096284
0.289943218 0.297786206 0.404933363
0.340797096 0.302340180 0.408222377
0.397217095 0.320050657 0.411258578
0.466160357 0.334471881 0.417584181
0.571536958 0.374066830 0.456799269
0.686274409 0.429981172 0.498924673
0.810372829 0.495003164 0.556736171
0.305882633 0.386970282 0.422264189
0.334598154 0.389247268 0.432511181
0.375711530 0.397090375 0.432384491
0.447817624 0.426438808 0.455914170
0.509930491 0.441745460 0.466413647
0.597343743 0.472738743 0.492726177
0.694876492 0.513472378 0.528273106
0.809487820 0.561922610 0.580771744
0.387097210 0.499051183 0.473118365
0.402276903 0.504237711 0.474636197
0.448956400 0.509298027 0.487413079
0.502213955 0.528525949 0.500696003
0.560278356 0.544591963 0.509297967
0.628715932 0.556735992 0.526881635
0.716888189 0.582922161 0.555471182
0.828083456 0.629095137 0.607210577
0.501707971 0.626945019 0.552055717
0.507653356 0.632004797 0.550410807
0.540670276 0.633143246 0.557242036
0.574573159 0.639342248 0.564958990
0.613535464 0.641745448 0.570018888
0.667552233 0.648323715 0.566982985
0.752561688 0.668311238 0.584440172
0.850474179 0.708285928 0.631119788
0.611764669 0.749019504 0.626059532
0.625300229 0.747121930 0.632384241
0.640101254 0.753826261 0.629981220
0.655281603 0.751802742 0.631498992
0.698165536 0.758507371 0.636432469
0.743200481 0.763946652 0.636179447
0.795192599 0.771663427 0.640101492
0.881594241 0.793927789 0.658317506
0.721947789 0.880455375 0.725616992
0.730929971 0.880329013 0.718152940
0.744971514 0.879949450 0.719038486
0.767109394 0.881467640 0.718406200
0.794433832 0.884123743 0.727767110
0.832637548 0.891714156 0.729664683
0.875142276 0.895508885 0.737760544
0.931562304 0.904743552 0.748007596
0.244781733 0.184060991 0.564199984
0.276154548 0.190385804 0.560151458
0.347501755 0.205186471 0.558886766
0.429348379 0.226691812 0.548260450
0.514231443 0.259203196 0.540543973
0.595192492 0.285768479 0.536495447
0.706894279 0.342947572 0.556989491
0.825806558 0.425173938 0.595825672
0.269070327 0.238456532 0.548766553
0.301834285 0.245920077 0.544591963
0.348260760 0.256167173 0.540923715
0.428209752 0.273371309 0.535863340
0.502466857 0.297153711 0.532321095
0.591397464 0.315117002 0.528779447
0.701454997 0.371916473 0.552687883
0.818595707 0.448703438 0.597216785
0.301834345 0.338140368 0.528779447
0.327893674 0.341176450 0.532827139
0.376470774 0.344971716 0.532700479
0.440986454 0.355217934 0.530676842
0.512713432 0.374825835 0.527893484
0.590259135 0.389247060 0.528779447
0.696394384 0.442504346 0.566350400
0.816318572 0.501328170 0.612776816
0.339025974 0.425553620 0.539278746
0.362681985 0.429981172 0.533459663
0.410878897 0.438962817 0.537128747
0.472738624 0.452372044 0.540923774
0.538519740 0.464389563 0.542062163
0.605186641 0.480581641 0.550411105
0.694876254 0.519291699 0.583681345
0.813788712 0.572675288 0.627577364
0.407210648 0.528652489 0.556609750
0.425679743 0.531309366 0.552182376
0.460973918 0.536622345 0.555724025
0.513598800 0.543326676 0.567995131
0.596078575 0.570398152 0.588740945
0.650727749 0.586084664 0.596331298
0.726628900 0.608349144 0.616951227
0.823023200 0.649588883 0.657811701
0.509045005 0.634661496 0.601264775
0.515117049 0.633522868 0.599620700
0.550790608 0.635420561 0.598987758
0.593548596 0.645667374 0.608475626
0.648450434 0.658317447 0.624161720
0.699304163 0.668058217 0.630739987
0.758887053 0.686401010 0.647944510
0.852498591 0.719923973 0.680835009
0.620746315 0.749525726 0.657305598
0.623023272 0.749905288 0.656420171
0.646932423 0.751043677 0.663630366
0.675142407 0.756862640 0.672611952
0.713725448 0.764705777 0.685515285
0.753826559 0.762302279 0.683744550
0.805059791 0.774067223 0.689816713
0.887159824 0.801897764 0.713472545
0.734977782 0.880075991 0.749398768
0.740670443 0.875774801 0.752308667
0.753700137 0.877545774 0.751675785
0.779885948 0.881340802 0.763314247
0.802277148 0.886148036 0.767615259
0.839342296 0.888045788 0.769639313
0.878304839 0.896520793 0.774572670
0.927387774 0.909550726 0.785958230
0.297659695 0.248956561 0.678304553
0.328526109 0.250980735 0.685135961
0.390891910 0.262998074 0.682353079
0.471473545 0.286527574 0.679949284
0.564832211 0.314737558 0.668311357
0.657938182 0.347248524 0.665907562
0.743326843 0.373434275 0.657432020
0.833649635 0.440480530 0.664389193
0.323465973 0.298039556 0.669196844
0.347374827 0.304364264 0.669702530
0.402656585 0.314358115 0.675774992
0.477672249 0.333206803 0.667172730
0.562302172 0.354332715 0.665654659
0.653636813 0.383681089 0.664768994
0.737507522 0.406325281 0.654269099
0.825553358 0.463883758 0.664263070
0.369639575 0.390006274 0.657178938
0.386084557 0.399367660 0.664768994
0.429222286 0.399241358 0.657938004
0.496521264 0.410625994 0.657811582
0.572549105 0.429981172 0.655661166
0.652119040 0.450727761 0.650853872
0.728273332 0.469070077 0.651612818
0.824794471 0.516129017 0.671220720
0.413282543 0.482099622 0.656419933
0.432131648 0.489057720 0.657052279
0.472865283 0.497406632 0.656419933
0.527513921 0.501707613 0.650727630
0.587349653 0.515749633 0.653257370
0.662365794 0.529538274 0.653384089
0.730929554 0.536495566 0.651866257
0.822264194 0.581277728 0.680202246
0.464389741 0.573434293 0.663504183
0.477672458 0.575964212 0.665527880
0.509045184 0.577356219 0.659582376
0.555850744 0.584060669 0.662745297
0.622011483 0.595319211 0.663630247
0.684630215 0.607969761 0.664768934
0.745857179 0.616571665 0.674636304
0.830487251 0.654901922 0.703225672
0.532700777 0.667804956 0.678684235
0.546742439 0.669829249 0.674256980
0.570398271 0.670588374 0.675015926
0.610373259 0.671094000 0.681340933
0.655787230 0.675268531 0.688930988
0.723845720 0.694244027 0.698798239
0.783934295 0.706008971 0.713472724
0.862238944 0.735610425 0.734598219
0.628969312 0.762302279 0.707400203
0.633017302 0.754459262 0.701707542
0.653384268 0.758380830 0.712207437
0.683871269 0.762302279 0.716887951
0.724731147 0.769513249 0.725490093
0.775838256 0.780771732 0.735989988
0.822770596 0.795951486 0.750537276
0.893105626 0.813156486 0.774952114
0.742694139 0.873497903 0.778621197
0.745098054 0.880075872 0.791777372
0.750916779 0.877925217 0.791903675
0.781910181 0.882479191 0.796204865
0.816318572 0.888171971 0.809361279
0.846932232 0.893231928 0.820113778
0.885262609 0.897785902 0.824162066
0.932827115 0.907020748 0.829854488
0.379379809 0.332447618 0.809613764
0.407969356 0.335357189 0.803794920
0.461353540 0.352687895 0.805692732
0.536116123 0.366223842 0.807210565
0.626565158 0.397975981 0.801770747
0.717393935 0.432131529 0.801897764
0.808981776 0.466919780 0.791271627
0.891966760 0.494496822 0.783427954
0.399494261 0.382669330 0.799494088
0.434282303 0.377861887 0.803288996
0.470208824 0.391271353 0.801644325
0.545603812 0.410120040 0.797090471
0.625933170 0.437191486 0.793295205
0.719417691 0.463504225 0.794433653
0.805818856 0.487033337 0.786843777
0.885135889 0.517520607 0.781783342
0.453004777 0.463883758 0.789373875
0.475395173 0.468817174 0.793927789
0.511448026 0.475015938 0.797596633
0.574446857 0.487412900 0.791018486
0.643137276 0.501960635 0.786590517
0.727261364 0.524224877 0.786843836
0.807210624 0.544212341 0.786843836
0.880834818 0.559771895 0.780771613
0.509803951 0.558507442 0.783301413
0.528399646 0.561543167 0.782542706
0.557242155 0.565970898 0.786717355
0.608096063 0.571663439 0.784440041
0.670461595 0.581151128 0.781277716
0.737507641 0.592536092 0.779759765
0.806325257 0.605439663 0.785831392
0.876027703 0.616571665 0.785705209
0.538140476 0.635547161 0.785199165
0.556609809 0.632131577 0.785325646
0.582669199 0.637191772 0.785705268
0.633776128 0.647817612 0.785831451
0.692978799 0.652498305 0.786716998
0.750664115 0.662239254 0.786084771
0.816698194 0.674636364 0.789626896
0.875142455 0.681467116 0.790259421
0.597216785 0.723339677 0.795825541
0.611258864 0.724984109 0.798608243
0.627577424 0.723845422 0.797090411
0.659582436 0.723339677 0.797469735
0.709424317 0.724224985 0.795066655
0.770018578 0.735610425 0.799746692
0.832763910 0.744844735 0.803668320
0.886021495 0.748892903 0.806831002
0.662238777 0.814421356 0.813156188
0.678178430 0.808475435 0.815559924
0.686907113 0.806451499 0.811385334
0.713219404 0.809993625 0.816065788
0.753194034 0.809993625 0.814168334
0.799240947 0.811132252 0.822390676
0.855660975 0.820366681 0.830360651
0.913599193 0.838962853 0.838836551
0.748133898 0.889310658 0.834408641
0.752687931 0.895003021 0.850221097
0.766476750 0.895382464 0.847438574
0.785452247 0.895762026 0.847438395
0.813915312 0.893484950 0.851359785
0.860214889 0.901707530 0.867678702
0.899556935 0.910815775 0.878304720
0.948134005 0.918026805 0.899936616
