Assets/EldamarStudio/100 Retro LUTs Pack/LUTs/cube/Connie LUT.cube
DOMAIN_MIN 0 0 0
DOMAIN_MAX 1 1 1
LUT_3D_SIZE 32
0.141176000 0.105881996 0.125489995
0.141176000 0.105881996 0.125489995
0.145477548 0.105881996 0.127640769
0.151549995 0.107147157 0.128146827
0.159519553 0.109803997 0.126249000
0.180771932 0.109803997 0.132321000
0.207084313 0.112333678 0.138393000
0.237697691 0.110436000 0.141176000
0.268058091 0.106641091 0.143453091
0.289310515 0.109677471 0.152561486
0.319291741 0.103984997 0.150031880
0.347628266 0.103984736 0.146995738
0.377229631 0.107020639 0.146236643
0.410626024 0.110056967 0.149020001
0.444022387 0.113092579 0.149020001
0.482226402 0.123339601 0.156230196
0.517140985 0.135483995 0.163819999
0.547501147 0.148260564 0.170524567
0.577862024 0.163440987 0.179632977
0.608222723 0.173055366 0.188741356
0.640480697 0.184060991 0.194054261
0.671853125 0.197217122 0.202150255
0.699430466 0.212397501 0.220240489
0.732826948 0.227577910 0.235420913
0.763946533 0.240480989 0.248323992
0.792915642 0.254016668 0.260467976
0.820240021 0.269197077 0.272612125
0.847564399 0.284377426 0.284756899
0.882858574 0.302213967 0.307526946
0.915749371 0.322201163 0.330044150
0.945224583 0.344338953 0.350410968
0.972549021 0.368627012 0.368627012
0.144212395 0.102846384 0.119417995
0.135104001 0.114990383 0.122454390
0.139404997 0.108538605 0.120303616
0.149272382 0.108411998 0.124098778
0.162934721 0.113219157 0.128905848
0.186843932 0.115875997 0.132321000
0.215686634 0.113345675 0.140923321
0.240228087 0.117014416 0.144212395
0.267299384 0.118026771 0.143453300
0.295382500 0.118785866 0.143453091
0.319544733 0.118912384 0.146742478
0.349651992 0.119165123 0.145983607
0.381403893 0.123339385 0.146236643
0.416698098 0.128273025 0.149778962
0.450095177 0.131309345 0.158127621
0.478684574 0.136748761 0.158127621
0.512587190 0.147627994 0.163819999
0.544465482 0.159139574 0.169892147
0.574826360 0.169512987 0.176597357
0.607969761 0.187476009 0.185705036
0.638583481 0.195446089 0.198608339
0.669829369 0.204301253 0.209234387
0.699430466 0.215559617 0.223276109
0.732826948 0.233649909 0.238456532
0.766223848 0.248830274 0.253636867
0.795952022 0.263124675 0.266539961
0.823782504 0.278810740 0.279190063
0.853637218 0.296521425 0.293864489
0.880961597 0.306388140 0.306008577
0.912713289 0.327007979 0.327007771
0.941302776 0.351296544 0.347374797
0.966477036 0.377735376 0.365591407
0.145098001 0.112713777 0.119797774
0.140290603 0.116255775 0.129285380
0.146236539 0.117647000 0.121569000
0.157368541 0.114863776 0.121062614
0.173813865 0.120556317 0.128399774
0.194560632 0.123592705 0.134977832
0.217457637 0.128020227 0.132321313
0.244528979 0.126628548 0.141429275
0.267046422 0.130171001 0.142947227
0.294623792 0.130171001 0.141302511
0.321315736 0.132321224 0.141935095
0.351676255 0.134345487 0.142947227
0.383301437 0.137381420 0.144085869
0.417963028 0.142188504 0.147375226
0.447564691 0.145224422 0.154585585
0.482606024 0.154964983 0.160784006
0.508412600 0.164073378 0.166856378
0.540544093 0.174952537 0.174825951
0.573940992 0.182542756 0.182416186
0.604933619 0.195698783 0.189120650
0.638330460 0.208222508 0.200126469
0.668944001 0.216571987 0.214041770
0.699303985 0.226944759 0.226185754
0.730676711 0.241113037 0.239341915
0.759772062 0.252751499 0.250221282
0.791777492 0.269323558 0.265401661
0.820873082 0.285262465 0.279822826
0.852878094 0.301834136 0.298292190
0.880582035 0.318532705 0.308664978
0.909677565 0.336495459 0.329664588
0.940037668 0.358127564 0.351676136
0.966856241 0.380391985 0.371157795
0.150158003 0.130424157 0.124099001
0.144591928 0.131688997 0.131182998
0.153573379 0.129538551 0.133713007
0.165718168 0.126502156 0.126628995
0.183554709 0.132574156 0.127767161
0.200885877 0.136495933 0.130676925
0.224162310 0.140797153 0.134724990
0.245794147 0.143580154 0.134345278
0.270082146 0.144339055 0.141935095
0.294370830 0.144844994 0.142441168
0.319038719 0.147754446 0.141176000
0.350411087 0.150790259 0.144971162
0.382669091 0.154965281 0.144971162
0.415939033 0.158634126 0.147881031
0.445287406 0.163693741 0.152941167
0.476027757 0.170145318 0.160277992
0.510183394 0.181024536 0.168121219
0.535104513 0.192536563 0.179633409
0.569639802 0.199241012 0.188741207
0.603036225 0.210879341 0.197596177
0.634028912 0.219860896 0.204933316
0.667426050 0.228969008 0.216065973
0.698165655 0.240986496 0.228083491
0.729664803 0.254269153 0.241366178
0.757748246 0.264136434 0.251233459
0.787729084 0.274889171 0.263124496
0.817077935 0.292599916 0.279316902
0.848197460 0.307779670 0.300569266
0.877545953 0.325616509 0.312460482
0.907906353 0.346109927 0.328399420
0.938266933 0.367741585 0.353953421
0.968626976 0.382921994 0.375205845
0.160784006 0.152435541 0.130171001
0.153953388 0.154332712 0.130929992
0.160910770 0.153826773 0.134851545
0.174825758 0.151170373 0.138014004
0.188488543 0.148134097 0.137634456
0.203668937 0.154206097 0.125490457
0.226692319 0.158127874 0.132068455
0.250348151 0.159519553 0.138899282
0.272738993 0.160278454 0.141935095
0.297026992 0.163314074 0.144971490
0.319544405 0.166350424 0.143706232
0.347374797 0.169386283 0.148007259
0.378873736 0.173181280 0.153320551
0.409487545 0.179507032 0.154079512
0.442883939 0.188614666 0.157368869
0.472991824 0.193674803 0.165211737
0.502214134 0.199367747 0.173940197
0.535104513 0.208475962 0.183048576
0.562429070 0.217583597 0.192156985
0.597723186 0.229095712 0.203668565
0.630739987 0.237824544 0.212397009
0.661732793 0.245287955 0.219860673
0.695003450 0.254269063 0.228842542
0.728146911 0.268690467 0.243263900
0.757368684 0.279696286 0.254649282
0.786717176 0.289816529 0.266540378
0.819734097 0.303225607 0.282352597
0.844022870 0.318405986 0.303604960
0.873624623 0.335104078 0.317647099
0.904997110 0.354332268 0.333333462
0.937507927 0.374572694 0.352814585
0.967867970 0.389753103 0.374067008
0.160784006 0.179759935 0.136243001
0.169892386 0.173687935 0.142315000
0.173813984 0.175585091 0.145224780
0.183933929 0.176343992 0.146236762
0.197596163 0.175458476 0.143706456
0.221884921 0.172422871 0.140670061
0.232005313 0.178494871 0.138646066
0.249082983 0.180771932 0.140670061
0.270082176 0.181530833 0.141935095
0.297027022 0.184566453 0.144971490
0.327134728 0.187602803 0.153826877
0.349905193 0.190638676 0.156862617
0.374319911 0.193674579 0.158633649
0.400379151 0.197723031 0.157115906
0.433776289 0.206831411 0.166223511
0.471979707 0.215939060 0.174319863
0.501834452 0.222517371 0.181909919
0.529538512 0.229728341 0.189120576
0.562429070 0.238835990 0.198228985
0.595319390 0.247944295 0.207337365
0.629221737 0.257558733 0.216951191
0.661100268 0.267172933 0.226565257
0.691967010 0.278557867 0.237950921
0.722327888 0.284629852 0.244022936
0.753193974 0.296773940 0.258444279
0.781657040 0.307020664 0.272612661
0.811006010 0.318659008 0.288298875
0.844022870 0.339658350 0.306641340
0.873624623 0.349525750 0.325236887
0.902214110 0.363694072 0.342441469
0.931436002 0.381657481 0.362428874
0.961795986 0.401897848 0.386211008
0.175964639 0.202024326 0.144845322
0.177482709 0.201012328 0.145857319
0.186590552 0.199241325 0.149778545
0.195572317 0.201897487 0.151549682
0.208475649 0.202782869 0.149778545
0.228462860 0.199747264 0.146742702
0.240101323 0.199241325 0.143706322
0.255787671 0.202024326 0.145351037
0.274889320 0.202783227 0.146236643
0.296900511 0.205818832 0.147501811
0.324604392 0.208855182 0.153826877
0.354965180 0.213915303 0.160910994
0.382289648 0.218595639 0.165591314
0.410752386 0.223529354 0.167488992
0.437318236 0.232637733 0.174319893
0.473118603 0.236938506 0.183428124
0.506388485 0.247311696 0.192536518
0.533586502 0.255408317 0.200885624
0.566982985 0.262618691 0.211891294
0.595319390 0.271726996 0.220999673
0.632511199 0.278937638 0.226312578
0.664136648 0.287413180 0.236179441
0.691587448 0.297912508 0.249715507
0.724351525 0.306388319 0.258191317
0.756989539 0.319291592 0.273371309
0.786211312 0.333080292 0.287412971
0.814042032 0.344971627 0.300948799
0.845414102 0.360151738 0.315117300
0.878684640 0.375838131 0.335863620
0.903732181 0.388488501 0.348766387
0.930423975 0.406325281 0.366476864
0.960784018 0.429221988 0.390765309
0.184313998 0.224920988 0.153953284
0.194180995 0.221631989 0.155598000
0.198987931 0.228209987 0.161037624
0.205565870 0.223149985 0.160278082
0.216571987 0.224288240 0.159518987
0.232257992 0.223782644 0.157748222
0.249462306 0.224920988 0.151423380
0.258570701 0.228209987 0.153320715
0.279823095 0.226691991 0.154838905
0.298924714 0.227071211 0.153953284
0.324224859 0.230107561 0.158128008
0.350284517 0.235167697 0.164199978
0.380645275 0.242378339 0.170271993
0.413788706 0.248956412 0.176597029
0.443643093 0.256673098 0.184060693
0.472612590 0.264263302 0.192536503
0.504491210 0.271853089 0.200126693
0.533712924 0.283365101 0.209740981
0.568121254 0.290448964 0.221885011
0.597596347 0.294370621 0.231246352
0.629221797 0.303225994 0.241492957
0.664642990 0.311321974 0.245540693
0.690069675 0.321062207 0.258696973
0.724983931 0.330170602 0.269323170
0.755091429 0.340543985 0.280328989
0.787096918 0.354332685 0.294370651
0.814168394 0.368753970 0.307273716
0.842251658 0.380897969 0.321695179
0.876913488 0.395698816 0.341809064
0.909804165 0.407590181 0.360911161
0.931056559 0.424541593 0.373560995
0.959139705 0.448070705 0.397090703
0.189627096 0.248450100 0.164579093
0.204047993 0.243896097 0.165338397
0.211385101 0.250727266 0.171157777
0.222264260 0.254269093 0.176976860
0.224921092 0.242504641 0.170904174
0.235547081 0.244023040 0.170145184
0.253763407 0.247817874 0.167109326
0.271473795 0.251739085 0.163187996
0.282099992 0.255534172 0.166983098
0.303352416 0.249462187 0.163946703
0.327514082 0.252877980 0.166729867
0.352561504 0.257179201 0.171031088
0.376850188 0.262871653 0.176343992
0.407210976 0.271980047 0.182669029
0.442631036 0.278558075 0.191777408
0.473371297 0.287792802 0.202403799
0.499937177 0.296900988 0.209993988
0.528526545 0.309044987 0.216065988
0.564832151 0.318279117 0.227957010
0.596457720 0.320556283 0.237318352
0.627197683 0.327007949 0.246805996
0.660088360 0.335610181 0.259203106
0.687539995 0.347501189 0.265401602
0.722706974 0.355976999 0.276913196
0.753067374 0.365844280 0.286780298
0.781783402 0.376344174 0.298165739
0.812144160 0.387982100 0.308792084
0.836938739 0.399873078 0.327008069
0.870335519 0.413915008 0.348639995
0.905756116 0.426312298 0.365844309
0.935610592 0.439721793 0.385705590
0.956862986 0.460974187 0.406957984
0.210879505 0.269702524 0.179759502
0.213915110 0.269702524 0.173687503
0.213282779 0.278052062 0.174446777
0.223276660 0.282606155 0.179001004
0.246173486 0.275901079 0.183048964
0.246173501 0.266793460 0.176976979
0.259329826 0.270841509 0.183807656
0.278052181 0.275142282 0.183934018
0.297280371 0.276786596 0.179127112
0.312460035 0.273750991 0.176091492
0.336622268 0.279316992 0.178874105
0.362934738 0.283238769 0.181910262
0.387855649 0.286401361 0.185072839
0.410246581 0.290196061 0.188741028
0.440607339 0.299304426 0.197849408
0.473624259 0.310689509 0.211764783
0.502213895 0.319671035 0.222137988
0.528526545 0.327261001 0.228209987
0.561923027 0.339405030 0.234282032
0.595445871 0.345857233 0.243390366
0.624920726 0.355471492 0.250601023
0.654522359 0.365464985 0.259962142
0.687539995 0.371789962 0.274509996
0.717899978 0.377861947 0.283618391
0.748513579 0.388614476 0.292852670
0.778747797 0.400632322 0.306135327
0.809108496 0.412270904 0.323972464
0.839468479 0.421378523 0.342188448
0.869576156 0.433270127 0.365718096
0.903731883 0.445540935 0.381024718
0.935610592 0.461100698 0.394939721
0.956862986 0.485262960 0.419101983
0.223403007 0.296773881 0.194939867
0.232258350 0.302592874 0.197596744
0.237444729 0.300442636 0.191524193
0.241746038 0.303731978 0.189753294
0.256546855 0.302466750 0.191650987
0.261606872 0.306008786 0.200758994
0.271726876 0.304490864 0.197217315
0.288172007 0.306514859 0.199873745
0.308159232 0.307526737 0.197849751
0.327640355 0.306641340 0.196964353
0.345730603 0.309424758 0.193927988
0.365970850 0.311448753 0.190891862
0.390638620 0.313599229 0.190133005
0.415686071 0.316887885 0.191650867
0.440733820 0.323339403 0.198102415
0.468690783 0.334851623 0.207210809
0.502593398 0.345477551 0.219860986
0.533712924 0.353573442 0.229980975
0.564832151 0.363440752 0.240607023
0.592663229 0.370018750 0.255028367
0.623908818 0.379885972 0.264389753
0.652245104 0.388994157 0.273497850
0.681846797 0.393168867 0.286527514
0.714990854 0.399240881 0.295635879
0.743074119 0.407590151 0.304743707
0.772801936 0.420493394 0.316634655
0.804174364 0.433649778 0.332321256
0.839341998 0.442757428 0.345730841
0.864389658 0.454522520 0.361290008
0.890701890 0.470208794 0.383048415
0.921695054 0.485515445 0.400252581
0.951044023 0.503732026 0.422517121
0.237571254 0.330170512 0.208095998
0.246679634 0.332194507 0.211132377
0.251612991 0.335863262 0.209740698
0.258950144 0.335357338 0.207463413
0.268817544 0.336116225 0.207084253
0.279823244 0.338899255 0.215939254
0.286907256 0.341935515 0.215433061
0.300695956 0.340290815 0.214041740
0.318532526 0.339911252 0.214041740
0.338519722 0.339911252 0.214041740
0.356862485 0.340796858 0.207084388
0.377102971 0.343833238 0.206072256
0.395319283 0.344971597 0.200000256
0.419481307 0.348007262 0.198482215
0.441998810 0.352308482 0.202782989
0.472738773 0.359139562 0.213282540
0.500063181 0.369766176 0.225426927
0.533712864 0.378241479 0.236811981
0.564073384 0.385958225 0.246173024
0.591650844 0.394307524 0.261100382
0.620873213 0.400379509 0.272485763
0.651233256 0.411258638 0.281594127
0.679695964 0.416445494 0.292852730
0.711195469 0.422517478 0.305755615
0.742062271 0.434914798 0.318911940
0.770777941 0.442631513 0.323845237
0.801138163 0.455914319 0.336875051
0.834534883 0.468058318 0.353573620
0.862365425 0.477798641 0.368374377
0.890196085 0.488172174 0.388867646
0.915875793 0.506514847 0.410373092
0.946995735 0.523972273 0.431625515
0.252751648 0.370018929 0.222517282
0.260721385 0.371157289 0.225553378
0.267805517 0.372169405 0.226565510
0.274509788 0.372928768 0.226059154
0.282859087 0.375584930 0.227956995
0.295003265 0.375584930 0.230993003
0.304870635 0.376976609 0.229474962
0.315876067 0.379000604 0.228083283
0.331056446 0.378241301 0.229601279
0.348892987 0.379000276 0.230360284
0.368247628 0.376723289 0.223908871
0.387349546 0.377608895 0.220872998
0.407463282 0.380645275 0.218595996
0.425933033 0.383427918 0.213283032
0.447185397 0.385578692 0.216318861
0.475774795 0.391018271 0.224288285
0.506135166 0.395192802 0.233396173
0.534092128 0.404301196 0.247311562
0.564452946 0.410879254 0.253889650
0.594307363 0.418595999 0.267172366
0.622390807 0.426945299 0.281973392
0.651739717 0.434029162 0.292093635
0.682099760 0.443010986 0.301328480
0.713472486 0.449083000 0.314484388
0.742694557 0.459709257 0.329664558
0.771916568 0.471853614 0.343579620
0.802276790 0.478431553 0.345097691
0.832637489 0.492346764 0.363820046
0.862618446 0.504490793 0.382036448
0.891713977 0.517014503 0.401391357
0.919418216 0.527008235 0.428336561
0.946236610 0.547501624 0.450600982
0.268691003 0.414295018 0.240987033
0.274004012 0.417583704 0.244022653
0.282226741 0.418216079 0.246299773
0.292346984 0.417457223 0.249588877
0.303858519 0.414548039 0.251992017
0.306894153 0.414548039 0.245920032
0.317520648 0.414548039 0.241619319
0.331309348 0.415939361 0.241493031
0.345730126 0.419481128 0.241999030
0.360910505 0.425553113 0.248071030
0.381656885 0.420493096 0.245667204
0.401138484 0.418722063 0.244149059
0.419355035 0.419607669 0.242631033
0.438077033 0.422644049 0.237318069
0.459329396 0.422644049 0.240354449
0.485135823 0.426692009 0.244782031
0.511954188 0.430234045 0.249588877
0.539658129 0.431625634 0.252877563
0.570019007 0.440733999 0.261985987
0.602909446 0.447059005 0.273624063
0.632510781 0.454775751 0.289057434
0.660088360 0.463630915 0.306008995
0.687539995 0.472865015 0.318405986
0.720809877 0.479189992 0.327893883
0.750411272 0.487286329 0.342315286
0.777735651 0.496394634 0.357495368
0.805060148 0.505756021 0.372169137
0.835420847 0.514863610 0.381277472
0.867931783 0.528778851 0.400505841
0.899810314 0.545224428 0.421758235
0.927514553 0.562429070 0.445540637
0.948767006 0.574573040 0.478937060
0.292978972 0.444654971 0.262239397
0.289943367 0.450727761 0.265275031
0.297406644 0.449715465 0.261859387
0.306514710 0.449841976 0.262744993
0.316255540 0.450854242 0.267425418
0.325110912 0.447944373 0.267172396
0.335736811 0.447944373 0.256040394
0.349525660 0.447944373 0.260594696
0.362428814 0.449335903 0.267299384
0.370018870 0.452878237 0.263251394
0.388108373 0.453131229 0.263504416
0.408981264 0.453889966 0.258823812
0.428462863 0.455154806 0.257432163
0.447185397 0.456040412 0.258570433
0.471473366 0.459076792 0.261606812
0.495129585 0.456672996 0.257432401
0.518532634 0.460088402 0.259962410
0.542314947 0.464262962 0.263504237
0.570019007 0.468058378 0.261985958
0.600379765 0.474383414 0.271094352
0.629475176 0.480455399 0.282732427
0.657811701 0.487159967 0.299177736
0.687539995 0.494117379 0.318405986
0.717899978 0.506261408 0.336622000
0.753447115 0.512586951 0.357495129
0.783807635 0.520683110 0.375711620
0.810626149 0.530297101 0.390891880
0.835420847 0.542188764 0.405566245
0.863124788 0.551296353 0.419987619
0.895256102 0.563440800 0.439974993
0.924478173 0.579506993 0.461227417
0.945730567 0.598861814 0.485009819
0.312460601 0.477419406 0.283491790
0.309424371 0.483491570 0.281720400
0.317140967 0.478810996 0.278304815
0.321441948 0.479063779 0.276027977
0.327134788 0.482858986 0.280202597
0.342314929 0.481846869 0.280202597
0.346742779 0.483744591 0.286906779
0.363820493 0.483744591 0.281340778
0.378241777 0.484503508 0.288172066
0.384313792 0.487539470 0.283744782
0.402023792 0.487665981 0.283491790
0.420240313 0.487665981 0.283491790
0.437697589 0.489183813 0.278178781
0.454143018 0.489436835 0.277419567
0.480581760 0.492473215 0.280455410
0.502466619 0.495508969 0.281087995
0.522201180 0.493990779 0.276534170
0.542947531 0.496394366 0.277419657
0.570272028 0.495888770 0.272612035
0.602782965 0.501707792 0.285515338
0.631245971 0.509677529 0.296520978
0.659582496 0.515243471 0.309677124
0.689943194 0.519923806 0.327893496
0.720303833 0.527513862 0.343832791
0.746109784 0.535104394 0.357494801
0.780645192 0.543959796 0.378494531
0.810499847 0.554585636 0.395192981
0.838583052 0.566729844 0.412270635
0.865527987 0.573813975 0.432258010
0.896394730 0.590005994 0.449209601
0.924478173 0.603162527 0.470714957
0.942694187 0.618342996 0.493485183
0.329158783 0.513852179 0.297153980
0.330677003 0.515370011 0.303225994
0.330803186 0.518279791 0.295002997
0.341682315 0.510436237 0.297786146
0.341556191 0.514737189 0.301834553
0.357495189 0.514737189 0.302973181
0.363061517 0.518785715 0.301454872
0.374446690 0.520177364 0.305629194
0.393421978 0.519418299 0.306388289
0.401012003 0.520935893 0.304870665
0.415686369 0.521062374 0.303225994
0.436938524 0.521062374 0.304744184
0.451739639 0.519923747 0.305882543
0.464263231 0.519797206 0.301454991
0.489057571 0.522833586 0.303225756
0.511574984 0.522833407 0.303858191
0.532827377 0.527387559 0.300822198
0.549905121 0.527387559 0.297154009
0.576344013 0.525237322 0.291081458
0.601644635 0.527514398 0.295382351
0.634281933 0.535483718 0.307147175
0.662618458 0.543579936 0.320303321
0.692979157 0.547374666 0.335736662
0.723339617 0.554838359 0.353700101
0.749146163 0.559392750 0.366603196
0.774825811 0.564073503 0.381530523
0.808475912 0.576344073 0.400253236
0.840860188 0.589500189 0.419481367
0.864009798 0.596331179 0.440354198
0.893358350 0.609740555 0.458317190
0.926755369 0.628336370 0.482732564
0.945730209 0.638077199 0.510183394
0.344338566 0.550790548 0.307020962
0.352308750 0.548386753 0.322833925
0.352561772 0.551170111 0.318659008
0.353953123 0.553447366 0.316634715
0.362681985 0.548133731 0.329538107
0.374319971 0.548133731 0.332068503
0.380139291 0.552561581 0.326249242
0.390132964 0.554712534 0.322707146
0.406198561 0.554586053 0.322201073
0.418342561 0.551549673 0.325237453
0.430487156 0.551423132 0.323719263
0.449462563 0.552688122 0.325363815
0.469955623 0.552182078 0.327767491
0.479570001 0.549145699 0.330297112
0.500063360 0.551422954 0.329917550
0.521315753 0.550916910 0.329285145
0.541935563 0.551169932 0.327514142
0.563187957 0.555977523 0.321442008
0.587476015 0.555977523 0.315369993
0.608096302 0.556609929 0.312713176
0.633902729 0.559772372 0.315369725
0.665654659 0.567235529 0.325869709
0.696015418 0.573181093 0.340923548
0.726375580 0.581277490 0.360657901
0.752814531 0.587096810 0.375711560
0.777862251 0.591397882 0.392536283
0.804680586 0.595951676 0.410247028
0.840607285 0.611005545 0.431246400
0.863630533 0.619481087 0.451866210
0.888930738 0.630739927 0.470208883
0.917647004 0.647818148 0.488677770
0.951043427 0.659962118 0.528146982
0.359519005 0.578115046 0.331309050
0.374699354 0.578115046 0.349525809
0.378368050 0.580012798 0.345983446
0.380645007 0.582037032 0.342694163
0.386970073 0.581530929 0.350790590
0.393042028 0.581530929 0.347754955
0.402150333 0.584060609 0.345224679
0.412397027 0.584060788 0.344971716
0.424288124 0.582037032 0.346236914
0.433522999 0.581910551 0.343453526
0.445666999 0.581784010 0.346489906
0.461859584 0.585832000 0.351043969
0.480581999 0.589120984 0.354586005
0.497786045 0.588614941 0.354585946
0.512966454 0.585578561 0.351549566
0.533459783 0.587855816 0.348766804
0.553193986 0.588867962 0.347501963
0.572295606 0.589374006 0.345730841
0.593548059 0.589374006 0.339658082
0.620620072 0.592156649 0.339152068
0.645287931 0.591144800 0.338899016
0.671347141 0.591144860 0.343706280
0.699051023 0.594433546 0.356103987
0.729411840 0.597469926 0.368248016
0.757495224 0.605566323 0.383428276
0.783175290 0.614168346 0.403921604
0.807716966 0.623276174 0.428463072
0.832004964 0.635420918 0.443643451
0.862618625 0.647817969 0.461986005
0.891966879 0.657685220 0.480455458
0.919670641 0.669323564 0.499304563
0.941935003 0.684250951 0.522075057
0.399746746 0.613788724 0.369513094
0.403795123 0.616572082 0.373813808
0.414674520 0.618722320 0.381277800
0.419102103 0.620493412 0.381151229
0.424035549 0.620113969 0.388741553
0.422896743 0.617710710 0.385705322
0.428968728 0.617710710 0.382669061
0.441113055 0.620493412 0.381277382
0.454395741 0.620493412 0.383175135
0.465527862 0.620493412 0.384187251
0.477546066 0.620493412 0.381403863
0.491713792 0.618469656 0.382416010
0.506894290 0.619987726 0.383554637
0.521062672 0.620240688 0.381910354
0.531182408 0.622264326 0.381404310
0.548766613 0.621631742 0.380771726
0.569639564 0.624288619 0.378115177
0.589120686 0.625553727 0.376850009
0.608222365 0.625553727 0.375078827
0.632258058 0.628336370 0.377356082
0.657684922 0.625679731 0.369766116
0.682985127 0.624794424 0.368248075
0.710183024 0.629601240 0.376723856
0.735230803 0.632637620 0.386211008
0.761037529 0.635673463 0.398355573
0.789247334 0.643769681 0.415812999
0.815812707 0.652877808 0.439342409
0.837823987 0.662745237 0.459076792
0.867425621 0.672233164 0.479570180
0.894243896 0.684250712 0.497912675
0.922580183 0.693485320 0.519671202
0.949525356 0.702973008 0.546616375
0.432763726 0.646426439 0.397596747
0.439595133 0.643770158 0.402530074
0.439342529 0.644908726 0.407463521
0.445920587 0.651739538 0.410499901
0.450980514 0.653130889 0.417204738
0.450980544 0.647058904 0.415686548
0.457431704 0.650348008 0.406957418
0.465148419 0.650348008 0.410499454
0.479822814 0.652371764 0.412776470
0.493105471 0.652371764 0.416951209
0.507147431 0.652371764 0.414168358
0.519418180 0.650348008 0.413156211
0.531182468 0.649589121 0.412017584
0.542315066 0.650348008 0.409234732
0.556356728 0.651739359 0.409234732
0.568880320 0.652371764 0.407336980
0.587096751 0.652371764 0.408855170
0.607337117 0.655028582 0.407210469
0.625553489 0.656293750 0.407210469
0.643643498 0.659076393 0.408096105
0.667931676 0.658317447 0.409234732
0.690195680 0.655281305 0.400126576
0.714610457 0.660341263 0.403415501
0.737128079 0.663377643 0.408981562
0.765211761 0.666413963 0.416571558
