Assets/EldamarStudio/100 Retro LUTs Pack/LUTs/cube/Connie LUT.cube
LUT_3D_SIZE 5
DOMAIN_MIN 0.000000 0.000000 0.000000
DOMAIN_MAX 0.903226 0.903226 0.903226
0.141176000 0.105881996 0.125489995
0.237697691 0.110436000 0.141176000
0.444022387 0.113092579 0.149020001
0.671853125 0.197217122 0.202150255
0.882858574 0.302213967 0.307526946
0.184313998 0.224920988 0.153953284
0.258570701 0.228209987 0.153320715
0.443643093 0.256673098 0.184060693
0.664642990 0.311321974 0.245540693
0.876913488 0.395698816 0.341809064
0.292978972 0.444654971 0.262239397
0.349525660 0.447944373 0.260594696
0.471473366 0.459076792 0.261606812
0.657811701 0.487159967 0.299177736
0.863124788 0.551296353 0.419987619
0.461100250 0.676786959 0.419860989
0.490448833 0.679696143 0.429727852
0.578747809 0.680708289 0.438583136
0.700316250 0.684629977 0.437571257
0.875901341 0.723213196 0.500695944
0.699936628 0.882732809 0.648829758
0.712333739 0.889942765 0.647438347
0.760531187 0.893231750 0.657305360
0.834661484 0.897153616 0.661606610
0.921947777 0.911574781 0.675142407
0.139531717 0.123845711 0.203668699
0.235040694 0.120935991 0.203668699
0.391397685 0.170018986 0.240354106
0.615306854 0.255028248 0.303099543
0.847817779 0.357747823 0.385578513
0.211131990 0.208222702 0.222896993
0.264136374 0.222643703 0.230107412
0.404427707 0.264516115 0.265528381
0.620872974 0.331562012 0.319797397
0.845793724 0.423149794 0.413662523
0.311195403 0.429601818 0.318405956
0.350790709 0.439468384 0.319417655
0.460341394 0.445034653 0.320050716
0.636938810 0.489437103 0.367868543
0.843516648 0.564073503 0.472612083
0.481973439 0.667932153 0.466540128
0.510056794 0.668690681 0.464642704
0.582036793 0.672865272 0.483617693
0.697407126 0.680708408 0.474510103
0.869323075 0.720935941 0.534724951
0.706767678 0.881467640 0.665022373
0.725616515 0.885388911 0.661732912
0.762175918 0.884756804 0.674636304
0.834661484 0.892220080 0.676280737
0.923339605 0.906641364 0.683112025
0.173308402 0.124224991 0.389752954
0.275268972 0.147754416 0.369766116
0.405439794 0.186337575 0.358380824
0.612397552 0.271727145 0.412017822
0.824668050 0.406198382 0.497659564
0.243896410 0.248829693 0.356103688
0.302719980 0.258949965 0.356736094
0.406072378 0.282479376 0.362934411
0.598734975 0.360404670 0.420113951
0.809614182 0.473497778 0.521568477
0.340037793 0.428968817 0.406072408
0.388741523 0.442378104 0.420113683
0.490448803 0.470840931 0.448576778
0.626438975 0.507147551 0.489184201
0.819355011 0.587982416 0.565718174
0.517014384 0.655787408 0.547628105
0.548639953 0.654522657 0.553193986
0.599620283 0.662744939 0.554206550
0.694117963 0.675775111 0.556483209
0.862239301 0.726881802 0.609867334
0.730550170 0.876913249 0.704364240
0.734092295 0.876533926 0.705376446
0.772928596 0.885388911 0.713472366
0.838709533 0.893611491 0.716129243
0.920556784 0.909677148 0.723972201
0.258949995 0.196204990 0.592536271
0.339405388 0.208981693 0.592536271
0.481973380 0.254775107 0.578115284
0.633649230 0.309045136 0.569892108
0.826312304 0.428462803 0.609487832
0.311195254 0.324731112 0.567994654
0.368880421 0.336116582 0.567362547
0.484629989 0.358760118 0.564579546
0.623909295 0.388488263 0.555850863
0.818089843 0.491207957 0.625426710
0.385578960 0.492093682 0.566350698
0.428336412 0.496394575 0.572296321
0.535230994 0.517900407 0.582669377
0.650980115 0.540796697 0.591144979
0.821631908 0.609108090 0.652245283
0.541429281 0.664010108 0.629601240
0.567236125 0.667299569 0.627324164
0.635547400 0.678051829 0.643390417
0.731688976 0.697407126 0.660088420
0.860847592 0.744465292 0.701328278
0.738772750 0.876280785 0.759266198
0.753700078 0.877292931 0.761543095
0.790259361 0.883744478 0.775585175
0.850474298 0.892599761 0.777988911
0.927893758 0.910056889 0.793042302
0.379379809 0.332447618 0.809613764
0.441872507 0.347122073 0.804680645
0.576849818 0.383427799 0.805818558
0.740923405 0.438962638 0.792789459
0.891966760 0.494496822 0.783427954
0.440607488 0.441619158 0.794180930
0.487665892 0.449462175 0.797596514
0.601771176 0.474889219 0.790639043
0.745224655 0.512839735 0.784819543
0.883617759 0.544844747 0.784566820
0.524604797 0.595825315 0.789374053
0.564452767 0.601644158 0.786844015
0.649462163 0.616065741 0.788109004
0.762555182 0.631751716 0.788109004
0.877545655 0.653384030 0.783427954
0.617710114 0.748134255 0.797090411
0.632131755 0.746869087 0.798861384
0.695508957 0.744212210 0.799493909
0.792536438 0.756609797 0.801770747
0.890322447 0.772928417 0.811891079
0.748133898 0.889310658 0.834408641
0.764452755 0.890069604 0.845667481
0.797722816 0.895888746 0.850853980
0.871600032 0.901454449 0.869702637
0.948134005 0.918026805 0.899936616
