Assets/EldamarStudio/100 Retro LUTs Pack/LUTs/cube/Cynthia LUT.cube
LUT_3D_SIZE 5
DOMAIN_MIN 0.000000 0.000000 0.000000
DOMAIN_MAX 0.903226 0.903226 0.903226
0.000000000 0.047059000 0.078431003
0.238709390 0.117014416 0.113092996
0.495635808 0.170651406 0.132700577
0.729791284 0.261859864 0.197217122
0.942820966 0.346615821 0.277292997
0.001644708 0.322327405 0.125869706
0.183428109 0.326249391 0.140543997
0.450221092 0.342947692 0.158886567
0.706261814 0.386464000 0.223276123
0.929790795 0.439089537 0.285515517
0.000000000 0.583934247 0.217710406
0.066160396 0.585578501 0.218089700
0.423150212 0.585199416 0.226312816
0.658443868 0.585831404 0.240986854
0.897786200 0.623782635 0.312586993
0.000000000 0.798228979 0.324731141
0.066287331 0.800000012 0.314610988
0.393801391 0.805186391 0.326755136
0.627703965 0.804174244 0.343326986
0.862491786 0.819607973 0.363946974
0.353700250 0.968880653 0.506261826
0.387223303 0.974825978 0.491207957
0.504364192 0.972169340 0.497153759
0.664895892 0.974446654 0.508918643
0.834408641 0.968880653 0.524477780
0.002277292 0.111448288 0.245540693
0.199494392 0.143832996 0.242884696
0.429601401 0.234408706 0.272612393
0.675142109 0.323339701 0.323971689
0.911195636 0.402782828 0.374952525
0.005566289 0.306008965 0.251359701
0.184440419 0.309930414 0.260214984
0.403795123 0.350158095 0.284123689
0.665022433 0.409993798 0.317773581
0.901707649 0.473371387 0.375711530
0.001644708 0.563946664 0.322707087
0.164199814 0.566603065 0.312207669
0.413662106 0.572802246 0.317773372
0.635294139 0.584566414 0.331182718
0.887033463 0.629348516 0.393674970
0.047564760 0.798987985 0.391650826
0.220619962 0.789879978 0.389753401
0.428083539 0.794433951 0.399241120
0.631372392 0.796710670 0.409613967
0.851359606 0.820367098 0.426818669
0.394054443 0.970524907 0.525996029
0.434914470 0.974825919 0.536242664
0.545603752 0.967235923 0.541176081
0.680834770 0.967868567 0.549272835
0.842504680 0.967615783 0.557115793
0.051866218 0.178494409 0.436179370
0.241998821 0.207969412 0.419481128
0.421758384 0.258317381 0.405439824
0.665401518 0.350790709 0.447311670
0.878178239 0.466287225 0.506767511
0.090702102 0.347880989 0.406071991
0.228589267 0.350790292 0.400506109
0.412650406 0.378241688 0.410626411
0.633649647 0.440733820 0.448197275
0.869322896 0.527008235 0.517267346
0.029601391 0.557115853 0.428968787
0.227577403 0.558760107 0.431878686
0.435546786 0.572169423 0.456419826
0.621252239 0.586211145 0.468943655
0.864515781 0.646046758 0.527134836
0.278810829 0.778747857 0.510056615
0.357874632 0.780012429 0.509803891
0.490196109 0.780012429 0.520177245
0.651360273 0.787223399 0.527387559
0.851359785 0.810120225 0.543706477
0.492599368 0.958380818 0.610120177
0.520429909 0.963693738 0.618343055
0.601012051 0.964326382 0.623150110
0.721315742 0.963061213 0.627451122
0.861227214 0.964959025 0.642251730
0.213915259 0.286527246 0.618975103
0.319165230 0.304743826 0.612017989
0.492852688 0.336116225 0.602909684
0.681720078 0.372675270 0.596331298
0.885388911 0.484629959 0.629727781
0.237824112 0.427324682 0.600252986
0.329664826 0.431625426 0.592536390
0.486021608 0.441745549 0.590132713
0.658191144 0.462618709 0.584946513
0.870967627 0.555850685 0.631372511
0.221505553 0.587855637 0.590891719
0.316255689 0.587855816 0.588867962
0.487666100 0.598987818 0.592157125
0.659202814 0.628968835 0.604174435
0.853384018 0.678051770 0.656799674
0.320050269 0.779633105 0.616951108
0.390512258 0.782036364 0.615939438
0.539531648 0.780391932 0.628716111
0.689563394 0.783681095 0.648324132
0.861606598 0.806198776 0.669070005
0.507020652 0.965971112 0.685009718
0.556989253 0.958127677 0.699177682
0.657937765 0.958759904 0.714104831
0.769133210 0.958127499 0.726502240
0.887665927 0.961036921 0.731309295
0.387349606 0.417330623 0.823908806
0.454648614 0.426818639 0.817330599
0.594434083 0.453257382 0.806198359
0.771663249 0.489942938 0.806072056
0.939152539 0.532447577 0.793927789
0.443643183 0.532700598 0.803415656
0.489690185 0.538899362 0.801770747
0.613535583 0.550664365 0.803035736
0.768374383 0.568374336 0.792915940
0.929917574 0.591144621 0.789626896
0.440227360 0.676280737 0.802277207
0.505376518 0.675142050 0.794180930
0.637697339 0.694496930 0.793295205
0.766856074 0.700316370 0.789247215
0.904491007 0.707526803 0.792662561
0.422264338 0.826059282 0.789879620
0.476533890 0.827197969 0.793548346
0.602783024 0.817963421 0.792536438
0.764831901 0.816698194 0.794433773
0.902087092 0.834281921 0.796204746
0.529790819 0.975584924 0.789753139
0.581783533 0.970904827 0.793927908
0.675522029 0.960404336 0.801012218
0.807843149 0.958127499 0.814041615
0.933839619 0.955850780 0.844908476
