Assets/EldamarStudio/100 Retro LUTs Pack/LUTs/cube/Cynthia LUT.cube
DOMAIN_MIN 0 0 0
DOMAIN_MAX 1 1 1
LUT_3D_SIZE 32
0.000000000 0.047059000 0.078431003
0.000000000 0.053130999 0.081467390
0.032258321 0.063503996 0.090955004
0.074003994 0.073118001 0.100569002
0.111195087 0.080708094 0.106640995
0.153699875 0.098924868 0.112712994
0.196204633 0.109550677 0.111195318
0.238709390 0.117014416 0.113092996
0.281214207 0.122327901 0.118406095
0.323718995 0.125363514 0.121442482
0.354585737 0.134218872 0.121569000
0.388994515 0.143327251 0.123592734
0.426565647 0.152435347 0.126628637
0.465275079 0.161543041 0.129664958
0.495635808 0.170651406 0.132700577
0.530803561 0.182162985 0.140543804
0.565718174 0.195825189 0.152688190
0.598482132 0.210372984 0.165970996
0.628843009 0.222517014 0.172043011
0.664768994 0.229095712 0.183681011
0.697406471 0.244655728 0.190132737
0.729791284 0.261859864 0.197217122
0.765971005 0.271220505 0.212017998
0.796331823 0.286400914 0.218089998
0.824415267 0.297027290 0.226439282
0.853130937 0.307526976 0.238330290
0.883997202 0.319671005 0.253004134
0.917394280 0.331814975 0.265148908
0.942820966 0.346615821 0.277292997
0.972422123 0.361796170 0.289436966
0.996963620 0.375205606 0.302466571
1.000000000 0.384314001 0.317647010
0.000000000 0.086527392 0.084503770
0.000000000 0.083491772 0.090575770
0.019354772 0.085262775 0.097912610
0.060847543 0.097659931 0.104111001
0.105502635 0.113346159 0.106640995
0.150664255 0.126249254 0.112712994
0.190638706 0.131815061 0.113724999
0.232637405 0.139911100 0.122707017
0.272865087 0.146616101 0.128273189
0.308538616 0.149652302 0.115369715
0.348134220 0.158506900 0.121315964
0.382922500 0.165591508 0.125616997
0.419354975 0.172549382 0.129664749
0.456925720 0.179759741 0.133206651
0.495635808 0.188867420 0.141808972
0.525995970 0.195572615 0.142441392
0.559645772 0.209487766 0.149652198
0.593675137 0.224920958 0.161796570
0.628843009 0.234661788 0.175079405
0.661986411 0.246805787 0.181151405
0.696268082 0.255281746 0.190891638
0.728779137 0.269956142 0.199240878
0.762934566 0.283238769 0.212270990
0.793295443 0.295509309 0.224161997
0.825932920 0.306135088 0.232511282
0.854775310 0.318026245 0.241619304
0.883491158 0.331815124 0.253004134
0.914357901 0.343959749 0.265148908
0.945098221 0.353446901 0.274636149
0.971916497 0.366097420 0.289943010
0.994813323 0.379127383 0.303731769
1.000000000 0.390385985 0.314610600
0.004300999 0.130297318 0.097027220
0.000000000 0.125110939 0.098798223
0.008601998 0.128526539 0.098419003
0.048576705 0.127261385 0.107526608
0.098671541 0.139911547 0.109803550
0.140670255 0.150284782 0.110562764
0.185452327 0.159139991 0.118026547
0.223276407 0.162175596 0.116381839
0.264010102 0.168753862 0.127261326
0.300189495 0.171790257 0.118785590
0.343706608 0.180644900 0.121694967
0.375079244 0.187729284 0.123719223
0.413409472 0.192663133 0.129538223
0.452118814 0.197976038 0.133838996
0.491587430 0.207084119 0.141049638
0.523845732 0.215939373 0.145098001
0.555723965 0.225047767 0.152688190
0.589120746 0.240733758 0.163693979
0.624035418 0.251359969 0.177356198
0.659835637 0.263251007 0.184187219
0.695129693 0.271600485 0.190259218
0.727767289 0.281467766 0.200126261
0.760025203 0.295129985 0.212144479
0.792409837 0.303225994 0.222264230
0.820746303 0.319544464 0.232131511
0.852751315 0.327260762 0.241239890
0.882352889 0.339152068 0.251865774
0.916002631 0.349652141 0.267299145
0.937760830 0.363440931 0.272485912
0.973434329 0.374319732 0.288677931
0.994307220 0.385578841 0.303731978
0.997849226 0.396458000 0.311574757
0.006578161 0.173308164 0.109677158
0.001771000 0.168501318 0.109677158
0.003542000 0.169766158 0.108791769
0.037191480 0.175838143 0.107020997
0.093358539 0.171663314 0.114990160
0.134597927 0.174573094 0.112839937
0.175331801 0.182416320 0.117394321
0.217204407 0.190765589 0.124984287
0.254396081 0.193042308 0.121188998
0.293864489 0.195572644 0.122707322
0.336622298 0.201897293 0.123213284
0.375079244 0.210246503 0.128019989
0.405819267 0.216318995 0.129158631
0.447818041 0.219987199 0.135104164
0.487286389 0.229095563 0.141176164
0.522074580 0.238203958 0.146109805
0.551423192 0.247564986 0.152688190
0.585452139 0.257811576 0.166603580
0.619481146 0.268058181 0.178115174
0.658190906 0.280202180 0.189753160
0.693358481 0.289816469 0.194560319
0.728779137 0.297912985 0.202656314
0.759392798 0.309930503 0.214800984
0.791650891 0.317141175 0.225047261
0.820493281 0.328526288 0.234155446
0.849209309 0.341176301 0.243263826
0.878557980 0.348260313 0.252372086
0.911954522 0.358127594 0.268310994
0.942567945 0.371283799 0.278304815
0.966856241 0.384693265 0.285641998
0.993927538 0.395951688 0.305123419
0.993548036 0.405059993 0.312334001
0.003542452 0.212397099 0.118026547
0.001265161 0.210120469 0.119164996
0.000379548 0.211385310 0.118026547
0.023149934 0.214547634 0.118405998
0.086907096 0.219101533 0.118405998
0.132447481 0.206957534 0.118405998
0.171916187 0.209993646 0.121315770
0.207337022 0.216192245 0.125363842
0.247565091 0.223023534 0.132194549
0.287033498 0.223023534 0.126122549
0.326881409 0.227450758 0.124098867
0.365591198 0.233016789 0.127640739
0.403921723 0.240986541 0.135230646
0.440354496 0.247058600 0.138773039
0.479696393 0.256040484 0.144971550
0.517520547 0.265528351 0.151043549
0.550158143 0.273877352 0.158254206
0.579759538 0.282479137 0.167362571
0.616192400 0.285515577 0.176470995
0.657432199 0.296900570 0.193169013
0.694244146 0.306008726 0.202277198
0.726881623 0.316129088 0.208349451
0.760404468 0.328146577 0.220240474
0.791271269 0.337254882 0.231878549
0.820493281 0.345983744 0.241745740
0.848829746 0.354838997 0.250854135
0.878937542 0.361543536 0.260721475
0.903225541 0.373687536 0.269829065
0.941935182 0.385452092 0.283491373
0.973434389 0.397216856 0.294496983
0.992409945 0.408475906 0.302846104
0.989373565 0.417583555 0.318026543
0.000506065 0.248829871 0.121062934
0.003542452 0.251866251 0.130170554
0.003415935 0.253890067 0.124857768
0.017331094 0.254396021 0.122327775
0.059582710 0.252498686 0.124477997
0.123339862 0.246425912 0.124477997
0.171410576 0.249462560 0.129538000
0.201517925 0.250601083 0.126881778
0.230107412 0.250347942 0.124604933
0.274889499 0.250347942 0.129158944
0.317267746 0.264895797 0.134724945
0.353194177 0.265907556 0.133206740
0.388741344 0.268310934 0.136748642
0.425174117 0.274382979 0.144845039
0.461606860 0.280455768 0.153953418
0.503352582 0.291840851 0.160151929
0.540291190 0.298924744 0.166223928
0.573940516 0.304237515 0.173434570
0.613156021 0.312839955 0.182542980
0.649588764 0.324224949 0.194434017
0.685135782 0.328778923 0.203795001
0.716508210 0.334345251 0.211385056
0.745224059 0.346363336 0.223276079
0.781656861 0.355470955 0.229348868
0.817077637 0.362302005 0.238709643
0.847817659 0.373054713 0.247817725
0.876154184 0.385705054 0.257938147
0.906261921 0.394939929 0.272865444
0.935863614 0.404427767 0.281973749
0.962935150 0.414041609 0.295635670
0.983807981 0.423655659 0.308412224
0.998481929 0.432763934 0.321062922
0.000000000 0.287792325 0.119038679
0.003036387 0.283238381 0.128146932
0.001771226 0.286274761 0.130803317
0.001391678 0.291840494 0.125363842
0.027324542 0.292725980 0.126249000
0.106135473 0.282352746 0.130549997
0.154711992 0.288930953 0.133080319
0.199999750 0.290069610 0.135863319
0.224541098 0.288551420 0.133206993
0.252371848 0.290322632 0.139278993
0.305123091 0.287160188 0.137760669
0.343579859 0.296268314 0.141808942
0.380897969 0.299304277 0.142061964
0.420113742 0.306767970 0.147881284
0.456546485 0.312840164 0.152435094
0.495382458 0.318912327 0.166350469
0.533206940 0.329285502 0.174320191
0.567236125 0.334977955 0.180771738
0.604807317 0.342188627 0.186084658
0.644022703 0.351549357 0.195446014
0.678557694 0.356103331 0.211384982
0.711954117 0.359139442 0.218975127
0.742440999 0.369639486 0.226438820
0.774066806 0.378747731 0.234914809
0.808222294 0.385578632 0.240987003
0.844402015 0.394433618 0.251233310
0.875142038 0.406451404 0.260973990
0.903478503 0.411511749 0.270082116
0.931308985 0.420620143 0.285009503
0.963440955 0.429728061 0.294117868
0.985073030 0.439721525 0.309550911
1.000000000 0.450474650 0.326629013
0.001644708 0.322327405 0.125869706
0.001391679 0.319544405 0.128399670
0.001771226 0.324857444 0.135989994
0.000000000 0.322833836 0.133460000
0.006072091 0.328526109 0.130803153
0.075901330 0.321442097 0.135609999
0.139532030 0.325363725 0.135863319
0.183428109 0.326249391 0.140543997
0.226691797 0.324731022 0.141303092
0.250727206 0.327767193 0.146489710
0.288930744 0.322074682 0.145477548
0.331435502 0.320809692 0.141555548
0.369006634 0.328020334 0.148007572
0.411005378 0.336875707 0.153067961
0.450221092 0.342947692 0.158886567
0.485768497 0.347375005 0.166603506
0.525236905 0.354965180 0.177229702
0.559519410 0.363440961 0.186843976
0.595952272 0.369512975 0.192915753
0.635167658 0.375079066 0.198229074
0.670841396 0.383428127 0.208095983
0.706261814 0.386464000 0.223276123
0.740923166 0.395445675 0.227830499
0.772801816 0.403035879 0.236938909
0.807084024 0.409867406 0.245414287
0.836306036 0.415939391 0.254269630
0.871726692 0.427577406 0.266413689
0.902466416 0.434029132 0.274762720
0.929790795 0.439089537 0.285515517
0.959012866 0.449842155 0.298798174
0.987096906 0.457178771 0.309677571
1.000000000 0.467046291 0.329412013
0.003162905 0.354965091 0.139532089
0.001644709 0.356483281 0.138772801
0.000000000 0.359772176 0.142061859
0.000759096 0.367615342 0.146363109
0.001518095 0.358887106 0.141809091
0.044781774 0.358128011 0.145224258
0.110816091 0.362429082 0.141682327
0.170525208 0.361923099 0.142061993
0.213029996 0.358887106 0.148133993
0.258570403 0.361922711 0.151170388
0.290448874 0.357748181 0.152055994
0.321568400 0.354965091 0.148007691
0.358380616 0.355344743 0.147248283
0.397596061 0.364200115 0.159140036
0.439088792 0.370272100 0.168247759
0.476660311 0.374699384 0.174952596
0.512334168 0.380012304 0.182542980
0.553067505 0.389753222 0.187982574
0.589879870 0.396078289 0.199747100
0.627577484 0.399367452 0.204301357
0.664010167 0.405439734 0.210373342
0.697913110 0.413788974 0.219481215
0.737128437 0.422643632 0.228463084
0.770524859 0.428083211 0.236938909
0.805439472 0.434155583 0.246805787
0.837824225 0.440987110 0.256546319
0.863631010 0.447059095 0.268184930
0.899809957 0.458697081 0.280075908
0.930549860 0.463630825 0.289563715
0.958127439 0.471221060 0.302719951
0.984819591 0.481467575 0.315749586
1.000000000 0.484503180 0.330929995
0.000126520 0.394433498 0.148640499
0.003162903 0.400506288 0.154712483
0.001644709 0.395572692 0.156103969
0.001265160 0.394940138 0.156483486
0.004554481 0.401391894 0.156989485
0.010626478 0.395319104 0.163061500
0.076660462 0.397090346 0.156356663
0.147248402 0.395319521 0.152435020
0.206957221 0.392283499 0.154206008
0.249462023 0.398355514 0.160278007
0.292093247 0.398481995 0.163314387
0.323845267 0.396204740 0.160152018
0.354964793 0.393295139 0.158633992
0.391524047 0.391524523 0.165212035
0.427956790 0.397596508 0.174320400
0.469449580 0.403668523 0.181024954
0.508538842 0.409613997 0.190132990
0.546995521 0.417077661 0.200126588
0.592536032 0.429222465 0.203162983
0.626565635 0.432764113 0.209361494
0.662112951 0.437697530 0.215306997
0.697407126 0.443896025 0.222517610
0.731056511 0.449968040 0.231499478
0.764452934 0.453004420 0.237571493
0.797849298 0.458443999 0.248323992
0.829980791 0.465907693 0.258950144
0.860594630 0.474383533 0.268184930
0.893990934 0.480455518 0.277292550
0.930170596 0.486780494 0.286527336
0.959139824 0.494497210 0.302719682
0.981910467 0.502846479 0.321821600
1.000000000 0.508791983 0.337002009
0.005818999 0.430992723 0.166476995
0.000126518 0.434155643 0.163820118
0.001012129 0.438077092 0.163440898
0.000000000 0.430739880 0.166477174
0.001012129 0.427956998 0.170651779
0.002024130 0.432004839 0.166603133
0.071347088 0.433523059 0.167615131
0.136495933 0.436559021 0.167868406
0.195193052 0.435799867 0.168880552
0.246299863 0.437570870 0.166350007
0.280075729 0.434914738 0.166602999
0.318532526 0.438962728 0.173687384
0.351929158 0.438582957 0.173181638
0.387855887 0.435293853 0.173687831
0.418974936 0.430739850 0.177482530
0.457811534 0.432004869 0.184187114
0.499810338 0.438583046 0.190259114
0.539658487 0.446046740 0.199620277
0.580645025 0.453636974 0.209487975
0.620620072 0.465781003 0.218089640
0.654269695 0.469196618 0.220493123
0.688678265 0.472232729 0.225553244
0.722074628 0.474636257 0.234661624
0.755471051 0.483238637 0.243517011
0.791144729 0.488551736 0.247311711
0.823782325 0.494623750 0.258949786
0.856167138 0.501201808 0.271094203
0.896774292 0.504869998 0.280202419
0.924857676 0.513598800 0.291966826
0.956989348 0.518153071 0.304870188
0.981783986 0.523213208 0.319418013
1.000000000 0.527261019 0.328526139
0.007843000 0.465401739 0.178621247
0.001771000 0.470461905 0.177609116
0.000000000 0.467426002 0.178620756
0.000000000 0.471726775 0.175585151
0.000000000 0.466413766 0.180139452
0.000000000 0.472485751 0.175711378
0.052118972 0.474003822 0.180771500
0.130803108 0.473750800 0.180771500
0.186590925 0.475268513 0.183807895
0.238709733 0.475268513 0.179000288
0.277040154 0.472359389 0.178747252
0.312460244 0.475395501 0.180771500
0.351170033 0.478051871 0.187602609
0.389626831 0.475015551 0.186337769
0.425300479 0.470714778 0.185831830
0.450727373 0.469449759 0.187223256
0.487160176 0.469449759 0.194813460
0.528146863 0.476407498 0.200758934
0.569007039 0.482479513 0.208728701
0.608475566 0.492093265 0.218089908
0.646046937 0.496647239 0.225300252
0.679569840 0.500569224 0.228589386
0.713092744 0.502846479 0.237697735
0.748386919 0.510057092 0.246805638
0.784060597 0.516888261 0.255407959
0.821884632 0.521568596 0.262618214
0.854648888 0.527008176 0.277166069
0.892599881 0.531562328 0.289310426
0.923845530 0.539911032 0.299051225
0.952941120 0.545477450 0.311195195
0.980645359 0.549399197 0.325236976
1.000000000 0.553573489 0.333585978
0.005566002 0.502213955 0.191144988
0.002909644 0.504870653 0.190006644
0.000000000 0.509171605 0.189879864
0.001138644 0.503605604 0.193801150
0.000759096 0.508539081 0.190765530
0.000000000 0.512333989 0.187729344
0.038962673 0.513346016 0.190259323
0.108792096 0.515117168 0.197849646
0.180898190 0.511321723 0.197090551
0.230992988 0.510562658 0.194054157
0.273118615 0.509930491 0.191650644
0.309424609 0.511828244 0.194813266
0.346995234 0.515623271 0.194434002
0.389247090 0.512839913 0.197975680
0.428716213 0.510689735 0.198482066
0.459456116 0.510057271 0.200126633
0.485642195 0.510057271 0.200126544
0.519038558 0.508792162 0.207969919
0.560025394 0.512840033 0.211005688
0.598608375 0.520556569 0.217330724
0.638456464 0.527387261 0.224541634
0.673877120 0.527387261 0.231625512
0.707147002 0.533080518 0.240860373
0.741555810 0.538140595 0.250980377
0.777988553 0.544212639 0.260088295
0.814674258 0.550031602 0.269449621
0.852624655 0.553573310 0.282099724
0.885389030 0.559645891 0.297280073
0.917267561 0.568374395 0.307147175
0.947627723 0.573940456 0.316887945
0.976217568 0.576091290 0.328146607
0.997722983 0.581657290 0.340037644
0.000000000 0.544465125 0.208602041
0.002783355 0.541935384 0.205819383
0.001771226 0.547881067 0.203289226
0.001265161 0.553194106 0.203795031
0.003542452 0.548007548 0.208475545
0.000506065 0.544971168 0.205439940
0.025047285 0.544465125 0.203162715
0.087033443 0.547501445 0.205186665
0.162935153 0.550537884 0.211511910
0.223655954 0.544465125 0.208475515
0.269829601 0.547374904 0.203795046
0.308539242 0.549905300 0.205313042
0.343959689 0.551803052 0.207084000
0.383681089 0.551803052 0.202024072
0.423150212 0.551803052 0.211132452
0.459708989 0.551803052 0.217077985
0.493611366 0.551803052 0.219101861
0.524857581 0.550790906 0.217330560
0.558254063 0.544718146 0.220366955
0.593674719 0.549019754 0.222643673
0.633143425 0.556483269 0.227830470
0.672865093 0.563060999 0.234914869
0.706387997 0.563314021 0.244022503
0.737001836 0.566476941 0.256040752
0.771916568 0.571537018 0.265907735
0.807843208 0.577862024 0.275268674
0.843517065 0.583934069 0.284883082
0.873877048 0.590006053 0.300063431
0.906894445 0.598228872 0.310183167
0.939025939 0.603542268 0.319038182
0.967868209 0.606958032 0.328399569
0.992156982 0.606958032 0.337507963
0.000000000 0.583934247 0.217710406
0.000000000 0.586969852 0.217710406
0.000632584 0.580139101 0.219228208
0.001265161 0.580518663 0.220999151
0.003542452 0.581656992 0.223529398
0.000506065 0.584440291 0.217583925
0.000000000 0.583934247 0.222137988
0.066160396 0.585578501 0.218089700
0.155344456 0.586969912 0.215053573
0.208475590 0.580897868 0.214547500
0.254649222 0.586463809 0.223149866
0.302214086 0.585831642 0.223023400
0.343074292 0.585199416 0.223149762
0.380645484 0.585199416 0.220240042
0.423150212 0.585199416 0.226312816
0.455407977 0.585199416 0.225806594
0.490069389 0.585199416 0.227704182
0.525237143 0.584566832 0.229475245
0.561290503 0.581150889 0.232510939
0.589120805 0.577862203 0.227197990
0.622137725 0.580518663 0.232511148
0.658443868 0.585831404 0.240986854
0.694244027 0.590638399 0.250094473
0.730676830 0.596711218 0.259202898
0.765844524 0.599873543 0.268943846
0.799493909 0.606325030 0.279443383
0.831625342 0.614294827 0.290449083
0.864769399 0.620366812 0.300063431
0.897786200 0.623782635 0.312586993
0.932953894 0.626312792 0.320556402
0.965464950 0.631372750 0.329031974
0.992156982 0.643389940 0.340543568
0.002403804 0.620999575 0.229221985
0.000000000 0.616825044 0.224414989
0.000000000 0.619860649 0.222264215
0.002529999 0.615559757 0.229854152
0.005945740 0.616698146 0.234408438
0.002909869 0.615686536 0.218216181
0.002403804 0.618595779 0.227071807
0.050094888 0.618595779 0.231499091
0.139658302 0.620113611 0.228462890
0.191271499 0.617330611 0.230107591
0.246679589 0.618089616 0.234028861
0.290196002 0.620113611 0.233016998
0.335736662 0.618595779 0.233396634
0.374699444 0.618595779 0.233143598
0.412903219 0.618595779 0.234914824
0.450600982 0.620999575 0.238583177
0.483997375 0.619481385 0.235547185
0.520430148 0.618595779 0.237444982
0.556863010 0.617330611 0.242251843
0.587349534 0.616698146 0.246552780
0.618469357 0.617457509 0.244275793
0.650853753 0.619481385 0.249842122
0.684629679 0.622517407 0.256167084
0.723339796 0.624035597 0.265274882
0.759772539 0.630107820 0.274383277
0.796204925 0.634661615 0.283491641
0.828589141 0.642251790 0.294117749
0.860088527 0.648323774 0.303225636
0.893484950 0.649335802 0.314990789
0.923339307 0.655914187 0.328905523
0.956989169 0.659582734 0.339531571
0.987349987 0.670208633 0.353193790
0.002403808 0.649842203 0.239848197
0.000885613 0.651359975 0.239848182
0.001518192 0.647185385 0.237444609
0.001518192 0.651486158 0.233143389
0.006325195 0.652371764 0.246932194
0.004427936 0.651613116 0.240480438
0.002403808 0.652119040 0.231878638
0.042505093 0.653510392 0.243643463
0.125996292 0.652751267 0.245161280
0.182163477 0.651992202 0.246679679
0.235041410 0.650474370 0.246679321
0.287159979 0.651992202 0.248197392
0.328525931 0.650853872 0.243263736
0.370145261 0.650221348 0.245288000
0.406578004 0.648956180 0.245288000
0.443010807 0.651359975 0.250727594
0.480961382 0.655914187 0.244655192
0.516129136 0.652877808 0.244149551
0.550790966 0.651992202 0.251107186
0.583175242 0.651992202 0.252625018
0.613915205 0.650853932 0.257937998
0.650348246 0.653890014 0.260974139
0.682479322 0.654522538 0.265022457
0.714990497 0.655914187 0.271347106
0.750664175 0.658950388 0.278937489
0.785705626 0.663630664 0.288045496
0.822011173 0.670082211 0.298671931
0.854395628 0.677166343 0.310815901
0.888930738 0.676407158 0.322580636
0.921821117 0.681720376 0.336496085
0.950031161 0.689057529 0.352561355
0.982795835 0.694496989 0.368374169
0.000000002 0.674256921 0.247691423
0.000000000 0.682732284 0.256293565
0.002150773 0.681087554 0.257431984
0.003922000 0.678810537 0.256166965
0.003542453 0.684503078 0.250094980
0.003289426 0.687539518 0.266287029
0.002024254 0.688678145 0.258570582
0.040101219 0.686780572 0.256166965
0.112207688 0.686654031 0.265781045
0.182036892 0.683617651 0.262745440
0.230866730 0.681214392 0.259709090
0.278937250 0.682858825 0.258823693
0.328525931 0.684250176 0.260847926
0.367489040 0.681720555 0.258823603
0.403542221 0.679443300 0.259962142
0.439975023 0.679316759 0.264642775
0.476028204 0.682605982 0.264136791
0.515496552 0.688045561 0.252751529
0.545857430 0.685009122 0.261859924
0.579000831 0.685388684 0.260468185
0.611132443 0.683491290 0.263124555
0.643643677 0.682479560 0.268311113
0.685642421 0.685388684 0.277039975
0.710942447 0.687919021 0.279569656
0.742061853 0.690955222 0.283617973
0.776090980 0.694623828 0.292346865
0.808982015 0.697659552 0.300948560
0.845160961 0.706514955 0.318659306
0.882226169 0.706261694 0.332194984
0.916255116 0.709044755 0.345477581
0.948133588 0.716382086 0.360278428
0.978494406 0.719417691 0.378494442
0.000000010 0.710689008 0.250727087
0.000000002 0.716761827 0.268943816
0.002150772 0.714484394 0.271094203
0.003921997 0.710942030 0.269576013
0.003542450 0.711827576 0.268311024
0.000506074 0.714864016 0.262239009
0.002783355 0.717900395 0.265781343
0.043137353 0.714105308 0.270335257
0.115243316 0.708033025 0.278178096
0.185072511 0.707906544 0.280961514
0.231625646 0.707780004 0.277925164
0.273371220 0.711575031 0.272865027
0.318405896 0.715116978 0.270967692
0.367489040 0.715117037 0.274004042
0.400885373 0.718153417 0.283112407
0.436938614 0.713472307 0.281847179
0.470335394 0.711195052 0.279822856
0.503352523 0.712333620 0.277039617
0.542821050 0.715370059 0.280075997
0.575964451 0.717900395 0.280835032
0.609361231 0.716888189 0.284377009
0.642505109 0.715876162 0.288424999
0.676533997 0.718785942 0.289184034
0.706893981 0.718785942 0.289184034
0.739025831 0.721315742 0.289436996
0.773814261 0.725743055 0.296900719
0.808982015 0.731056035 0.310056984
0.839341998 0.734092414 0.316128969
0.878178418 0.737634182 0.331182837
0.912080884 0.740164220 0.344338953
0.941808522 0.743706644 0.356736004
0.969385982 0.746742964 0.369386077
0.008349362 0.738773048 0.289942741
0.000000003 0.742061853 0.277546138
0.000000000 0.743833065 0.278557807
0.001138643 0.744085729 0.279949158
0.002277190 0.746362686 0.285262376
0.008855425 0.742188334 0.288804352
0.000759040 0.742694378 0.275142044
0.045540728 0.743833065 0.279949367
0.120303378 0.740417421 0.288298368
0.188108832 0.740417421 0.293358505
0.234661251 0.743200719 0.290575862
0.274130136 0.743200719 0.291587442
0.313978255 0.745477736 0.290069371
0.359392703 0.745477736 0.291207999
0.395319372 0.745983779 0.292726070
0.431119591 0.746616364 0.294623643
0.466034174 0.742820919 0.295003206
0.499557197 0.742188334 0.294497132
0.539025664 0.745224714 0.293231994
0.575711429 0.748260379 0.301834375
0.607210457 0.747501791 0.303731620
0.638709903 0.746489584 0.306894004
0.670208991 0.749399006 0.306894004
0.700568974 0.749399006 0.306894004
0.733206809 0.753953040 0.306894004
0.769386649 0.757495046 0.311068654
0.806198776 0.760657668 0.321442068
0.836559355 0.759139419 0.325237364
0.872232974 0.764832735 0.339279175
0.909803867 0.769766033 0.352688313
0.943073750 0.773814082 0.368374318
0.974193692 0.776850045 0.388108373
0.006072264 0.769892693 0.311574757
0.006451610 0.769133389 0.307780117
0.000000000 0.775711477 0.293358922
0.000000000 0.773181498 0.293611318
0.000000000 0.776343882 0.302340090
0.004554198 0.774825692 0.308412462
0.006072419 0.770018756 0.296774149
0.056166817 0.771663487 0.296394467
0.133586004 0.772675335 0.302719653
0.196963966 0.773813725 0.305375993
0.237697601 0.774825871 0.306514859
0.277166247 0.775838017 0.303731710
0.313599020 0.775838017 0.306767642
0.354332805 0.775838017 0.307526737
0.392409801 0.775838017 0.307526737
0.428842604 0.775838017 0.311321735
0.463757187 0.775838017 0.311321735
0.497786105 0.773181319 0.313978583
0.535989761 0.773687720 0.313472480
0.570777714 0.776723385 0.315876096
0.603415430 0.777861774 0.323086709
0.633776248 0.775838017 0.324098319
0.664137006 0.777861714 0.323339224
0.694496989 0.777861714 0.325110465
0.730929852 0.780518472 0.328905463
