Assets/EldamarStudio/100 Retro LUTs Pack/LUTs/cube/Cynthia LUT.cube
LUT_3D_SIZE 8
DOMAIN_MIN 0.000000 0.000000 0.000000
DOMAIN_MAX 0.903226 0.903226 0.903226
0.000000000 0.047059000 0.078431003
0.111195087 0.080708094 0.106640995
0.281214207 0.122327901 0.118406095
0.426565647 0.152435347 0.126628637
0.565718174 0.195825189 0.152688190
0.697406471 0.244655728 0.190132737
0.824415267 0.297027290 0.226439282
0.942820966 0.346615821 0.277292997
0.003542452 0.212397099 0.118026547
0.086907096 0.219101533 0.118405998
0.247565091 0.223023534 0.132194549
0.403921723 0.240986541 0.135230646
0.550158143 0.273877352 0.158254206
0.694244146 0.306008726 0.202277198
0.820493281 0.345983744 0.241745740
0.941935182 0.385452092 0.283491373
0.003162905 0.354965091 0.139532089
0.001518095 0.358887106 0.141809091
0.213029996 0.358887106 0.148133993
0.358380616 0.355344743 0.147248283
0.512334168 0.380012304 0.182542980
0.664010167 0.405439734 0.210373342
0.805439472 0.434155583 0.246805787
0.930549860 0.463630825 0.289563715
0.005566002 0.502213955 0.191144988
0.000759096 0.508539081 0.190765530
0.180898190 0.511321723 0.197090551
0.346995234 0.515623271 0.194434002
0.485642195 0.510057271 0.200126544
0.638456464 0.527387261 0.224541634
0.777988553 0.544212639 0.260088295
0.917267561 0.568374395 0.307147175
0.002403808 0.649842203 0.239848197
0.006325195 0.652371764 0.246932194
0.125996292 0.652751267 0.245161280
0.328525931 0.650853872 0.243263736
0.480961382 0.655914187 0.244655192
0.613915205 0.650853932 0.257937998
0.750664175 0.658950388 0.278937489
0.888930738 0.676407158 0.322580636
0.006072264 0.769892693 0.311574757
0.000000000 0.776343882 0.302340090
0.133586004 0.772675335 0.302719653
0.313599020 0.775838017 0.306767642
0.463757187 0.775838017 0.311321735
0.603415430 0.777861774 0.323086709
0.730929852 0.780518472 0.328905463
0.867299139 0.791018426 0.350284815
0.061479811 0.888804555 0.398608565
0.118659198 0.882858813 0.389500290
0.248197347 0.880202293 0.389373899
0.362808228 0.884883285 0.394687265
0.478304774 0.885642111 0.390765548
0.597723126 0.882606268 0.405439526
0.717520535 0.883238256 0.415559560
0.840353906 0.888298750 0.430107713
0.353700250 0.968880653 0.506261826
0.361290097 0.973434627 0.500315905
0.401897699 0.971536756 0.494496793
0.468690604 0.975458801 0.495508939
0.549652338 0.972801924 0.503984809
0.640860379 0.975964546 0.506894350
0.737381339 0.972801924 0.515117228
0.834408641 0.968880653 0.524477780
0.003542452 0.094117999 0.168501094
0.095509090 0.096015446 0.174825996
0.239342541 0.147375092 0.195192993
0.372043252 0.197090551 0.212017536
0.518279612 0.242884085 0.234788537
0.670208693 0.289563745 0.259456277
0.804048240 0.329538226 0.287286758
0.934345365 0.373814285 0.319417924
0.007084001 0.204554096 0.187349990
0.067678541 0.212397084 0.183807552
0.215053648 0.222137734 0.198355094
0.357242167 0.257811159 0.214800999
0.517141163 0.291461110 0.234409004
0.662492037 0.333839297 0.264516532
0.793674827 0.367868543 0.283997744
0.925236940 0.408349067 0.322074652
0.000000000 0.347122192 0.207717001
0.008728635 0.346363097 0.204933554
0.211511999 0.346742660 0.212397099
0.338393301 0.351802289 0.215180546
0.492726207 0.384693086 0.234282196
0.642884195 0.414927542 0.263377875
0.785831511 0.442378551 0.295003235
0.919418097 0.472865254 0.333333522
0.000000000 0.496774197 0.241745532
0.002276998 0.493231893 0.237824544
0.195825294 0.500316501 0.248829737
0.347374886 0.501834512 0.245288000
0.477545708 0.501455069 0.245161280
0.624415100 0.523845673 0.272738785
0.768627465 0.547374845 0.298165739
0.902593136 0.568880200 0.333206713
0.001518192 0.646932542 0.277292997
0.007210812 0.644149184 0.281467110
0.161290199 0.641745567 0.279316813
0.334977657 0.650474370 0.285641819
0.475522190 0.647691607 0.289184183
0.610373318 0.647312045 0.294750094
0.749778569 0.657811761 0.312966436
0.887665927 0.679822981 0.350284517
0.002024260 0.767995000 0.333080292
0.008728636 0.769639313 0.335736543
0.167741567 0.770018756 0.334092438
0.330297172 0.768754065 0.337634176
0.469955444 0.770398259 0.346363068
0.598608434 0.767995000 0.347628266
0.724984050 0.779759467 0.354838550
0.860720873 0.792536199 0.377861917
0.128399462 0.877040029 0.407463551
0.186970174 0.882479250 0.416445225
0.280835092 0.882985532 0.416318744
0.375838101 0.883238554 0.412270814
0.493738204 0.883744657 0.424035609
0.606451333 0.880961537 0.427197993
0.719165266 0.880961537 0.431119531
0.832258165 0.887919247 0.447565138
0.366223842 0.966982841 0.509045005
0.384313852 0.975711524 0.511701822
0.421126038 0.967995226 0.513725579
0.481720179 0.973055005 0.510562956
0.561669707 0.972422481 0.514863789
0.645920336 0.971536756 0.523213208
0.739784956 0.970525265 0.530929387
0.838203311 0.972169816 0.541555822
0.000000000 0.116002090 0.276660204
0.111195192 0.131309450 0.268817186
0.236686096 0.158254087 0.264896005
0.361922979 0.206451535 0.288804531
0.497533381 0.263251096 0.308032990
0.635167718 0.314990491 0.329032063
0.778114974 0.365844250 0.365212083
0.907653451 0.413662195 0.394433796
0.006704549 0.224541634 0.262618989
0.096647546 0.224921077 0.253131092
0.215812653 0.242125183 0.265654981
0.343453765 0.274257094 0.279316753
0.480961204 0.313472271 0.306008607
0.631499171 0.358127803 0.336116314
0.768880308 0.396584213 0.360531300
0.910183370 0.436685801 0.396963805
0.006325002 0.341682285 0.273371190
0.077039637 0.341682285 0.273877531
0.219355002 0.346363187 0.286021173
0.330170631 0.356103659 0.290322721
0.467678368 0.388615012 0.316635102
0.620493412 0.430234104 0.338520110
0.765464604 0.461606562 0.365085393
0.898418784 0.498924822 0.402783096
0.001517998 0.487033665 0.309424281
0.068311445 0.483870715 0.315875977
0.224035189 0.491713792 0.324857622
0.346236229 0.498798639 0.320556283
0.458570719 0.495256186 0.320176631
0.604680479 0.523466170 0.340417534
0.749905109 0.555977225 0.370651364
0.890196085 0.584060729 0.405439436
0.000759101 0.632384360 0.350158274
0.036558919 0.635926723 0.352308542
0.216825098 0.634788156 0.348640293
0.348133892 0.635926783 0.351043493
0.477925360 0.635547280 0.351802379
0.598228872 0.641366065 0.360151738
0.736495674 0.658191085 0.380139172
0.872865379 0.683238328 0.410878897
0.045540638 0.764579713 0.395446181
0.134598270 0.761290133 0.395319432
0.252498537 0.761290073 0.394307733
0.369639486 0.760910511 0.396458209
0.486906826 0.764452875 0.405565828
0.599746764 0.766097724 0.411637843
0.725490034 0.774572730 0.416698098
0.857938111 0.790006459 0.434661657
0.243643358 0.872991681 0.451612651
0.275648355 0.871979773 0.462871373
0.341682345 0.875522077 0.466034293
0.425933093 0.874256909 0.468437672
0.516129076 0.876281261 0.470714360
0.617710114 0.877419531 0.474636376
0.726249158 0.879443347 0.482479572
0.840480447 0.885262370 0.494497001
0.409740686 0.970777869 0.532067955
0.430613220 0.966097474 0.544591725
0.457684785 0.968247890 0.543832898
0.517394125 0.968627334 0.545983553
0.585958004 0.969892681 0.554964960
0.663124502 0.966097653 0.554332495
0.753193855 0.965718031 0.564959049
0.845287681 0.969639540 0.566729784
0.007337351 0.149145633 0.377735287
0.124351375 0.164958656 0.373434544
0.254649103 0.195066184 0.360784650
0.358760267 0.218595996 0.350284278
0.495508999 0.275015980 0.378873825
0.627956808 0.327007741 0.399746895
0.752687931 0.386210978 0.432637274
0.882985413 0.453257620 0.471220613
0.030866371 0.257811278 0.362428635
0.136495635 0.264137000 0.360658020
0.240860537 0.269955665 0.349399179
0.348640293 0.277798742 0.350284189
0.479443282 0.329917908 0.380012453
0.614547908 0.369386643 0.403035998
0.751676202 0.425047725 0.430486828
0.885515451 0.475142539 0.478684455
0.011891441 0.345983744 0.357369095
0.123339638 0.348640174 0.349145740
0.241745636 0.362428635 0.354965150
0.362682164 0.392663091 0.387602717
0.469196379 0.406578183 0.385072708
0.605566263 0.438330024 0.411005855
0.745857060 0.485388935 0.444275975
0.880708396 0.523466229 0.473497838
0.002783356 0.481467634 0.384945989
0.114610828 0.480708539 0.379253358
0.250221729 0.485009372 0.391904086
0.362681985 0.496015280 0.398481637
0.458950281 0.503099144 0.394813269
0.592156589 0.528526008 0.413282633
0.737001896 0.562175930 0.449462354
0.870082200 0.597469807 0.485135794
0.033776194 0.631625473 0.415053636
0.153067365 0.625300229 0.414800763
0.277545810 0.629348159 0.425173730
0.377482265 0.627704144 0.427071184
0.484503537 0.632384598 0.428968817
0.593928218 0.640227556 0.437318295
0.726249158 0.656293571 0.454775423
0.862112522 0.686780572 0.494496971
0.224161848 0.751929104 0.462744713
0.260468185 0.751169801 0.463757277
0.333079994 0.753447115 0.468437374
0.412270635 0.754206181 0.469323277
0.513978183 0.756230474 0.474509805
0.613409460 0.758127689 0.478304654
0.725490093 0.769892395 0.482606083
0.853130758 0.786464274 0.505376339
0.347754598 0.867552280 0.526249170
0.359645724 0.868437469 0.530170918
0.405692726 0.866793215 0.525237203
0.470967621 0.867552280 0.528020263
0.553194106 0.868690908 0.530803204
0.643137455 0.871979952 0.534345448
0.741555870 0.875395298 0.545983553
0.840227962 0.884503603 0.552308559
0.471347213 0.966350615 0.595192611
0.478810817 0.963693798 0.593928099
0.511448324 0.963693798 0.596963942
0.557495236 0.964958966 0.596837401
0.615939200 0.965591431 0.597596407
0.686400831 0.963946819 0.600126505
0.768753827 0.966097593 0.606957674
0.859582186 0.967362463 0.617330611
0.100822181 0.211511806 0.487539381
0.176596731 0.219734654 0.476027757
0.282732397 0.241366193 0.473245114
0.387729257 0.261733174 0.462744743
0.493611366 0.286021173 0.457685173
0.637824357 0.340417534 0.486654013
0.758380830 0.398102462 0.502973199
0.879949450 0.474004179 0.541302979
0.125110373 0.300822169 0.463250905
0.187223077 0.300822169 0.457558364
0.276027739 0.311069071 0.458317459
0.381530374 0.320556372 0.454901844
0.479443192 0.334977716 0.451865733
0.621252418 0.382036537 0.481973201
0.749778271 0.436432362 0.507780135
0.873371243 0.503352523 0.547248542
0.132068276 0.392536193 0.456040263
0.192536280 0.394180983 0.452119082
0.275522172 0.397343189 0.457684994
0.378368199 0.407842815 0.451359987
0.475521982 0.420746267 0.458444059
0.598861516 0.460088581 0.483111829
0.734092534 0.504617274 0.516382098
0.862997949 0.558507204 0.558127880
0.096394539 0.486653984 0.445540756
0.167868733 0.484629720 0.448197305
0.270588458 0.492093354 0.453763396
0.384187013 0.507273853 0.471347630
0.499430716 0.536369443 0.490954727
0.601264954 0.549651861 0.498544872
0.726755023 0.580265939 0.524604678
0.858697116 0.613915086 0.563188016
0.126249373 0.626944959 0.485768378
0.196710721 0.625679791 0.489183992
0.298292279 0.626945019 0.492093176
0.412650257 0.630486786 0.500696003
0.511448324 0.637191594 0.510816157
0.602150559 0.640607119 0.507653177
0.724730968 0.661353588 0.529664695
0.858949721 0.691587806 0.567868352
0.254396111 0.753826618 0.527261376
0.295635551 0.753573596 0.524225056
0.371790141 0.748766720 0.531688809
0.459709376 0.748766541 0.537128687
0.541049957 0.751928926 0.545351028
0.627451181 0.754712284 0.552814841
0.729411781 0.764452994 0.553194404
0.857431948 0.781024456 0.576723158
0.381151170 0.862112463 0.575205266
0.398608297 0.866413653 0.573054910
0.455155283 0.862871349 0.583934307
0.514484406 0.860468090 0.589247465
0.583554745 0.866793215 0.596964061
0.663630664 0.867678344 0.599494219
0.750537276 0.868311405 0.601644397
0.851106882 0.880455732 0.605439425
0.495761961 0.966350615 0.640733838
0.515876234 0.963061512 0.644275904
0.551929176 0.962555349 0.642125130
0.601012051 0.962934792 0.645540595
0.646173120 0.962555110 0.649589181
0.718785524 0.961796045 0.656673074
0.789500535 0.964958966 0.659709156
0.872612476 0.962555110 0.663630426
0.189626724 0.270334989 0.591650963
0.238709271 0.277039766 0.584566474
0.329791188 0.295888752 0.583681464
0.429348379 0.312587082 0.580645144
0.535357118 0.330550194 0.570272207
0.640227735 0.356483012 0.565970719
0.761922777 0.411258280 0.580265462
0.885388911 0.480581880 0.610246658
0.212523729 0.338393271 0.574699521
0.247438282 0.347375005 0.569639266
0.325869381 0.353320360 0.573181689
0.424920827 0.364326179 0.570777893
0.525995910 0.377229512 0.564452887
0.630360544 0.395319760 0.561796308
0.755218267 0.443010539 0.579000592
0.877672493 0.511575162 0.614168227
0.218595728 0.440481097 0.568374693
0.259709269 0.435800016 0.552182198
0.331941485 0.440733731 0.559898674
0.422517627 0.446173549 0.560151517
0.518152952 0.457558364 0.558633447
0.616445422 0.469702840 0.551549435
0.744339287 0.513978422 0.584440291
0.866413593 0.569259822 0.620493531
0.203289077 0.531688631 0.554712236
0.250600994 0.531309426 0.557115495
0.327261180 0.533206642 0.558254182
0.421378881 0.540290713 0.558760226
0.526375532 0.560657859 0.565338492
0.614927471 0.567741752 0.567995012
0.726628721 0.597849309 0.592662930
0.852371693 0.643263698 0.637444735
0.186717466 0.633523107 0.559266329
0.233143255 0.632764161 0.550790310
0.323086739 0.630740404 0.563820601
0.424541473 0.637571156 0.565718114
0.531815410 0.649968445 0.578620970
0.638583481 0.665654719 0.596457958
0.740923762 0.676280916 0.612144053
0.854775429 0.704490960 0.646299541
0.283617735 0.750284731 0.585578740
0.324857295 0.750790298 0.588488460
0.388488173 0.754206181 0.593421698
0.473497748 0.749525607 0.600632608
0.569133461 0.750790298 0.608855188
0.652118683 0.752308428 0.616951227
0.738013864 0.762555242 0.619734466
0.859835684 0.781910360 0.646805763
0.396078557 0.863504291 0.632510960
0.419860989 0.862365544 0.625679493
0.468690842 0.863630295 0.633522928
0.535736680 0.862745166 0.646046758
0.624920905 0.861733019 0.661353230
0.696394742 0.863250852 0.663251042
0.769259810 0.866034091 0.663504481
0.860847294 0.873877525 0.672991633
0.502972662 0.963693798 0.674889565
0.522327483 0.961416900 0.685515523
0.561543107 0.960910380 0.682226419
0.617457271 0.959266067 0.693358541
0.688045442 0.959012866 0.706894279
0.742820680 0.957115650 0.707779646
0.814294696 0.959012866 0.714990616
0.885388911 0.963314056 0.715369940
0.280961543 0.343073994 0.707400262
0.317140996 0.341176718 0.704491019
0.391524076 0.351676077 0.705250084
0.484376907 0.369386643 0.699557304
0.590006471 0.386970252 0.693485081
0.690828443 0.405692577 0.689184010
0.794307292 0.433269978 0.679317296
0.893231928 0.496647358 0.681720555
0.293484986 0.400253087 0.694623709
0.327766806 0.403542101 0.700821996
0.395066559 0.406578273 0.698165238
0.485136002 0.417583793 0.689816654
0.580771804 0.431245923 0.685642183
0.685389161 0.448071212 0.683238268
0.783428431 0.468816787 0.672106266
0.883617938 0.520177007 0.684376776
0.320683062 0.488172382 0.692093551
0.351802826 0.491587818 0.676407278
0.419861078 0.494244188 0.685768306
0.491334796 0.500189722 0.678558230
0.581151187 0.510689318 0.676913261
0.674004018 0.516634822 0.674509764
0.767615497 0.530423403 0.669955611
0.873244762 0.578241587 0.688298404
0.315876275 0.577862203 0.682099938
0.354205906 0.575079262 0.681720376
0.416951001 0.580138922 0.674636364
0.499557257 0.591903925 0.670335233
0.584187150 0.600126505 0.666666627
0.665781438 0.603668928 0.666287065
0.752308607 0.613156199 0.673118293
0.863883615 0.649462283 0.697912633
0.303352356 0.666666627 0.668817282
0.337760925 0.671979845 0.680455565
0.401518285 0.666666627 0.673624277
0.486274481 0.668817043 0.672612190
0.581910491 0.676280916 0.669829547
0.680455625 0.686780691 0.678810835
0.761543334 0.697406650 0.686401129
0.862365782 0.725110710 0.711954534
0.304364473 0.768627465 0.675648272
0.337381274 0.768248022 0.677293003
0.394687086 0.767109275 0.669955432
0.483870804 0.764832497 0.673750520
0.576091170 0.760910571 0.680328846
0.675395429 0.769639254 0.687539697
0.775711536 0.781404018 0.710309744
0.872991979 0.794939995 0.720303714
0.418848544 0.876027822 0.701834559
0.441113293 0.865654588 0.686906874
0.487792462 0.865148485 0.692725956
0.555471241 0.865907550 0.704491019
0.635167539 0.864516079 0.709044993
0.719038427 0.865275025 0.724351525
0.795951545 0.867552280 0.732574522
0.878304899 0.869196534 0.735610247
0.519923985 0.962049067 0.727513790
0.541049719 0.966350615 0.732068360
0.575332046 0.959771752 0.742188215
0.633143902 0.959645629 0.742441654
0.702593327 0.958253980 0.752181888
0.778241694 0.956230223 0.770272136
0.838709831 0.958127499 0.772422194
0.907273829 0.957115650 0.781530559
0.387349606 0.417330623 0.823908806
0.412270784 0.419354796 0.815053344
0.473370880 0.431119710 0.816065788
0.554459214 0.440607011 0.812017620
0.646173120 0.461986125 0.806704581
0.745350718 0.483617812 0.804807007
0.846805930 0.509424686 0.806578040
0.939152539 0.532447577 0.793927789
0.404427826 0.466919363 0.817330599
0.434282333 0.469576210 0.813662052
0.479569912 0.476533890 0.810373247
0.560278058 0.486780524 0.806957603
0.646805644 0.501707733 0.804427564
0.745730340 0.521188796 0.803415537
0.842884362 0.535736680 0.795951664
0.933839619 0.555724204 0.794307768
0.455281675 0.557748139 0.800885558
0.473118156 0.557748377 0.803162336
0.514990628 0.563187659 0.801770747
0.577482879 0.569386423 0.796837330
0.656419933 0.574446678 0.794939935
0.743326604 0.586337805 0.793927968
0.837318420 0.595066190 0.791651070
0.925869524 0.606072009 0.786590517
0.458696932 0.629854441 0.790132999
0.486021310 0.635040998 0.801518083
0.537760794 0.645920157 0.796078265
0.600632608 0.658064723 0.793295205
0.667172492 0.658950269 0.787349641
0.741935194 0.663251102 0.786464095
0.823276401 0.665654898 0.786084414
0.908159435 0.672612309 0.781277716
0.434155583 0.708918154 0.796584606
0.459202766 0.713978171 0.793421745
0.507779837 0.709044933 0.796331286
0.583680928 0.718153000 0.790638685
0.674635947 0.730929613 0.785957992
0.749145925 0.736369133 0.788867831
0.824920714 0.737001896 0.786590815
0.900822163 0.737381339 0.783174992
0.427324533 0.798481941 0.792915583
0.443263739 0.800379694 0.789120555
0.492473125 0.799620628 0.786464512
0.561922729 0.798355401 0.791271389
0.649588943 0.794560194 0.790765226
0.747880578 0.800505698 0.792156816
0.825047374 0.808222711 0.790132999
0.898291767 0.817330539 0.795951843
0.405945480 0.901707947 0.789879620
0.429601371 0.897532821 0.791397810
0.475521863 0.896141589 0.785072386
0.549652040 0.891461134 0.792662978
0.636306047 0.883111954 0.788994372
0.725869536 0.876154304 0.788108766
0.824288547 0.872865438 0.802276969
0.909171104 0.887286246 0.808475316
0.529790819 0.975584924 0.789753139
0.548892975 0.971916318 0.790259182
0.586337626 0.974193633 0.786843836
0.642378211 0.966729760 0.794939995
0.714231133 0.958506942 0.804680586
0.788867533 0.957874596 0.812776506
0.865908027 0.953573585 0.828462780
0.933839619 0.955850780 0.844908476
