Assets/EldamarStudio/100 Retro LUTs Pack/LUTs/cube/Daniel LUT.cube
LUT_3D_SIZE 5
DOMAIN_MIN 0.000000 0.000000 0.000000
DOMAIN_MAX 0.903226 0.903226 0.903226
0.125489995 0.090195999 0.062744997
0.171916410 0.136621997 0.101327993
0.266792983 0.227577820 0.191650391
0.404174238 0.384566993 0.368880242
0.579379797 0.571663618 0.557241797
0.269702703 0.232131407 0.200126395
0.294876426 0.257305712 0.225300685
0.376976699 0.344971508 0.319165409
0.488172114 0.470208824 0.456167132
0.619860828 0.612144351 0.601011813
0.517899811 0.504869938 0.485895216
0.531309128 0.520556748 0.507147074
0.565591395 0.559139371 0.544085860
0.633522987 0.627704203 0.620493233
0.720556617 0.716634929 0.708791792
0.727640986 0.714990139 0.710056961
0.726755142 0.719544530 0.720303357
0.746362686 0.734598100 0.732068539
0.763947129 0.763947129 0.758128107
0.835673749 0.828715920 0.823908806
0.887918949 0.885262787 0.874636173
0.891840637 0.891840637 0.891840637
0.897026777 0.897026777 0.897026777
0.912713766 0.912713766 0.904870152
0.929664671 0.929664671 0.929664671
0.152941003 0.117647000 0.082353003
0.179126993 0.143832996 0.108538993
0.295888662 0.258317381 0.223023400
0.435547262 0.419860989 0.408096254
0.597722948 0.582036614 0.570271969
0.264136404 0.229854703 0.192915976
0.313851982 0.276280701 0.247565091
0.392663121 0.367236078 0.346363068
0.502846420 0.487159818 0.475395560
0.630360663 0.626438916 0.618595660
0.528020144 0.512334108 0.497280121
0.539785147 0.524098694 0.515623093
0.575079143 0.559392631 0.547628164
0.641745687 0.630993247 0.624161959
0.724478185 0.720556319 0.712713420
0.727640867 0.721821249 0.710056841
0.726754963 0.725110352 0.721821249
0.742061853 0.736242831 0.737128556
0.768880248 0.764958978 0.757115960
0.832004964 0.831372499 0.828083396
0.889563501 0.888551652 0.878684640
0.891840637 0.892725945 0.888172090
0.898671448 0.898671448 0.897406459
0.911701679 0.911701679 0.909171700
0.931941688 0.935230672 0.932321191
0.217077985 0.177861989 0.139278576
0.242251694 0.203036115 0.164452702
0.308664978 0.274003386 0.244022384
0.450600803 0.434914678 0.423149824
0.610120177 0.594434202 0.587982237
0.340037823 0.308032811 0.282226533
0.360278398 0.331562400 0.305755675
0.403415382 0.382542819 0.362302393
0.520809531 0.505123138 0.493358523
0.643390238 0.637570918 0.629095376
0.509424388 0.490448803 0.475395381
0.532953799 0.517267764 0.505502820
0.592409849 0.576723814 0.564958811
0.647311807 0.643390238 0.635546982
0.731055915 0.727134585 0.719291627
0.730297267 0.721189260 0.711068690
0.738140404 0.733333290 0.728020132
0.751549542 0.747627735 0.739784718
0.776090860 0.772169411 0.764326394
0.835546792 0.833522797 0.834534943
0.897026777 0.893105686 0.888425291
0.893105686 0.894370675 0.893738270
0.901581347 0.901581347 0.900316358
0.915623128 0.914358139 0.914990485
0.938267052 0.936242759 0.932194829
0.320809126 0.287539124 0.253257245
0.345604122 0.312334120 0.285894990
0.396963984 0.369512975 0.345983237
0.471853137 0.456167132 0.444402128
0.615685940 0.599999905 0.590258896
0.428336382 0.408728391 0.394686967
0.441745520 0.422138125 0.407463402
0.476407260 0.460721105 0.448956251
0.538393259 0.525110841 0.512333691
0.655534506 0.644781768 0.635420501
0.557115793 0.541429222 0.531688809
0.583554566 0.572801948 0.559392989
0.631878555 0.626059651 0.617583573
0.655787468 0.651865840 0.644022703
0.730676651 0.729664803 0.721821666
0.718785107 0.706135273 0.701202154
0.720809102 0.717899978 0.710056961
0.744971097 0.742061973 0.734219015
0.787476122 0.781657100 0.784566998
0.836179793 0.833649755 0.832890630
0.895761967 0.893231928 0.894496799
0.896394551 0.896394551 0.894370496
0.907147229 0.907147229 0.907147229
0.921568632 0.919923961 0.914104939
0.939152658 0.939152658 0.936622322
0.493231952 0.477545619 0.465780914
0.504996657 0.489310622 0.477545619
0.540290833 0.524604797 0.512839794
0.593168795 0.577482760 0.565717757
0.659202814 0.643516779 0.631751776
0.563440681 0.552688360 0.542567670
0.574193776 0.558507144 0.546742797
0.598355353 0.582669258 0.574193358
0.630613506 0.622896671 0.616318524
0.679443598 0.675521612 0.667678595
0.674762964 0.668943346 0.660467923
0.684250534 0.678431511 0.669955492
0.697026968 0.693105757 0.683997631
0.717520654 0.711701512 0.704490602
0.749272585 0.748007715 0.740164638
0.750916958 0.745603979 0.748260140
0.757748246 0.753194094 0.750284493
0.779379785 0.778114974 0.773560941
0.822138131 0.817583978 0.816698253
0.842125177 0.842125177 0.842125177
0.876154661 0.876154661 0.870841026
0.881973565 0.878684580 0.878304660
0.895129323 0.889816344 0.892473221
0.916634798 0.913345814 0.914990485
0.948007762 0.948007762 0.948007762
