Assets/EldamarStudio/100 Retro LUTs Pack/LUTs/cube/Daniel LUT.cube
DOMAIN_MIN 0 0 0
DOMAIN_MAX 1 1 1
LUT_3D_SIZE 32
0.125489995 0.090195999 0.062744997
0.128526390 0.093232386 0.065781385
0.133712992 0.098419003 0.070968002
0.138519838 0.103225842 0.073244840
0.142314553 0.107020542 0.071726546
0.151422933 0.116128936 0.080834940
0.163060993 0.127766997 0.092473000
0.171916410 0.136621997 0.101327993
0.178747892 0.143453091 0.108159095
0.187855527 0.152561501 0.117267489
0.202782869 0.164579004 0.126375869
0.215938985 0.176723510 0.137507990
0.230360284 0.191144988 0.151928991
0.248576999 0.209361061 0.170398027
0.266792983 0.227577820 0.191650391
0.285009593 0.245793983 0.210499600
0.304744184 0.267046392 0.234788358
0.326628953 0.291334957 0.263883948
0.350917041 0.315623045 0.288172036
0.369639724 0.334345013 0.306894004
0.385958254 0.358254224 0.336495459
0.404174238 0.384566993 0.368880242
0.428463012 0.408854991 0.393295467
0.452751815 0.433143795 0.420619905
0.477039993 0.459709287 0.447944283
0.501328290 0.485641986 0.473877311
0.526629031 0.510942161 0.499177992
0.556988955 0.541302860 0.529537976
0.579379797 0.571663618 0.557241797
0.600632191 0.596711159 0.581024170
0.622770190 0.618848979 0.603162169
0.647059023 0.643136978 0.627451003
0.131561995 0.102339998 0.071853384
0.137634009 0.102339998 0.074889004
0.144971386 0.109677389 0.082226388
0.151928991 0.116635002 0.086654000
0.156735942 0.121441931 0.086147934
0.160531327 0.125237316 0.089943320
0.169639707 0.134345055 0.099051058
0.181277767 0.144338697 0.107400000
0.190132990 0.153320387 0.114231095
0.196963921 0.164705485 0.123339489
0.208981395 0.176723748 0.135356992
0.224035248 0.190892026 0.148639873
0.239468679 0.204048380 0.162934631
0.257432342 0.218216419 0.179253459
0.272864968 0.233649820 0.197723165
0.291081607 0.254269809 0.218975559
0.309297979 0.273118377 0.240860373
0.329032153 0.293738157 0.267552137
0.350917041 0.315623045 0.294244021
0.375205725 0.345477730 0.321315348
0.395825744 0.366603523 0.342188120
0.414294749 0.390639007 0.370904237
0.434661478 0.415053487 0.399367481
0.461859405 0.442251414 0.426691890
0.483870864 0.468817443 0.451739550
0.507400274 0.493358672 0.478305012
0.530677021 0.516508222 0.504238009
0.550916970 0.544339240 0.529537976
0.575964630 0.569386363 0.554585636
0.606451690 0.595445991 0.581530511
0.634029329 0.618848979 0.606198609
0.656167388 0.643136978 0.630487382
0.148386776 0.116634771 0.087412998
0.152308553 0.118785545 0.086148158
0.154079542 0.123086549 0.089183778
0.163187936 0.130929768 0.095762163
0.169766009 0.136242777 0.097406775
0.172801942 0.137507945 0.102213934
0.178747550 0.143453449 0.108159453
0.189500645 0.152561471 0.115622766
0.200885668 0.161669865 0.122453868
0.208349004 0.172422558 0.131562263
0.220240548 0.184566736 0.145730540
0.234408274 0.198735252 0.159898788
0.247311637 0.212776989 0.173940554
0.262492299 0.225426987 0.188361764
0.279570103 0.242504627 0.206578046
0.299303830 0.262492001 0.227198020
0.317520618 0.282226622 0.246932611
0.336369336 0.302340329 0.272485703
0.357621789 0.326628774 0.304363996
0.381656945 0.351928979 0.329538137
0.398355693 0.374699712 0.354965240
0.419860989 0.396710962 0.377482533
0.440480471 0.420998991 0.405439466
0.463756919 0.446299702 0.432763904
0.490828276 0.473624080 0.459961772
0.510689318 0.500948846 0.487033546
0.533459961 0.524224877 0.514611125
0.554964960 0.549905300 0.538899541
0.582795620 0.572422743 0.563187599
0.608855128 0.598481894 0.585705161
0.640607417 0.623149931 0.611385167
0.663124979 0.647437990 0.635674000
0.168374330 0.133080319 0.103098996
0.170145556 0.136116385 0.100063384
0.173561171 0.138772994 0.101328224
0.174826011 0.143580154 0.105629325
0.183934391 0.149652168 0.110183612
0.188741222 0.151423156 0.118911996
0.194307163 0.157748327 0.121189162
0.202403411 0.165464699 0.128526315
0.213789091 0.174573094 0.136116311
0.222896844 0.183681488 0.145730659
0.233649582 0.194434151 0.158128023
0.247817889 0.208602414 0.173308089
0.261859417 0.223782510 0.188488469
0.271853328 0.236559063 0.201265067
0.290069818 0.254775286 0.219481304
0.309424341 0.274129927 0.238835946
0.326628536 0.293864548 0.259835392
0.346110106 0.313346118 0.280582130
0.367994994 0.340037972 0.315749347
0.388235182 0.363314182 0.339784861
0.408728451 0.385072470 0.365338445
0.423909128 0.404301107 0.388615131
0.447817624 0.428336143 0.412776619
0.469070047 0.452624947 0.440101057
0.492346466 0.476660430 0.464895427
0.518026173 0.502719641 0.491081148
0.537761033 0.530044019 0.520936072
0.562808275 0.555091679 0.545983851
0.589879632 0.577988744 0.570271969
0.617204309 0.601517975 0.594054341
0.642757773 0.627071440 0.615306735
0.666666985 0.650979996 0.639216006
0.186970547 0.151676551 0.116381548
0.187729537 0.154712170 0.114104934
0.191271544 0.155597553 0.114990324
0.196078390 0.156862721 0.118911870
0.199493647 0.160278559 0.124604993
0.208602026 0.166350558 0.139784619
0.215939090 0.175332308 0.141682312
0.223276243 0.184060827 0.145224690
0.232384637 0.193168640 0.154712543
0.241493031 0.202277035 0.166856557
0.250980198 0.211764872 0.176470861
0.263756812 0.224541798 0.189247280
0.278178275 0.239721894 0.204427183
0.290576011 0.254901558 0.219607577
0.308665514 0.272991806 0.237697825
0.326122522 0.291587532 0.256673068
0.342061937 0.309803933 0.276786745
0.355218500 0.328526497 0.298418671
0.379506558 0.352814585 0.328779519
0.396204919 0.374319911 0.351549923
0.414800763 0.395192742 0.375458717
0.435673684 0.416445136 0.401138663
0.457052499 0.437824011 0.422517508
0.478557914 0.462112814 0.449588925
0.500189781 0.484503746 0.473497838
0.521695018 0.507147551 0.495003045
0.546109676 0.531562090 0.519417644
0.573434770 0.558886468 0.546742737
0.597722948 0.583175182 0.571030974
0.621631801 0.607083976 0.594939828
0.645035028 0.630486727 0.619102061
0.666287422 0.651739120 0.640354455
0.208222941 0.172928929 0.137633935
0.214294925 0.175964549 0.140670314
0.215053931 0.176849931 0.140543938
0.217330769 0.178115100 0.142315030
0.220746025 0.181530938 0.145857379
0.226818800 0.187602937 0.148892999
0.238456875 0.198734939 0.161542922
0.246299863 0.207083985 0.169512689
0.253637016 0.214421019 0.178621083
0.262745410 0.223529428 0.188108951
0.274762958 0.235546932 0.200252935
0.286400855 0.247185498 0.211890981
0.300189555 0.260974258 0.225679576
0.314864039 0.276153952 0.240859970
0.330044389 0.291334331 0.256040335
0.343326926 0.311827779 0.278937578
0.359519333 0.331056327 0.302213848
0.375458926 0.349272907 0.324731082
0.388614953 0.367994964 0.343959898
0.410120308 0.389500320 0.371537298
0.428462923 0.408854932 0.392156929
0.447185248 0.428589135 0.413915247
0.466160893 0.449968010 0.437697887
0.490448952 0.474256814 0.461985946
0.514231503 0.498544991 0.491334558
0.533839583 0.522327363 0.513219595
0.552055836 0.546616018 0.531435847
0.576470435 0.571031272 0.555850327
0.598481834 0.593042672 0.577861845
0.620240152 0.614801109 0.599620163
0.641998649 0.636559427 0.623149633
0.663251042 0.657811880 0.649462044
0.239595324 0.201770991 0.166476637
0.240607321 0.202276930 0.166982710
0.244529083 0.205313087 0.170019090
0.246173471 0.206957474 0.171663478
0.249209180 0.209993541 0.174699545
0.253131181 0.213915318 0.177735701
0.261732996 0.222517639 0.185831964
0.273877382 0.234661639 0.197975948
0.283238620 0.244022638 0.208728626
0.294117808 0.254901797 0.219607800
0.301075310 0.261859298 0.226565316
0.311195582 0.274003834 0.242757827
0.323972285 0.287286669 0.257052600
0.338899642 0.302213371 0.271979958
0.351802737 0.315117061 0.284883052
0.369386315 0.337507635 0.309677422
0.383301497 0.355850488 0.329538494
0.399240971 0.373055130 0.350790590
0.411385030 0.391271651 0.372801960
0.431878388 0.412271023 0.394307375
0.451233476 0.431625634 0.415939480
0.467425644 0.449841619 0.433143765
0.482732475 0.469575793 0.452751815
0.504617333 0.491460830 0.474636644
0.528905869 0.513472259 0.501201928
0.551802933 0.536115944 0.527134955
0.569766343 0.558254123 0.545098305
0.590006292 0.578494847 0.565338254
0.606578052 0.602656484 0.586970091
0.629601181 0.625680089 0.609993696
0.655154765 0.647691607 0.632890582
0.682985663 0.668944001 0.658570290
0.269702703 0.232131407 0.200126395
0.269702703 0.232131407 0.196837395
0.271853477 0.234282166 0.198987752
0.273624688 0.236053392 0.200758979
0.277039856 0.239468560 0.204174250
0.282605916 0.245034635 0.209740639
0.287413090 0.249842018 0.217837021
0.294876426 0.257305712 0.225300685
0.307780087 0.270208806 0.239721790
0.320809692 0.283238411 0.254522413
0.328779429 0.294497102 0.264136404
0.338519961 0.304617226 0.275015473
0.347628355 0.315623343 0.289816618
0.362049729 0.330044121 0.304238051
0.376976699 0.344971508 0.319165409
0.387349695 0.360151708 0.335104495
0.405566096 0.381404102 0.360910684
0.420872808 0.396710962 0.376470536
0.434028745 0.413915664 0.397722751
0.449588805 0.431625664 0.417583793
0.468943477 0.450980693 0.436938494
0.488172114 0.470208824 0.456167132
0.502593219 0.489183873 0.472865462
0.523845613 0.510436296 0.494117886
0.542441607 0.528399646 0.513346255
0.562555671 0.551043332 0.537887633
0.582795978 0.572042823 0.559646010
0.601011992 0.590259552 0.580138981
0.619860828 0.612144351 0.601011813
0.638709605 0.634788096 0.622390687
0.661226928 0.658191323 0.645793855
0.690829039 0.679443717 0.669322968
0.298545092 0.264769107 0.238077193
0.298545092 0.263251096 0.231246099
0.301454782 0.266160786 0.232384413
0.304744184 0.268691093 0.233396277
0.304744184 0.269070536 0.234534830
0.312713355 0.277419150 0.243643209
0.317520499 0.282226503 0.251992524
0.320683181 0.286907196 0.260215104
0.327514082 0.293738097 0.267046213
0.342694461 0.308918476 0.288298607
0.353573859 0.324098855 0.301581204
0.365465075 0.337255210 0.316002280
0.375711650 0.349778652 0.327766836
0.385073066 0.359140068 0.337381214
0.402277172 0.376344174 0.355091929
0.412397206 0.389753193 0.368501097
0.423023403 0.403415382 0.383681267
0.441240132 0.421632141 0.406071693
0.456546366 0.436939120 0.421252131
0.469702721 0.452118963 0.439215839
0.484124184 0.468437463 0.456673175
0.502593219 0.486907244 0.475142241
0.523592651 0.507906616 0.496141583
0.543579996 0.527893960 0.516129017
0.561796367 0.546110332 0.535863400
0.576976776 0.563187957 0.552308738
0.592663109 0.586464167 0.573055148
0.610879064 0.604680896 0.596837044
0.629474759 0.626312673 0.619986892
0.651486278 0.647565067 0.639721274
0.670335114 0.665781498 0.660214782
0.688551903 0.687033892 0.681467175
0.331941485 0.304237515 0.280582011
0.331941485 0.298165500 0.271473616
0.336242497 0.300948501 0.273244530
0.342188358 0.305629194 0.275395155
0.347249001 0.308538944 0.274004042
0.347249001 0.311574578 0.283112407
0.352688462 0.317394137 0.289690465
0.355344981 0.323339999 0.297533274
0.357874900 0.330170900 0.306514621
0.366982490 0.339278519 0.315623015
0.382162869 0.354458898 0.331056386
0.397090256 0.367615551 0.350158274
0.408728480 0.380898356 0.367615461
0.415433109 0.395572066 0.379886001
0.427577853 0.407716841 0.395066410
0.439974993 0.420113981 0.407969505
0.451865971 0.432258010 0.420113891
0.465528160 0.445920169 0.433396906
0.483744949 0.464136988 0.448576570
0.499051124 0.479443878 0.466540247
0.512207508 0.494623721 0.482859254
0.526628971 0.510942280 0.499177992
0.544845045 0.529159009 0.517394006
0.560025454 0.544339418 0.532574415
0.580012739 0.564326704 0.557115734
0.598229170 0.582542777 0.578368127
0.613915563 0.598608136 0.594307542
0.632131457 0.616824865 0.612523496
0.645034432 0.640353978 0.638962269
0.664642394 0.662744701 0.658949673
0.685262442 0.680455089 0.675268710
0.697659492 0.690069497 0.693611979
0.365338624 0.343706608 0.320176870
0.365338624 0.343453586 0.319797337
0.367488831 0.339531839 0.314990520
0.370271742 0.344591886 0.316255629
0.373434544 0.350537747 0.316382200
0.381024867 0.351043701 0.325489938
0.378494561 0.354079306 0.329538316
0.385072708 0.361416698 0.336875558
0.390385866 0.368753880 0.346742600
0.397343248 0.375711262 0.358001232
0.403541744 0.381909728 0.364199728
0.416698396 0.395066381 0.377355874
0.432131737 0.409487873 0.394813299
0.445793748 0.426185727 0.410499722
0.457937807 0.438329816 0.423023283
0.467678785 0.452877790 0.435799867
0.482352883 0.465528250 0.450980276
0.496647477 0.477040023 0.465275466
0.508032918 0.488424957 0.475901663
0.520683050 0.503858387 0.491081268
0.533839345 0.517140985 0.505376518
0.548007846 0.532321155 0.522580862
0.565970838 0.550284863 0.544338882
0.578367949 0.562681913 0.556735873
0.595825613 0.580138981 0.574193597
0.613662541 0.597975731 0.594054520
0.628336847 0.613662004 0.610752881
0.641745865 0.631878734 0.633775830
0.657305658 0.650094807 0.644022644
0.675015867 0.672106028 0.666287005
0.695509255 0.690701842 0.685515463
0.709676981 0.701834023 0.705756009
0.400758982 0.381151497 0.357621491
0.400758982 0.381151497 0.361669481
0.402909726 0.383048713 0.363567263
0.405945659 0.382542670 0.360531330
0.407084197 0.389373958 0.360910773
0.412903160 0.391018242 0.370018840
0.417963177 0.395572186 0.376090795
0.416571498 0.400252938 0.379127175
0.424541354 0.408981651 0.387476385
0.431878507 0.416318506 0.398355216
0.435926765 0.420366764 0.402656496
0.441998780 0.426438749 0.408728510
0.454143256 0.438583255 0.420872509
0.470588267 0.455028325 0.437318057
0.486274242 0.470714748 0.453004509
0.502087295 0.483238310 0.469196498
0.509677470 0.495382696 0.479822695
0.523972094 0.506388664 0.494623840
0.533080518 0.515496254 0.503732204
0.544971526 0.528146863 0.516382158
0.557115495 0.541429520 0.529664516
0.568248153 0.552561581 0.540797114
0.583301783 0.567615688 0.559645832
0.597343504 0.581656933 0.573687494
0.614041567 0.598355472 0.590385556
0.628083646 0.616571426 0.609993637
0.641493022 0.631878376 0.625932992
0.653636992 0.647059143 0.644148946
0.670462072 0.665275216 0.661227047
0.685642004 0.681720436 0.673877418
0.706388354 0.702466846 0.694623888
0.723845243 0.718026519 0.715876281
0.439468265 0.419861257 0.398608267
0.440606922 0.420999616 0.403541923
0.442757696 0.423150152 0.407463402
0.444655448 0.427324444 0.410246730
0.447312266 0.429981291 0.407589912
0.449588984 0.432258010 0.414421201
0.454016268 0.435546935 0.420999289
0.457937926 0.440480411 0.425426960
0.460214823 0.447312087 0.429981172
0.469323128 0.456419796 0.439088792
0.473750830 0.459709138 0.442378134
0.478811264 0.464769274 0.447438270
0.484883279 0.470841289 0.453510284
0.496521294 0.482732326 0.465401322
0.511195242 0.498292476 0.480961472
0.530550241 0.515117288 0.500316262
0.541556001 0.526881874 0.516255498
0.548260570 0.535990238 0.525363684
0.557368994 0.545097947 0.534471989
0.569260001 0.556989372 0.546363294
0.581404328 0.565717936 0.556230247
0.593548298 0.577862263 0.568374276
0.602656662 0.587350130 0.577735603
0.614800930 0.602530003 0.591903925
0.629980981 0.617710233 0.607084274
0.646299660 0.634788215 0.624414921
0.656420052 0.652498305 0.644655228
0.669196606 0.665275514 0.657431602
0.685515642 0.680455565 0.676027656
0.703099370 0.698039174 0.693611801
0.717393816 0.714105189 0.708792210
0.737887263 0.735104620 0.729538620
0.481467038 0.462366015 0.446426094
0.484503448 0.465401679 0.449462444
0.487033784 0.467931777 0.451992333
0.489058018 0.471980035 0.455028206
0.489058018 0.477293044 0.457685024
0.489058018 0.477293044 0.457685024
0.491587698 0.478052080 0.463251024
0.495129734 0.479443401 0.467678756
0.498924971 0.483238161 0.471979946
0.508032560 0.492346555 0.481087565
0.514231026 0.495888889 0.484629899
0.520303488 0.500949025 0.489690036
0.526122987 0.506768048 0.495003074
0.532194972 0.513599038 0.501581073
0.538267016 0.522707462 0.510689497
0.554838836 0.539911807 0.528399825
0.568247855 0.557115972 0.546869159
0.572548628 0.568880618 0.561037481
0.581657052 0.577988982 0.570145130
0.593295038 0.589374006 0.581530750
0.605186462 0.596331298 0.590133011
0.616824985 0.601897299 0.597723067
0.628969073 0.614042044 0.609867036
0.635294080 0.629095912 0.622011065
0.646173060 0.642252028 0.634408593
0.659708679 0.655787706 0.647944689
0.674636066 0.670715034 0.662872016
0.689816415 0.685895443 0.678051591
0.704743862 0.698418975 0.697785795
0.721442044 0.714105010 0.717267334
0.737887204 0.731815219 0.734345555
0.750032008 0.750032008 0.749525964
0.517899811 0.504869938 0.485895216
0.520936191 0.507906377 0.488930821
0.519671023 0.506641030 0.487666160
0.520430148 0.507400095 0.488425076
0.522454381 0.510689437 0.491081387
0.522454381 0.510689437 0.491081387
0.524984062 0.518279731 0.501201391
0.531309128 0.520556748 0.507147074
0.536875367 0.521189213 0.510942400
0.538393319 0.522707283 0.517520308
0.544591844 0.528905809 0.523718834
0.550663829 0.534345388 0.529158413
0.555597603 0.539279044 0.531815052
0.559519410 0.543959796 0.531941772
0.565591395 0.559139371 0.544085860
0.569260180 0.563440740 0.553194225
0.583681405 0.577861965 0.569386423
0.596837401 0.593548119 0.585705161
0.605945826 0.605313420 0.597470284
0.615053475 0.611638427 0.603795230
0.624794126 0.620873094 0.613029659
0.633522987 0.627704203 0.620493233
0.641113043 0.635294378 0.628083766
0.653257847 0.647438407 0.640227795
0.666413486 0.662492216 0.654649079
0.680961013 0.677040040 0.669197023
0.695635378 0.691714406 0.683871388
0.708032370 0.704111397 0.696268320
0.720556617 0.716634929 0.708791792
0.735104561 0.732321322 0.726375401
0.750031829 0.748766780 0.742820740
0.762175977 0.762175977 0.755598009
0.554332554 0.537760615 0.520556748
0.557368934 0.540796995 0.525996208
0.556103766 0.541682601 0.531182587
0.555597723 0.541429222 0.528905928
0.558254540 0.544085801 0.530044377
0.558254540 0.544085801 0.534092367
0.555977225 0.549272299 0.537001550
0.559013307 0.555091679 0.539278567
0.565085471 0.556609809 0.540037870
0.566729784 0.558254540 0.544465601
0.567741811 0.559266567 0.545730591
0.573813796 0.565338552 0.553826332
0.578747451 0.570271969 0.559139431
0.582289815 0.573813975 0.560151815
0.590512633 0.584693193 0.574446559
0.594180763 0.590259433 0.579379797
0.598734975 0.594813645 0.586970329
0.612776577 0.608855188 0.599747002
0.625427008 0.622770727 0.610120118
0.636938453 0.634155869 0.621505797
0.647944272 0.644022822 0.631372809
0.657558441 0.653637111 0.640986741
0.665021777 0.661100805 0.648450792
0.672612607 0.668690801 0.656040788
0.682479501 0.678558111 0.665907502
0.696014702 0.692093790 0.679443538
0.710183024 0.706262052 0.693611920
0.724224746 0.720303774 0.707653165
0.736369431 0.732447743 0.719797790
0.750284553 0.746362925 0.733712971
0.765464783 0.763946950 0.754838586
0.779127002 0.779127002 0.776090980
0.589247167 0.571157396 0.556989193
0.589247584 0.571157396 0.561543345
0.591018379 0.573561192 0.566097200
0.585452318 0.573561192 0.565844357
0.588615179 0.576343954 0.563441157
0.593169153 0.577482581 0.569513142
0.592157006 0.579506576 0.571537077
0.590891898 0.582416117 0.572675347
0.593928039 0.585452259 0.568880260
0.596963704 0.588488400 0.571916461
0.598608375 0.590133190 0.576597154
0.602656364 0.594181120 0.581151128
0.605313003 0.600253165 0.587981999
0.607337356 0.603415370 0.590765357
0.612650633 0.608728647 0.599620581
0.618469596 0.614547789 0.606704593
0.623023391 0.619102001 0.611258328
0.629727960 0.625806570 0.617963552
0.643137336 0.639215946 0.627071440
0.654016197 0.650095165 0.637444913
0.669196665 0.665275216 0.652625144
0.678305030 0.674383342 0.661733329
0.686653674 0.682732642 0.670082688
0.696900785 0.692978978 0.680328965
0.703731894 0.699810505 0.687159836
0.712839842 0.708918512 0.696267784
0.724351406 0.720936120 0.709298134
0.737507820 0.735104620 0.725490093
0.751549482 0.746109962 0.738013804
0.762428939 0.760025144 0.747375190
0.778494418 0.776091218 0.765212178
0.794307411 0.794307411 0.794307411
0.620113552 0.604427576 0.592662573
0.618975341 0.603288710 0.597596526
0.619607806 0.603921294 0.599999964
0.619481087 0.605692565 0.598608077
0.610752940 0.606072128 0.591398001
0.621378958 0.609108508 0.597470105
0.623402953 0.609614551 0.598482132
0.623402953 0.609614551 0.598482132
0.624794424 0.611006021 0.599873602
0.627830088 0.614041626 0.602909207
0.630233824 0.616445422 0.609866977
0.635294139 0.621505558 0.616951108
0.639215589 0.626945138 0.621884584
0.636685967 0.632764101 0.624920964
0.637065530 0.633143544 0.625300527
0.641239941 0.637318134 0.628209949
0.647311985 0.643390119 0.634282172
0.652751565 0.648829520 0.640986562
0.661859989 0.657937944 0.650094986
0.670335233 0.666413903 0.658570766
0.683870912 0.679949522 0.672106564
0.699557424 0.695635676 0.687792540
0.702846050 0.698798597 0.691334903
0.717014492 0.712460220 0.706514657
0.725363553 0.720809519 0.714863539
0.733459592 0.729538441 0.721694767
0.742568016 0.738646090 0.730803072
0.751676381 0.750664234 0.748640239
0.764832258 0.760151684 0.760910988
0.778367758 0.773434281 0.772042930
0.786970198 0.786970198 0.779633164
0.805186987 0.805186987 0.803921998
0.641366005 0.625680029 0.613915026
0.647437990 0.631752014 0.626059771
0.648450077 0.632763982 0.628843009
0.648703039 0.633017063 0.626565635
0.647185028 0.633396626 0.621758163
0.641113043 0.636433005 0.627830923
0.641619027 0.636939049 0.628843009
0.641619027 0.636939049 0.628843009
0.643137038 0.638457060 0.630361021
0.649082541 0.644402504 0.636306465
0.649209023 0.644528985 0.636432946
0.653510571 0.648830056 0.641240001
0.658444345 0.653763652 0.646173358
0.660974085 0.657052994 0.649209082
0.664010465 0.660088599 0.652245462
0.666793227 0.662871838 0.650221229
0.671600044 0.667679012 0.652498424
0.677039623 0.673118412 0.659203410
0.680076063 0.676154017 0.668311000
0.686401069 0.682479739 0.674636006
0.696520984 0.692599952 0.684756458
0.710183203 0.706262112 0.698418856
0.724098444 0.720050991 0.712586522
0.733206868 0.726123035 0.727766931
0.740543962 0.732953966 0.736115992
0.749398947 0.743200660 0.742188334
0.760784030 0.756862879 0.749019861
0.769892395 0.765970469 0.758127451
0.779000759 0.775331795 0.767994821
0.793927848 0.789753318 0.782668948
0.806957603 0.804174960 0.796331227
0.811259091 0.811259091 0.803922057
0.670967758 0.663630366 0.654648781
0.671473742 0.664136350 0.655660808
0.673244774 0.665907383 0.659203053
0.673244774 0.665907383 0.659203053
0.673244774 0.665907383 0.656925738
0.671979785 0.666539967 0.658190906
0.673498094 0.669576347 0.661733389
0.673751116 0.669829428 0.661986411
0.674510002 0.670588493 0.662745297
0.678557694 0.674636722 0.666792989
0.681594133 0.677672386 0.669829428
0.681594133 0.677672386 0.669829428
0.686148345 0.682226360 0.674383342
0.690575719 0.686654031 0.678810716
0.691081762 0.687159956 0.679316759
0.696521342 0.692599356 0.684756339
0.699936509 0.696015239 0.685894907
0.704110920 0.700189769 0.688804805
0.707147360 0.703225374 0.689310431
0.712966383 0.709045053 0.695635378
0.719038367 0.715117395 0.705502808
0.729411602 0.725490332 0.717647374
0.742694676 0.738772988 0.730929673
0.754459262 0.750158012 0.743453264
0.763567626 0.758507311 0.754079640
0.770145774 0.766476989 0.762049377
0.779000640 0.777862310 0.770019293
0.788108468 0.786969900 0.779126883
0.797216833 0.796078146 0.788235128
0.808095992 0.806957304 0.799114287
0.823402643 0.822264254 0.816191971
0.834029078 0.834029078 0.831752062
0.701328456 0.691713750 0.685768485
0.701328456 0.691713750 0.685768485
0.697533011 0.691713750 0.689563453
0.697533011 0.691713750 0.689563453
0.697533011 0.691713750 0.689563453
0.697533011 0.691713750 0.689563453
0.700063348 0.694244027 0.692093313
0.701454997 0.697279990 0.686906993
0.702973008 0.699051142 0.688930988
0.707147241 0.703226209 0.695382237
0.706388593 0.702466905 0.694623590
0.709298015 0.705376446 0.697533011
0.710436583 0.706514776 0.698671579
0.716002703 0.711321712 0.703731775
0.720936000 0.711321712 0.705376446
0.723845720 0.714231491 0.708285689
0.729917765 0.720303476 0.714357734
0.732700467 0.723086715 0.717140973
0.734471738 0.724857509 0.715369761
0.736495793 0.734471679 0.722580433
0.740670502 0.738646746 0.726755202
0.744718492 0.742694736 0.734851718
0.753447533 0.751296699 0.743453681
0.767362714 0.763440728 0.755597711
0.781024575 0.777103007 0.769259989
