Assets/EldamarStudio/100 Retro LUTs Pack/LUTs/cube/Daniel LUT.cube
LUT_3D_SIZE 8
DOMAIN_MIN 0.000000 0.000000 0.000000
DOMAIN_MAX 0.903226 0.903226 0.903226
0.125489995 0.090195999 0.062744997
0.142314553 0.107020542 0.071726546
0.178747892 0.143453091 0.108159095
0.230360284 0.191144988 0.151928991
0.304744184 0.267046392 0.234788358
0.385958254 0.358254224 0.336495459
0.477039993 0.459709287 0.447944283
0.579379797 0.571663618 0.557241797
0.186970547 0.151676551 0.116381548
0.199493647 0.160278559 0.124604993
0.232384637 0.193168640 0.154712543
0.278178275 0.239721894 0.204427183
0.342061937 0.309803933 0.276786745
0.414800763 0.395192742 0.375458717
0.500189781 0.484503746 0.473497838
0.597722948 0.583175182 0.571030974
0.298545092 0.264769107 0.238077193
0.304744184 0.269070536 0.234534830
0.327514082 0.293738097 0.267046213
0.375711650 0.349778652 0.327766836
0.423023403 0.403415382 0.383681267
0.484124184 0.468437463 0.456673175
0.561796367 0.546110332 0.535863400
0.629474759 0.626312673 0.619986892
0.439468265 0.419861257 0.398608267
0.447312266 0.429981291 0.407589912
0.460214823 0.447312087 0.429981172
0.484883279 0.470841289 0.453510284
0.541556001 0.526881874 0.516255498
0.581404328 0.565717936 0.556230247
0.629980981 0.617710233 0.607084274
0.685515642 0.680455565 0.676027656
0.589247167 0.571157396 0.556989193
0.588615179 0.576343954 0.563441157
0.593928039 0.585452259 0.568880260
0.605313003 0.600253165 0.587981999
0.623023391 0.619102001 0.611258328
0.669196665 0.665275216 0.652625144
0.703731894 0.699810505 0.687159836
0.751549482 0.746109962 0.738013804
0.701328456 0.691713750 0.685768485
0.697533011 0.691713750 0.689563453
0.702973008 0.699051142 0.688930988
0.710436583 0.706514776 0.698671579
0.729917765 0.720303476 0.714357734
0.740670502 0.738646746 0.726755202
0.781024575 0.777103007 0.769259989
0.815433264 0.813535511 0.805692494
0.803542256 0.794687033 0.788488269
0.795066595 0.795066595 0.791018128
0.801012158 0.799367428 0.791524410
0.806957603 0.805312872 0.797469914
0.813661993 0.812017262 0.808728278
0.825047553 0.825047553 0.821758509
0.836179256 0.836179256 0.836179256
0.875648260 0.869070292 0.869955659
0.887918949 0.885262787 0.874636173
0.887918949 0.887918949 0.887918949
0.893105805 0.891840637 0.886780620
0.897026777 0.897026777 0.897026777
0.899810135 0.899810135 0.899810135
0.910689533 0.910689533 0.902846038
0.920177221 0.920177221 0.920177221
0.929664671 0.929664671 0.929664671
0.138014004 0.109044999 0.071346998
0.146616012 0.110942543 0.075648546
0.195193097 0.155977100 0.120683096
0.254649103 0.215812638 0.176976189
0.325110286 0.290575296 0.257937729
0.406324744 0.383427829 0.359266251
0.489563555 0.475522280 0.460468292
0.586717069 0.571030974 0.559266031
0.182669088 0.155218095 0.117520094
0.211258560 0.175585091 0.140290990
0.241366088 0.202150211 0.166856200
0.290322542 0.255028546 0.222011551
0.358507365 0.327007741 0.301834524
0.429348469 0.409740448 0.394054443
0.506388545 0.490702093 0.478937536
0.595446229 0.580897927 0.569513202
0.306388199 0.272612184 0.244402185
0.321315259 0.281214297 0.256926090
0.332195193 0.298419178 0.270968080
0.380012304 0.354838371 0.332827270
0.431245953 0.412397057 0.396331489
0.493231833 0.475522101 0.463757098
0.566477001 0.550790548 0.540544033
0.634914517 0.630993068 0.623150110
0.443769813 0.428083718 0.416318834
0.449715286 0.431245923 0.416698277
0.466160387 0.447691739 0.433143377
0.488045365 0.475522071 0.457432240
0.540164649 0.524478078 0.514231622
0.581024766 0.566477060 0.554332674
0.630360603 0.615812659 0.605945587
0.682479262 0.678937554 0.671094239
0.587349832 0.572802126 0.567741811
0.590638816 0.578368187 0.568500817
0.598355591 0.583807588 0.573181689
0.609740376 0.597469807 0.587602377
0.630234182 0.619102001 0.613662183
0.667805374 0.657811761 0.651992381
0.702593505 0.698671877 0.690828741
0.749651968 0.746868968 0.739025950
0.697786033 0.688172162 0.682226539
0.698292136 0.694370449 0.686527491
0.702214003 0.698671699 0.688551486
0.711575031 0.709171295 0.701328278
0.724984109 0.721062362 0.713219345
0.740543962 0.735104322 0.731815457
0.776976466 0.775079191 0.767236173
0.817330539 0.815433264 0.807589769
0.791271567 0.787982106 0.788867831
0.793042302 0.793042302 0.793042302
0.797849298 0.795066535 0.788361609
0.806325018 0.800505936 0.798355460
0.817077875 0.813535452 0.806451440
0.822138071 0.821758568 0.817710102
0.837571025 0.834281981 0.835926712
0.866540134 0.865275264 0.862745225
0.891587496 0.885262787 0.880835116
0.894117355 0.891840637 0.883997619
0.893485248 0.891461074 0.889310658
0.893485010 0.893485010 0.891967058
0.902466595 0.902466595 0.904743612
0.910309970 0.910309970 0.910309970
0.918912053 0.918912053 0.918912053
0.935610473 0.933333158 0.929538369
0.155976996 0.120682999 0.085389003
0.166983008 0.131688997 0.096395001
0.192789182 0.157495186 0.122200996
0.264895886 0.217330739 0.181657284
0.338519990 0.304744005 0.273245096
0.422137856 0.396331370 0.376470566
0.506894350 0.491208196 0.479443371
0.599746883 0.584060669 0.573813856
0.210879102 0.177103087 0.148892999
0.222896621 0.190765634 0.148386627
0.248829633 0.209993988 0.174699172
0.306767732 0.268311530 0.233775824
0.371157646 0.341935724 0.319038540
0.443896443 0.426565737 0.409740478
0.526502252 0.514357805 0.495508820
0.608349144 0.594940066 0.587729096
0.290702105 0.263251096 0.227071270
0.311828196 0.276534081 0.242758080
0.351043284 0.317267299 0.296900988
0.392156810 0.366223842 0.344212651
0.444276065 0.426186085 0.410499305
0.506894052 0.491208076 0.479443371
0.575079143 0.559392631 0.550664186
0.642504632 0.638583124 0.630739987
0.451233268 0.435547292 0.423782289
0.461859733 0.443390280 0.423276722
0.475901723 0.462998211 0.445667386
0.499051183 0.483365178 0.471600175
0.544085860 0.528399706 0.516634881
0.587222934 0.572675347 0.561289907
0.632258177 0.626059234 0.618975163
0.687919140 0.683997452 0.676154435
0.589247167 0.583048463 0.569639206
0.595572352 0.582163274 0.572675407
0.608981252 0.595572352 0.584566474
0.616445541 0.604174435 0.594307542
0.634914279 0.623782218 0.613535404
0.666539967 0.662618816 0.654775500
0.706135273 0.702214003 0.694370449
0.750790596 0.746869087 0.742821157
0.705629706 0.697533011 0.689057708
0.703732193 0.699430764 0.688678145
0.706514835 0.703352749 0.691460729
0.711195469 0.705629647 0.704996824
0.728525937 0.723466039 0.719038546
0.741808832 0.738646746 0.732321203
0.778620780 0.773434341 0.773181617
0.819860876 0.814674199 0.814421117
0.798735082 0.794054568 0.788488090
0.796964228 0.793928146 0.794687033
0.804174244 0.799494028 0.796205223
0.807589889 0.802909672 0.799620748
0.811891198 0.811891198 0.811891198
0.825426996 0.823782265 0.820493281
0.838709593 0.837065279 0.833776295
0.870714664 0.870714664 0.867425680
0.889310837 0.886021674 0.881973565
0.892599642 0.888931096 0.886021674
0.893864691 0.889436960 0.886906803
0.897026777 0.897026777 0.894496799
0.902466595 0.902466595 0.903984785
0.909930468 0.908665657 0.906135321
0.917393863 0.918912053 0.921948075
0.930423558 0.934218526 0.927007794
0.192789286 0.153574005 0.118279286
0.204174638 0.164958656 0.129664645
0.228462636 0.189247534 0.153953344
0.265654981 0.228715986 0.188361645
0.342820823 0.310562819 0.282352746
0.423782349 0.406071812 0.388235360
0.517393947 0.501707613 0.489942908
0.605186760 0.597849429 0.588867784
0.251612991 0.217457443 0.188488543
0.262492090 0.223276287 0.187982097
0.281341076 0.242504641 0.204427287
0.311448544 0.276154548 0.243137538
0.372548848 0.347374827 0.320556849
0.454016745 0.436685741 0.419861108
0.538267255 0.524224997 0.509171546
0.617077708 0.604427695 0.599746764
0.322833300 0.289057285 0.262365401
0.346363068 0.308665276 0.277925283
0.378873736 0.352181733 0.329791218
0.399620384 0.374446392 0.353194296
0.451612949 0.438709289 0.421379298
0.519038618 0.503352523 0.497153640
0.586084425 0.572675347 0.567236185
0.651992440 0.646932185 0.637950420
0.436052918 0.417583972 0.397469908
0.444655657 0.426186293 0.411637932
0.470841169 0.457937807 0.440607011
0.511195660 0.495508909 0.483744651
0.552435219 0.540164649 0.527261257
0.593168974 0.589247227 0.581404328
0.640607178 0.636685610 0.628842652
0.695762455 0.691840410 0.683997452
0.592536390 0.581404209 0.571157396
0.599620223 0.588488400 0.583048582
0.609360993 0.605439603 0.596837580
0.627071321 0.615939140 0.609740376
0.635926664 0.632004976 0.624161661
0.675648391 0.671727002 0.659835458
0.708918452 0.704996943 0.697153687
0.754206002 0.751170039 0.744465470
0.704237819 0.701454997 0.693611443
0.708918691 0.704996824 0.695635676
0.717899978 0.711321712 0.704617143
0.719417989 0.713472724 0.711701512
0.732068360 0.728146493 0.720303476
0.747754335 0.744591951 0.738267004
0.780645013 0.780645013 0.774320006
0.817457497 0.817457497 0.813409507
0.798608303 0.798608303 0.794054270
0.802909613 0.801391661 0.802150548
0.806071997 0.802150667 0.800000072
0.812017262 0.808096230 0.800253272
0.817583978 0.815939248 0.810373247
0.825680017 0.825680017 0.823403001
0.842251599 0.838962615 0.836052954
0.872738898 0.870461643 0.871600270
0.899557114 0.891840637 0.885262787
0.893485129 0.892978966 0.888551593
0.897026777 0.895761967 0.893231928
0.897026777 0.897026777 0.897026777
0.903731763 0.903731763 0.904490888
0.913345933 0.912586987 0.907020628
0.921695113 0.921695113 0.921695113
0.935104132 0.935104132 0.935104132
0.242884189 0.208475798 0.168374196
0.247185647 0.209487543 0.171789736
0.275016069 0.235800087 0.198102280
0.305123448 0.270208985 0.234155387
0.357242376 0.324984372 0.299051195
0.427450925 0.405312717 0.387476474
0.529664278 0.511575043 0.499810070
0.618848801 0.603162408 0.596205175
0.294117540 0.266666532 0.240860537
0.309171349 0.272232533 0.237318099
0.323212951 0.288677931 0.260847360
0.351043373 0.318026364 0.290195733
0.389120698 0.359898686 0.337001920
0.449335933 0.432004839 0.417457372
0.546489716 0.532447577 0.517394006
0.618089557 0.613029659 0.604807138
0.384693205 0.355597287 0.343074173
0.400379270 0.373687267 0.352055699
0.409740418 0.390133202 0.370398492
0.429348469 0.411258489 0.390006274
0.458317369 0.445794076 0.427704275
0.519038618 0.503352523 0.491587639
0.597090602 0.581404209 0.572675586
0.658190966 0.654269695 0.644908130
0.457178801 0.439089030 0.427324653
0.469702691 0.451233357 0.436685711
0.495508820 0.479822844 0.468057841
0.542188287 0.526502252 0.514737248
0.559012830 0.543326855 0.533839107
0.603035927 0.590765178 0.584945977
0.652371943 0.640101254 0.632004857
0.697406709 0.693485141 0.685642183
0.575964332 0.560278356 0.548513353
0.586590707 0.570904613 0.559898734
0.602656245 0.586970270 0.575205266
0.622897148 0.614421427 0.608096182
0.650474429 0.646552980 0.638709426
0.679063916 0.675142467 0.667298913
0.713219404 0.709297955 0.701454937
0.759012997 0.755091608 0.747248590
0.707527220 0.697912574 0.691208184
0.705376446 0.699936807 0.696647465
0.716634750 0.710057139 0.704111695
0.728146374 0.724225104 0.716382086
0.736369550 0.733965755 0.729158759
0.754332662 0.750410676 0.742567658
0.788488507 0.786084712 0.781277716
0.820620120 0.816571832 0.818595886
0.802656472 0.802656472 0.802656472
0.804048061 0.801771045 0.802909553
0.810499489 0.807337105 0.804807246
0.814294577 0.814294577 0.814294577
0.823656201 0.822138190 0.822897255
0.834408700 0.831119716 0.831246018
0.847312272 0.844022870 0.844149351
0.876281261 0.876281261 0.872991920
0.897280157 0.894623578 0.886780560
0.895761967 0.895761967 0.893484950
0.900189638 0.894749880 0.891460836
0.902087152 0.902087152 0.899557173
0.906768143 0.909045160 0.904870152
0.912713766 0.911195576 0.908159554
0.925110817 0.925110817 0.925110817
0.936242759 0.936242759 0.933206797
0.303605229 0.268311232 0.233016729
0.312080741 0.276786745 0.245287731
0.334472001 0.299178004 0.271726996
0.361037254 0.333586276 0.304490983
0.396458179 0.372802168 0.352308661
0.450600982 0.428842723 0.411005467
0.513852239 0.499303818 0.487919271
0.612143815 0.602530062 0.592789292
0.350158095 0.323466092 0.300695986
0.360025346 0.329284847 0.300695986
0.372928262 0.346236259 0.322707266
0.397090286 0.370398283 0.346869290
0.427704066 0.403668642 0.383554459
0.471220911 0.453510255 0.439721912
0.531435847 0.515749693 0.503984869
0.622137964 0.612143993 0.606324971
0.443010718 0.424161822 0.410373062
0.443769813 0.425300390 0.409614265
0.454396188 0.435547084 0.420620173
0.472485989 0.454775751 0.440986484
0.495508909 0.484124064 0.469070166
0.536622405 0.517773509 0.506008983
0.589247167 0.573560953 0.565844297
0.662112653 0.655914009 0.646552980
0.501960456 0.486274481 0.474509478
0.520556748 0.502846241 0.491081476
0.553194225 0.539785087 0.527261257
0.569133580 0.553447127 0.541682661
0.590006232 0.574320197 0.562555194
0.609234631 0.596964240 0.586337686
0.644401968 0.638203740 0.627071857
0.703605294 0.700822294 0.692979336
0.591903865 0.581910133 0.575331926
0.601897418 0.590765238 0.580518365
0.618469357 0.608475745 0.602656364
0.635547280 0.631625414 0.623782396
0.667298913 0.664895713 0.657052636
0.685515583 0.677040219 0.671220958
0.715623200 0.711195588 0.709424436
0.759898722 0.755850732 0.754079640
0.691460729 0.681846976 0.675901771
0.689689994 0.684250295 0.680961490
0.699810028 0.693611443 0.686527371
0.714357853 0.710436583 0.698545039
0.735863507 0.731941462 0.724098504
0.762175679 0.756356478 0.754206181
0.790765285 0.782922268 0.786843777
0.817457497 0.817457497 0.817457497
0.797849596 0.794307530 0.787223101
0.800885320 0.800505757 0.797216773
0.809234619 0.805312872 0.797469854
0.815939248 0.813915014 0.806071997
0.828209996 0.826565742 0.823276699
0.840353966 0.837064981 0.838709235
0.850853801 0.848323762 0.849588990
0.883617759 0.882352948 0.879063547
0.895761967 0.895761967 0.895761967
0.894750118 0.894750118 0.893991113
0.898924530 0.898924530 0.898924530
0.902846098 0.902846098 0.902846098
0.911954701 0.911954701 0.911954701
0.917773664 0.915875912 0.912080884
0.928020239 0.926502287 0.923466325
0.940164804 0.940164804 0.940164804
0.384566277 0.361669868 0.339405268
0.390512526 0.367615551 0.348639995
0.408981293 0.386084467 0.367109269
0.431119621 0.411511898 0.395825624
0.462112248 0.446426272 0.434661269
0.501328290 0.485642254 0.473877281
0.552181959 0.536495566 0.524731040
0.604933679 0.596078336 0.586590648
0.415812582 0.396584541 0.381277531
0.422138274 0.402909815 0.387602389
0.435926616 0.420493484 0.403289318
0.458696812 0.446552992 0.427704245
0.487159997 0.473118275 0.458064377
0.522200882 0.506514788 0.494749814
0.566350222 0.550664246 0.538899302
0.609107852 0.604048252 0.592030287
0.495888472 0.480202258 0.468437463
0.506514788 0.490828812 0.479063809
0.512207508 0.496521264 0.484756470
0.528652549 0.512966573 0.501201570
0.550790429 0.535104334 0.524857461
0.575838029 0.562428653 0.549905181
0.612650037 0.596964002 0.585199118
0.655914009 0.642504692 0.634788036
0.581277609 0.569006920 0.560657561
0.592410028 0.580138922 0.569512963
0.600885510 0.585199296 0.575711548
0.610373259 0.594686985 0.585199296
0.623023212 0.614168406 0.604680657
0.638836265 0.629981279 0.620493293
0.658570886 0.654648960 0.643516898
0.696268082 0.691208184 0.686780572
0.620493293 0.616571665 0.602403224
0.625806689 0.621884763 0.608475566
0.646553218 0.642631173 0.633270204
0.676407516 0.672485888 0.663124442
0.696647763 0.688171983 0.681847215
0.705755770 0.701834619 0.693990767
0.721062541 0.716381907 0.710815966
0.754711926 0.750790596 0.742947459
0.706515014 0.702593446 0.694750011
0.713472545 0.709550917 0.701707900
0.718659043 0.714737415 0.706894398
0.732447863 0.728525877 0.720682859
0.750790298 0.746869206 0.739026189
0.773814023 0.771536708 0.763693690
0.792789459 0.786970258 0.784820020
0.821631968 0.817836940 0.815686285
0.780645311 0.779000521 0.771157503
0.777735710 0.777735710 0.773181677
0.789247394 0.787602603 0.779759467
0.796331584 0.794687331 0.791397810
0.813661993 0.813661993 0.805819035
0.830866277 0.830866277 0.823023319
0.853510499 0.853510499 0.845667541
0.882100105 0.882100105 0.878811121
0.890955210 0.890955210 0.890955210
0.893358350 0.893358350 0.892599344
0.895129561 0.892599523 0.893864691
0.899304032 0.899304032 0.899304032
0.909930408 0.909930408 0.909930408
0.919797719 0.919797719 0.919797719
0.933839083 0.929285109 0.931561828
0.941429675 0.943706393 0.948260367
0.493231952 0.477545619 0.465780914
0.494876325 0.479190350 0.467425346
0.509044945 0.493358642 0.481593966
0.528146803 0.512460768 0.500695825
0.556356728 0.540670455 0.528905809
0.585578799 0.569892585 0.558127820
0.616571665 0.600885689 0.589120686
0.659202814 0.643516779 0.631751776
0.516002297 0.500316322 0.488551319
0.521189153 0.505502462 0.493738174
0.532953620 0.517267466 0.505502582
0.551423371 0.535736501 0.523972332
0.570651472 0.559518993 0.546995521
0.598482132 0.583933949 0.572549224
0.623023510 0.615306795 0.606198490
0.660721242 0.653004527 0.643896341
0.573307931 0.569386601 0.560025156
0.584819615 0.569133461 0.558886588
0.591144919 0.575458884 0.565211952
0.603162348 0.587476313 0.581024468
0.611511827 0.607590020 0.599746823
0.632637680 0.628715932 0.620872676
0.655407906 0.651486576 0.643642902
0.688045621 0.684123933 0.676280975
0.637824416 0.633902431 0.626059413
0.641619384 0.637697518 0.629854560
0.648070872 0.644149303 0.636306345
0.657685101 0.653763413 0.645920098
0.668817103 0.664895773 0.657052517
0.681214631 0.677292645 0.669449627
0.699430823 0.695508778 0.687665820
0.725110769 0.721188784 0.713345766
0.680202425 0.676281154 0.668437421
0.692473054 0.688551545 0.680708528
0.707273901 0.703352213 0.695508897
0.719797611 0.715875685 0.708032727
0.728399992 0.724477947 0.716634989
0.739785135 0.735863149 0.728020132
0.754332781 0.750410795 0.742567778
0.773560941 0.769639373 0.761796355
0.732447743 0.726628661 0.724477768
0.738646507 0.732827306 0.730676889
0.744085848 0.739025891 0.734598160
0.755471170 0.751928926 0.748639822
0.785705149 0.783681214 0.779633164
0.804933429 0.797849536 0.799493968
0.813535511 0.810752690 0.808981776
0.830486715 0.827956736 0.829221904
0.807210505 0.807210505 0.807210505
0.806071937 0.806071937 0.803541899
0.808475673 0.808475673 0.808475673
0.820999622 0.818469286 0.819734454
0.832004845 0.832004845 0.832004845
0.845667422 0.845667422 0.845667422
0.874763250 0.874763250 0.874763250
0.889563560 0.889563560 0.889563560
0.876154661 0.876154661 0.870841026
0.877799273 0.877799273 0.872485757
0.883491695 0.878178716 0.880835056
0.891840637 0.886527658 0.889183819
0.898544967 0.893231988 0.895888448
0.913345933 0.908032775 0.910689592
0.926375687 0.926375687 0.926375687
0.948007762 0.948007762 0.948007762
