Assets/EldamarStudio/100 Retro LUTs Pack/LUTs/cube/David LUT.cube
LUT_3D_SIZE 5
DOMAIN_MIN 0.000000 0.000000 0.000000
DOMAIN_MAX 0.903226 0.903226 0.903226
0.156863004 0.003922000 0.023529001
0.180391997 0.019608000 0.050980002
0.236685827 0.083744824 0.088930994
0.346363127 0.168753996 0.155977130
0.569259763 0.252498806 0.243389949
0.152941003 0.126881406 0.079443701
0.176470995 0.140290692 0.100062989
0.241239578 0.180518404 0.134724572
0.367236137 0.233143270 0.191271544
0.594054401 0.302213818 0.270840973
0.144465417 0.310689390 0.186337575
0.184060693 0.311954379 0.207337394
0.279949784 0.336115956 0.234155819
0.430107385 0.366603106 0.263883531
0.661353111 0.426438808 0.337507784
0.281847119 0.509171128 0.313851982
0.325489938 0.517393827 0.334218979
0.418722391 0.528146565 0.353826821
0.564200103 0.551296294 0.385452121
0.747248471 0.609867096 0.462239087
0.578494430 0.756103754 0.549525619
0.597596467 0.766223669 0.553826511
0.656799555 0.771031022 0.574446440
0.748513639 0.788741589 0.608095884
0.837064743 0.814927399 0.658317387
0.155218288 0.003922000 0.082732700
0.173560694 0.023908701 0.094497278
0.232763991 0.109550692 0.142567992
0.345983237 0.190258995 0.208601981
0.569512725 0.260594517 0.278304696
0.155218288 0.129158691 0.133080706
0.175837994 0.146489412 0.147121996
0.239974409 0.193295524 0.182795689
0.361037403 0.242884129 0.225300685
0.593042493 0.306388527 0.303478986
0.155598000 0.306388080 0.221631989
0.186969995 0.312586993 0.236053407
0.282226533 0.337128103 0.258949995
0.433017015 0.369512796 0.298797995
0.660341442 0.431372315 0.362428784
0.294117719 0.505882144 0.344971269
0.326501846 0.512460530 0.355471134
0.420366943 0.525869250 0.371536821
0.565212250 0.550663829 0.404554099
0.744591951 0.606325090 0.470587969
0.576217532 0.763567328 0.551549435
0.596331477 0.766097367 0.564705610
0.651486397 0.772675514 0.580265164
0.743706167 0.789373875 0.615306675
0.843643606 0.809993684 0.660341322
0.171916410 0.007843000 0.185704991
0.178747699 0.045793995 0.203036115
0.225553408 0.122327402 0.233523399
0.349019378 0.195572421 0.274383545
0.579000175 0.266160548 0.342062235
0.170904294 0.138646409 0.229854688
0.179759994 0.152688101 0.232131824
0.230107412 0.198482111 0.259582818
0.363693804 0.251106977 0.296521276
0.599620342 0.309677243 0.363693833
0.144465417 0.304111362 0.296900809
0.184693277 0.318785667 0.304364264
0.284503371 0.343327224 0.331562400
0.438583523 0.370524943 0.360025108
0.662618160 0.429728031 0.425173789
0.286907136 0.511069119 0.408475935
0.327134401 0.516382098 0.409740686
0.426565647 0.524857342 0.423149973
0.563567519 0.551676035 0.457178831
0.749146044 0.612523496 0.527640522
0.564073443 0.759266198 0.594812989
0.583301723 0.760278285 0.591018260
0.643011034 0.771031022 0.608348787
0.741682231 0.787476182 0.644402623
0.846299708 0.811638176 0.686906695
0.186337993 0.041239999 0.323845237
0.195446000 0.070967868 0.329665005
0.238709569 0.138645992 0.351549536
0.362176120 0.205945998 0.383681118
0.596331298 0.266793132 0.441239774
0.188994259 0.151043415 0.350790709
0.208602414 0.166729987 0.359772235
0.255408108 0.211258560 0.370525122
0.391144812 0.254775286 0.407716721
0.624541283 0.312586814 0.461100399
0.204680577 0.284756511 0.414674401
0.243643269 0.304364264 0.413029939
0.319924384 0.338393241 0.433270276
0.459329218 0.375711709 0.456925958
0.680961490 0.422517389 0.513472378
0.296395004 0.496521235 0.487792373
0.335863531 0.513725519 0.513093114
0.431498945 0.534977853 0.523212850
0.577988386 0.558254123 0.547501266
0.757748067 0.607590258 0.600759089
0.554585755 0.761922777 0.656293511
0.576470673 0.765464902 0.659202754
0.635167360 0.770777941 0.671726644
0.730929911 0.787096858 0.692979097
0.840733767 0.819481552 0.734344900
0.284123778 0.032511026 0.564073563
0.308285594 0.065907858 0.567868412
0.377102733 0.130044430 0.586464405
0.489942729 0.216065705 0.613156259
0.692346573 0.278684646 0.646426558
0.300822496 0.151043415 0.577862084
0.327261358 0.163440824 0.582922220
0.397976011 0.201012120 0.603289008
0.512080908 0.264136732 0.624794602
0.707020640 0.325742811 0.658443809
0.345603764 0.298798233 0.616951168
0.366856277 0.304364264 0.621505141
0.443010867 0.330929786 0.633269787
0.560404778 0.382289678 0.657684922
0.733965635 0.444149375 0.688171804
0.347248286 0.469323277 0.703858614
0.380897731 0.478810966 0.701328158
0.504111052 0.504237831 0.698924482
0.627957046 0.560531437 0.710689306
0.784566939 0.614547789 0.731562078
0.571789742 0.767868400 0.766476750
0.590765417 0.766856313 0.771536648
0.634534776 0.773687184 0.779000163
0.732826948 0.798861265 0.796584606
0.858064413 0.834661603 0.822896600
