Assets/EldamarStudio/100 Retro LUTs Pack/LUTs/cube/David LUT.cube
LUT_3D_SIZE 8
DOMAIN_MIN 0.000000 0.000000 0.000000
DOMAIN_MAX 0.903226 0.903226 0.903226
0.156863004 0.003922000 0.023529001
0.165464997 0.004681000 0.036052998
0.181909993 0.021126000 0.052498195
0.212396994 0.059455995 0.071220994
0.253763199 0.109551191 0.108032994
0.323086739 0.156609997 0.146868736
0.418848544 0.202909291 0.193421990
0.569259763 0.252498806 0.243389949
0.152941003 0.054016095 0.048956547
0.161542997 0.062239543 0.056419995
0.192156896 0.079064094 0.068943992
0.211638108 0.114358090 0.096395001
0.258949727 0.143706650 0.120176829
0.323592275 0.183681354 0.159013182
0.427071542 0.225300550 0.203668296
0.567362547 0.267678648 0.249335796
0.152941003 0.151929095 0.092346996
0.161163554 0.159013197 0.105376452
0.178747907 0.168374196 0.117520094
0.219101638 0.188361645 0.128020555
0.271094292 0.209108204 0.155091986
0.350031435 0.237697721 0.192283347
0.448450357 0.273371369 0.226312369
0.602656484 0.318405837 0.275142312
0.141176000 0.249462634 0.159772292
0.157622010 0.252498716 0.169259995
0.181404337 0.263883263 0.171916634
0.230360284 0.281973273 0.191145003
0.294370383 0.298418999 0.207969546
0.382542729 0.315749377 0.237824246
0.490069568 0.342567652 0.266919553
0.636306047 0.385958463 0.311574966
0.163819999 0.358760178 0.230234176
0.179380193 0.361163974 0.232004985
0.216951191 0.362682194 0.243769795
0.275648266 0.374446183 0.255407989
0.343706369 0.391651005 0.270967990
0.434029102 0.408096373 0.291713923
0.548007548 0.433017403 0.315496266
0.679443240 0.474889010 0.359519392
0.250474483 0.477798998 0.303731740
0.272738725 0.480202258 0.307147175
0.306008995 0.482479393 0.312207639
0.357242018 0.490701824 0.320682824
0.435673922 0.502846301 0.340290934
0.516635478 0.516888022 0.360151470
0.622138023 0.540923476 0.390385717
0.735357523 0.583301544 0.437444448
0.398228854 0.613915265 0.388108552
0.415939093 0.619228125 0.403921723
0.437318355 0.618595719 0.403794974
0.487286627 0.627830625 0.418216556
0.545477629 0.632764161 0.433649540
0.616698265 0.644275784 0.454016566
0.690701962 0.660974324 0.480581850
0.780518472 0.684376657 0.525996208
0.578494430 0.756103754 0.549525619
0.587602556 0.765464902 0.543200612
0.606704473 0.767235816 0.556862831
0.640354216 0.770398438 0.567741990
0.679443598 0.777355790 0.577482581
0.734598458 0.787223399 0.603794873
0.785578966 0.798481762 0.624414921
0.837064743 0.814927399 0.658317387
0.156483456 0.008222548 0.052498095
0.157242462 0.008222548 0.052877545
0.186970547 0.030866547 0.074003540
0.212017536 0.086527549 0.104617447
0.250727177 0.130803198 0.137507543
0.321441919 0.172675535 0.173054993
0.421252280 0.211511701 0.208349288
0.569765568 0.253763646 0.255787820
0.153700009 0.057178997 0.069702990
0.174952894 0.066160545 0.083871000
0.186211437 0.087286644 0.097153991
0.211638108 0.119038187 0.119417734
0.253890008 0.153826743 0.146109819
0.327893704 0.193042547 0.182163551
0.432131261 0.230233982 0.216445252
0.581404030 0.276786834 0.264516085
0.155724466 0.151929095 0.115496635
0.160784110 0.158633649 0.112713180
0.181909993 0.171916649 0.128400087
0.217963099 0.194307193 0.154712453
0.271094292 0.213029996 0.181783885
0.341429293 0.243390545 0.204427287
0.450474292 0.277292907 0.241745830
0.593548119 0.314863771 0.283365071
0.146616101 0.253763199 0.172169194
0.160025001 0.259329200 0.184187099
0.183048546 0.266666740 0.188361645
0.226691738 0.277672559 0.204806730
0.292852491 0.296141982 0.216445535
0.376976699 0.316128731 0.247185647
0.500062823 0.345477283 0.283491284
0.641113341 0.390385807 0.326122820
0.173560739 0.356103748 0.236432374
0.176091194 0.357621819 0.243516549
0.220493540 0.359898716 0.249462634
0.274130166 0.371283978 0.263630539
0.343706369 0.388614982 0.279823184
0.436053365 0.405313045 0.302087516
0.552308917 0.433396637 0.327514082
0.685009301 0.473750681 0.372042805
0.255534530 0.474256903 0.314105004
0.261227280 0.476154268 0.315496266
0.305123389 0.481594086 0.320303261
0.356482893 0.489183813 0.328525931
0.432890475 0.498924673 0.344592094
0.516635418 0.516128957 0.367615521
0.614547729 0.541935444 0.394307524
0.730170667 0.579886258 0.438710004
0.398228854 0.611891150 0.407210559
0.411005795 0.612017989 0.405818820
0.435800374 0.617457330 0.409740806
0.483871013 0.622643650 0.421125740
0.546362996 0.634408474 0.436053276
0.614926994 0.643264055 0.456672907
0.698165953 0.668437839 0.491334736
0.781910002 0.693105221 0.535863340
0.571789742 0.763567328 0.546742141
0.587475896 0.764832139 0.555597603
0.599620581 0.767741621 0.555597603
0.633016944 0.770145178 0.569386363
0.679696620 0.773813605 0.584187269
0.732953489 0.781783462 0.603668451
0.783681095 0.795825481 0.626565158
0.835926592 0.809360981 0.657684863
0.155218095 0.004680903 0.097912900
0.161922544 0.012903450 0.098292448
0.181909993 0.038330004 0.111954190
0.212396994 0.086906999 0.138646200
0.252372116 0.134724900 0.166097283
0.319164723 0.184186995 0.208349079
0.418848544 0.224035472 0.241113365
0.570524573 0.262112737 0.286147922
0.167868093 0.052372091 0.109297544
0.165464923 0.068058088 0.111954182
0.181530535 0.094370641 0.134345546
0.210499540 0.130044088 0.157874644
0.255028635 0.165717646 0.180139184
0.325110346 0.203668281 0.214168534
0.435294092 0.242884293 0.258064538
0.583934009 0.282100022 0.295256346
0.151423007 0.151170194 0.155851096
0.152941003 0.166476652 0.163314551
0.181909993 0.172296196 0.168374196
0.212776542 0.195825100 0.185199425
0.265528172 0.223276183 0.214674279
0.348133743 0.249462441 0.240481094
0.452371538 0.279570103 0.270968020
0.600379705 0.321568727 0.317900091
0.149399459 0.258949637 0.214294642
0.157622010 0.260467827 0.208349183
0.183807537 0.269450009 0.219734550
0.228715986 0.283618003 0.231878281
0.292852372 0.298039526 0.246679261
0.378874362 0.321189076 0.272991627
0.501960456 0.350917250 0.306514710
0.643137395 0.391903818 0.348893106
0.172422290 0.360405087 0.260721177
0.187476635 0.355597466 0.267805308
0.215307102 0.365844309 0.271853209
0.273245096 0.372042984 0.283491373
0.343706369 0.386211187 0.296900988
0.430740029 0.406578183 0.316002548
0.557242274 0.435420573 0.351549357
0.687539279 0.479949266 0.397343338
0.261733085 0.476786822 0.336875468
0.271600366 0.477672458 0.334977835
0.306008995 0.479317009 0.343074113
0.360784262 0.489563257 0.352940828
0.435673922 0.500063121 0.360278279
0.518659234 0.510942698 0.381783724
0.619734347 0.537634313 0.416571647
0.727893770 0.580012619 0.463504076
0.396457851 0.609993815 0.420366526
0.412270516 0.613156259 0.424162030
0.436559260 0.615559578 0.430613339
0.487160116 0.624541163 0.445540547
0.548007548 0.631878614 0.454902053
0.620872855 0.646426201 0.479063570
0.694750071 0.664895833 0.507400453
0.787729263 0.690702140 0.550790370
0.572422385 0.761290610 0.564199805
0.583301783 0.761670053 0.561163843
0.602150440 0.763314366 0.568247616
0.635167360 0.769639134 0.580265284
0.672485709 0.776976407 0.591018498
0.728779316 0.782795668 0.610246837
0.783681154 0.794686854 0.634028792
0.842378438 0.809487760 0.663377404
0.168626994 0.005060354 0.158633634
0.170524731 0.013662353 0.156230539
0.181530640 0.053257097 0.173054993
0.210119992 0.094749995 0.195572644
0.255534172 0.142188638 0.213915184
0.319164723 0.180898085 0.239215732
0.422770560 0.226438984 0.279696286
0.572928369 0.262871832 0.322327822
0.174193710 0.067678548 0.177482635
0.166603446 0.076660194 0.173434645
0.176343992 0.102593184 0.185958534
0.204174638 0.133080184 0.206831202
0.257811397 0.167109549 0.223782539
0.328652620 0.207210541 0.247944534
0.439974666 0.245161191 0.293611348
0.588741183 0.281720638 0.337381452
0.171157807 0.139405102 0.207463294
0.165844560 0.157368988 0.212271094
0.184313998 0.182542995 0.226059437
0.210373446 0.203288838 0.224794179
0.271473855 0.227577537 0.250347733
0.348892808 0.252624720 0.277672529
0.458697170 0.286021560 0.308665276
0.606198430 0.324351370 0.348639995
0.149525359 0.255028635 0.253890008
0.152435362 0.261226922 0.260594636
0.184946090 0.270209104 0.264010102
0.235420629 0.285894990 0.276913643
0.291587591 0.305123627 0.287918806
0.386717260 0.321189106 0.310942262
0.503478527 0.353699923 0.340290934
0.644655406 0.387349814 0.384187311
0.174193636 0.363567173 0.304490626
0.191145092 0.360657722 0.303099185
0.223529637 0.366603196 0.315369725
0.275901616 0.374446183 0.321568608
0.353067577 0.392030567 0.334851623
0.442378283 0.410878927 0.358887076
0.556989074 0.437697679 0.387222886
0.687159777 0.478431374 0.425806165
0.262618750 0.477419615 0.367488980
0.280581802 0.476660639 0.368500829
0.313472718 0.482479393 0.373940647
0.363820374 0.490701824 0.384693265
0.435673922 0.501707971 0.395951927
0.516255736 0.514990747 0.415939271
0.617456973 0.541556001 0.444022745
0.735989571 0.581530809 0.488930702
0.396078199 0.616192222 0.453130841
0.416698307 0.610499918 0.453889817
0.437444448 0.615559578 0.459455818
0.486780554 0.624541163 0.468690962
0.547248662 0.634282351 0.479949355
0.620493293 0.646552801 0.501834393
0.698545516 0.666034222 0.528273523
0.784946263 0.694750249 0.574572980
0.567741692 0.764832437 0.575837970
0.577482343 0.761669934 0.579632819
0.597216606 0.763567328 0.584440112
0.626438856 0.770398438 0.597849488
0.671726823 0.774572790 0.607463598
0.723086596 0.784693360 0.627956748
0.785325885 0.794433951 0.652498245
0.845287621 0.812144399 0.682099700
0.175837800 0.016318802 0.225679994
0.174826190 0.027324386 0.224035189
0.184945986 0.061859801 0.234155372
0.205312997 0.101834185 0.248956189
0.246806189 0.148766190 0.269450188
0.328020364 0.187602535 0.295762420
0.433902562 0.229601368 0.322707266
0.582669139 0.265527993 0.373813987
0.175711900 0.080961637 0.239595369
0.185199007 0.088045537 0.251486182
0.188867986 0.110815726 0.254522204
0.209740654 0.139025733 0.261606187
0.251106739 0.173055202 0.280455381
0.335990191 0.215433091 0.304364502
0.447817653 0.246805787 0.330550075
0.594686687 0.284883112 0.373434335
0.174067184 0.163694084 0.266287297
0.177609444 0.167994753 0.269829452
0.193674803 0.187223092 0.271853179
0.213915095 0.209235013 0.285895079
0.266287297 0.232004985 0.300822169
0.349525720 0.256546646 0.318405837
0.467299461 0.286780477 0.347754270
0.617077529 0.319291621 0.388867915
0.157495201 0.235041097 0.304364443
0.168121457 0.240860537 0.310310066
0.201265097 0.266034544 0.312839806
0.235673368 0.291081458 0.321568608
0.298165381 0.305376261 0.332068354
0.390512466 0.330677092 0.359519243
0.510815978 0.356483281 0.388867736
0.650474429 0.387729257 0.425932944
0.174446180 0.354838580 0.354838580
0.193927750 0.362049192 0.354205996
0.225553274 0.370525181 0.361164212
0.286906809 0.384313822 0.372548789
0.359392345 0.399493992 0.385325581
0.452119112 0.410499662 0.401138395
0.563567221 0.437065095 0.428336442
0.691840827 0.475521803 0.471853137
0.267678648 0.478178531 0.407969475
0.278178602 0.482985526 0.417330444
0.317773461 0.486401081 0.418216377
0.365844220 0.493484974 0.425806522
0.441492647 0.502846241 0.437065393
0.526375711 0.517393887 0.456546456
0.629474998 0.544718504 0.486274242
0.736622155 0.586211205 0.523086488
0.398355544 0.614041567 0.490069360
0.408728987 0.612903118 0.488930911
0.437571198 0.617963374 0.498924673
0.480202317 0.629348576 0.505882323
0.544718742 0.635926664 0.517520547
0.623276293 0.645287812 0.534724534
0.695382655 0.665654540 0.559898674
0.783934414 0.695382416 0.602782965
0.549398780 0.761669755 0.607463598
0.566856146 0.759772420 0.607210875
0.585199118 0.764452696 0.617077768
0.618342578 0.771916449 0.620746613
0.666413784 0.773181438 0.626438618
0.724351645 0.785325706 0.648576617
0.782036781 0.795825660 0.671347022
0.845287919 0.812270582 0.695509136
0.184313998 0.031119477 0.301580995
0.186590806 0.047311544 0.305123419
0.195445731 0.076028004 0.312966734
0.218975633 0.112333730 0.322200835
0.253383934 0.157115743 0.338393271
0.334851742 0.193801731 0.360404998
0.436812282 0.233902737 0.383048266
0.594054580 0.266034245 0.422011465
0.181783795 0.090069801 0.308285743
0.184186995 0.094750278 0.314611167
0.193927646 0.115116902 0.317900091
0.217710391 0.146109641 0.329284906
0.253257722 0.184061006 0.347628087
0.339278728 0.216192082 0.369006991
0.454016358 0.251486391 0.393548548
0.612776577 0.281973362 0.436179578
0.190512002 0.170778006 0.332827210
0.196078286 0.175711542 0.338519931
0.202024087 0.190006450 0.345604002
0.231498823 0.208728746 0.349651903
0.279190630 0.238204077 0.366603374
0.362808138 0.259329468 0.383681446
0.471473932 0.293738276 0.407969475
0.628083229 0.322707087 0.452498466
0.199873477 0.242757887 0.374446452
0.209234893 0.256926090 0.374952555
0.228715986 0.270208895 0.376850188
0.262745082 0.289563537 0.387729377
0.309045196 0.315369844 0.400253057
0.400379658 0.334218740 0.417204708
0.522201240 0.354459018 0.439215690
0.664389551 0.390132785 0.483238429
0.180518538 0.334851652 0.419734627
0.198228911 0.339531809 0.414294451
0.245034888 0.345856726 0.420113921
0.306641638 0.374193639 0.433649629
0.367994994 0.397596627 0.440101355
0.459456384 0.419101983 0.456546456
0.573181272 0.439721942 0.484756470
0.704743803 0.470714629 0.527008176
0.268058211 0.468184739 0.454395980
0.283238292 0.477798998 0.470082462
0.320429921 0.483617753 0.477672458
0.364705473 0.497786015 0.485515475
0.441113114 0.511068761 0.493105531
0.530423701 0.520809412 0.507020712
0.636053264 0.544844985 0.535230756
0.743326664 0.577229500 0.569386482
0.398861825 0.619354546 0.546742558
0.401771098 0.618595600 0.542947054
0.433143735 0.623402536 0.548513591
0.479569912 0.628842354 0.555977345
0.543959737 0.640354276 0.567362189
0.620999455 0.654396057 0.584060729
0.701201797 0.669576228 0.604301035
0.798228621 0.701454639 0.648450255
0.549778461 0.761669636 0.644149363
0.569765747 0.755977333 0.649082780
0.584313810 0.762428939 0.651359618
0.611764789 0.768247724 0.658570349
0.650980473 0.777355790 0.659076810
0.715243399 0.784060478 0.678051710
0.780898273 0.798481822 0.700189650
0.844022751 0.819987595 0.720682740
0.199620277 0.053257287 0.403162539
0.213156000 0.061859705 0.408855259
0.221631885 0.083112098 0.414168268
0.254016638 0.119417928 0.423908919
0.301201552 0.160657704 0.438583255
0.370145470 0.201011732 0.457685024
0.478937536 0.235927001 0.483871281
0.609360993 0.270714819 0.510562956
0.210499734 0.102213830 0.414548010
0.212144285 0.112080991 0.419481546
0.231372535 0.123339824 0.427450985
0.260341614 0.154332891 0.431372553
0.305502802 0.189120740 0.445034891
0.379886121 0.226691738 0.465275168
0.501454830 0.255028725 0.493105352
0.625173926 0.290575653 0.514990330
0.219228089 0.172928378 0.430487067
0.228463173 0.180139288 0.436306119
0.247438371 0.191018194 0.439848453
0.281720489 0.211132452 0.445793897
0.330170572 0.240607083 0.464263290
0.398102373 0.269449979 0.484250635
0.513219655 0.296900809 0.506388545
0.635926545 0.327008098 0.528526068
0.249589264 0.262239069 0.467678905
0.254396170 0.259962201 0.465781182
0.275648266 0.274636626 0.470208824
0.311827630 0.287539274 0.478937566
0.364958704 0.312207431 0.495635480
0.439721525 0.337254912 0.512840271
0.555218160 0.364326298 0.531562269
0.677292883 0.392789602 0.554459095
0.264263272 0.333839476 0.509804249
0.279570013 0.334724933 0.515243411
0.312207282 0.354079485 0.513345718
0.359771907 0.374572992 0.523466170
0.413409382 0.393295288 0.527008474
0.488425404 0.419734478 0.548134208
0.594054461 0.440860391 0.565338433
0.710183263 0.476154476 0.589500248
0.270588458 0.455407739 0.563440502
0.286780536 0.464769125 0.561796188
0.322074831 0.458064556 0.564832032
0.374067277 0.465148568 0.568247974
0.474256754 0.492219925 0.574699461
0.545603991 0.522707164 0.584819734
0.646679580 0.547501266 0.604174733
0.751423061 0.578368008 0.628842354
0.406072259 0.622390866 0.624667525
0.417583793 0.612650156 0.618216276
0.439848274 0.621758223 0.617710352
0.486148000 0.630739927 0.627324581
0.547248483 0.647691250 0.640733838
0.622138023 0.660215259 0.655913830
0.711954236 0.677292824 0.667172551
0.798987567 0.700063527 0.696014822
0.557242274 0.756736040 0.701202035
0.568247616 0.762555480 0.697785974
0.585198939 0.766476750 0.700442851
0.614041805 0.771789730 0.706135392
0.654648840 0.780265391 0.716635227
0.710942328 0.790259302 0.721188903
0.775711060 0.805059612 0.740796626
0.848956585 0.820493162 0.767994881
0.284123778 0.032511026 0.564073563
0.293611467 0.045414478 0.565338433
0.315117031 0.071979858 0.569386423
0.352561414 0.106514670 0.581277788
0.405313134 0.149399161 0.591777205
0.473497748 0.199367642 0.609108329
0.562175870 0.247058824 0.627450585
0.692346573 0.278684646 0.646426558
0.300063074 0.091082007 0.574320018
0.292473316 0.101581268 0.566476882
0.323339581 0.116761088 0.577482402
0.363820136 0.144971281 0.584819615
0.418595850 0.174825996 0.604680777
0.485262334 0.218216255 0.612144232
0.573307931 0.263883382 0.628842473
0.707653105 0.297153831 0.663756967
0.307906598 0.170524850 0.586717248
0.321821451 0.173940197 0.590512395
0.338899374 0.186970264 0.590006471
0.377608865 0.204174459 0.596963584
0.431246042 0.229221925 0.608222663
0.499683589 0.266919851 0.624794364
0.585325480 0.310689449 0.642251730
0.715369642 0.339911073 0.662238777
0.332194567 0.251359969 0.606324971
0.339658648 0.256293505 0.607590139
0.362175703 0.264895916 0.613788664
0.404807240 0.283744484 0.618595719
0.461226940 0.306514978 0.634914577
0.528273225 0.336116284 0.641872525
0.614421427 0.374826103 0.663504004
0.731435776 0.407210469 0.681467175
0.355218142 0.337381363 0.639595270
0.369639456 0.342820823 0.637697577
0.388867706 0.353320390 0.641366065
0.427324414 0.366223752 0.645287931
0.487918794 0.383807391 0.656040370
0.562175691 0.417077601 0.668184757
0.635800183 0.454269260 0.682985187
0.754332423 0.487413019 0.704617321
0.350284517 0.435420543 0.689690351
0.368880272 0.438456565 0.684123755
0.410246640 0.444402218 0.683870971
0.462112576 0.462491989 0.685262442
0.530296981 0.490828454 0.689057648
0.593801379 0.518785715 0.698292434
0.672485590 0.558127522 0.713598907
0.777482450 0.583934307 0.722453892
0.434029222 0.611891150 0.728526294
0.444275528 0.608855307 0.728020489
0.460720897 0.609867156 0.728146911
0.503099322 0.615812778 0.732068479
0.559139669 0.619354606 0.736748874
0.655534208 0.646932185 0.746362865
0.724478304 0.680202365 0.750284314
0.813788831 0.706894040 0.764706075
0.571789742 0.767868400 0.766476750
0.577482283 0.770018876 0.775837839
0.593548298 0.768627286 0.771283627
0.617330968 0.777229190 0.775711417
0.662745178 0.781530797 0.783807755
0.715875864 0.793801427 0.792030334
0.775838017 0.814547896 0.808475375
0.858064413 0.834661603 0.822896600
