Assets/EldamarStudio/100 Retro LUTs Pack/LUTs/cube/David LUT.cube
DOMAIN_MIN 0 0 0
DOMAIN_MAX 1 1 1
LUT_3D_SIZE 32
0.156863004 0.003922000 0.023529001
0.156863004 0.003922000 0.023529001
0.159013227 0.001771226 0.023529001
0.162049174 0.001265161 0.027324161
0.165464997 0.004681000 0.036052998
0.171536997 0.010753000 0.042124998
0.177608997 0.016825000 0.048197001
0.180391997 0.019608000 0.050980002
0.181909993 0.021126000 0.052498195
0.187981993 0.027198007 0.058570970
0.194054008 0.039088998 0.061733127
0.202150255 0.049209252 0.064769253
0.212396994 0.059455995 0.071220994
0.224541053 0.071600065 0.082859002
0.236685827 0.083744824 0.088930994
0.241619200 0.095888987 0.097406797
0.253763199 0.109551191 0.108032994
0.273750573 0.123466410 0.120176986
0.288931012 0.132574052 0.132321015
0.304111362 0.144465715 0.138898998
0.323086739 0.156609997 0.146868736
0.346363127 0.168753996 0.155977130
0.373307973 0.180897981 0.165338501
0.391523987 0.193042010 0.180518910
0.418848544 0.202909291 0.193421990
0.450600624 0.213408977 0.205565974
0.485009164 0.225553125 0.217204064
0.524478257 0.237697884 0.226312444
0.569259763 0.252498806 0.243389949
0.613029301 0.265907943 0.261606395
0.655534148 0.278051972 0.277166605
0.698038995 0.290196002 0.286274999
0.162935004 0.000885613 0.035673775
0.153826609 0.000885613 0.029601775
0.160278380 0.007337387 0.025300227
0.162555233 0.006578387 0.027324161
0.162808165 0.004301451 0.036432546
0.171536997 0.007716613 0.045161385
0.175079316 0.013788613 0.046173386
0.180645376 0.021505319 0.052878089
0.183428392 0.028715998 0.057052772
0.184946388 0.039342009 0.058570970
0.196837381 0.051233739 0.064642996
0.205186650 0.061353508 0.071853124
0.214294747 0.070461646 0.079190262
0.224035054 0.080708385 0.088678032
0.230613828 0.092852443 0.091967382
0.240354195 0.102593414 0.100442573
0.252245396 0.115623191 0.111068994
0.271347374 0.129538402 0.123213373
0.288931012 0.138646051 0.135357410
0.304111362 0.153320372 0.144718751
0.324983984 0.161922604 0.151043773
0.347374737 0.170777738 0.160025388
0.370524615 0.181024492 0.171283975
0.394560397 0.196078405 0.183554530
0.424161643 0.208222389 0.198734894
0.455281287 0.218089655 0.210246667
0.487539530 0.228083462 0.219734386
0.524478257 0.237697884 0.226312444
0.569259763 0.252498806 0.248703614
0.614800572 0.265907943 0.257052779
0.657684982 0.278051972 0.268564582
0.698038995 0.290196002 0.286274999
0.162555233 0.010752774 0.037065227
0.159898609 0.008601999 0.041745998
0.157242000 0.015053771 0.027071454
0.163820401 0.020366998 0.029854160
0.162555233 0.017583998 0.039974548
0.164579153 0.022390837 0.045540933
0.175079316 0.025806546 0.051360000
0.179759994 0.031878546 0.054648995
0.186590895 0.041239772 0.061733324
0.190765232 0.053383779 0.063125007
0.193801224 0.061226964 0.068944000
0.203921482 0.071347483 0.077040255
0.213029876 0.081593774 0.083870903
0.222137809 0.091714032 0.090955034
0.230107829 0.101960763 0.097786419
0.245034963 0.111701578 0.105629191
0.254142970 0.120809577 0.114737190
0.269829571 0.134092361 0.124984220
0.286527783 0.144718587 0.134092242
0.306261599 0.152941152 0.145604357
0.323339701 0.168121517 0.154712260
0.345097750 0.176976532 0.161037222
0.365590990 0.187349752 0.171030715
0.393927813 0.200505897 0.185199007
0.420746297 0.211258769 0.195319280
0.455534309 0.223402753 0.209107980
0.487919062 0.233270064 0.219481349
0.522707045 0.242378443 0.228842765
0.564958751 0.254649043 0.242251843
0.617583513 0.269829422 0.264769405
0.661986172 0.283238590 0.270082593
0.700189769 0.296647787 0.286274999
0.158254012 0.029727999 0.039089162
0.159519166 0.024161935 0.041872390
0.162049174 0.029727772 0.045540933
0.160784006 0.037571318 0.033649322
0.163820386 0.037950769 0.048070706
0.162555233 0.043137155 0.052878093
0.174699470 0.047944319 0.057178997
0.182289988 0.051360156 0.059456155
0.187602893 0.058191255 0.065528154
0.195698515 0.069829322 0.069070488
0.197343171 0.074889153 0.073750839
0.202150255 0.085515410 0.083112255
0.211258650 0.094623804 0.091081999
0.220619991 0.105882294 0.094497159
0.230740249 0.112966403 0.102593414
0.244528815 0.122074790 0.109171189
0.260721028 0.131183118 0.119544350
0.271726996 0.140923291 0.129285142
0.287540019 0.153067961 0.136622176
0.305755645 0.160911173 0.145730555
0.323845297 0.170145571 0.155977428
0.344086081 0.184314087 0.166097164
0.363314152 0.196458146 0.172928140
0.393674970 0.208602175 0.186969891
0.423023283 0.217204273 0.197596282
0.453257471 0.226439148 0.206831142
0.489184231 0.238077104 0.218975157
0.522580564 0.247185290 0.231119722
0.563946724 0.261480123 0.244528964
0.611511528 0.274130195 0.260720998
0.666540146 0.289310604 0.281088024
0.704490960 0.304491013 0.291334987
0.152941003 0.054016095 0.048956547
0.156356856 0.045667388 0.042884547
0.160784453 0.049082868 0.050348222
0.164199829 0.056546319 0.058317836
0.161542997 0.062239543 0.056419995
0.164579391 0.065275155 0.065528385
0.178747550 0.070841096 0.069576226
0.189120710 0.075268708 0.070082158
0.192156896 0.079064094 0.068943992
0.195192516 0.088172480 0.075015999
0.198987871 0.092220224 0.078937225
0.204048008 0.102213793 0.087286510
0.211638108 0.114358090 0.096395001
0.220999509 0.123213448 0.102719970
0.233143538 0.126375571 0.108918443
0.246046543 0.134598345 0.112966284
0.258949727 0.143706650 0.120176829
0.274383157 0.153067976 0.132321522
0.292599946 0.165212020 0.144465566
0.307653219 0.174573362 0.151423007
0.323592275 0.183681354 0.159013182
0.341808677 0.193801254 0.169133544
0.366476953 0.205692992 0.181151018
0.397090822 0.217331007 0.193042010
0.427071542 0.225300550 0.203668296
0.458823413 0.233143657 0.211638123
0.492979497 0.242631480 0.222390994
0.526375830 0.251739085 0.234534994
0.567362547 0.267678648 0.249335796
0.613029778 0.282732487 0.266287029
0.661227167 0.296141595 0.284882635
0.709803998 0.311322004 0.303099453
0.152941003 0.078304872 0.064136930
0.159013003 0.075268485 0.058064930
0.160278067 0.077672541 0.058444157
0.163820058 0.082985640 0.062239062
0.167614996 0.086527541 0.062491994
0.167614996 0.089563929 0.068563998
0.173181698 0.095129870 0.072612382
0.181277931 0.099557154 0.075648226
0.186084896 0.102593087 0.077672161
0.189120516 0.106388479 0.081088006
0.197975874 0.115496859 0.090069868
0.204048008 0.121568859 0.096141867
0.212396994 0.128020287 0.100949004
0.224035114 0.132321060 0.102719970
0.236179888 0.138393044 0.111827567
0.253130913 0.148766607 0.118026666
0.265781105 0.158886731 0.125110671
0.277166486 0.167994633 0.135357201
0.292599946 0.177356020 0.147501960
0.305249989 0.186717361 0.156862602
0.323592663 0.195825726 0.163566992
0.344844937 0.205945864 0.172169313
0.369512588 0.217836991 0.184187412
0.402909815 0.223909006 0.193295047
0.431246281 0.233270288 0.207463279
0.461859554 0.243263915 0.214673996
0.496268123 0.254902005 0.219734117
0.535483479 0.266919464 0.240606993
0.574193478 0.276027769 0.255407810
0.617710054 0.290196180 0.272359401
0.663756847 0.305755913 0.291461229
0.709803998 0.323466003 0.312207073
0.152941003 0.102592997 0.071727000
0.153953001 0.102086931 0.070714995
0.157874778 0.103352092 0.071094222
0.159519166 0.107780159 0.074130163
0.163567007 0.110436641 0.075395323
0.163567007 0.111322254 0.077166319
0.173687637 0.114357993 0.083238319
0.179759994 0.120429993 0.087918997
0.186590910 0.125110313 0.091081321
0.193168536 0.129917473 0.092346489
0.204554200 0.133712858 0.103731550
0.209614053 0.138773248 0.104743935
0.217457280 0.145477667 0.110436641
0.229348600 0.151802361 0.115370288
0.239215508 0.160151631 0.124477886
0.248956487 0.168627441 0.128779113
0.268311203 0.179127127 0.137760982
0.282099992 0.187602475 0.146615908
0.295382679 0.194813624 0.153067961
0.315369993 0.203921348 0.164958969
0.335104465 0.211131990 0.174067050
0.358001292 0.218595937 0.182795629
0.382289320 0.227704301 0.194813505
0.408475727 0.238583326 0.203921750
0.435040981 0.249209315 0.213029340
0.467678636 0.257178992 0.226312324
0.504364371 0.266540080 0.232890636
0.543832719 0.276660323 0.248070747
0.583301723 0.291208148 0.266539812
0.624541640 0.300316066 0.281720161
0.671094179 0.313978255 0.300063252
0.719923973 0.330549985 0.321315318
0.152941003 0.126881406 0.079443701
0.156230003 0.130170405 0.086021699
0.153447062 0.127387479 0.084882930
0.157748282 0.131688699 0.087918863
0.161163554 0.134724990 0.089057706
0.162428722 0.134724990 0.083997712
0.172548920 0.142188370 0.095635697
0.176470995 0.140290692 0.100062989
0.184061006 0.146362692 0.104616992
0.194054246 0.152434692 0.104617000
0.206072032 0.157242268 0.114610702
0.213788733 0.160278246 0.116634965
0.219101638 0.165591627 0.118153058
0.230740279 0.174193367 0.127008289
0.241239578 0.180518404 0.134724572
0.253636777 0.186337799 0.140670508
0.265781194 0.195446193 0.145224690
0.286780566 0.204553828 0.157115698
0.301960737 0.211638227 0.163187966
0.320809364 0.217204347 0.172928706
0.343959481 0.226059407 0.183175012
0.367236137 0.233143270 0.191271544
0.390765190 0.239974782 0.202024192
0.413535804 0.250600994 0.211132199
0.442757696 0.261100709 0.220240414
0.475395024 0.273244679 0.232131362
0.514611125 0.280834705 0.244023055
0.552941144 0.291081429 0.255028695
0.594054401 0.302213818 0.270840973
0.632005334 0.315496445 0.290575176
0.677166522 0.326375276 0.305755585
0.728778958 0.341555685 0.325489998
0.152941003 0.151929095 0.092346996
0.159013003 0.155724198 0.099937007
0.157242104 0.153953105 0.102846228
0.154712096 0.153700188 0.101581067
0.161163554 0.159013197 0.105376452
0.164958850 0.159013197 0.095888995
0.174067095 0.166856095 0.102213904
0.178747714 0.171410203 0.113725387
0.178747907 0.168374196 0.117520094
0.190891922 0.174446195 0.117520101
0.203036100 0.180518731 0.126248956
0.212650090 0.185325831 0.128020257
0.219101638 0.188361645 0.128020555
0.228716031 0.197217003 0.137128159
0.241366088 0.200758681 0.143706083
0.255913883 0.204554006 0.149019614
0.271094292 0.209108204 0.155091986
0.287539512 0.217583999 0.162428975
0.308791906 0.226565138 0.174573004
0.328779101 0.231625453 0.183934346
0.350031435 0.237697721 0.192283347
0.373308152 0.246806055 0.201897159
0.394939989 0.255787164 0.208096400
0.418089986 0.264262974 0.217204183
0.448450357 0.273371369 0.226312369
0.483744293 0.283111960 0.235926643
0.525237143 0.295256108 0.252119064
0.561669886 0.307400197 0.262239426
0.602656484 0.318405837 0.275142312
0.642378330 0.327767164 0.293105274
0.684756696 0.341555655 0.310309589
0.736369193 0.356736094 0.325489998
0.152941003 0.179253489 0.116635010
0.159013003 0.176217884 0.110563010
0.158633783 0.173561200 0.111701235
0.156736493 0.175458655 0.113219008
0.158127934 0.183301985 0.114484072
0.167235538 0.183301985 0.123592451
0.173561156 0.185831666 0.116634682
0.176597476 0.189247221 0.118532233
0.178747892 0.192662984 0.126628488
0.187855527 0.198734999 0.132700488
0.200000256 0.204806983 0.141429350
0.212144464 0.210879013 0.144465506
0.221758485 0.214547485 0.145477653
0.228716031 0.215433002 0.149272949
0.243896410 0.221505001 0.158380553
0.258950263 0.227451101 0.162555307
0.274130672 0.231878787 0.167236015
0.290575892 0.235799998 0.174572989
0.311827540 0.241872028 0.186717018
0.335863233 0.250853866 0.196078360
0.358001232 0.257811487 0.203289002
0.379380137 0.265022129 0.211511478
0.401012003 0.274003953 0.223276019
0.431372821 0.280075967 0.232384428
0.463630736 0.288551748 0.241492778
0.497027099 0.297659785 0.249209478
0.531309068 0.307400107 0.258191049
0.567741811 0.319544882 0.279443443
0.606830716 0.334345102 0.289563805
0.646426082 0.343959421 0.304237902
0.691081703 0.353826940 0.319038510
0.748513937 0.371916473 0.325489998
0.150031880 0.200758874 0.123466000
0.156103879 0.200632378 0.131941855
0.157874882 0.199746996 0.125869870
0.156863004 0.201264858 0.126628578
0.157622010 0.207969546 0.127893418
0.164199933 0.210499868 0.126881808
0.168247536 0.210499868 0.141050190
0.173940673 0.213156015 0.138266906
0.179506987 0.216192096 0.141555861
0.190765381 0.220113859 0.147627875
0.194054008 0.223276734 0.150790751
0.206198782 0.231372476 0.155850619
0.219481632 0.236052871 0.159013003
0.231878862 0.236558869 0.163820162
0.249715418 0.242630854 0.167615443
0.262492001 0.248703465 0.176723674
0.278684497 0.253257662 0.180771679
0.297786534 0.256293446 0.186717138
0.323592812 0.260088742 0.198861763
0.342061758 0.268943399 0.205439761
0.366097480 0.274256736 0.210626125
0.389373839 0.279316872 0.217710257
0.412649989 0.286527514 0.229601726
0.437444836 0.295382857 0.235926777
0.467805564 0.306008875 0.247311860
0.501960814 0.314357996 0.258443981
0.536875188 0.322959930 0.268058062
0.570904672 0.337507874 0.279696435
0.615306616 0.344338983 0.292978972
0.655281425 0.360531271 0.309424281
0.695635796 0.372928858 0.326122612
0.743200243 0.387096852 0.334218860
0.144971490 0.224035501 0.139658242
0.151044011 0.222011253 0.138646394
0.150790751 0.226059243 0.147122249
0.154585913 0.224794403 0.146110237
0.157242462 0.228589505 0.149525508
0.161669746 0.233270183 0.148134187
0.165211946 0.235799968 0.152182043
0.171536967 0.235799968 0.157495439
0.178747892 0.239215434 0.156736255
0.189626753 0.243516982 0.162808239
0.199114636 0.246552855 0.167994857
0.210246250 0.251612991 0.171031252
0.223529384 0.258443892 0.175205514
0.238709763 0.259835511 0.181024462
0.255154967 0.265907496 0.184060410
0.268563986 0.269955873 0.187855795
0.283744395 0.276028246 0.196964189
0.302593559 0.279569894 0.201011926
0.327134997 0.282605946 0.208981678
0.352182269 0.289183915 0.219608247
0.372295976 0.294496983 0.223782510
0.395446122 0.297533125 0.226818383
0.419101745 0.302719474 0.235800475
0.449082792 0.311827898 0.243769735
0.477925539 0.323212981 0.256419986
0.508285940 0.333965659 0.264389694
0.544465125 0.341176331 0.275142342
0.582415998 0.353320688 0.287286699
0.622391045 0.366603494 0.299051225
0.666160583 0.376217455 0.312966436
0.705882549 0.392156959 0.331941843
0.747248292 0.404300988 0.343327254
0.141176000 0.249462634 0.159772292
0.146110132 0.248703241 0.157115638
0.149146229 0.249841630 0.159519404
0.148893163 0.255534440 0.163946986
0.157622010 0.252498716 0.169259995
0.161416709 0.256293654 0.169259995
0.165591329 0.258696944 0.171789959
0.173055053 0.262365282 0.172675341
0.181404337 0.263883263 0.171916634
0.190132529 0.269955963 0.177988634
0.202150747 0.271979749 0.186337650
0.215180382 0.277039647 0.189247251
0.230360284 0.281973273 0.191145003
0.246046677 0.285009593 0.197217003
0.262998044 0.290195972 0.201138213
0.278051615 0.295003444 0.204174444
0.294370383 0.298418999 0.207969546
0.312587142 0.303225994 0.215180352
0.333333641 0.305755675 0.217710048
0.357875019 0.312713265 0.229095712
0.382542729 0.315749377 0.237824246
0.405819118 0.319797635 0.241872251
0.427577466 0.323212773 0.245414615
0.458949924 0.332321167 0.255534381
0.490069568 0.342567652 0.266919553
0.523845553 0.353320271 0.277672321
0.555217743 0.362428695 0.282732576
0.596457481 0.371537060 0.297912776
0.636306047 0.385958463 0.311574966
0.675268650 0.399367601 0.325490177
0.716888130 0.412397236 0.338899612
0.756356657 0.424794286 0.353574008
0.141429037 0.277293026 0.177229956
0.144718394 0.279822618 0.180518612
0.149652034 0.280455053 0.183301732
0.154965132 0.282479346 0.184819862
0.158128008 0.287919462 0.182416067
0.164200008 0.284883082 0.182416067
0.170019031 0.284124047 0.184187353
0.179632992 0.287919015 0.186591029
0.190512031 0.292979032 0.187603027
0.196584046 0.299051017 0.193675041
0.208475709 0.299810022 0.204554036
0.220620036 0.303605080 0.209108040
0.234155640 0.308538646 0.209361061
0.249589071 0.311827987 0.209867075
0.270841420 0.314863592 0.215939060
0.289942980 0.320303649 0.219607800
0.309677184 0.324857831 0.222643867
0.330297142 0.327767015 0.225300029
0.348513961 0.327767015 0.225300044
0.369260371 0.335357368 0.235420674
0.392662972 0.339278996 0.245667279
0.417963177 0.341556013 0.254016250
0.445287526 0.347627997 0.260088980
0.472611964 0.356609881 0.271980017
0.502719581 0.365464747 0.281847298
0.537001669 0.374572694 0.290322930
0.575964153 0.383934051 0.297659963
0.612396896 0.393042415 0.312839597
0.650980353 0.406957835 0.327766836
0.688424885 0.420619994 0.342947215
0.725995779 0.433902591 0.357115626
0.765465021 0.449083000 0.366224021
0.144465417 0.310689390 0.186337575
0.150537416 0.307652980 0.192409575
0.153826773 0.305882156 0.193547994
0.160025254 0.304743797 0.197975740
0.167109117 0.306388408 0.203794956
0.170271993 0.309171051 0.206704825
0.173814312 0.306135297 0.201644808
0.184060693 0.311954379 0.207337394
0.197090089 0.318279386 0.213915378
0.205692425 0.314231426 0.214927390
0.217583403 0.320303410 0.215180397
0.229728088 0.323086649 0.221758395
0.244149402 0.326755196 0.225427046
0.261733055 0.330043972 0.228083819
0.279949784 0.336115956 0.234155819
0.301201582 0.341556013 0.237824023
0.321821183 0.346110195 0.240860164
0.342441142 0.349778384 0.243896246
0.360657960 0.355091393 0.246552393
0.378874004 0.355091393 0.246552393
0.403415293 0.360783964 0.254775286
0.430107385 0.366603106 0.263883531
0.457432300 0.374952376 0.272232980
0.484756738 0.381024390 0.278304994
0.518911779 0.387728989 0.287919253
0.554079294 0.395825028 0.299810290
0.591144502 0.405439377 0.312586695
0.627577245 0.417330414 0.324984372
0.661353111 0.426438808 0.337507784
0.696015120 0.440354139 0.352055579
0.732701004 0.455787361 0.368121386
0.774573445 0.473370969 0.384439975
0.154711992 0.334471792 0.207463592
0.155976996 0.333839178 0.203921601
0.162048995 0.332953572 0.212143824
0.165338352 0.332700938 0.214167953
0.172169358 0.333460033 0.219101787
0.179253742 0.332447648 0.216065943
0.182289511 0.335230917 0.223529786
0.191903889 0.333839595 0.224035785
0.206324801 0.340670526 0.231625795
0.217077494 0.339531779 0.231625795
0.231498793 0.342694581 0.231625795
0.245667040 0.346742302 0.235673800
0.257052630 0.349778652 0.240607142
0.271473795 0.353067607 0.243643209
0.289690018 0.359139562 0.247564986
0.310309976 0.362808406 0.251233786
0.330044180 0.368880779 0.254269391
0.350411177 0.372801989 0.258570552
0.370398760 0.377102792 0.265148640
0.393421799 0.380012572 0.267804772
0.417330503 0.383807570 0.273497522
0.443643034 0.389879584 0.281593770
0.469829470 0.397343278 0.288930982
0.501707911 0.401138604 0.290448964
0.535863519 0.411764622 0.303352296
0.570904195 0.418089598 0.312713623
0.605818868 0.426691771 0.325363606
0.640353858 0.438835770 0.337507904
0.669323385 0.453130603 0.344844967
0.702719748 0.465780944 0.362302125
0.738773167 0.479190379 0.379633188
0.781278014 0.492852598 0.397849590
0.163819999 0.358760178 0.230234176
0.166856378 0.357242376 0.227198184
0.169639200 0.358760178 0.231878787
0.174446359 0.358760178 0.229601234
0.179380193 0.361163974 0.232004985
0.191903919 0.359266251 0.232763976
0.194433868 0.362808317 0.233270317
0.202529684 0.362682194 0.239215791
0.216951191 0.362682194 0.243769795
0.229095399 0.364958912 0.243769795
0.242631063 0.367994875 0.246806189
0.259329230 0.372548908 0.249335974
0.275648266 0.374446183 0.255407989
0.286401212 0.376849979 0.258570194
0.303352356 0.380391985 0.260341406
0.322453946 0.385578990 0.266413808
0.343706369 0.391651005 0.270967990
0.362555534 0.397090584 0.274003774
0.383807987 0.400126427 0.281341136
0.406325221 0.403162360 0.286401033
0.434029102 0.408096373 0.291713923
0.461353511 0.413156271 0.299810171
0.486274660 0.418848693 0.305882186
0.516888142 0.424668103 0.308665186
0.548007548 0.433017403 0.315496266
0.580265641 0.440986723 0.329285324
0.614927113 0.447944194 0.339532137
0.651359618 0.460088164 0.352687985
0.679443240 0.474889010 0.359519392
0.713346303 0.490069360 0.372928351
0.745857179 0.505249798 0.394180775
0.785831809 0.515623152 0.413029999
0.173054546 0.385452121 0.248956576
0.178494751 0.383048922 0.250853986
0.183048770 0.383681357 0.255408198
0.186084718 0.386084527 0.256293803
0.190259546 0.385705084 0.240733594
0.207969561 0.385452121 0.252118558
0.212270558 0.389879555 0.252245307
0.217583552 0.391650707 0.252498418
0.230992749 0.390638947 0.255407542
0.243137538 0.390638947 0.255407542
0.255281568 0.392915666 0.260594696
0.270841122 0.396710545 0.265275270
0.289057255 0.401770711 0.268817157
0.306767970 0.402023673 0.274889171
0.321568817 0.402403116 0.275648147
0.340417534 0.406578153 0.280328780
0.358254164 0.412903368 0.287286580
0.380771518 0.420746148 0.292726010
0.402023971 0.423782527 0.295762390
0.425173938 0.426818192 0.301581383
0.450854033 0.432384431 0.307653576
0.479570091 0.438077420 0.313092977
0.507020950 0.441239536 0.319164991
0.534851432 0.449841857 0.325236976
0.562175810 0.458950251 0.331941545
0.590765178 0.466540456 0.343326867
0.618595660 0.470588058 0.354965478
0.660594404 0.482605517 0.369892120
0.689816356 0.498038948 0.379000634
0.723592520 0.513219297 0.392157078
0.760405123 0.527767122 0.410626143
0.790765166 0.542947531 0.431878567
0.194307014 0.409741014 0.258064985
0.197343409 0.409740984 0.267172635
0.202783048 0.409488022 0.269070029
0.207337171 0.411005855 0.268564224
0.211512014 0.413029581 0.265022427
0.223655999 0.409993947 0.268058032
0.231245995 0.412270665 0.269322991
0.236811996 0.413915008 0.270714730
0.246426195 0.415180057 0.273750871
0.264389992 0.420999020 0.276659995
0.276534021 0.420999020 0.279569864
0.290702254 0.421252012 0.284883022
0.307273954 0.424035311 0.289563626
0.324984014 0.429348886 0.293105960
0.337128013 0.432384491 0.299177945
0.359139651 0.435167760 0.297533154
0.376850009 0.438456774 0.298545212
0.392915606 0.441998571 0.301834404
0.420240015 0.445034981 0.304870039
0.449841768 0.448070645 0.310689062
0.475648463 0.454901755 0.316761523
0.500442982 0.462745041 0.321821868
0.525237024 0.468563974 0.325237006
0.555597842 0.474635959 0.331308991
0.583428264 0.483238310 0.339658290
0.613535583 0.492346704 0.355471313
0.645920098 0.500948906 0.376217932
0.676280856 0.510056555 0.385325551
0.704996765 0.527387679 0.400252819
0.737634301 0.543580174 0.416445434
0.772549152 0.557874978 0.434661955
0.802909911 0.570272028 0.453130990
0.223908737 0.445161760 0.286653996
0.226945132 0.442378372 0.287412971
0.229980960 0.444529146 0.287919134
0.236685544 0.446426600 0.288551569
0.242757931 0.448703319 0.288931012
0.247691721 0.445667684 0.289563447
0.257305413 0.445161760 0.292599708
0.266919792 0.447944373 0.292852730
0.276787072 0.449841857 0.295509398
0.290955335 0.453890085 0.300569236
0.306135744 0.454143077 0.292472869
0.316255450 0.456166804 0.297533035
0.332194656 0.456925750 0.302466631
0.351802379 0.459709018 0.305502951
0.366476715 0.465274930 0.309044659
0.388235331 0.468311191 0.317520440
0.411005914 0.471347570 0.319038570
0.428210050 0.473751068 0.322707385
0.449082732 0.474636704 0.327893764
0.468058467 0.480455726 0.330929399
0.494623721 0.485389084 0.338899136
0.520936310 0.492599726 0.345857024
0.548893273 0.498798251 0.350916862
0.576597214 0.507527113 0.359645724
0.604680657 0.511321783 0.365717709
0.633396685 0.520809352 0.374320000
0.664389729 0.531309128 0.389627010
0.692473233 0.540417314 0.401011914
0.720177174 0.554838538 0.412776351
0.749272764 0.569386303 0.429601431
0.782795906 0.584440231 0.452245593
0.815053999 0.600379765 0.479949355
0.250474483 0.477798998 0.303731740
0.253510386 0.474763066 0.307526737
0.262239426 0.474130481 0.312966496
0.265275061 0.477166563 0.307400584
0.272738725 0.480202258 0.307147175
0.277292907 0.480202645 0.305628985
0.287286401 0.481593996 0.313852072
0.293105423 0.479949683 0.311954737
0.306008995 0.482479393 0.312207639
0.320429981 0.485515475 0.317140996
0.333586574 0.487539738 0.318152845
0.344718456 0.487666190 0.313472480
0.357242018 0.490701824 0.320682824
0.377229482 0.491713732 0.325490057
0.392409861 0.496141493 0.330170780
0.412903309 0.499810278 0.334218532
0.435673922 0.502846301 0.340290934
0.455661297 0.505882561 0.343959719
0.472612500 0.507147729 0.350031763
0.494623721 0.514610946 0.353320390
0.516635478 0.516888022 0.360151470
0.540923476 0.521948159 0.367235869
0.569133461 0.527008295 0.372295946
0.592915893 0.532574654 0.377861887
0.622138023 0.540923476 0.390385717
