Assets/EldamarStudio/100 Retro LUTs Pack/LUTs/cube/Debbie LUT.cube
LUT_3D_SIZE 5
DOMAIN_MIN 0.000000 0.000000 0.000000
DOMAIN_MAX 0.903226 0.903226 0.903226
0.117647000 0.078431003 0.074510001
0.129411995 0.090195999 0.084630288
0.167361990 0.124224991 0.116381995
0.244276121 0.191271126 0.166730002
0.362428635 0.298418760 0.251233637
0.162808403 0.124224991 0.109550700
0.179126993 0.135989979 0.123592407
0.222643688 0.167742118 0.147754416
0.287159979 0.226944819 0.197216690
0.409867316 0.337634355 0.285262644
0.298924387 0.233523399 0.207337409
0.305123121 0.239721686 0.206957698
0.349905223 0.286527783 0.238709405
0.411764950 0.348007798 0.289437115
0.542315185 0.472359598 0.382036775
0.511322141 0.450474381 0.357242227
0.510309815 0.441998541 0.361543387
0.558380783 0.487792522 0.399493963
0.635800242 0.557368517 0.459329247
0.738772750 0.660341799 0.562302053
0.808348954 0.748386562 0.648956597
0.815686584 0.740543544 0.648450375
0.840481043 0.759393036 0.673245013
0.870461762 0.802529573 0.721062541
0.908918619 0.843643665 0.781277359
0.119291708 0.080075711 0.072232708
0.132700995 0.093484998 0.085641995
0.186970413 0.137001693 0.124857575
0.266792983 0.207969993 0.180518985
0.389500350 0.318911910 0.271094263
0.174572989 0.131435990 0.120303407
0.191271707 0.143200412 0.129158691
0.237697691 0.183428109 0.161543399
0.311321825 0.244655401 0.213282824
0.430107474 0.363693804 0.304237634
0.312334090 0.246932104 0.216192096
0.321821809 0.256419837 0.222390816
0.361037374 0.296015084 0.253131211
0.430107534 0.364073128 0.301960528
0.565591514 0.492978871 0.405945480
0.544338822 0.463883370 0.385452092
0.541049778 0.466540277 0.380138814
0.578368008 0.505755603 0.411638260
0.645287514 0.571410358 0.476281226
0.749778509 0.668058395 0.571663499
0.828589618 0.752561331 0.666287124
0.824035585 0.746362567 0.656799436
0.845920324 0.772801876 0.687286317
0.881467402 0.809740603 0.733333111
0.907906234 0.847564578 0.780771613
0.128779411 0.089563578 0.082353003
0.143832996 0.104617409 0.096774414
0.200126827 0.147122413 0.134724975
0.283238232 0.222390994 0.194940001
0.409487784 0.340164781 0.285895228
0.196204975 0.144844696 0.135736689
0.209234416 0.155977115 0.139278993
0.250094712 0.194560692 0.170018986
0.323086679 0.263251126 0.226944998
0.448703229 0.380012363 0.317014486
0.321821809 0.259709239 0.212523401
0.337507784 0.271094114 0.235800102
0.380012363 0.310056835 0.265527964
0.453636944 0.379759520 0.319544673
0.577609181 0.499809891 0.404933363
0.548766255 0.483744383 0.385325819
0.558001220 0.483491659 0.394560397
0.594939947 0.520430088 0.432763964
0.660215139 0.581783354 0.486021668
0.753699958 0.675268948 0.575838149
0.822770596 0.754838586 0.679822803
0.830233932 0.755850732 0.667046070
0.852119029 0.779000163 0.690196037
0.881467640 0.811638176 0.732068539
0.910816193 0.854142725 0.787602544
0.154964998 0.111827999 0.101961002
0.169007137 0.125869855 0.114737131
0.218722269 0.166096985 0.147501543
0.307021141 0.240354136 0.208981857
0.421252638 0.352308631 0.294117659
0.213156417 0.160531119 0.141935557
0.227577403 0.173307985 0.154711962
0.269070089 0.208981693 0.184819683
0.344971269 0.279317021 0.241619125
0.462112486 0.395445764 0.326122522
0.343073934 0.276407123 0.239089265
0.354838669 0.288172096 0.239341989
0.394433826 0.324478388 0.272106379
0.465022415 0.391777366 0.329031974
0.575964451 0.503352106 0.415306807
0.566097438 0.495509148 0.409234375
0.575079262 0.495635957 0.409614265
0.606072128 0.533459961 0.440607131
0.666034102 0.587603092 0.489563406
0.748766780 0.670335054 0.573307931
0.831245780 0.763946772 0.668184757
0.833776236 0.762681842 0.672865272
0.852751613 0.779632747 0.690828562
0.878810823 0.812903166 0.732953727
0.914484501 0.851486564 0.788614571
0.201391667 0.146489665 0.134724990
0.218722269 0.165464982 0.148766711
0.258317381 0.200759247 0.175205827
0.335610390 0.277672291 0.241366133
0.455281794 0.388614774 0.320556819
0.246173277 0.190638691 0.169386402
0.260214835 0.203035861 0.174825877
0.301834106 0.237697691 0.208601981
0.377988577 0.309424400 0.259329677
0.491587520 0.424920738 0.349019527
0.357621551 0.288298398 0.250347733
0.371031255 0.302086979 0.259582818
0.409993380 0.340670377 0.286400974
0.481340796 0.410373122 0.338140249
0.593169034 0.519417763 0.427198023
0.606198251 0.529537976 0.435167730
0.617457509 0.539026022 0.444276065
0.623908877 0.548766673 0.454648793
0.656293392 0.581657290 0.483997434
0.750537753 0.670082152 0.574320078
0.840986788 0.776976585 0.682985365
0.851106703 0.781277478 0.692852437
0.862492144 0.789373994 0.700569153
0.879822969 0.811891079 0.736242712
0.914104760 0.858064353 0.790259361
