Assets/EldamarStudio/100 Retro LUTs Pack/LUTs/cube/Debbie LUT.cube
DOMAIN_MIN 0 0 0
DOMAIN_MAX 1 1 1
LUT_3D_SIZE 32
0.117647000 0.078431003 0.074510001
0.117647000 0.078431003 0.074510001
0.119797774 0.080581777 0.076660231
0.121569000 0.082353003 0.078431003
0.121569000 0.082353003 0.078431003
0.121569000 0.082353003 0.078431003
0.126628995 0.087412998 0.083491646
0.129411995 0.090195999 0.084630288
0.129411995 0.090195999 0.082353003
0.129411995 0.090196006 0.082353011
0.138140127 0.096014999 0.088172004
0.145224512 0.102086991 0.094243996
0.152435347 0.109297641 0.101454645
0.161290005 0.118152998 0.110309996
0.167361990 0.124224991 0.116381995
0.175837800 0.132700801 0.124857798
0.187982187 0.140290990 0.130929798
0.202529982 0.147627980 0.135863140
0.214674011 0.159772024 0.148007959
0.224035352 0.169133365 0.157368660
0.233143732 0.180138990 0.162681744
0.244276121 0.191271126 0.166730002
0.259329975 0.200505987 0.173054978
0.271474004 0.212650001 0.185199007
0.285895258 0.229348570 0.197343573
0.303858638 0.244781986 0.210879296
0.324098945 0.257432073 0.225047067
0.339278519 0.272612423 0.234155446
0.362428635 0.298418760 0.251233637
0.386717379 0.320429921 0.267678738
0.410120577 0.339531571 0.284629583
0.431373000 0.360783994 0.305882007
0.117647000 0.078431003 0.074510001
0.117647000 0.078431003 0.071473613
0.117647000 0.082732551 0.075774617
0.119797774 0.084124222 0.078431003
0.122327998 0.082732551 0.078431003
0.127640992 0.085389383 0.078431003
0.125110671 0.085389383 0.078431003
0.129664600 0.093738385 0.085135929
0.133206710 0.098545291 0.088424996
0.135483995 0.096267998 0.088425003
0.141302988 0.099177867 0.091334872
0.150284648 0.107147120 0.095256127
0.157369003 0.114231281 0.100315996
0.164579436 0.121442355 0.107526645
0.173434764 0.130296990 0.116381995
0.184313759 0.133965805 0.122453995
0.194054589 0.141809195 0.130929798
0.204933807 0.150031805 0.138266966
0.214674026 0.159772024 0.148007959
0.232384726 0.174699366 0.157368660
0.240354389 0.182415992 0.164579004
0.248324126 0.191271126 0.168753743
0.259582967 0.200758979 0.173307970
0.277546018 0.218722001 0.191271007
0.289689988 0.233143270 0.201138288
0.304111242 0.249209270 0.213915274
0.322580755 0.263504058 0.228589386
0.345351309 0.278684437 0.240227446
0.363187760 0.299177796 0.251992643
0.388488144 0.322201163 0.269449949
0.413156182 0.343453348 0.286780387
0.434408605 0.366856009 0.305882007
0.121947996 0.080581777 0.074510001
0.121947996 0.080581777 0.073624387
0.121947996 0.082732551 0.077039778
0.123213157 0.087539837 0.081846938
0.125490457 0.087033547 0.082732551
0.126249224 0.090069935 0.082732551
0.133333445 0.092726223 0.087033547
0.130297065 0.091081932 0.083744548
0.136369184 0.099936903 0.090322673
0.143580258 0.102466524 0.094497003
0.149525777 0.107400097 0.099557094
0.155597761 0.112460740 0.104617223
0.163440987 0.120303541 0.108918287
0.169766039 0.126628965 0.115243517
0.178874403 0.135736570 0.124351412
0.190385982 0.140037805 0.126754999
0.201012194 0.146110192 0.134345189
0.210120410 0.155218408 0.143453568
0.219228044 0.164326057 0.152561978
0.232384726 0.174699366 0.157368660
0.244908243 0.186084732 0.166476741
0.253257483 0.194433779 0.172801763
0.264010489 0.204933494 0.177482486
0.284250766 0.221125782 0.193674773
0.300062984 0.237065047 0.207210287
0.313598633 0.252245426 0.219101653
0.329285145 0.267931759 0.233775988
0.350284874 0.284756422 0.245919988
0.371410757 0.307400584 0.255913883
0.396710694 0.332194924 0.275142610
0.422643572 0.355091721 0.296774358
0.443895996 0.379379779 0.318785548
0.129285157 0.088678166 0.077040002
0.126755163 0.084883004 0.077040002
0.128019989 0.087033771 0.080076165
0.130549997 0.088804998 0.086148165
0.133206829 0.092220157 0.088804998
0.131056055 0.096141934 0.088804998
0.136875480 0.100442842 0.093865000
0.143200606 0.102719545 0.097153835
0.141682222 0.101201929 0.093358926
0.152308807 0.109297685 0.101454683
0.157369003 0.114231318 0.103857994
0.163440987 0.120303512 0.109929994
0.170651644 0.127514347 0.117140643
0.177356154 0.133459866 0.123339839
0.187476411 0.140543744 0.131435573
0.197723150 0.147374973 0.137128159
0.208349034 0.152182192 0.140417188
0.218089983 0.161922976 0.148892984
0.227830380 0.171663210 0.157368809
0.238456547 0.180771515 0.163440809
0.248703405 0.189879894 0.167741910
0.258823127 0.200000152 0.177862167
0.271094352 0.212397143 0.184693143
0.290069729 0.228715912 0.198734894
0.305502683 0.242631435 0.211637989
0.321947813 0.259076655 0.223908812
0.339658290 0.274762988 0.239089236
0.360911041 0.292978972 0.251992315
0.381783932 0.317773461 0.265274972
0.407084227 0.342568129 0.281973362
0.436558902 0.369892538 0.307147533
0.458570331 0.394560158 0.334472001
0.138014004 0.102720000 0.083112001
0.132700995 0.094370611 0.083871000
0.133459762 0.093864769 0.086021766
0.136242539 0.096015446 0.089563996
0.142694101 0.096015446 0.095256448
0.142694101 0.102087453 0.095256448
0.147754639 0.108159542 0.100316450
0.153447449 0.112586834 0.104743831
0.158760458 0.115622640 0.107020542
0.161796078 0.118659027 0.110056929
0.165211871 0.122074865 0.108412221
0.170271993 0.127134994 0.111448087
0.177103087 0.133965895 0.117520191
0.186211482 0.142567590 0.126122504
0.198229000 0.145603970 0.132067993
0.208728805 0.153447255 0.140923351
0.217457354 0.161037549 0.148513541
0.226818144 0.167994991 0.154964983
0.238962948 0.180139020 0.161037013
0.248323739 0.189500362 0.169133365
0.257811278 0.198988184 0.175585181
0.267931521 0.209487990 0.181277990
0.280202031 0.221758485 0.193548501
0.295382440 0.239721552 0.205945566
0.308665097 0.253763586 0.218469098
0.323971868 0.267931968 0.230233774
0.343074143 0.286148012 0.242505074
0.373434901 0.304363996 0.257685423
0.395446241 0.329411328 0.274762958
0.420240581 0.355723947 0.295129597
0.447565019 0.380898118 0.317394018
0.474889457 0.408222556 0.344718456
0.144086003 0.108792000 0.089184001
0.144086003 0.105755612 0.095256001
0.147374988 0.106008768 0.098165773
0.147880942 0.109044835 0.099936999
0.145730495 0.111195058 0.101328447
0.154838875 0.111195065 0.104364060
0.159898877 0.117267706 0.109424062
0.164326280 0.121695220 0.113851771
0.167868152 0.124731027 0.115369841
0.170904443 0.127767414 0.113092549
0.176849917 0.133712932 0.119038805
0.182416007 0.139278993 0.123592868
0.188488007 0.145350993 0.127387866
0.195319101 0.151675969 0.129158899
0.204427481 0.154712349 0.132194519
0.218848795 0.162555113 0.142947599
0.228462994 0.170145437 0.151549935
0.235673502 0.176850334 0.158254355
0.245034948 0.186211020 0.167108998
0.254396349 0.195572361 0.170398355
0.265401870 0.206577986 0.180138990
0.277039915 0.219228178 0.189753190
0.289310426 0.233902484 0.199620500
0.304490834 0.249082923 0.214800909
0.319671214 0.264769197 0.229475200
0.337128490 0.278051972 0.241366178
0.357874990 0.292219996 0.251486182
0.379506886 0.310435981 0.263757437
0.399240971 0.328652650 0.276280999
0.423276216 0.355471283 0.296520919
0.450600624 0.383934498 0.319417655
0.477925062 0.411258936 0.341682076
0.150158003 0.114863999 0.095256001
0.150158003 0.114357933 0.096267998
0.152308777 0.115623094 0.100189775
0.158001319 0.117394321 0.103225842
0.157748327 0.118785642 0.104490675
0.160404935 0.118785642 0.105376065
0.166982993 0.123845637 0.110941999
0.171410710 0.128273293 0.115369707
0.174446538 0.131309092 0.118406095
0.177482486 0.134345487 0.118912168
0.185958326 0.135230988 0.122074418
0.192030311 0.141303003 0.128146678
0.198102325 0.147375003 0.134218678
0.204174325 0.153700039 0.137001678
0.211005405 0.161290422 0.137760580
0.220113799 0.169133797 0.145603806
0.230486989 0.176723629 0.154585674
0.237823978 0.182795987 0.160025269
0.248829648 0.190006360 0.165338367
0.257938027 0.199114680 0.173940673
0.267046422 0.208222568 0.180771574
0.278557986 0.219734251 0.192283258
0.290954977 0.233270302 0.202909797
0.308538586 0.246046916 0.213282585
0.325996250 0.263503999 0.230740249
0.341429651 0.278937340 0.243390307
0.359898984 0.292726070 0.252498060
0.379127085 0.308918297 0.262618572
0.402783304 0.332194328 0.279823303
0.420999259 0.350411087 0.295509249
0.446932197 0.378621250 0.315622896
0.475901335 0.409234673 0.333586335
0.162808403 0.124224991 0.109550700
0.164452702 0.125869706 0.107906409
0.164958760 0.126375765 0.105123058
0.167995155 0.129411831 0.110689446
0.173308164 0.129032284 0.113725245
0.174572989 0.126502290 0.112460412
0.177988693 0.134851694 0.119164698
0.179126993 0.135989979 0.123592407
0.185199365 0.139784694 0.126628608
0.191777214 0.143706486 0.129664764
0.197343573 0.145477697 0.132700831
0.202782974 0.147881001 0.136116415
0.209993631 0.153952986 0.142188415
0.216571704 0.160025045 0.147754416
0.222643688 0.167742118 0.147754416
0.231119499 0.176850080 0.154964790
0.240227878 0.185958475 0.164073184
0.247058809 0.192789569 0.170904279
0.258190691 0.199873716 0.175964668
0.264263064 0.205439642 0.177988648
0.275015742 0.217836946 0.187096953
0.287159979 0.226944819 0.197216690
0.300695479 0.238583490 0.209487781
0.317393690 0.252245724 0.221631795
0.333965570 0.265654713 0.230992854
0.350790650 0.282479376 0.247817934
0.367489129 0.298165709 0.258443773
0.387982368 0.314484417 0.269829124
0.409867316 0.337634355 0.285262644
0.430613637 0.361669391 0.300189942
0.451486260 0.383428186 0.317520589
0.481087983 0.416065693 0.332700998
0.179507002 0.136369199 0.128526002
0.183301717 0.140164495 0.124731295
0.184187099 0.141050100 0.121062547
0.184693173 0.141556039 0.119038165
0.188488558 0.144591659 0.127387539
0.192283258 0.139658093 0.125110924
0.195319325 0.144971639 0.129917771
0.196584478 0.151929289 0.136495709
0.195825174 0.151170194 0.140290990
0.211005583 0.157242194 0.143326610
0.216065973 0.160404876 0.147121862
0.219101831 0.163440943 0.150158271
0.223655626 0.167615190 0.152814999
0.232258022 0.173434153 0.158633962
0.237824082 0.179000735 0.159139901
0.246299893 0.187476292 0.166350275
0.254649192 0.195825189 0.174699187
0.264389962 0.205566138 0.184440136
0.273624122 0.214801073 0.193675056
0.277925372 0.219860747 0.193168744
0.288172185 0.228968814 0.198481739
0.300063074 0.242125213 0.206325084
0.318152577 0.251613081 0.218342587
0.333333015 0.267425925 0.232257992
0.348513365 0.281088114 0.242884189
0.365211755 0.294623762 0.252371758
0.380898088 0.310816169 0.267552167
0.404680789 0.329285175 0.282732517
0.427830875 0.352055728 0.300189823
0.448071122 0.375585109 0.315876037
0.469702631 0.402403295 0.326628596
0.497027069 0.432764113 0.341809005
0.191651016 0.148513988 0.140670016
0.197723016 0.154585987 0.134598017
0.199367493 0.156230509 0.132953525
0.199367493 0.156230509 0.132700503
0.200632572 0.156736448 0.133459553
0.209740952 0.159772053 0.136495948
0.213535652 0.157368824 0.136749014
0.216571718 0.161543295 0.140417501
0.220113978 0.169386193 0.146363005
0.226185992 0.175458968 0.152435005
0.235547379 0.178621098 0.158380494
0.240354240 0.181657270 0.162302271
0.244528487 0.185831979 0.164200023
0.250474036 0.191650942 0.164705977
0.253510416 0.194686562 0.167741582
0.261480302 0.202656344 0.175458327
0.269070506 0.210246503 0.183048487
0.276533961 0.217710152 0.190512151
0.288678020 0.229854956 0.202656955
0.295129508 0.239089161 0.206325144
0.308665484 0.247944236 0.214800477
0.323592842 0.257305622 0.223782137
0.333332956 0.266793460 0.227450997
0.348513395 0.285009503 0.236559406
0.363693774 0.300822258 0.250474751
0.381657124 0.315876156 0.263883948
0.402150482 0.332068592 0.276660562
0.420366496 0.353320926 0.291840911
0.446805984 0.374446809 0.314990431
0.470335662 0.395825684 0.337128162
0.494117945 0.420746565 0.353573501
0.524351478 0.454016507 0.360025018
0.221252739 0.166476995 0.155723870
0.221505731 0.166729987 0.149651870
0.218975186 0.168500990 0.145730644
0.219987318 0.168500990 0.146236584
0.223656192 0.169639558 0.148639873
0.227703929 0.177735806 0.154205948
0.234282002 0.178241745 0.157242328
0.237697586 0.178874150 0.159266159
0.240733773 0.183933958 0.163314089
0.244654983 0.187855959 0.167235851
0.247817874 0.191018119 0.164579004
0.256926268 0.198102251 0.172675252
0.262871742 0.204047993 0.178620994
0.268690705 0.209867030 0.182416037
0.271726400 0.212903321 0.185452312
0.277166605 0.220746547 0.188487947
0.285768658 0.228336737 0.198102385
0.293864548 0.235673726 0.206957728
0.303731889 0.247817934 0.214547947
0.318659246 0.254395992 0.223909348
0.328905731 0.265274853 0.229095742
0.343073964 0.276407242 0.239215732
0.354458869 0.287666321 0.248197377
0.372422665 0.303098977 0.257305771
0.387603015 0.319038242 0.266413569
0.404174715 0.337001622 0.280328780
0.424415022 0.356736124 0.295003116
0.447438598 0.380392283 0.312587291
0.468311399 0.401644677 0.327766985
0.496900767 0.426439017 0.349525154
0.524225175 0.450854063 0.369892180
0.554585755 0.478178740 0.384060740
0.241492718 0.186717242 0.168880507
0.241492718 0.182669252 0.164832249
0.243263960 0.184692994 0.164959028
0.242251500 0.183428153 0.163188249
0.247185528 0.183428258 0.164705962
0.246932566 0.190891922 0.165844262
0.252498507 0.196457997 0.171410322
0.255281508 0.196457997 0.172802001
0.258697242 0.199873254 0.176217243
0.262998015 0.204174474 0.180518478
0.268058121 0.209234372 0.183807373
0.273118258 0.214294761 0.186843753
0.283365011 0.222264513 0.194813505
0.291207999 0.228336498 0.200632468
0.296014816 0.233143657 0.203668401
0.299430609 0.243010789 0.210752696
0.308538973 0.249083191 0.215306491
0.318152815 0.255281657 0.224541575
0.327261209 0.266034007 0.229222268
0.337887615 0.274636269 0.238077074
0.351170242 0.282606006 0.243390471
0.363314241 0.294623494 0.249335989
0.375711262 0.307020962 0.259709001
0.393928081 0.324098349 0.274510145
0.411891252 0.339278519 0.287665963
0.427071631 0.357241899 0.296773911
0.445161313 0.377482325 0.311195254
0.467931867 0.397216856 0.329411626
0.489563793 0.420873016 0.344971389
0.516129375 0.442125410 0.361922652
0.546489477 0.469829202 0.385578483
0.576849997 0.496394753 0.408348978
0.254395634 0.201138645 0.178747997
0.253257275 0.196205005 0.175711602
0.255407751 0.196584508 0.176976770
0.258570671 0.199367166 0.179886341
0.263504088 0.196331546 0.179506883
0.260468274 0.200126648 0.176470697
0.265022367 0.206198648 0.181024641
0.268943995 0.210119992 0.184946001
0.271979988 0.210879087 0.186464190
0.278811008 0.216571644 0.192536280
0.284883022 0.223782271 0.196331292
0.289816648 0.228715867 0.200126514
0.297026992 0.235927001 0.207337350
0.308665067 0.241999000 0.213409349
0.314737290 0.248071000 0.217330575
0.321821451 0.257811636 0.222896799
0.327134639 0.266540170 0.230486989
0.338646203 0.270841569 0.237191573
0.347754598 0.279949307 0.241239980
0.358001351 0.290196002 0.248703286
0.366729975 0.300442755 0.256293386
0.379886121 0.311575145 0.263377786
0.392156631 0.323845625 0.269829273
0.408349186 0.340037644 0.283997804
0.426565617 0.355976909 0.298798323
0.445667297 0.373940289 0.313472301
0.461859703 0.395192713 0.323592722
0.483112067 0.411638081 0.341176271
0.505502760 0.435926616 0.357874453
0.529791355 0.457305789 0.373687387
0.560151935 0.478557974 0.395446181
0.590511978 0.508158982 0.425806284
0.265528023 0.206199035 0.186085030
0.262998432 0.203668639 0.183554634
0.263504297 0.204174772 0.183807805
0.266540170 0.207210913 0.186843872
0.268817514 0.209487543 0.189120576
0.265781134 0.206451938 0.186084971
0.270082027 0.210753039 0.189879999
0.275015742 0.215686321 0.195319340
0.279317021 0.218469083 0.198608190
0.291461021 0.221505478 0.204680964
0.297786027 0.230107903 0.205440000
0.302087247 0.235420808 0.205440000
0.307400405 0.240733638 0.208855420
0.316508085 0.250095069 0.217457026
0.322580844 0.256167054 0.223529026
0.333206981 0.264642805 0.227703840
0.342568010 0.271980017 0.232258022
0.349019557 0.278431565 0.238709569
0.358127981 0.287539989 0.247817978
0.369513035 0.299431026 0.254396051
0.378368050 0.311575055 0.262112767
0.387476176 0.324478179 0.272739142
0.402783036 0.339785010 0.288045973
0.415180087 0.352182031 0.294623971
0.431625605 0.366603285 0.304997027
0.451233655 0.384313703 0.318279654
0.472486079 0.405566126 0.333460093
0.493738443 0.426818490 0.348640442
0.517394006 0.452877879 0.366223991
0.541935384 0.474889398 0.383681208
0.567995012 0.494497389 0.402530193
0.598355055 0.515749037 0.432891011
0.298924387 0.233523399 0.207337409
0.301960766 0.236559004 0.210373014
0.297280401 0.231878385 0.203542173
0.296900660 0.231499135 0.202024251
0.299177527 0.233776271 0.204300955
0.296141893 0.230739921 0.201265350
0.298165500 0.232764304 0.198229089
0.305123121 0.239721686 0.206957698
0.310689390 0.245287389 0.215812817
0.312713385 0.245793462 0.216824949
0.319038391 0.251739711 0.222896978
0.325110376 0.258444399 0.223655984
0.331688613 0.265022159 0.227071628
0.340796828 0.274383038 0.235673785
0.349905223 0.286527783 0.238709405
0.358380586 0.295002997 0.247185215
0.368121177 0.301075161 0.253510386
0.375964373 0.305376381 0.259582371
0.382415950 0.311827987 0.266033947
0.388740987 0.323718995 0.275142342
0.399873435 0.335863441 0.281720400
0.411764950 0.348007798 0.289437115
0.427071780 0.361037374 0.300189972
0.445287794 0.379253387 0.318405986
0.459962100 0.393927664 0.327261269
0.478558034 0.410499722 0.338393360
0.499810457 0.429854870 0.351676047
0.521062791 0.451107234 0.366856396
0.542315185 0.472359598 0.382036775
0.567741930 0.493105769 0.404933542
0.595319569 0.513978541 0.427956998
0.625680208 0.540037811 0.451106966
0.327513784 0.260847777 0.230992988
0.325743169 0.259076416 0.224415213
0.320176989 0.259961784 0.223149821
0.321441978 0.258190930 0.220872983
0.326754779 0.260088772 0.223908782
0.321694911 0.255028665 0.218848929
0.330930084 0.259456098 0.230234265
0.330676705 0.262492061 0.225553587
0.335989803 0.269322962 0.233143792
0.339278787 0.272612393 0.236432791
0.347501606 0.278431505 0.242251799
0.351549327 0.282479495 0.242251530
0.358380437 0.289310634 0.245287627
0.367488801 0.298418611 0.254396021
0.376597166 0.308412611 0.261733174
0.385705560 0.318152964 0.264768779
0.394813180 0.327260971 0.273877174
0.403288782 0.333333343 0.280202359
0.409360796 0.341176599 0.284503609
0.420240402 0.352814615 0.295762151
0.432005137 0.366856307 0.308665544
0.445667475 0.378494918 0.316255599
0.460847467 0.389374048 0.324225277
0.476786792 0.405312777 0.340164572
0.492726088 0.423529357 0.351549298
0.510689437 0.441619247 0.366223603
0.531435788 0.460847795 0.381403923
0.550790370 0.480202407 0.394687027
0.576850355 0.501454771 0.409867406
0.598102748 0.528020322 0.430360526
0.621505558 0.547881126 0.455281377
0.645793974 0.569133580 0.476533771
0.359392375 0.291208178 0.253763199
0.353320777 0.285135806 0.247691572
0.349019587 0.285768390 0.241366595
0.346236378 0.285768390 0.240860209
0.356356382 0.288931191 0.245540723
0.352561355 0.287413180 0.240607366
0.355597615 0.288425177 0.247691512
0.364073485 0.291334659 0.255914003
0.363314152 0.295129389 0.252877980
0.369386196 0.301201969 0.258949995
0.375332057 0.305756181 0.260468185
0.383428305 0.312839895 0.266540319
0.387602568 0.318152815 0.265780926
0.396078378 0.327008188 0.273877203
0.403921574 0.334851384 0.281720370
0.413029969 0.343959570 0.289057583
0.422138005 0.353067547 0.292093158
0.431878358 0.362808347 0.301834136
0.439721584 0.372802168 0.307527184
0.451359898 0.384693205 0.318912178
0.466919720 0.398734897 0.329917908
0.481088251 0.412903160 0.344086170
0.495762020 0.422770470 0.351549685
0.510942101 0.437950462 0.366730094
0.529158473 0.456925750 0.380392283
0.549905181 0.476533800 0.392283231
0.570904613 0.497280329 0.412270486
0.589120567 0.515496552 0.425426900
0.613788843 0.537887156 0.444781989
0.636053383 0.558380723 0.462239116
0.658191144 0.586970329 0.486527383
0.677672148 0.604048193 0.508412361
0.394560128 0.324604541 0.275015563
0.386717319 0.316761285 0.271979958
0.381277770 0.314357907 0.266793549
0.382036537 0.316129118 0.264516383
0.386970073 0.316508561 0.267172545
0.386717111 0.322327554 0.264389873
0.387349516 0.323972136 0.268311560
0.390006125 0.324604541 0.272738844
0.396078110 0.326122522 0.276533544
0.402150124 0.332194537 0.282605559
0.405312985 0.335357398 0.281214416
0.412397206 0.342441410 0.286274791
0.420999527 0.351549178 0.294370890
0.427324563 0.360657573 0.297912568
0.433776110 0.367109120 0.304364085
0.442251921 0.375584900 0.310309738
0.450727522 0.384060711 0.317014515
0.461732686 0.394434094 0.322580099
0.473877490 0.406578153 0.334724933
0.486021519 0.418722153 0.345604151
0.501328111 0.432763845 0.357115686
0.517520189 0.446932107 0.367236108
0.529791474 0.459202617 0.379253596
0.544971228 0.474383026 0.393421859
0.564072967 0.492219806 0.407969832
0.584945977 0.512839794 0.423782617
0.610247076 0.533080161 0.438963026
0.628336549 0.551170409 0.454142690
0.651233613 0.572801948 0.474762619
0.673877537 0.595445931 0.497406512
0.691967130 0.613535941 0.515496194
0.716255128 0.637823999 0.539784968
0.424920946 0.358000964 0.296267956
0.421884537 0.354965359 0.293232352
0.416192025 0.349272907 0.288045973
0.415432990 0.346489936 0.285768807
0.420366526 0.346869379 0.288424969
0.417330891 0.349905014 0.288424969
0.419607610 0.353194296 0.290702313
0.422390670 0.355977207 0.293991238
0.426438928 0.359518975 0.297785968
0.432510942 0.365590990 0.303857982
0.435673803 0.368753850 0.307020843
0.442757666 0.375838250 0.313599229
0.451865643 0.384946257 0.322707295
0.460721016 0.394053996 0.331308991
0.469829410 0.403162360 0.340417355
0.478684783 0.412017733 0.339658141
0.486274958 0.419607967 0.342188418
0.495129913 0.427830577 0.349905312
0.513345957 0.443011016 0.365084976
0.525489986 0.455155015 0.371663749
0.539531708 0.469196707 0.383934200
0.553952932 0.483364969 0.397596240
0.566223502 0.495635480 0.409614414
0.581403911 0.510815859 0.418722034
0.598861516 0.523718953 0.430613577
0.614547908 0.539405286 0.445793957
0.628463089 0.557368994 0.463251114
0.643643498 0.572549343 0.478431463
0.664389789 0.587982059 0.490954965
0.689437151 0.611005545 0.512966156
0.712460577 0.634029329 0.535989583
0.728399932 0.649968028 0.551929057
0.421885014 0.352435350 0.295256346
0.421631962 0.354965031 0.292220026
0.420746356 0.354079634 0.291334629
0.420999378 0.354332656 0.291587651
0.426312357 0.357368648 0.295762002
0.425679922 0.358001083 0.295762002
0.427704304 0.361037344 0.298292339
0.430739999 0.364073277 0.301328272
0.435294122 0.368627071 0.305882096
0.443390369 0.376723349 0.313978374
0.449335873 0.382668853 0.314357877
0.454396009 0.387728989 0.319417983
0.462745011 0.396078289 0.327767283
0.472106367 0.405186385 0.336369306
0.483744413 0.414294749 0.340417027
0.492852807 0.423403144 0.349525422
0.503479004 0.434029341 0.355597347
0.513346016 0.443896353 0.364199847
0.527261019 0.456926048 0.372928798
0.539911747 0.469323009 0.385325730
0.555850685 0.481467485 0.391398013
0.571916521 0.495762229 0.403921485
0.585958242 0.509803474 0.417836994
0.601138651 0.524983943 0.429601461
0.616319001 0.540164351 0.445540935
0.634029329 0.555597663 0.461480349
0.650474429 0.573308289 0.479190439
0.670208812 0.588488042 0.494370788
0.688045323 0.606325269 0.512207329
0.707400441 0.623402655 0.528146744
0.728146911 0.645034850 0.552435279
0.743327379 0.662112713 0.575205743
0.455661178 0.390765458 0.318785697
0.455661178 0.386211067 0.317647070
0.457558453 0.387096465 0.322454184
0.455028445 0.387096465 0.318659037
0.458191007 0.391524017 0.321947992
0.459709197 0.393042207 0.326502204
0.458444029 0.391777039 0.321442038
0.464769423 0.396458149 0.326122731
0.469070196 0.400505960 0.330170453
0.477039963 0.408475697 0.338140219
0.481340706 0.412776470 0.336622477
0.489310443 0.420746207 0.342567742
0.495382458 0.426818192 0.348640025
0.503731787 0.435167491 0.356989443
0.514231443 0.444275856 0.363314033
0.525869489 0.455281496 0.369259506
0.534977913 0.464389890 0.378367901
0.546742439 0.476154447 0.390132457
0.558886468 0.488298506 0.398734927
0.571031213 0.496647477 0.404680759
0.583175421 0.508791447 0.416824698
0.599367440 0.520936251 0.424920976
0.613535702 0.535104156 0.439089447
0.626944900 0.548513353 0.451233476
0.642125309 0.563693702 0.466034293
