Assets/EldamarStudio/100 Retro LUTs Pack/LUTs/cube/Debbie LUT.cube
LUT_3D_SIZE 8
DOMAIN_MIN 0.000000 0.000000 0.000000
DOMAIN_MAX 0.903226 0.903226 0.903226
0.117647000 0.078431003 0.074510001
0.121569000 0.082353003 0.078431003
0.129411995 0.090195999 0.082353003
0.152435347 0.109297641 0.101454645
0.187982187 0.140290990 0.130929798
0.233143732 0.180138990 0.162681744
0.285895258 0.229348570 0.197343573
0.362428635 0.298418760 0.251233637
0.138014004 0.102720000 0.083112001
0.142694101 0.096015446 0.095256448
0.158760458 0.115622640 0.107020542
0.177103087 0.133965895 0.117520191
0.217457354 0.161037549 0.148513541
0.257811278 0.198988184 0.175585181
0.308665097 0.253763586 0.218469098
0.395446241 0.329411328 0.274762958
0.179507002 0.136369199 0.128526002
0.188488558 0.144591659 0.127387539
0.195825174 0.151170194 0.140290990
0.223655626 0.167615190 0.152814999
0.254649192 0.195825189 0.174699187
0.288172185 0.228968814 0.198481739
0.348513365 0.281088114 0.242884189
0.427830875 0.352055728 0.300189823
0.254395634 0.201138645 0.178747997
0.263504088 0.196331546 0.179506883
0.271979988 0.210879087 0.186464190
0.297026992 0.235927001 0.207337350
0.327134639 0.266540170 0.230486989
0.366729975 0.300442755 0.256293386
0.426565617 0.355976909 0.298798323
0.505502760 0.435926616 0.357874453
0.359392375 0.291208178 0.253763199
0.356356382 0.288931191 0.245540723
0.363314152 0.295129389 0.252877980
0.387602568 0.318152815 0.265780926
0.422138005 0.353067547 0.292093158
0.466919720 0.398734897 0.329917908
0.529158473 0.456925750 0.380392283
0.613788843 0.537887156 0.444781989
0.455661178 0.390765458 0.318785697
0.458191007 0.391524017 0.321947992
0.469070196 0.400505960 0.330170453
0.495382458 0.426818192 0.348640025
0.534977913 0.464389890 0.378367901
0.583175421 0.508791447 0.416824698
0.642125309 0.563693702 0.466034293
0.713472426 0.630993128 0.534977674
0.663251519 0.591650844 0.488425285
0.652245522 0.577862084 0.484503269
0.669323564 0.590891540 0.494497269
0.686274171 0.607843220 0.511448145
0.712460339 0.630233824 0.532194614
0.743579745 0.664389670 0.563440859
0.778621256 0.700189829 0.604427576
0.818722248 0.737760901 0.644908071
0.808348954 0.748386562 0.648956597
0.814674139 0.735483885 0.638203681
0.815180600 0.739784658 0.651739597
0.832890451 0.751802564 0.665654421
0.850474417 0.769386232 0.683238387
0.863124609 0.795192719 0.711701393
0.889942944 0.822011471 0.746362746
0.908918619 0.843643665 0.781277359
0.121569000 0.082353003 0.074889451
0.121569000 0.082353003 0.074889451
0.138013899 0.098798096 0.091334544
0.167742103 0.124604903 0.114484094
0.204933643 0.151170000 0.135989740
0.252372205 0.194307283 0.170271739
0.304996759 0.242757693 0.212650448
0.382922262 0.313599110 0.269070446
0.143073544 0.099936552 0.091334544
0.154079556 0.110942543 0.102340460
0.163440555 0.120303541 0.110942543
0.193927735 0.147375092 0.132827550
0.230360389 0.173940197 0.158380806
0.269955754 0.211132348 0.183681354
0.321189284 0.255660832 0.223909289
0.386717051 0.317393780 0.272106111
0.195952103 0.141429543 0.129285082
0.202656537 0.148513556 0.135610089
0.212776646 0.158254102 0.145350650
0.233902648 0.175078645 0.155471534
0.263251275 0.204806849 0.176596746
0.302340090 0.245161176 0.209867075
0.364452779 0.295509100 0.251739532
0.444149196 0.371663302 0.314104795
0.268184990 0.209360987 0.182668999
0.271726638 0.212903351 0.185452357
0.285389096 0.225806177 0.198355183
0.313598990 0.246932179 0.215560004
0.339405179 0.272739112 0.239089087
0.371410280 0.305502981 0.260215193
0.421252370 0.351043731 0.293485194
0.496394694 0.424794406 0.347374976
0.373687178 0.304996818 0.252245396
0.370525002 0.300696015 0.258064538
0.380645275 0.311195731 0.258823723
0.405692488 0.336242825 0.283870816
0.437824160 0.368754268 0.306261957
0.479696631 0.412270725 0.339785069
0.536242664 0.465654731 0.384186924
0.611638188 0.536875367 0.444528699
0.478431195 0.409867465 0.332700461
0.474383265 0.407716632 0.334092259
0.489689916 0.417077631 0.343959540
0.514358222 0.443769455 0.361543447
0.548387110 0.476660252 0.391777128
0.589879870 0.519291878 0.429221928
0.655407906 0.576976418 0.482479095
0.720682919 0.648323655 0.547501445
0.683111966 0.594433844 0.504490852
0.672612250 0.599873543 0.499936730
0.685009360 0.606577814 0.508538723
0.703099430 0.624667585 0.528273344
0.722960174 0.644528747 0.548134089
0.746995747 0.668564320 0.570524812
0.770524800 0.692093670 0.595951557
0.806071937 0.725110471 0.630992770
0.813662589 0.745350897 0.666160882
0.826438606 0.747501433 0.649588585
0.821505427 0.752181828 0.660847366
0.834155619 0.759899020 0.671473563
0.854143023 0.778494418 0.690954864
0.869070351 0.800758958 0.717267215
0.892220199 0.824288189 0.752435029
0.907020748 0.849841833 0.782036781
0.122327901 0.083112098 0.075268902
0.121948451 0.082732551 0.074889451
0.139532089 0.100316100 0.092473097
0.173181176 0.127766997 0.119165093
0.214800999 0.160657898 0.146615997
0.256926090 0.200632378 0.175205633
0.316382080 0.249715462 0.215307087
0.395825714 0.325236887 0.272865206
0.154079556 0.099177547 0.088172443
0.151297003 0.108159088 0.092472993
0.168880552 0.124604896 0.109297641
0.195445746 0.149272650 0.133586451
0.234282196 0.180265799 0.157494992
0.279064000 0.220619544 0.192409545
0.329538465 0.265148550 0.229981020
0.398987770 0.330550283 0.276913464
0.195066079 0.148134008 0.135483995
0.201770648 0.156356558 0.140291080
0.217837006 0.162176102 0.148893103
0.236559197 0.183302000 0.159392640
0.270209074 0.210626185 0.181657195
0.316887856 0.250221342 0.219355077
0.370398492 0.302213877 0.255408257
0.449082792 0.381151140 0.319417953
0.270841449 0.217583537 0.184566543
0.277166545 0.218342543 0.190891549
0.293105900 0.232005090 0.204174638
0.319417626 0.252751648 0.221378639
0.342441291 0.275395542 0.233523190
0.380265713 0.313725531 0.262365460
0.433396757 0.362428665 0.303731978
0.505882382 0.436559319 0.359392732
0.377482563 0.305376172 0.252751291
0.372295946 0.304491162 0.261100739
0.386084497 0.317014277 0.266160548
0.407969475 0.338519931 0.286147743
0.441619277 0.373434484 0.306894362
0.483617812 0.410626024 0.339405507
0.537381411 0.466793329 0.380518556
0.611258924 0.538772762 0.441619158
0.490196079 0.421631843 0.344971567
0.493358791 0.420240253 0.344339073
0.502087116 0.430107713 0.355344564
0.523719370 0.453130662 0.369386375
0.557368577 0.485262543 0.395192564
0.600759208 0.526375711 0.435547113
0.662492275 0.584060669 0.488425165
0.728779256 0.648070812 0.551929295
0.678557992 0.600126565 0.503605366
0.681846797 0.608349562 0.507906258
0.692220151 0.613788486 0.512713552
0.707147479 0.628715575 0.527640641
0.724604666 0.646173477 0.546616137
0.744592011 0.666161060 0.568121135
0.766223848 0.687792301 0.592030585
0.804300845 0.729285240 0.636432409
0.828083634 0.757621765 0.668311059
0.827703893 0.748892844 0.654649019
0.826818466 0.753699958 0.663377464
0.840860248 0.767741978 0.678937197
0.858949840 0.785831809 0.702340305
0.873371601 0.805439413 0.724224985
0.893611550 0.825679779 0.750031412
0.908412099 0.848829746 0.781024396
0.125489995 0.086274996 0.079569645
0.127008095 0.087792896 0.083491646
0.143832639 0.104617357 0.096774347
0.172042638 0.128905639 0.113219641
0.212650448 0.166476831 0.142947555
0.259203106 0.202150479 0.179000631
0.321821272 0.254016638 0.218089640
0.399746984 0.329158604 0.279823005
0.160025001 0.108538635 0.097153999
0.156736106 0.116381638 0.106261641
0.173181176 0.128905639 0.113598995
0.206451654 0.151170105 0.138266742
0.236938626 0.182922453 0.157874629
0.287539274 0.222011745 0.192283541
0.340038180 0.272612274 0.233396277
0.413282543 0.339911461 0.285009563
0.205312997 0.148134008 0.146109730
0.200126559 0.155092001 0.139025643
0.224921092 0.172422096 0.149651989
0.243643105 0.190386102 0.167994738
0.276913464 0.216571748 0.189120755
0.321568727 0.256040484 0.222770527
0.379127204 0.314864010 0.262365460
0.454902172 0.385199249 0.316382110
0.276787013 0.217962980 0.196078002
0.285009533 0.218216643 0.198355287
0.296395004 0.233143643 0.203415647
0.320556283 0.253890008 0.216951281
0.350284189 0.283618182 0.244402185
0.392915756 0.322327733 0.271473736
0.442378283 0.373434275 0.309550643
0.516761243 0.444023073 0.363946736
0.379253805 0.317900181 0.273498088
0.379380018 0.314737380 0.262239188
0.388741046 0.324098378 0.269323200
0.410625905 0.341556013 0.286147743
0.445920020 0.376976728 0.312333971
0.488678277 0.419734389 0.346489549
0.543200672 0.468437463 0.387349814
0.618089497 0.543074131 0.446679175
0.493611455 0.425047189 0.348640025
0.493105531 0.425300181 0.353446990
0.504111350 0.436306208 0.360404730
0.530676842 0.456673026 0.375585377
0.562808394 0.489943355 0.399873435
0.601518273 0.533459842 0.434661716
0.658697248 0.583554685 0.487160027
0.729917765 0.649968386 0.552688181
0.682226241 0.598228872 0.504617155
0.679443479 0.603668451 0.504743636
0.687033296 0.608602285 0.510562837
0.704743862 0.626312256 0.528273284
0.725743115 0.647311985 0.549272537
0.747501254 0.669070303 0.571031272
0.772422254 0.691714227 0.594813228
0.806831002 0.735230863 0.636053324
0.826691747 0.759645581 0.667172611
0.830487013 0.752814353 0.656672776
0.836812079 0.753193915 0.667046428
0.845034599 0.767362416 0.678810716
0.858443618 0.785325646 0.701834261
0.878178537 0.801897585 0.727893472
0.893864632 0.825932801 0.757368386
0.913219750 0.849209607 0.787096381
0.132447988 0.091714188 0.083871193
0.138014004 0.098418549 0.090575546
0.153573990 0.112839989 0.104996800
0.185704991 0.138013810 0.123845994
0.216951385 0.170777991 0.152056009
0.268943906 0.211132437 0.185705185
0.330550075 0.263883471 0.227957085
0.409487635 0.337760985 0.281720638
0.170778185 0.115876183 0.104111187
0.167362541 0.125363991 0.113725193
0.182163343 0.136748642 0.121821634
0.212397203 0.157874644 0.144971192
0.244781837 0.190765545 0.167994723
0.297786087 0.231119379 0.202909470
0.345477551 0.277672648 0.241745636
0.416571528 0.345983446 0.291334450
0.216319010 0.159013182 0.141935289
0.219354898 0.163314536 0.154079571
0.224794194 0.175584987 0.156863004
0.251106739 0.197090447 0.172042638
0.285136163 0.223276183 0.195066094
0.326502264 0.263883352 0.233016819
0.386843562 0.321062386 0.268564194
0.464389712 0.396205068 0.324098647
0.286527455 0.220999271 0.191650644
0.288931459 0.222896725 0.200759098
0.299304187 0.238203987 0.209614336
0.326375633 0.259708732 0.226059631
0.361290187 0.290702194 0.249209180
0.397596449 0.327766925 0.277292877
0.443516910 0.377356261 0.313851863
0.517394006 0.445540875 0.365591168
0.389247179 0.315623194 0.270082355
0.386843383 0.315116704 0.265022010
0.393042266 0.327261269 0.274763048
0.415686339 0.351423204 0.295888364
0.450221568 0.381151348 0.320177346
0.489437371 0.421252191 0.346869200
0.549146175 0.475522190 0.384693176
0.617456973 0.545098186 0.448450148
0.495635897 0.427071631 0.348893166
0.501201808 0.433017015 0.358886927
0.513345659 0.441366345 0.363566995
0.534471691 0.461353719 0.380644917
0.565085471 0.491461337 0.402150452
0.607716203 0.533333182 0.437318444
0.665528238 0.587096751 0.490575463
0.731056392 0.652624667 0.554585695
0.684630156 0.598355353 0.511195362
0.681846619 0.601138473 0.504364073
0.689816594 0.611385584 0.513345599
0.703605175 0.625173926 0.527134895
0.725363553 0.646932542 0.548892975
0.750284731 0.668564260 0.572169542
0.776470482 0.694750071 0.598355353
0.822643936 0.739405513 0.653384089
0.828209937 0.756609440 0.661733031
0.827703774 0.749525547 0.662239075
0.827071607 0.753952980 0.660847425
0.843137264 0.770018935 0.681214213
0.858570457 0.785452127 0.698418677
0.873118222 0.805186331 0.722453952
0.893990993 0.827577174 0.757242143
0.915243447 0.849968374 0.782163084
0.150917262 0.107779734 0.099936739
0.157622010 0.114484094 0.106640995
0.171283826 0.128146634 0.116508357
0.196711004 0.150158361 0.135609999
0.235926807 0.184946194 0.161416799
0.287792742 0.225173727 0.195825472
0.344718277 0.274383724 0.240101442
0.417204410 0.349272758 0.289057791
0.182796001 0.130803093 0.109297730
0.183681339 0.134851098 0.124098733
0.202277094 0.147754550 0.134851098
0.222896725 0.169133291 0.152056009
0.255281389 0.198988006 0.173181280
0.300442725 0.233775720 0.204427466
0.346236557 0.279570013 0.240353972
0.413409114 0.346995771 0.284124076
0.232890606 0.174446359 0.160910740
0.230360463 0.177355736 0.160278544
0.244529098 0.185705096 0.168374091
0.264516532 0.205692649 0.182289645
0.298418909 0.235800281 0.207210645
0.342694640 0.275268734 0.236052915
0.392789453 0.326249003 0.272612274
0.468184650 0.401517987 0.331182659
0.294497013 0.225047633 0.205945462
0.301707894 0.235041082 0.205313012
0.313725561 0.244781733 0.214547887
0.332194984 0.265528291 0.231878474
0.361037254 0.293232113 0.249462634
0.398988008 0.329538375 0.274130344
0.446552902 0.378747582 0.311448276
0.513598979 0.444275826 0.363567352
0.402150810 0.328779370 0.288425207
0.401012152 0.334472090 0.279063940
0.414041728 0.344971538 0.291081548
0.433649749 0.364959180 0.303985178
0.459709138 0.393042177 0.324225157
0.494496912 0.425933152 0.351549655
0.546616316 0.471473664 0.386717469
0.609234691 0.536369264 0.442251742
0.520556450 0.447944224 0.371789962
0.518279493 0.447564632 0.367995262
0.531309128 0.460721105 0.378494829
0.550411463 0.479822457 0.393548489
0.580265701 0.509677291 0.419607639
0.622517467 0.548134506 0.456166714
0.667299509 0.588867486 0.492852718
0.723213136 0.644781709 0.548766434
0.681720078 0.599494040 0.500063241
0.691966772 0.609867275 0.515876114
0.696647763 0.618216217 0.520556390
0.708412170 0.629980922 0.533965766
0.723719418 0.641492546 0.546236515
0.747627974 0.665401995 0.571157098
0.772295594 0.693864584 0.598102272
0.817963123 0.738393188 0.648703277
0.829980850 0.764452696 0.667425752
0.840227664 0.756229937 0.668564379
0.835040987 0.761922657 0.675648272
0.846805692 0.773687422 0.684882700
0.864136577 0.791018546 0.703731656
0.874762833 0.806830943 0.727387547
0.896015108 0.828842342 0.756609440
0.911448598 0.853510320 0.791397512
0.171537280 0.128399700 0.112713285
0.177482545 0.134345457 0.118659027
0.196584284 0.146615997 0.133206695
0.223655924 0.168121353 0.146868929
0.253004283 0.197470084 0.171663374
0.296015292 0.233396277 0.205945268
0.353194296 0.288804561 0.242757693
0.422264189 0.356482774 0.298291981
0.199114293 0.142568007 0.131308988
0.208222553 0.150158465 0.130171001
0.214042008 0.161416799 0.142820999
0.234661549 0.179886445 0.158254296
0.263630718 0.204806820 0.178873822
0.309551001 0.244022533 0.212270901
0.357242286 0.290195823 0.250980735
0.416698068 0.350537807 0.293105990
0.250727177 0.182416290 0.163187996
0.244528890 0.188109010 0.173687547
0.264263183 0.200506091 0.181024790
0.279696405 0.218595803 0.191144794
0.312586963 0.245920196 0.214674279
0.349399090 0.283491284 0.245287791
0.403289258 0.336748779 0.278684467
0.474889278 0.404427826 0.333838999
0.307147264 0.242251933 0.214041993
0.314484358 0.246679276 0.214168638
0.325869381 0.258064747 0.224414736
0.344212621 0.276407272 0.240480989
0.370018810 0.303858370 0.255155176
0.409234732 0.338267088 0.282606006
0.456419975 0.386337936 0.320177287
0.517014563 0.445161432 0.365970612
0.404933393 0.332827210 0.276660383
0.411005825 0.343074203 0.286654115
0.421379089 0.352308452 0.294370472
0.432511091 0.365085185 0.303858191
0.454395980 0.387729377 0.321947992
0.495509028 0.424035460 0.352814645
0.542188168 0.471600145 0.390133172
0.609108090 0.530170739 0.440607071
0.543453276 0.472865283 0.387349725
0.557368636 0.483744264 0.393674761
0.564452469 0.488930821 0.404554248
0.575205803 0.500822127 0.409993798
0.593927860 0.518406153 0.429221988
0.622770488 0.544339001 0.448323756
0.662112772 0.586970270 0.492473185
0.717393935 0.638962626 0.542567849
0.682226539 0.595951557 0.504111230
0.682732582 0.609993875 0.502973020
0.695635259 0.617204309 0.519165218
0.705755830 0.627324283 0.530423880
0.720050454 0.638330460 0.541935325
0.738013864 0.659582257 0.561543286
0.773054540 0.690069556 0.594307303
0.813029528 0.735357523 0.637444317
0.832510591 0.766224027 0.675774574
0.845920324 0.767109454 0.670967877
0.841872513 0.764452875 0.680961549
0.848450363 0.775331855 0.686527312
0.860720992 0.787602961 0.698797941
0.876027644 0.801644444 0.721947968
0.890828311 0.823656082 0.752182126
0.914104760 0.856925845 0.789120853
0.201391667 0.146489665 0.134724990
0.207337171 0.152435169 0.140670255
0.222517177 0.171536982 0.148007661
0.242883995 0.186590999 0.160404846
0.276534170 0.219228372 0.188740984
0.320682704 0.265780896 0.230486721
0.383680969 0.319670796 0.272486001
0.455281794 0.388614774 0.320556819
0.211005718 0.162555441 0.143959269
0.224288091 0.162428826 0.143706530
0.232890904 0.179380089 0.157115743
0.255534291 0.200505987 0.171157345
0.288551807 0.228716001 0.198229000
0.331941545 0.267552346 0.231625542
0.387602657 0.317773551 0.270335197
0.457937956 0.391271621 0.323212951
0.251233339 0.200252831 0.175205827
0.262365639 0.206957996 0.174952537
0.274383098 0.217457339 0.186211348
0.301328272 0.234661728 0.206072286
0.329918087 0.263251096 0.226565287
0.376470625 0.307400346 0.259582520
0.430360615 0.362428755 0.302214086
0.501960754 0.434534967 0.357115626
0.309424281 0.249841809 0.209867477
0.320050627 0.255913645 0.223529488
0.332574546 0.265907735 0.232257724
0.352561265 0.287033647 0.244402289
0.386970282 0.317520648 0.268943608
0.424035639 0.352308452 0.293991119
0.476407111 0.405566067 0.334471881
0.543579817 0.472991586 0.386970282
0.407842815 0.337634385 0.282226384
0.413788706 0.345983356 0.287033617
0.415686458 0.346615940 0.288677931
0.431878388 0.364073336 0.303605348
0.461606175 0.394940197 0.329158783
0.504237831 0.433522999 0.357368827
0.558760464 0.484376907 0.396331459
0.622770369 0.552308798 0.452877790
0.571789980 0.497406483 0.407336980
0.572548866 0.499304116 0.405945450
0.575964689 0.503099203 0.409361362
0.576850116 0.506261826 0.416192085
0.585831642 0.511448443 0.425679624
0.620619953 0.543706536 0.449588895
0.671220541 0.592789471 0.495509475
0.725237429 0.646805644 0.550031602
0.714484334 0.635294378 0.538899064
0.720809519 0.641113400 0.540543795
0.722200990 0.643010557 0.545351148
0.728526294 0.649335802 0.551675916
0.735230744 0.656040728 0.558380842
0.748766541 0.665781498 0.570018888
0.774319708 0.695888698 0.598228812
0.820240080 0.742567599 0.652751267
0.840986788 0.776976585 0.682985365
0.848829746 0.775711477 0.690954566
0.851359725 0.781024456 0.690828443
0.857558787 0.787476420 0.697153509
0.865907490 0.792789459 0.703984857
0.874762833 0.806831002 0.731182575
0.893485010 0.825553358 0.754458845
0.914104760 0.858064353 0.790259361
