Assets/EldamarStudio/100 Retro LUTs Pack/LUTs/cube/Denise LUT.cube
LUT_3D_SIZE 8
DOMAIN_MIN 0.000000 0.000000 0.000000
DOMAIN_MAX 0.903226 0.903226 0.903226
0.074510001 0.086274996 0.105881996
0.153194547 0.090575546 0.117647000
0.264896005 0.090195999 0.117647000
0.368753642 0.088551998 0.118785642
0.479443192 0.107400186 0.141176000
0.626691997 0.117647000 0.160658002
0.780898571 0.135610282 0.178747699
0.935230613 0.150410995 0.198734835
0.109044999 0.155977100 0.121189453
0.167362541 0.159139991 0.110183448
0.267299086 0.159140006 0.122327998
0.358887076 0.155218095 0.127008095
0.467299014 0.161037356 0.142568201
0.619987190 0.176344186 0.167741984
0.775964558 0.187349990 0.184946001
0.921695054 0.198102370 0.202656835
0.138772994 0.235927001 0.141050085
0.180645540 0.235927001 0.132827535
0.254649192 0.236686081 0.136369184
0.352181822 0.235927001 0.150031641
0.470841259 0.240480989 0.162934989
0.623908818 0.264010102 0.179127350
0.780898571 0.278178394 0.191271007
0.926122665 0.290449291 0.206830993
0.189500287 0.315623283 0.178747997
0.220493644 0.317267269 0.170778096
0.285515726 0.315243721 0.173181176
0.368247986 0.316128641 0.177102998
0.481214821 0.330550194 0.185831800
0.622264087 0.357495099 0.185452357
0.775838196 0.381783664 0.192789286
0.927134573 0.395192921 0.208981648
0.250727177 0.438709378 0.184946194
0.281340986 0.437444836 0.208854899
0.335230976 0.437824368 0.197596192
0.415559828 0.439342171 0.194054350
0.507526934 0.440227568 0.195192993
0.635547161 0.466413945 0.197975740
0.785072744 0.497406662 0.194560200
0.924224734 0.515875816 0.203922004
0.290069997 0.613029718 0.194180742
0.324477971 0.617583692 0.197849721
0.382416189 0.616318464 0.192157000
0.466666609 0.615306675 0.194687009
0.560151458 0.612903237 0.186337739
0.670082450 0.612776697 0.182416260
0.792156577 0.631372452 0.188488007
0.931182742 0.648956299 0.205312997
0.299051285 0.773054600 0.183680996
0.320935816 0.776597023 0.187855542
0.387349814 0.779380322 0.188994095
0.474636346 0.777482629 0.186590701
0.575205266 0.777103066 0.186590701
0.681720436 0.774446726 0.186464280
0.798228800 0.774067283 0.188868001
0.922960222 0.776723444 0.210246533
0.299557149 0.918152928 0.254016608
0.336495519 0.928779006 0.256293327
0.394813269 0.922074616 0.259329587
0.480834633 0.923466027 0.259202778
0.580012500 0.919417739 0.264263123
0.688298583 0.919417739 0.264515758
0.810626149 0.918026805 0.277799070
0.939025819 0.915496767 0.298671752
0.082353003 0.101581454 0.179127544
0.155977100 0.094497450 0.170524538
0.253510565 0.114484094 0.179506987
0.340543628 0.138393357 0.187729552
0.444528759 0.146236554 0.204553992
0.600000024 0.149399459 0.225426540
0.764073133 0.149020001 0.229222015
0.918152928 0.153826714 0.238836259
0.104237996 0.148134097 0.164579108
0.159899011 0.159140006 0.167362541
0.240986645 0.164199650 0.179886445
0.335863560 0.171283543 0.194434002
0.443516999 0.179507002 0.204174742
0.587349474 0.186084554 0.216824755
0.755850554 0.192030281 0.226818547
0.909550607 0.193927824 0.236685708
0.159519538 0.230107546 0.186464086
0.183428094 0.231246099 0.191650540
0.249588639 0.228083193 0.201138452
0.341682196 0.233143628 0.196711004
0.451233298 0.245667443 0.213283002
0.602023780 0.258570403 0.215939343
0.762428820 0.273498088 0.230866730
0.920176744 0.282858819 0.244908452
0.199367538 0.312207639 0.209993899
0.226439103 0.305882543 0.217963099
0.276913553 0.308665156 0.212776542
0.352435172 0.305502981 0.213535652
0.467172742 0.325869352 0.220619529
0.604427457 0.347375035 0.225047097
0.763947010 0.375584900 0.231246278
0.912460387 0.388867825 0.236559093
0.252118528 0.422137976 0.225300536
0.273497909 0.425679803 0.223782346
0.329791188 0.427704096 0.227703825
0.404553920 0.428083748 0.225806192
0.496267915 0.429727733 0.225426540
0.622643530 0.453510284 0.225426540
0.772042930 0.488804191 0.230866730
0.923339784 0.514231563 0.235294193
0.295635790 0.595951557 0.221631542
0.314104736 0.599873483 0.223655805
0.376470745 0.602530181 0.221884996
0.462492079 0.601391494 0.224794447
0.558633506 0.603036344 0.224415004
0.656546295 0.605313301 0.216318995
0.787982464 0.626944959 0.219860733
0.922454059 0.645034611 0.237570912
0.284756720 0.758254588 0.216824830
0.319924295 0.763567269 0.224794537
0.378621191 0.767362297 0.218089819
0.466414005 0.770777762 0.221758187
0.566982806 0.770018756 0.219734251
0.673877478 0.768500566 0.215939343
0.792410016 0.766982853 0.218848526
0.915749311 0.774826229 0.239468351
0.296900481 0.921062469 0.292219877
0.338013530 0.924984097 0.293485045
0.397596240 0.918406308 0.293611795
0.478810877 0.917899966 0.294117540
0.576597154 0.919544578 0.299810171
0.691460907 0.916887939 0.306135088
0.808475494 0.912839949 0.307400316
0.931562304 0.911448598 0.324098289
0.090955094 0.099556997 0.257052183
0.152435452 0.103478998 0.254775167
0.251612991 0.115243189 0.247691199
0.333080292 0.137887284 0.252751529
0.434788376 0.160025105 0.271979898
0.585325718 0.156230107 0.283744097
0.746489406 0.138266906 0.297027081
0.912207365 0.133080170 0.308032990
0.135230541 0.170524538 0.239468545
0.165717646 0.167741999 0.239848107
0.237065524 0.167741999 0.240607098
0.323971808 0.183048636 0.252371997
0.430107296 0.194054455 0.265654892
0.571789980 0.190512285 0.277419269
0.740164518 0.185073003 0.290702283
0.905755818 0.183175266 0.302593172
0.165464908 0.220999077 0.244529083
0.192789093 0.235167906 0.251233548
0.257052183 0.235926986 0.253890097
0.328652650 0.240986630 0.261353731
0.437065274 0.249968097 0.271094263
0.585578740 0.257558435 0.285262465
0.747121751 0.261733294 0.293105721
0.909044743 0.274636269 0.303478926
0.219101638 0.304744095 0.265655100
0.234282091 0.298798531 0.266034514
0.283997536 0.306008637 0.265655011
0.344212651 0.303605527 0.265655011
0.455407917 0.318026274 0.279696256
0.594180822 0.342694730 0.283238530
0.755471110 0.363061428 0.291587830
0.908918321 0.379379839 0.307147294
0.246173203 0.413535476 0.279064000
0.270714730 0.411132246 0.278178096
0.325237185 0.415939301 0.281467199
0.397596538 0.419102162 0.281467259
0.484124064 0.419101983 0.278305084
0.618089557 0.444781661 0.284123659
0.766982734 0.482479364 0.290196002
0.915496588 0.503352463 0.308285713
0.279569656 0.590132773 0.290449262
0.310815841 0.591650903 0.287033796
0.369512737 0.592409849 0.286527634
0.454901606 0.591271222 0.290195972
0.548133790 0.592789412 0.282605648
0.653384089 0.595951557 0.281720340
0.781910419 0.618848443 0.291967332
0.915243447 0.640354216 0.311321914
0.280835003 0.751170039 0.290702105
0.303984642 0.760278106 0.293358684
0.373940080 0.762934804 0.296774119
0.462618709 0.764832020 0.293864906
0.561796308 0.760531306 0.292979211
0.674636245 0.762175739 0.296394616
0.791271329 0.765338421 0.297533184
0.918279469 0.772802114 0.320430070
0.315243810 0.910436630 0.356862634
0.346236646 0.917014480 0.371283948
0.402277023 0.916128874 0.375205815
0.481593728 0.917141080 0.374826342
0.582289577 0.917899966 0.377608985
0.689184070 0.912839949 0.380391955
0.804933429 0.912460506 0.386211097
0.926628649 0.914737701 0.395698696
0.105376355 0.113219641 0.339025617
0.161796451 0.120683096 0.335357279
0.252751559 0.134471640 0.331815630
0.330677003 0.143453285 0.327261358
0.442631394 0.158760354 0.340417653
0.585452199 0.155091748 0.361163884
0.747248292 0.122580715 0.384566575
0.902466595 0.102340162 0.397216797
0.157115549 0.179127350 0.325237095
0.195698649 0.182289541 0.323339641
0.255154639 0.178241640 0.319291651
0.327134728 0.185325637 0.317773640
0.429601848 0.196837097 0.333713055
0.573308170 0.187096640 0.351802438
0.739025950 0.166729555 0.378494382
0.898544967 0.153953254 0.391903728
0.189752996 0.241872445 0.320556283
0.217457443 0.237824544 0.318532526
0.271600515 0.243769988 0.319671094
0.335357189 0.246552631 0.319671094
0.441745490 0.251233459 0.339278996
0.584693074 0.248956352 0.356483281
0.744085550 0.246932298 0.369259834
0.912207246 0.257305533 0.398102522
0.213535637 0.297659993 0.322833270
0.245413989 0.304743975 0.327514201
0.293485463 0.309044719 0.333459646
0.363820642 0.316128641 0.338520020
0.461227268 0.323592484 0.343959153
0.594687104 0.333712876 0.353320360
0.756230175 0.352055609 0.371663332
0.905629218 0.369513065 0.401012272
0.238203794 0.411637932 0.347248286
0.266919613 0.411132157 0.356230557
0.326881886 0.418722540 0.351549447
0.398735166 0.416698188 0.351802468
0.482858717 0.416318834 0.351043373
0.617963314 0.443643004 0.361164004
0.760278225 0.471473783 0.372042894
0.908791780 0.500442564 0.410246670
0.262365729 0.582542837 0.366856396
0.294117898 0.583934128 0.371410280
0.353194445 0.587349653 0.366350502
0.441998988 0.584566832 0.372928381
0.541935623 0.587729037 0.369892269
0.644022465 0.586211145 0.369006872
0.775964558 0.614800692 0.382668942
0.912080944 0.640733540 0.418595821
0.272232711 0.751170218 0.391777277
0.308159202 0.758001029 0.399493903
0.367615283 0.754206359 0.395192623
0.457811266 0.755091846 0.396331280
0.560404897 0.757495522 0.397976011
0.666793287 0.758127630 0.396963984
0.781910300 0.761290550 0.404807299
0.910309613 0.770524800 0.432384700
0.337128401 0.909297764 0.475142241
0.364073128 0.915117204 0.475648224
0.420872718 0.913599253 0.477292836
0.499683440 0.913219750 0.477545440
0.587728977 0.911954343 0.478178322
0.693105578 0.911574960 0.479696512
0.804933727 0.910057008 0.490828425
0.930044115 0.913219750 0.500063241
0.145730197 0.132447988 0.454395980
0.195066199 0.142694190 0.454395980
0.274130076 0.148893103 0.439342171
0.361922979 0.158001363 0.432764024
0.452625334 0.162302196 0.433902383
0.588488162 0.157116011 0.460468173
0.746489584 0.119544715 0.495129555
0.907906413 0.100695834 0.506641150
0.180771649 0.192789093 0.428842753
0.213156089 0.196837202 0.436306298
0.277293086 0.195951894 0.427324563
0.358380735 0.195572451 0.423402727
0.444528729 0.194813356 0.414673924
0.574826360 0.188361809 0.449209630
0.742947280 0.159645736 0.484882891
0.898798227 0.156230539 0.499177694
0.211764812 0.255408078 0.428589284
0.237950742 0.256672740 0.417457193
0.292346805 0.249968082 0.421505362
0.365085274 0.251992464 0.421884745
0.448071182 0.253257275 0.419861078
0.587855875 0.246552840 0.448450536
0.745603561 0.241366386 0.477798879
0.897026896 0.264136940 0.505755663
0.223023638 0.323971927 0.424161732
0.246173203 0.324731022 0.417836845
0.303225905 0.324730903 0.417836845
0.381530464 0.326628447 0.428842843
0.471853018 0.328652740 0.432004809
0.602656603 0.336875290 0.450347990
0.750411272 0.349272549 0.476533830
0.895761967 0.381404281 0.512460649
0.244655207 0.417584181 0.428463191
0.269829214 0.417077839 0.437697649
0.325237185 0.425427198 0.441872299
0.412397027 0.432005048 0.448829979
0.511448324 0.444149196 0.454395980
0.630233884 0.448450625 0.465022087
0.758380830 0.474509478 0.487919182
0.901201427 0.508159339 0.523845375
0.258190930 0.579633474 0.476786733
0.287792891 0.585452199 0.475522101
0.360531181 0.584946394 0.481846988
0.444402397 0.588488162 0.482226431
0.541555941 0.588867664 0.481846988
0.642884016 0.589247167 0.478684396
0.772549093 0.615559459 0.500442624
0.906135261 0.642251611 0.535357118
0.302973181 0.753573656 0.515496492
0.332321286 0.753447533 0.520936251
0.380012482 0.752814591 0.516888142
0.459329188 0.753573656 0.512207270
0.557115495 0.757495522 0.516129076
0.666034400 0.759392798 0.518152893
0.777103126 0.760657549 0.516128898
0.908918500 0.773561001 0.552434981
0.376976788 0.906135261 0.580139339
0.398355305 0.908791780 0.578368187
0.445034891 0.909171343 0.582795739
0.514231384 0.907400429 0.578115165
0.599241018 0.910436451 0.582542837
0.698418796 0.908665597 0.582669258
0.809234560 0.907653451 0.586717069
0.917520404 0.909550846 0.590005994
0.181909725 0.154838741 0.608981729
0.231498823 0.156736001 0.599240959
0.318785578 0.160784006 0.601012170
0.415939391 0.153700098 0.590132833
0.514104962 0.153068006 0.586211205
0.612903237 0.143327266 0.575585485
0.748386979 0.114863716 0.596710563
0.901201725 0.098671891 0.616318643
0.192789093 0.205819458 0.581024468
0.240986541 0.200758815 0.590512514
0.313345909 0.201517999 0.584566832
0.409614354 0.194054544 0.579886198
0.507020712 0.189120814 0.570398211
0.602150500 0.182036996 0.567741454
0.745224059 0.158886552 0.586590767
0.896520853 0.156862631 0.614168286
0.200379550 0.271980107 0.581657350
0.241619334 0.269196838 0.575079024
0.307400435 0.270462096 0.574193299
0.406451464 0.258697093 0.576470494
0.507906616 0.253636748 0.568121016
0.605819106 0.245793745 0.562302470
0.745603561 0.243263736 0.586211205
0.900695562 0.266793162 0.620113671
0.212144271 0.347248614 0.572675288
0.244022623 0.349778712 0.566476762
0.310562819 0.340670288 0.561290324
0.407337248 0.340290725 0.564958811
0.509424627 0.333965659 0.561669946
0.608222544 0.330929756 0.558254480
0.749525607 0.346742570 0.589247227
0.890448809 0.389626741 0.618595600
0.233902544 0.450980395 0.567741454
0.259329468 0.450600922 0.570018649
0.330676973 0.450600922 0.567741454
0.421379089 0.451106966 0.572043121
0.527893364 0.453763813 0.579000890
0.636053264 0.458823562 0.582289934
0.764199972 0.483111978 0.606325150
0.893611610 0.532321155 0.644149005
0.250979990 0.583428502 0.577735722
0.287286550 0.582289696 0.583428502
0.355344743 0.585325718 0.584819674
0.441113383 0.593295217 0.590638518
0.550031543 0.607716680 0.606198490
0.654269516 0.606957495 0.603162467
0.771663547 0.625300229 0.619861007
0.901074946 0.655408144 0.652371526
0.302087277 0.743200302 0.614041746
0.337761045 0.748639822 0.618089736
0.398988098 0.747880816 0.619734466
0.482858717 0.749905109 0.627703905
0.570272148 0.754712284 0.636053205
0.668184757 0.754712284 0.629348755
0.781404257 0.759266317 0.639089465
0.901707649 0.781657517 0.657305241
0.434408426 0.900948644 0.676280856
0.455534488 0.901960611 0.673497677
0.508412182 0.897786021 0.680202365
0.557874739 0.904364288 0.681087732
0.613915265 0.902972639 0.670461535
0.710056722 0.903731763 0.680708408
0.810752690 0.907653451 0.679443359
0.923465908 0.906514585 0.691714168
0.241112977 0.173181564 0.751170278
0.283618271 0.170904279 0.752182007
0.362808108 0.170145184 0.746742368
0.464136928 0.161922649 0.747754633
0.571916282 0.148260713 0.736369252
0.671347499 0.131309256 0.721948087
0.783175290 0.095129713 0.727640808
0.906388581 0.100189976 0.725110412
0.250348032 0.214294538 0.737634242
0.283491284 0.208096266 0.739911079
0.356862843 0.209740549 0.734471858
0.457052737 0.200000003 0.735989988
0.561922729 0.186970443 0.729285538
0.670968056 0.174193516 0.725363553
0.780139446 0.149145812 0.715622842
0.899556994 0.157368988 0.716255665
0.232511267 0.282099813 0.736875534
0.276280969 0.276660204 0.741049826
0.351043701 0.280455053 0.731562495
0.450221270 0.272612095 0.732321382
0.561669469 0.264136910 0.726122618
0.665022135 0.254648805 0.722580671
0.782416403 0.244402394 0.717520475
0.904743552 0.268437773 0.721062422
0.229981273 0.373434573 0.722074509
0.269955456 0.370272189 0.725490034
0.351549566 0.373561263 0.724098802
0.446805894 0.368374616 0.720935881
0.556989372 0.367868274 0.720683098
0.662618518 0.359266400 0.711574912
0.773560882 0.360025555 0.709171236
0.895888507 0.393548518 0.720050335
0.254142970 0.488804162 0.720683217
0.291714013 0.494117558 0.714863896
0.368627429 0.488678068 0.719797432
0.453384161 0.492093742 0.716002345
0.556989133 0.492599666 0.713599205
0.665781260 0.488172114 0.713219523
0.774067223 0.490069747 0.711195350
0.894749939 0.532447815 0.725616395
0.290069729 0.622264326 0.716002226
0.314610600 0.625679731 0.718405962
0.384945929 0.622517467 0.723086476
0.470082402 0.623782218 0.720050395
0.569259942 0.629222214 0.722833693
0.678052008 0.628083467 0.724730968
0.777988255 0.641492724 0.724351525
0.896394551 0.677419245 0.742441714
0.298292279 0.754079580 0.721441984
0.329538107 0.749905109 0.717520535
0.393168807 0.751802802 0.714358091
0.482099622 0.756230175 0.720809519
0.578747511 0.756736577 0.724730968
0.682353020 0.766476810 0.730803251
0.789753318 0.776344001 0.741049528
0.900822163 0.791144788 0.753700376
0.436559021 0.907400131 0.747754693
0.465907574 0.903858066 0.748260379
0.503099084 0.897659302 0.754079521
0.571030915 0.899683535 0.761037350
0.651106715 0.899557114 0.767362356
0.733080506 0.904617071 0.775585234
0.813788533 0.903731763 0.774572730
0.918785632 0.911195338 0.783175468
0.292978972 0.202782974 0.882858574
0.324225545 0.200126827 0.881467640
0.400126249 0.196204826 0.881467640
0.487539262 0.189500183 0.877545655
0.592789292 0.177735463 0.874762952
0.700189829 0.174066812 0.869070053
0.818848550 0.162428617 0.868437767
0.945603609 0.153446928 0.867172599
0.289689958 0.238583535 0.873497903
0.321947962 0.240480676 0.882985294
0.388741374 0.230740115 0.877799094
0.486653775 0.227071553 0.875774801
0.589247346 0.220493332 0.871979594
0.701454937 0.214294523 0.867299139
0.821505368 0.206072181 0.861227095
0.940796852 0.203921631 0.858317494
0.297785878 0.306135088 0.872865379
0.332700431 0.314231366 0.871094465
0.396584421 0.310815990 0.871853471
0.484882772 0.308032632 0.872106433
0.590386033 0.305249900 0.867678642
0.702973008 0.306894183 0.867172599
0.819987357 0.305123091 0.865022063
0.939152539 0.310436249 0.865907729
0.322454244 0.419102103 0.861985743
0.353320718 0.423150092 0.866919577
0.413282663 0.421884954 0.866287291
0.496394426 0.422896862 0.865654409
0.597596407 0.423909098 0.865527987
0.703099430 0.424920827 0.862238944
0.811258852 0.427197695 0.854269207
0.935736954 0.426692069 0.851486564
0.355723977 0.538266778 0.861100614
0.377356350 0.545730352 0.862112522
0.441239774 0.549904943 0.860847712
0.519165277 0.554585755 0.860720992
0.604301035 0.553573608 0.853636742
0.707020998 0.554585695 0.856293321
0.811764538 0.556609631 0.851739347
0.919417799 0.560531318 0.853130639
0.381151021 0.670714676 0.861985743
0.405439615 0.670714676 0.861226737
0.454649001 0.676660419 0.862112761
0.531435728 0.677292764 0.859582186
0.617583811 0.684250295 0.856925607
0.711448550 0.685262501 0.859455884
0.809487343 0.685009241 0.854142725
0.914104819 0.692979336 0.856419981
0.396078348 0.792789578 0.855787158
0.419101775 0.796204805 0.856925905
0.465022236 0.794434011 0.857305348
0.532447398 0.798861384 0.857052565
0.619228065 0.795825243 0.854775548
0.715243518 0.799620271 0.857684910
0.810499728 0.802277267 0.857558548
0.911574781 0.811132312 0.863630772
0.438456744 0.915496767 0.852877617
0.461226761 0.912586868 0.857811332
0.500948727 0.911574781 0.855407596
0.569133461 0.910436392 0.860847354
0.649841785 0.904870450 0.860467911
0.741682529 0.908412397 0.865780950
0.829222083 0.912460446 0.873371303
0.921947777 0.918152928 0.885515451
