Assets/EldamarStudio/100 Retro LUTs Pack/LUTs/cube/Denise LUT.cube
LUT_3D_SIZE 5
DOMAIN_MIN 0.000000 0.000000 0.000000
DOMAIN_MAX 0.903226 0.903226 0.903226
0.074510001 0.086274996 0.105881996
0.238330111 0.092473291 0.119924292
0.417836398 0.097406581 0.128146991
0.664136350 0.120683126 0.166730002
0.935230613 0.150410995 0.198734835
0.128146991 0.217710406 0.130423695
0.235673696 0.217710420 0.131056279
0.410626382 0.220366985 0.152688116
0.668690979 0.243263826 0.175584689
0.928905904 0.264136404 0.207590282
0.221631572 0.375331968 0.184313998
0.293611407 0.374067217 0.187602997
0.435546786 0.370778233 0.194812998
0.670335412 0.418216527 0.200379699
0.930550158 0.459076643 0.204554424
0.296141982 0.649462283 0.192157000
0.365718126 0.658570707 0.191397592
0.518532813 0.655028522 0.190133005
0.697407126 0.656293392 0.180391997
0.931182742 0.683364809 0.206325129
0.299557149 0.918152928 0.254016608
0.377861828 0.921062469 0.259329587
0.529032350 0.921315312 0.262492180
0.718659103 0.919417739 0.266793072
0.939025819 0.915496767 0.298671752
0.090195999 0.100316294 0.235040694
0.224288419 0.113724999 0.227197692
0.376976699 0.151043415 0.237697691
0.629095614 0.156483144 0.270335138
0.915243506 0.140164301 0.287033558
0.151043415 0.206577986 0.223276705
0.230486691 0.217710420 0.235673711
0.380898118 0.227198109 0.254649103
0.631119311 0.238330126 0.269323587
0.914863944 0.254648715 0.289310545
0.226185992 0.356356800 0.259835720
0.290955395 0.358001083 0.262492120
0.418848693 0.360278398 0.269070089
0.654269576 0.405819267 0.272611976
0.920430064 0.449209422 0.289942712
0.284883022 0.635420382 0.266413718
0.365717709 0.635420561 0.273877591
0.509044707 0.638330281 0.271347255
0.690828502 0.643263996 0.264768988
0.923339784 0.677798808 0.290322572
0.315243810 0.910942614 0.329538465
0.383807659 0.920682907 0.351423234
0.529031992 0.917141080 0.350411057
0.718026400 0.916129053 0.359898627
0.930170774 0.913219512 0.374446452
0.126881823 0.128146991 0.395699203
0.233776107 0.138266698 0.379886389
0.382542402 0.162175998 0.367488801
0.632763922 0.146995738 0.421125829
0.899177372 0.094117843 0.446552396
0.196457714 0.233396411 0.366476685
0.255660981 0.234408692 0.361922711
0.379886389 0.232384697 0.365844131
0.624288559 0.225553408 0.408728808
0.900189459 0.232511103 0.448956490
0.240606993 0.358380824 0.371410817
0.296521127 0.358633667 0.386464357
0.442757368 0.370778233 0.393674821
0.645793736 0.391397536 0.409993410
0.906388402 0.442251623 0.465148360
0.258570731 0.618469536 0.420240104
0.340670437 0.624035418 0.421884805
0.489057839 0.624288321 0.423023403
0.677166522 0.628969133 0.424414814
0.911954284 0.675269127 0.478810787
0.353320777 0.906388581 0.524604797
0.413409233 0.909297764 0.520935953
0.544718385 0.908286035 0.528525949
0.723592937 0.908918619 0.533080339
0.925363362 0.911574781 0.555597961
0.200126261 0.159898862 0.646426141
0.307400405 0.157495424 0.642251849
0.482732415 0.155218288 0.632131517
0.654396117 0.132194877 0.616065979
0.903478742 0.101454981 0.644149423
0.206198722 0.256040275 0.624161720
0.301834136 0.256293565 0.624541283
0.474509954 0.242884114 0.619101942
0.648829818 0.223529413 0.604301214
0.904743731 0.238456517 0.646679401
0.217963278 0.404174805 0.603289127
0.307400435 0.404174566 0.617078006
0.477419376 0.400253206 0.610246241
0.664136410 0.396710962 0.612144411
0.896268010 0.463504076 0.650347710
0.254016131 0.625933290 0.613156140
0.337634295 0.632131457 0.614421546
0.500569105 0.635040879 0.630360305
0.686654270 0.650474429 0.638583124
0.899809778 0.694876790 0.680455089
0.440986753 0.900189579 0.694243968
0.487665892 0.901075244 0.697406530
0.598102510 0.904996812 0.700696111
0.736369252 0.903731763 0.702466667
0.923718929 0.904743910 0.716255784
0.292978972 0.202782974 0.882858574
0.377355963 0.197216943 0.879949510
0.537507772 0.184440136 0.877545774
0.728779137 0.170524925 0.868057966
0.945603609 0.153446928 0.867172599
0.297280103 0.288424820 0.880455554
0.373813808 0.291081637 0.875648618
0.533206522 0.283238411 0.870082498
0.729791284 0.281340808 0.865148783
0.939405441 0.282858610 0.864895642
0.348133802 0.482732624 0.861859739
0.420999050 0.489057511 0.869702816
0.557874382 0.489310622 0.859202802
0.730170488 0.494876653 0.859708905
0.931182683 0.501201749 0.859329581
0.382668793 0.704111099 0.860973895
0.441239774 0.705755830 0.857811451
0.570272028 0.711954355 0.857937753
0.733712792 0.713599026 0.855407596
0.914357603 0.722327948 0.853889763
0.438456744 0.915496767 0.852877617
0.488804460 0.912839949 0.854395747
0.608348787 0.907653391 0.859329581
0.764199734 0.908918560 0.867045760
0.921947777 0.918152928 0.885515451
