Assets/EldamarStudio/100 Retro LUTs Pack/LUTs/cube/Denise LUT.cube
DOMAIN_MIN 0 0 0
DOMAIN_MAX 1 1 1
LUT_3D_SIZE 32
0.074510001 0.086274996 0.105881996
0.086654000 0.086274996 0.105881996
0.103098996 0.088425227 0.105881996
0.125110477 0.090195999 0.109677158
0.153194547 0.090575546 0.117647000
0.186590940 0.093611933 0.117647000
0.212396994 0.094117999 0.120177321
0.238330111 0.092473291 0.119924292
0.264896005 0.090195999 0.117647000
0.289184034 0.090195999 0.117647000
0.319291741 0.090195999 0.117647000
0.345604002 0.088172257 0.117647000
0.368753642 0.088551998 0.118785642
0.390512019 0.094370969 0.122074999
0.417836398 0.097406581 0.128146991
0.447564602 0.102845997 0.136622190
0.479443192 0.107400186 0.141176000
0.513472140 0.111068986 0.141808584
0.549905002 0.117141001 0.144844979
0.589121103 0.117647000 0.153447360
0.626691997 0.117647000 0.160658002
0.664136350 0.120683126 0.166730002
0.703478992 0.129538476 0.172675505
0.739911795 0.132574096 0.175711900
0.780898571 0.135610282 0.178747699
0.822011590 0.138646320 0.183174983
0.860468090 0.141682059 0.189246997
0.893864393 0.144718453 0.195318997
0.935230613 0.150410995 0.198734835
0.972422123 0.152941003 0.205313206
0.996963620 0.153826609 0.215306982
1.000000000 0.156863004 0.227450997
0.080582000 0.095382616 0.108918384
0.089690387 0.098419003 0.099810004
0.110436380 0.098419003 0.101960778
0.131688550 0.103099220 0.107906386
0.156230167 0.108032547 0.118026547
0.189626560 0.105755933 0.120683387
0.217963576 0.108791679 0.115622744
0.244402468 0.109297611 0.123718932
0.270967990 0.106894001 0.126754999
0.295256019 0.102339998 0.117647000
0.319544733 0.105249867 0.120556869
0.341556013 0.105376385 0.116634876
0.363820285 0.104490995 0.115749255
0.387729406 0.106514968 0.119544610
0.417836398 0.109550580 0.131182611
0.442757577 0.110183001 0.134851426
0.474889368 0.116508186 0.139658183
0.509171307 0.122580573 0.142441154
0.540796638 0.126249388 0.147881359
0.585578740 0.129538029 0.148134395
0.623656094 0.133585989 0.156483263
0.662112653 0.135863006 0.162681744
0.703605473 0.138899118 0.166730002
0.742947459 0.147754490 0.172675505
0.783934236 0.148513392 0.180265889
0.822264254 0.150790676 0.187602699
0.858443797 0.153320774 0.194306999
0.896900833 0.153826848 0.195318997
0.930297136 0.156862557 0.201391667
0.969892144 0.160784215 0.206578374
0.996078014 0.163820386 0.214421377
0.996963620 0.169007003 0.224414602
0.086654000 0.113092773 0.116255775
0.097912617 0.113978386 0.102846384
0.111321993 0.117014773 0.104490772
0.138140321 0.117014773 0.103731997
0.162428766 0.121947996 0.109803997
0.190511942 0.118911937 0.114611156
0.216698185 0.120936222 0.116508357
0.242378622 0.122327544 0.112080708
0.268438011 0.122327544 0.121188901
0.292726040 0.119038545 0.116002224
0.319164962 0.121694863 0.118406095
0.341429502 0.118658997 0.119418226
0.362049282 0.118405998 0.119291417
0.386844009 0.118911996 0.124604769
0.417203963 0.123845354 0.132953763
0.444908351 0.126628548 0.140037805
0.470714957 0.128146350 0.140037805
0.505882502 0.134092003 0.143706143
0.540796876 0.135610193 0.152814955
0.580771327 0.138646409 0.157622010
0.620619714 0.145477504 0.157622010
0.658064663 0.150790408 0.163946643
0.699431002 0.152055293 0.166982740
0.740923703 0.157115683 0.171030998
0.778367817 0.159392774 0.179380283
0.819481194 0.160784081 0.184313998
0.854901850 0.164326355 0.191144705
0.892726302 0.167615771 0.196078002
0.929031968 0.168121710 0.199240893
0.969512761 0.169386551 0.210626408
0.993801177 0.175585136 0.213409409
0.987475991 0.185451999 0.214927003
0.096521154 0.134345159 0.121569000
0.104869999 0.134345159 0.112713769
0.117899932 0.135230765 0.104996838
0.138140321 0.138267159 0.109803997
0.168121547 0.137508154 0.104870453
0.193295166 0.133586377 0.110056840
0.216318637 0.136875480 0.111068837
0.241872236 0.138267159 0.115875870
0.265401930 0.138267159 0.113599159
0.289184034 0.138267159 0.116128840
0.312586725 0.139911443 0.119164869
0.338393420 0.138140172 0.120177001
0.361922801 0.134345159 0.121315643
0.386591017 0.134598196 0.129664958
0.415939122 0.139658317 0.134724826
0.442631066 0.142061964 0.139532000
0.472486198 0.145097956 0.146110132
0.501707971 0.148766145 0.145603731
0.540543854 0.150031164 0.157115787
0.581277370 0.152814522 0.162429005
0.620113611 0.157115892 0.167236000
0.657558262 0.164200023 0.167236000
0.697027326 0.167235672 0.170145154
0.738393784 0.170272067 0.174319893
0.776344001 0.171031162 0.180645123
0.811637998 0.172422469 0.185578838
0.851107121 0.174952149 0.187096909
0.888298690 0.179506719 0.196204707
0.924731135 0.184060991 0.200000003
0.962681532 0.184060991 0.205060020
0.998481929 0.184946597 0.215812832
0.986717165 0.198608324 0.207843006
0.109044999 0.155977100 0.121189453
0.113598704 0.156356543 0.121189453
0.123465993 0.155977100 0.114104994
0.141176596 0.156103715 0.108285703
0.167362541 0.159139991 0.110183448
0.194686934 0.153067991 0.113219060
0.218089864 0.156736553 0.113092862
0.241113141 0.159140006 0.115117155
0.267299086 0.159140006 0.122327998
0.288551480 0.159140006 0.122327998
0.308412075 0.159140006 0.125237122
0.331941754 0.157115832 0.126249000
0.358887076 0.155218095 0.127008095
0.385958493 0.155218095 0.130044490
0.413156390 0.158127964 0.133080125
0.438456535 0.159519553 0.136875361
0.467299014 0.161037356 0.142568201
0.501328528 0.163946539 0.150537968
0.537760615 0.170018539 0.159645602
0.579759300 0.173687354 0.163567364
0.619987190 0.176344186 0.167741984
0.659456134 0.179380402 0.172928542
0.699050963 0.182542533 0.173181534
0.738773167 0.185831904 0.179253548
0.775964558 0.187349990 0.184946001
0.811384976 0.188361868 0.188614547
0.845035076 0.191271096 0.189753070
0.884503424 0.191271096 0.198861450
0.921695054 0.198102370 0.202656835
0.958127797 0.202656552 0.206451774
0.987476468 0.203542158 0.209361002
0.999620438 0.206578553 0.209361002
0.102972999 0.180265874 0.118153065
0.118153386 0.183301479 0.118153065
0.131309092 0.181530714 0.118153065
0.148513228 0.177735865 0.117394097
0.170398146 0.174320385 0.119291842
0.188614935 0.177355990 0.113219060
0.218469635 0.178874314 0.123845637
0.239089221 0.179127216 0.125237226
0.258570254 0.177355990 0.125743151
0.282479525 0.177355990 0.128399998
0.312460750 0.177355990 0.131309122
0.334725142 0.175332248 0.132321000
0.358127981 0.173434868 0.132321000
0.382922113 0.173434868 0.133080095
0.407210886 0.173434868 0.136116475
0.434408784 0.178747922 0.143959746
0.464263111 0.182289734 0.150537923
0.498292208 0.184692934 0.155851007
0.534724951 0.185198948 0.156609997
0.576723695 0.191270947 0.162934959
0.615433395 0.193041995 0.164706007
0.653384149 0.194560200 0.168754131
0.692978978 0.197722927 0.176217929
0.735483825 0.203794941 0.182289943
0.772928596 0.209360987 0.186084643
0.809361219 0.211637989 0.189626679
0.844782054 0.212649986 0.192662939
0.878431439 0.215559870 0.198861450
0.917899787 0.215559870 0.202656835
0.955091357 0.220619902 0.209234744
0.984440029 0.224794537 0.216444984
0.996584058 0.227830932 0.221505001
0.114611320 0.199494004 0.122706994
0.124731064 0.199999943 0.120177321
0.139911443 0.203036100 0.124478318
0.156356648 0.202024326 0.125237316
0.175585091 0.198861778 0.126249447
0.191650555 0.197596386 0.122327447
0.214927316 0.198102325 0.123845637
0.240354374 0.197849721 0.129411995
0.260341406 0.196331546 0.128779218
0.286400974 0.198102325 0.131815165
0.308918446 0.195572644 0.132321119
0.335231185 0.195572644 0.137380987
0.359266639 0.194181323 0.138393000
0.384693354 0.194687322 0.138646036
0.406704813 0.199241325 0.141682416
0.438203782 0.199241325 0.147121996
0.468817174 0.203542128 0.153067872
0.503478706 0.207210302 0.158760414
0.541809261 0.211005330 0.164452672
0.578747451 0.216571972 0.167488992
0.625047624 0.216951221 0.167868257
0.665022433 0.219354764 0.171283931
0.704364300 0.225300640 0.181657478
0.742062092 0.226565644 0.185325682
0.782289565 0.232637644 0.189120963
0.820366979 0.235926643 0.193548307
0.857432365 0.236432582 0.197723061
0.890828729 0.239468440 0.201771319
0.927008450 0.239847988 0.207716838
0.962934792 0.241619214 0.212523982
0.989753246 0.246932313 0.218216315
0.998608351 0.251612991 0.220999315
0.128146991 0.217710406 0.130423695
0.133965611 0.219354704 0.130676672
0.147374779 0.219860762 0.134092703
0.161290318 0.220367149 0.131309539
0.179127544 0.219228610 0.129791453
0.196837485 0.214927047 0.129285052
0.216318637 0.219354704 0.136243016
0.235673696 0.217710420 0.131056279
0.258444130 0.216192603 0.132574275
0.285768509 0.219228223 0.136495516
0.308918178 0.216445580 0.139911413
0.330550075 0.215433702 0.139025703
0.355977505 0.215433702 0.146236360
0.383808047 0.215686664 0.148260415
0.410626382 0.220366985 0.152688116
0.438203782 0.219987705 0.151549712
0.473118365 0.223023698 0.157621711
0.507273853 0.226818398 0.160784423
0.545730948 0.232890427 0.167868033
0.584060729 0.238962710 0.173055068
0.623149514 0.244275957 0.175584957
0.668690979 0.243263826 0.175584689
0.708033025 0.250854194 0.185958281
0.744465828 0.252371997 0.187476099
0.784819961 0.255281687 0.192156568
0.821505368 0.259962022 0.193801284
0.860468328 0.261227131 0.198861346
0.896141708 0.265401661 0.201897740
0.928905904 0.264136404 0.207590282
0.966856420 0.264262915 0.213662267
0.993168831 0.268184692 0.217963278
1.000000000 0.274256706 0.217963278
0.138772994 0.235927001 0.141050085
0.143326819 0.238203704 0.140290618
0.154964969 0.239089102 0.144718453
0.168880314 0.238583162 0.146489933
0.180645540 0.235927001 0.132827535
0.200379938 0.230613321 0.135104150
0.217583999 0.234914422 0.140417457
0.234914601 0.238203719 0.143959582
0.254649192 0.236686081 0.136369184
0.281973630 0.239721701 0.142441183
0.305629015 0.237697959 0.147754639
0.327893257 0.236686081 0.148513734
0.352181822 0.235927001 0.150031641
0.379506946 0.236180037 0.158127964
0.411891282 0.239215761 0.162681907
0.440480679 0.238962799 0.162935004
0.470841259 0.240480989 0.162934989
0.509171605 0.245920584 0.167109579
0.545983970 0.251866102 0.169892237
0.584440291 0.257938117 0.175711706
0.623908818 0.264010102 0.179127350
0.664136350 0.269070238 0.182415992
0.703478992 0.272106588 0.188108519
0.739911795 0.275142193 0.187476099
0.780898571 0.278178394 0.191271007
0.820746660 0.281973511 0.196078002
0.854649127 0.285009116 0.197596073
0.893864512 0.290828794 0.201138452
0.926122665 0.290449291 0.206830993
0.959519207 0.289184123 0.212144077
0.990891576 0.290955126 0.216445088
1.000000000 0.297027111 0.216445088
0.144845009 0.254143000 0.156230494
0.153953403 0.254143000 0.144085735
0.167109743 0.254269511 0.143326774
0.181024969 0.254269511 0.146489680
0.192789555 0.254143029 0.148007944
0.201897949 0.254143029 0.144971564
0.214041993 0.253890008 0.137128174
0.229727998 0.254269511 0.137128040
0.251612812 0.254902095 0.142441198
0.285009980 0.257938474 0.148513958
0.306514621 0.258064955 0.151676089
0.327893257 0.257938474 0.152814522
0.352561265 0.256799847 0.156103641
0.382542551 0.254396051 0.164199963
0.409866929 0.257432401 0.161163583
0.437444299 0.260468155 0.168121308
0.466286898 0.264768988 0.175078988
0.500063181 0.270208597 0.179253578
0.545604467 0.273244977 0.176217973
0.582415998 0.279190511 0.181783959
0.620872736 0.285262525 0.184060991
0.661353767 0.290322632 0.185199350
0.703478992 0.293358982 0.188108519
0.739911795 0.296394587 0.185072899
0.780898571 0.299430788 0.186717182
0.822011590 0.303858489 0.191270992
0.860721111 0.309297889 0.197596073
0.897153854 0.312333524 0.206704453
0.931056201 0.315496385 0.212902978
0.962555349 0.316508532 0.217204213
0.987982452 0.318279535 0.219481483
1.000000000 0.324351519 0.219481483
0.159645870 0.266539991 0.151044011
0.171663389 0.272358984 0.159266099
0.174319997 0.276660532 0.153573647
0.183175281 0.278178751 0.152561709
0.194813550 0.278178751 0.152688131
0.214041919 0.278178751 0.157242060
0.223150313 0.278178751 0.154206321
0.241492853 0.276534051 0.154079735
0.262239069 0.275268883 0.157874644
0.284883440 0.276154488 0.157495096
0.306641132 0.273371130 0.154838994
0.329917490 0.273371130 0.157874614
0.354332507 0.274509788 0.159898639
0.382669032 0.275268883 0.165212005
0.409993410 0.275648415 0.170145452
0.442125410 0.278684795 0.174319863
0.475015730 0.284756541 0.176850200
0.509424150 0.292219847 0.178747863
0.548134089 0.297532976 0.182542965
0.585325837 0.303351998 0.185072646
0.623655558 0.309424460 0.187223122
0.661100507 0.314484626 0.188235253
0.698039472 0.317646980 0.191144869
0.742820919 0.323465943 0.190891892
0.776976407 0.328778863 0.192409694
0.813409209 0.329664677 0.192662686
0.849842072 0.330676794 0.194686949
0.888678014 0.333712429 0.203795329
0.922453880 0.342061698 0.210246876
0.961163461 0.342062116 0.212776870
0.989879727 0.342694730 0.215559989
1.000000000 0.348766744 0.219607994
0.172802001 0.286780506 0.163188249
0.174826249 0.292852491 0.164199874
0.190512255 0.290828526 0.162681788
0.194307417 0.295635819 0.160910994
0.204174802 0.296774268 0.159772247
0.222138181 0.298418999 0.165844262
0.239342317 0.298418999 0.166350305
0.251739681 0.295130014 0.163314283
0.274130344 0.293232173 0.167488828
0.293611944 0.294497013 0.166982770
0.314737648 0.293611407 0.165970862
0.335989743 0.292599261 0.164958999
0.359139889 0.293737888 0.169133261
0.384187281 0.296521246 0.172802001
0.407969683 0.296521246 0.175331980
0.442125410 0.300948799 0.179380253
0.475522190 0.303985178 0.183934063
0.511448383 0.311448485 0.181910306
0.547881246 0.317520499 0.183807999
0.584313452 0.325616270 0.185072899
0.620746195 0.331688732 0.186211258
0.659076273 0.338773131 0.187223122
0.693864703 0.343832761 0.190132737
0.737507939 0.348007530 0.190132737
0.775964558 0.354079485 0.196457967
0.814926863 0.358760178 0.200885251
0.850853920 0.358001441 0.200252995
0.887286663 0.361037046 0.204807192
0.923465729 0.363314062 0.207210734
0.955091298 0.370651215 0.211511955
0.988614619 0.370145589 0.213535994
1.000000000 0.375079244 0.219607994
0.189500287 0.315623283 0.178747997
0.188741371 0.317140996 0.175711602
0.196204990 0.318026632 0.173940629
0.211764798 0.314611107 0.170398638
0.220493644 0.317267269 0.170778096
0.233396932 0.319544554 0.176091000
0.251107007 0.318911999 0.175964639
0.268817335 0.319038630 0.173181564
0.285515726 0.315243721 0.173181176
0.306768119 0.318279445 0.176976487
0.325743228 0.318405926 0.179379985
0.345857263 0.317267269 0.177102998
0.368247986 0.316128641 0.177102998
0.390006453 0.319165021 0.182416037
0.413030028 0.320050627 0.181530640
0.446299940 0.324857622 0.185072809
0.481214821 0.330550194 0.185831800
0.515243590 0.334218979 0.188867584
0.551676333 0.340290993 0.186843961
0.588108659 0.348007590 0.188868001
0.622264087 0.357495099 0.185452357
0.660720885 0.362555504 0.187476352
0.697406650 0.371283650 0.190512002
0.737887442 0.375332177 0.190512002
0.775838196 0.381783664 0.192789286
0.813029587 0.385325670 0.200505987
0.857052088 0.388868004 0.206578001
0.891081631 0.392536193 0.207843006
0.927134573 0.395192921 0.208981648
0.961163342 0.397596240 0.213029563
0.985325575 0.401897281 0.214294970
1.000000000 0.404680640 0.219607994
0.212523967 0.351043999 0.184313998
0.215812668 0.345224321 0.182795674
0.220240027 0.345856845 0.182795733
0.229095325 0.347375005 0.184060961
0.241493002 0.347375005 0.184946492
0.247565001 0.347375005 0.187982097
0.263504028 0.344844788 0.186211318
0.281214386 0.345350772 0.181530997
0.299684048 0.347881079 0.178747892
0.320936441 0.350917488 0.187855512
0.336875170 0.350791037 0.193548009
0.354585528 0.349272758 0.192283049
0.374826044 0.346489429 0.188740999
0.399114072 0.343453079 0.188740999
0.426439196 0.346489459 0.185705379
0.459962010 0.351676017 0.189120993
0.494876534 0.358001053 0.191397846
0.529158950 0.364579052 0.189626619
0.565591037 0.370651066 0.192663014
0.601770759 0.376470745 0.197469965
0.634914458 0.385832012 0.195319325
0.668817222 0.395445973 0.190512031
0.711195469 0.398734570 0.196457550
0.747754812 0.404933810 0.196584061
0.784693539 0.413029730 0.194560334
0.821125984 0.418469101 0.194939986
0.857305110 0.419228077 0.200759038
0.893737853 0.425300062 0.206831038
0.929917574 0.431119680 0.209993839
0.964579105 0.435420781 0.216571748
0.990891576 0.438330054 0.223908648
1.000000000 0.438330054 0.220873028
0.221631572 0.375331968 0.184313998
0.227704346 0.372296363 0.199494392
0.226692051 0.375079215 0.191524282
0.233143568 0.376723647 0.185072586
0.248071000 0.374699384 0.182163134
0.265780985 0.374699384 0.191018477
0.279443324 0.372169733 0.191524416
0.293611407 0.374067217 0.187602997
0.307779670 0.377229720 0.183807895
0.323972046 0.375205457 0.187855512
0.345224440 0.372422874 0.188235000
0.367235899 0.374067128 0.191524267
0.389121056 0.374699384 0.192662776
0.411258817 0.373813838 0.194812998
0.435546786 0.370778233 0.194812998
0.460468173 0.373813987 0.191777378
0.491840601 0.380518556 0.195192993
0.526502132 0.389626771 0.198734984
0.565591037 0.401011795 0.201771364
0.599241138 0.404301167 0.196457699
0.635167897 0.409867406 0.200506061
0.670335412 0.418216527 0.200379699
0.708159089 0.426059693 0.199493930
0.747628331 0.435167313 0.202530324
0.788741589 0.441365957 0.202656835
0.827198327 0.448070765 0.200632736
0.863124907 0.452372164 0.200506061
0.896774292 0.455660820 0.203795418
0.930550158 0.459076643 0.204554424
0.964579105 0.462745160 0.210499749
0.990891576 0.467552006 0.222264200
1.000000000 0.474762797 0.236053407
0.235546798 0.406830788 0.181910187
0.239215761 0.401391357 0.194686785
0.247438759 0.402656764 0.201265171
0.251739591 0.405945778 0.200505808
0.263504237 0.404427588 0.200126231
0.267552018 0.404427588 0.193042129
0.292852312 0.404301107 0.192157000
0.306388408 0.402909786 0.193801284
0.321568578 0.405945778 0.193042383
0.341682255 0.404554099 0.197723120
0.360278487 0.403921664 0.195445806
0.379506618 0.402909786 0.191397801
0.401897639 0.404427588 0.193295360
0.423150033 0.404427588 0.196078002
0.445287764 0.403542191 0.196078002
0.469576389 0.405312985 0.193674803
0.496900797 0.406830788 0.195192993
0.528779149 0.414547533 0.198735014
0.562934816 0.428462774 0.196458161
0.596837282 0.432258129 0.198355287
0.634029388 0.439089537 0.197975740
0.670967996 0.446679473 0.200506061
0.707652986 0.455660969 0.197596192
0.749398947 0.462491870 0.198355302
0.782036781 0.471600056 0.199114397
0.824035525 0.476407260 0.200506076
0.861986279 0.480961710 0.200506061
0.895382583 0.483997345 0.203542456
0.928778946 0.487033606 0.203922004
0.962175786 0.491840750 0.212776735
0.987602770 0.494623601 0.223149583
0.995193005 0.499177784 0.236812189
0.250727177 0.438709378 0.184946194
0.253763586 0.437191576 0.195572376
0.256546766 0.433017164 0.198228776
0.269449979 0.437318385 0.198734835
0.281340986 0.437444836 0.208854899
0.281720251 0.436306179 0.201644450
0.299430698 0.437824368 0.195066124
0.321568400 0.437824368 0.195319474
0.335230976 0.437824368 0.197596192
0.358000994 0.437824368 0.202150777
0.374952555 0.437824368 0.199493945
0.396205187 0.439342171 0.198987991
0.415559828 0.439342171 0.194054350
0.436812222 0.438836187 0.195825040
0.458064586 0.436306179 0.194560200
0.481720388 0.438709766 0.195192605
0.507526934 0.440227568 0.195192993
0.536622107 0.440227568 0.199367434
0.565211952 0.450980365 0.194180802
0.601391375 0.458064318 0.196457833
0.635547161 0.466413945 0.197975740
0.674003959 0.475522071 0.200000003
0.710435987 0.484503180 0.197596192
0.750157773 0.490575165 0.197596192
0.785072744 0.497406662 0.194560200
0.816824853 0.506514668 0.197343186
0.857938111 0.510309994 0.199493945
0.892346621 0.514357746 0.200506076
0.924224734 0.515875816 0.203922004
0.959139407 0.520683348 0.209740743
0.987223446 0.524098754 0.224035218
0.995193005 0.523466170 0.233776197
0.265274972 0.470335126 0.192789420
0.268311381 0.473371357 0.200632825
0.270461977 0.471220970 0.201138660
0.276786983 0.468943983 0.199367404
0.293484986 0.475016057 0.196710572
0.299556971 0.472738773 0.202277303
0.315117061 0.473497868 0.200126514
0.332700968 0.474889547 0.197090149
0.350284576 0.475522101 0.199367434
0.368500590 0.475522101 0.199367434
0.385705024 0.474889547 0.197090134
0.406325072 0.476280838 0.197469696
0.430107623 0.478810698 0.200126514
0.451613039 0.478810698 0.197596118
0.473244965 0.473497689 0.195319399
0.495635569 0.472738773 0.193927780
0.520809352 0.474889547 0.197596192
0.548133731 0.474889547 0.199367434
0.572422564 0.474889547 0.196331039
0.608728409 0.482605755 0.199493930
0.644402206 0.491714001 0.200000003
0.677545965 0.503479004 0.200000003
0.713977993 0.512460172 0.199747011
0.750410795 0.518532097 0.198735014
0.785199225 0.525237083 0.194813430
0.819228649 0.532068431 0.194307417
0.852119148 0.540670156 0.199367434
0.888298869 0.546742141 0.196457550
0.922580481 0.547501147 0.202024087
0.954585314 0.551043391 0.209867314
0.984819591 0.555091918 0.218595639
1.000000000 0.552055538 0.230740428
0.277419001 0.506767988 0.195825040
0.280455410 0.509803593 0.198861435
0.285641998 0.510689020 0.198102266
0.293737978 0.510183036 0.197596207
0.305629015 0.511448145 0.199746966
0.311701030 0.517520905 0.199746966
0.325363338 0.515243649 0.202783346
0.340796739 0.514358044 0.200126514
0.356230110 0.515117168 0.196331039
0.371537000 0.518027008 0.196331039
0.395572722 0.515117168 0.196331039
0.417078227 0.514358044 0.196078002
0.439722002 0.515749633 0.198608324
0.463757098 0.518279970 0.203668892
0.488045841 0.518279970 0.206704512
0.507273972 0.512966335 0.197217003
0.529032409 0.512207270 0.195445955
0.554206550 0.514358044 0.199367419
0.581531048 0.514358044 0.196331039
0.611385107 0.519924045 0.201644704
0.644402266 0.524351716 0.201771215
0.676786959 0.531183004 0.200000003
0.707906008 0.542821050 0.199747011
0.744338810 0.548893034 0.193674996
0.780771554 0.557242274 0.190385714
0.816951334 0.564706028 0.191271037
0.852119148 0.571031034 0.196331039
0.882479846 0.577103019 0.196331039
0.926628709 0.577862024 0.204047829
0.960278094 0.581404030 0.212903231
0.984819591 0.585705101 0.221125960
1.000000000 0.585452020 0.227704063
0.283997715 0.568248093 0.196078002
0.289816737 0.571283698 0.196331039
0.295003355 0.572169065 0.199367419
0.303605348 0.570904255 0.200126529
0.315369904 0.569006920 0.202024266
0.323845744 0.567868233 0.197216645
0.337508053 0.566350698 0.194686964
0.354332715 0.566603422 0.195572644
0.372928560 0.568500817 0.194813356
0.394181192 0.571537197 0.198861361
0.412523746 0.571537256 0.198861361
0.434788257 0.570525110 0.198861361
0.456040651 0.568248093 0.195445716
0.478178382 0.566350698 0.193042323
0.497406512 0.568880439 0.196078569
0.524098456 0.568880439 0.194307178
0.549525380 0.566603124 0.190891832
0.576976538 0.567109346 0.193801433
0.604301095 0.564959109 0.190765038
0.634408772 0.564959109 0.187729344
0.657178700 0.571031094 0.195698887
0.687159896 0.575964749 0.199240908
0.721188843 0.584313750 0.202530339
0.754964828 0.590385735 0.196457639
0.791397572 0.596457779 0.194939643
0.826439023 0.602277040 0.195192695
0.860974431 0.606451631 0.198861361
0.893611848 0.610246420 0.198861361
0.926628709 0.613662243 0.204174355
0.966350317 0.617330730 0.214926958
0.988741338 0.623402715 0.228589222
0.994433999 0.627197742 0.244148999
0.290069997 0.613029718 0.194180742
0.298039258 0.614168108 0.192283005
0.304111242 0.615053475 0.198228776
0.313978404 0.617583454 0.197470009
0.324477971 0.617583692 0.197849721
0.325996190 0.619101524 0.193295136
0.345857322 0.616065800 0.195445582
0.362681985 0.613029718 0.192409977
0.382416189 0.616318464 0.192157000
0.406704962 0.620493174 0.195951998
0.425173998 0.616824687 0.194307268
0.445414245 0.613029718 0.192410007
0.466666609 0.615306675 0.194687009
0.488172054 0.612523735 0.190132737
0.509677470 0.612270832 0.191524416
0.531309247 0.612903237 0.187855929
0.560151458 0.612903237 0.186337739
0.590512156 0.612903237 0.187729433
0.619101763 0.611132443 0.184693038
0.639721751 0.612776697 0.183554620
0.670082450 0.612776697 0.182416260
0.692346454 0.616824687 0.187476143
0.726754963 0.621125758 0.190765753
0.758380651 0.627197683 0.190006196
0.792156577 0.631372452 0.188488007
