Assets/EldamarStudio/100 Retro LUTs Pack/LUTs/cube/Diane LUT.cube
LUT_3D_SIZE 8
DOMAIN_MIN 0.000000 0.000000 0.000000
DOMAIN_MAX 0.903226 0.903226 0.903226
0.105881996 0.098039001 0.109803997
0.196331546 0.102340452 0.126249000
0.321315199 0.088678002 0.149778903
0.460214913 0.067172647 0.168121651
0.617330372 0.015053811 0.200632200
0.787476480 0.000000000 0.233143732
0.914611280 0.001644712 0.286907017
1.000000000 0.101328582 0.341429651
0.149779007 0.142694101 0.153320551
0.179127529 0.148134097 0.135230541
0.309171557 0.154459104 0.149399459
0.451739639 0.147375003 0.173687637
0.609867036 0.138773099 0.202150390
0.779759467 0.121062353 0.229601279
0.907147706 0.125869542 0.275521576
0.995825231 0.176217496 0.338520080
0.176344082 0.219481096 0.203795090
0.179759637 0.222517177 0.189627007
0.265655100 0.230360270 0.190512106
0.436432362 0.251486301 0.186211452
0.603162587 0.266413987 0.206957802
0.768247724 0.268817097 0.245034739
0.906009018 0.271094084 0.287539572
0.999240935 0.292726189 0.355471075
0.225300640 0.325743258 0.291967362
0.256672740 0.330043793 0.288931191
0.266034424 0.362428546 0.285515547
0.408096284 0.373940617 0.248829633
0.600505829 0.406830937 0.234281987
0.751043856 0.408981383 0.251106739
0.892852664 0.405819267 0.299937010
0.991397798 0.416318804 0.378747642
0.274257183 0.494876355 0.397976190
0.313092828 0.505882263 0.413662195
0.318659186 0.534851491 0.411132246
0.386464030 0.579885960 0.403035730
0.574193418 0.571790159 0.343074203
0.754079700 0.586843550 0.333206624
0.883364975 0.543706357 0.337381363
0.981657207 0.549905300 0.420746177
0.393295199 0.693232477 0.536622465
0.421632022 0.699557245 0.540797174
0.472738534 0.710563004 0.554965079
0.495888710 0.749019444 0.566729724
0.576344371 0.762428641 0.538267016
0.720683455 0.752182484 0.489436954
0.869702578 0.732827246 0.489436954
0.953446925 0.688551545 0.493990958
0.606325090 0.818216562 0.646679282
0.617710590 0.827956855 0.657305598
0.655281425 0.830613375 0.671473861
0.676154196 0.848956227 0.672486007
0.706514835 0.858317375 0.679443359
0.749904990 0.858570218 0.650980532
0.835547268 0.853510559 0.633523226
0.917267621 0.830486834 0.632258296
0.771789730 0.883744657 0.753193915
0.775205374 0.891334355 0.753067791
0.799746871 0.888425052 0.758001029
0.807842970 0.893485367 0.750284433
0.813408971 0.904743969 0.762302101
0.836811960 0.903351963 0.759645998
0.858697057 0.901201546 0.751928747
0.907274008 0.895509005 0.755976975
0.141935095 0.134471551 0.178747997
0.165464997 0.121569000 0.177988991
0.280202568 0.121948451 0.193674996
0.394433707 0.119164996 0.187729537
0.573813856 0.102846190 0.199493736
0.759266436 0.074889354 0.230107740
0.902466714 0.064010277 0.274130285
0.998734832 0.128652617 0.338772804
0.153320551 0.158760563 0.178747997
0.173687533 0.148134112 0.178368449
0.242125094 0.156736091 0.184187084
0.376850098 0.159898922 0.197596192
0.573940754 0.159519553 0.203415558
0.753067613 0.159519359 0.233143732
0.888298512 0.150917262 0.274256796
0.993927538 0.182795346 0.332953990
0.174446538 0.196331546 0.210879087
0.201138556 0.200632095 0.217963099
0.232637286 0.224162087 0.217457548
0.378873736 0.227957189 0.212776646
0.563946605 0.258570254 0.215053737
0.741808712 0.273877561 0.235420540
0.893991232 0.277672380 0.285515726
0.993674815 0.301707804 0.356609732
0.217836991 0.300696075 0.280834734
0.242504641 0.305882633 0.285515636
0.281593740 0.325743198 0.293231934
0.371663719 0.345224261 0.283618093
0.556103587 0.382036448 0.256926000
0.733333468 0.403794825 0.249083191
0.881467581 0.407337189 0.300063014
0.987602413 0.415053636 0.373181611
0.268564343 0.471852928 0.391777188
0.301075190 0.472485721 0.402276754
0.356862634 0.492852718 0.421758711
0.385325462 0.555218339 0.427324653
0.544339180 0.547881007 0.373054981
0.733712673 0.574952543 0.338646591
0.877166271 0.545351088 0.333586454
0.972422779 0.547754228 0.404807150
0.370145261 0.673244894 0.526755214
0.404174924 0.679443181 0.535104334
0.473497540 0.685389102 0.557748437
0.506135225 0.723845541 0.562934756
0.573561132 0.748260319 0.559772074
0.706135154 0.739911020 0.511827707
0.863757253 0.732321203 0.488677979
0.953320622 0.688677847 0.495762289
0.574446559 0.814421058 0.649589002
0.606704831 0.818216562 0.652877986
0.644781828 0.818595767 0.669196308
0.676154137 0.836306274 0.675522268
0.707652986 0.859076560 0.678051889
0.745730400 0.854649186 0.662745118
0.831625283 0.847944260 0.631245971
0.912207305 0.829981029 0.633143604
0.763314188 0.884250402 0.742694557
0.780391872 0.887286544 0.742947638
0.795699060 0.886400878 0.750917435
0.805945754 0.893864691 0.752941012
0.815180182 0.898292243 0.757115662
0.836938322 0.905755818 0.761543095
0.851106584 0.903099239 0.748766541
0.893485427 0.897786319 0.747122049
0.146615997 0.180265903 0.274257004
0.145856991 0.178747892 0.266793519
0.225806087 0.144212201 0.276660204
0.362302661 0.156103909 0.292220116
0.545224369 0.153700113 0.318153083
0.686274350 0.130676553 0.309677541
0.858950198 0.098545097 0.303225815
0.994686782 0.148133799 0.336369336
0.159140006 0.206198901 0.258190721
0.167741999 0.199114099 0.251992553
0.222644001 0.181784004 0.250347644
0.340038091 0.184566647 0.278178215
0.503352404 0.194434106 0.314357996
0.657305598 0.169386208 0.304744065
0.850094616 0.168121263 0.303858370
0.991777062 0.199746802 0.334345102
0.173308089 0.237444997 0.261606157
0.182669088 0.226818651 0.262492180
0.236686081 0.225679994 0.256167203
0.321694851 0.241745740 0.288298339
0.459835351 0.238203898 0.295383006
0.651739478 0.254775077 0.312713087
0.853257418 0.271726906 0.319670916
0.991144776 0.304237843 0.345730841
0.201011643 0.279190630 0.279190540
0.213915095 0.279316753 0.281214207
0.269449979 0.284756631 0.298039645
0.350158185 0.333712965 0.339152396
0.463630438 0.336369514 0.321568608
0.651992083 0.366477072 0.330929816
0.835547090 0.400632530 0.342441350
0.984313428 0.416698366 0.370524675
0.254143089 0.420493275 0.383048475
0.280328721 0.423529387 0.390133113
0.335357279 0.436179489 0.404300988
0.410878927 0.481594086 0.438583374
0.491208196 0.516888142 0.430866390
0.662745297 0.530170500 0.408222377
0.832131565 0.538140297 0.383681267
0.969892502 0.545730472 0.414168149
0.339784980 0.634029090 0.521695256
0.368500650 0.640227735 0.528146684
0.434914827 0.652751207 0.538646758
0.522960365 0.673117995 0.568247676
0.583428144 0.727387786 0.586843550
0.681087792 0.721948147 0.554838538
0.830992937 0.724098444 0.523719132
0.946995497 0.688424706 0.492852598
0.542820990 0.798482299 0.639089167
0.566223800 0.802024007 0.647438467
0.618469238 0.808728278 0.658949971
0.677292824 0.819734395 0.681340933
0.718153179 0.839468479 0.680835068
0.752055645 0.849842072 0.685642183
0.822138190 0.842631161 0.659709275
0.913092852 0.831245840 0.628210187
0.757242382 0.885009646 0.744085789
0.754459262 0.883111835 0.739405453
0.779000700 0.881973565 0.748640120
0.811511576 0.886274636 0.758760214
0.824920774 0.893864870 0.761923075
0.838076949 0.903858125 0.770018995
0.858317673 0.900821984 0.756356359
0.894244134 0.895509005 0.745224595
0.154586002 0.251106650 0.417583972
0.158127666 0.248323992 0.401391625
0.165464997 0.231119186 0.398735255
0.313345999 0.188868001 0.409740269
0.482099921 0.177609459 0.412776351
0.728526473 0.222011641 0.486148030
0.848070920 0.221505284 0.471853018
0.957368612 0.246047109 0.454522491
0.166223899 0.264769286 0.394433737
0.169765651 0.271853268 0.386211187
0.207843006 0.260847270 0.381150931
0.299683720 0.227957085 0.387602478
0.453763813 0.213156089 0.398355663
0.695255935 0.261226922 0.472359270
0.827957034 0.258444071 0.466414005
0.944212615 0.265401274 0.447817832
0.189373538 0.311069101 0.390765369
0.189373642 0.300696105 0.378368199
0.237191647 0.298039436 0.371789724
0.307526737 0.289816290 0.370904654
0.428083718 0.281593829 0.395572186
0.648956180 0.326502174 0.463757366
0.789373875 0.323086619 0.459203094
0.944971442 0.320430011 0.446426451
0.200506359 0.362681985 0.397469908
0.198355287 0.360278249 0.397469819
0.251233548 0.354458958 0.393674731
0.333459646 0.341429263 0.386211276
0.421379060 0.363820434 0.419228166
0.578747571 0.381783664 0.444528937
0.753447294 0.377356261 0.446805924
0.930929959 0.426945090 0.463250905
0.209234998 0.422264248 0.415559649
0.211258635 0.426945180 0.419861168
0.282226294 0.413535357 0.419481635
0.360910743 0.410752714 0.415939182
0.457937926 0.470967710 0.472738743
0.580392301 0.486654013 0.463377833
0.760784268 0.519797564 0.476027608
0.925490141 0.555723965 0.500948787
0.296267927 0.583048701 0.514990747
0.304996729 0.584187388 0.512839854
0.374699742 0.588361979 0.520429909
0.461227357 0.604048193 0.541176379
0.568627298 0.655913889 0.585325480
0.642631054 0.698798418 0.599873662
0.782669187 0.701201737 0.566856444
0.913598955 0.691714048 0.550410926
0.504237890 0.770145237 0.637824297
0.518279374 0.778367937 0.635167658
0.547121882 0.779886067 0.642884195
0.631372452 0.793042541 0.662491858
0.713725269 0.813409269 0.691587627
0.757874727 0.840227664 0.706135273
0.805439532 0.838329911 0.678178668
0.889690161 0.832131445 0.656419933
0.736116350 0.878811181 0.738013625
0.743453145 0.872991621 0.734724760
0.751929045 0.876027822 0.742947221
0.793927789 0.883870840 0.751928747
0.829981148 0.889310598 0.770651162
0.843389928 0.898798227 0.774193823
0.858823657 0.899683654 0.766223788
0.895382762 0.899430990 0.759771824
0.145730197 0.349399000 0.561796188
0.153194353 0.342694640 0.554205954
0.145730197 0.339152187 0.546110153
0.198734835 0.289816380 0.542188168
0.427830368 0.256799191 0.568121374
0.628210306 0.226945177 0.563820601
0.859076679 0.350664169 0.616066217
0.966097593 0.421631813 0.608981371
0.155597642 0.355977029 0.544971526
0.160278440 0.357621729 0.553953290
0.154712364 0.361543536 0.536622345
0.249968201 0.334092557 0.536749125
0.421505362 0.292726338 0.563567340
0.605819046 0.269323379 0.558886766
0.840227723 0.384187549 0.615053415
0.955597460 0.440860182 0.608855307
0.192156807 0.399494201 0.525490284
0.195192993 0.405439734 0.528526008
0.192030087 0.402656287 0.524984181
0.301328570 0.392030567 0.510689318
0.400253266 0.356356382 0.528779268
0.575332105 0.342694521 0.549525738
0.811764657 0.457179189 0.613662362
0.932194829 0.492346555 0.607337177
0.200252742 0.459835470 0.530802906
0.204554200 0.456293613 0.536749005
0.200632289 0.454269379 0.525363863
0.323971838 0.445667177 0.506514788
0.422643721 0.438583195 0.514231801
0.548766732 0.430360615 0.539785087
0.771663487 0.535356998 0.606198609
0.897027075 0.519544780 0.590638578
0.220872998 0.527134418 0.550664365
0.221632183 0.524477959 0.548387170
0.213029996 0.526375532 0.544592142
0.346615821 0.505502760 0.532827377
0.445035189 0.506009161 0.516255379
0.551169813 0.532320917 0.556735933
0.718406200 0.570398450 0.581530452
0.863630533 0.554459333 0.571536958
0.259203106 0.609867096 0.571536958
0.263757259 0.611385047 0.571663618
0.259835273 0.607084334 0.566856623
0.374699831 0.595319271 0.561163962
0.491840452 0.588488162 0.558127940
0.603415728 0.634662032 0.591903806
0.720303476 0.657938302 0.597469747
0.875901520 0.689689994 0.608855247
0.462238848 0.741176307 0.622770548
0.467172563 0.742314994 0.621252418
0.474636644 0.744971395 0.633776069
0.533459961 0.749272704 0.635800004
0.643643558 0.767615557 0.662239194
0.737381399 0.800379694 0.696141720
0.795951545 0.828463197 0.711575091
0.874636173 0.824035704 0.685642064
0.728652775 0.862871468 0.736369610
0.727640569 0.865275204 0.736116230
0.734345496 0.869702697 0.732953906
0.738772750 0.872106373 0.736369371
0.796457767 0.876027822 0.756609976
0.847944558 0.889816701 0.775964320
0.868184566 0.899683774 0.790132999
0.892472863 0.896774173 0.769386351
0.232511193 0.456293732 0.672106743
0.234535456 0.454269469 0.668058217
0.232637733 0.452371716 0.666160464
0.218342721 0.444149494 0.658190966
0.321821362 0.376343817 0.668184757
0.550284684 0.346362740 0.679696739
0.750917077 0.330170572 0.693484962
0.938772798 0.483744413 0.711321712
0.237950921 0.453763753 0.667046070
0.231372476 0.459835440 0.661733150
0.234155908 0.457811713 0.658064663
0.232258171 0.460088640 0.646805823
0.334851265 0.410246491 0.655787468
0.545983255 0.380138814 0.677419543
0.736116290 0.361669868 0.682732463
0.925995886 0.499557048 0.707020998
0.257305443 0.506514728 0.659961998
0.253889740 0.508791745 0.656040311
0.261986464 0.503605366 0.644528747
0.252118826 0.498544902 0.636559069
0.409361273 0.488678068 0.648576856
0.532574475 0.454269558 0.667805433
0.721315682 0.442251772 0.678937435
0.907020867 0.575584888 0.706767976
0.294370830 0.551296473 0.644528747
0.295256019 0.548134208 0.637824178
0.280075997 0.550664365 0.639848113
0.286907285 0.550158083 0.632890463
0.447058767 0.552941144 0.629601657
0.533206463 0.530423999 0.646426439
0.696015060 0.520935953 0.662491918
0.887665987 0.643010676 0.707653463
0.322453886 0.611764669 0.649842024
0.322074652 0.617710114 0.646679521
0.316255778 0.611764550 0.644908249
0.325490355 0.608728588 0.642884016
0.464768946 0.605439425 0.624035478
0.574193478 0.612523437 0.637191296
0.686021328 0.607843161 0.657558620
0.868817210 0.719291747 0.715243518
0.384946167 0.681594014 0.667931736
0.380012661 0.681594014 0.661100507
0.376849830 0.684376836 0.656672955
0.373561203 0.679569721 0.648450732
0.491587639 0.676154256 0.645035207
0.591397464 0.671853185 0.636811733
0.702593565 0.700822294 0.661480308
0.838962734 0.727640748 0.684882879
0.459456265 0.766223550 0.677292705
0.462618589 0.759139538 0.678684175
0.465781271 0.762302458 0.682099879
0.454522252 0.762808144 0.677166283
0.531182826 0.756103814 0.674509943
0.650980234 0.746362805 0.671473503
0.754079878 0.787855625 0.697532773
0.841745734 0.799493730 0.696141720
0.683491409 0.847564816 0.725742936
0.684123576 0.848197281 0.727134824
0.694497049 0.849462509 0.730929613
0.704237700 0.855914056 0.733459413
0.724478126 0.858696997 0.738013744
0.806957603 0.870840967 0.754332840
0.864010096 0.889437079 0.791144967
0.890448987 0.894244134 0.784692943
0.414547831 0.592030585 0.751929283
0.412524015 0.591651022 0.756103754
0.407336831 0.586464286 0.750916958
0.402782857 0.580265582 0.744718313
0.398987740 0.564579368 0.754205942
0.479190171 0.494497091 0.765211999
0.655155301 0.469829559 0.769259930
0.836812019 0.482099921 0.769259810
0.405060142 0.581910312 0.753194273
0.399114281 0.581656814 0.747627974
0.403668553 0.582669377 0.752055705
0.396078169 0.575205624 0.744592249
0.402024031 0.571536839 0.741809011
0.485009730 0.517140806 0.749272227
0.655661285 0.495129496 0.762302399
0.826818407 0.493105650 0.769259810
0.416698277 0.611005366 0.743074000
0.422896802 0.610120058 0.746868849
0.416824520 0.609361053 0.743074000
0.414421290 0.609866917 0.741555989
0.443643361 0.611891210 0.736749172
0.521695077 0.582289934 0.738520026
0.661100566 0.568500817 0.755470991
0.826818287 0.562681854 0.766476929
0.442125469 0.650221229 0.731941521
0.444908559 0.650853515 0.731941521
0.440733999 0.651107073 0.732827187
0.437571198 0.647944272 0.729664505
0.460594624 0.651865959 0.727766871
0.577356279 0.654395819 0.727134407
0.663630545 0.634661674 0.747501612
0.813156247 0.633649528 0.755850375
0.481214285 0.693358362 0.724098563
0.483111829 0.697785795 0.721948028
0.479443282 0.696521223 0.727134526
0.479317009 0.693105638 0.730297267
0.476660430 0.691081464 0.714737296
0.611132324 0.713346004 0.719164789
0.685515523 0.693358302 0.732953727
0.813409030 0.702846408 0.749778628
0.533586562 0.752561688 0.736622214
0.533712566 0.751169801 0.736495733
0.534345448 0.751802623 0.735610545
0.525616884 0.750157893 0.728652596
0.520177007 0.745224357 0.731688499
0.625174224 0.746742606 0.721821249
0.724224925 0.760151744 0.722580552
0.818216145 0.770145297 0.757115245
0.579885840 0.802529991 0.736875296
0.578241587 0.800885260 0.739785016
0.581404030 0.796205223 0.742315173
0.577609122 0.796964288 0.740797281
0.573687315 0.792283416 0.739152312
0.658823490 0.796205282 0.734851480
0.743326843 0.800885201 0.729032278
0.829980791 0.827577591 0.753952742
0.692852318 0.856419802 0.758886993
0.693611443 0.857178807 0.758633733
0.692346275 0.855913997 0.758380711
0.692346275 0.858950138 0.759518981
0.684376955 0.862365603 0.759266376
0.711068749 0.857305527 0.754712284
0.806198299 0.861353397 0.760151386
0.873750687 0.883870780 0.791397512
0.600632429 0.720682919 0.800126791
0.592662573 0.718026817 0.797469974
0.592156887 0.720050514 0.798229039
0.588741601 0.714104772 0.801391661
0.581910074 0.711574733 0.798608601
0.575837791 0.695509017 0.803035676
0.634408236 0.650980413 0.811132133
0.748007834 0.614927411 0.819734156
0.588235259 0.714863777 0.801897407
0.583934307 0.717647254 0.800632596
0.589753151 0.717647254 0.802909374
0.585072994 0.712966442 0.798988163
0.581151009 0.710183799 0.797343433
0.577229202 0.688424885 0.795572221
0.631625414 0.644782066 0.808476031
0.741429627 0.622643650 0.816445112
0.597849548 0.719417751 0.801391661
0.594307125 0.721695244 0.794434071
0.592156887 0.720050514 0.802024066
0.592156887 0.720050514 0.798229039
0.588235319 0.716129065 0.798102617
0.604807138 0.712334037 0.797343433
0.653763711 0.682099998 0.808476031
0.756356537 0.664768994 0.808981836
0.609993398 0.742061913 0.789120615
0.616445124 0.738899112 0.795572221
0.610120237 0.739658415 0.791018009
0.608095884 0.743580103 0.792536199
0.599746943 0.741682649 0.791524351
0.642504752 0.747501314 0.787223160
0.689310551 0.728905618 0.795192778
0.769133627 0.718026578 0.807463646
0.636305988 0.772295773 0.792409658
0.641239762 0.773814082 0.789373696
0.636179745 0.774699628 0.792283177
0.631878614 0.770398438 0.787981987
0.630739987 0.769259810 0.786843598
0.649335563 0.770018816 0.785452247
0.733333111 0.779886246 0.789373755
0.794054270 0.771284044 0.796458185
0.681214631 0.807969630 0.786464036
0.680581689 0.809234798 0.791524231
0.677419424 0.808348954 0.790259063
0.674003661 0.804174483 0.789753139
0.668058038 0.801771283 0.788741231
0.664389789 0.798735023 0.785704970
0.773687661 0.821505487 0.795066297
0.814167976 0.819354773 0.797469795
0.710436225 0.843263686 0.784440160
0.714231610 0.843516648 0.790891826
0.712333977 0.837571025 0.791271329
0.712713540 0.837950647 0.791651011
0.708791912 0.835547090 0.787223279
0.699177623 0.837318003 0.788361788
0.764452755 0.841871977 0.781530440
0.839848280 0.859582782 0.794054389
0.770398438 0.874636114 0.784313977
0.762049615 0.869449973 0.793295562
0.765211582 0.873371005 0.793547988
0.766729772 0.873624325 0.791271329
0.760910749 0.873624325 0.792283177
0.759898543 0.877166450 0.798228920
0.798102736 0.875268817 0.789879560
0.864262819 0.883870780 0.797596812
