Assets/EldamarStudio/100 Retro LUTs Pack/LUTs/cube/Diana LUT.cube
DOMAIN_MIN 0 0 0
DOMAIN_MAX 1 1 1
LUT_3D_SIZE 32
0.109803997 0.090195999 0.078431003
0.121947996 0.087160386 0.081467390
0.136242777 0.088425227 0.084503770
0.152687997 0.090195999 0.086274996
0.172042638 0.089816548 0.086274996
0.199367806 0.086780936 0.086274996
0.221632317 0.091334999 0.086274996
0.244528979 0.092473291 0.086274996
0.269576102 0.089437097 0.086274996
0.296900511 0.086401477 0.086274996
0.321315736 0.089184128 0.086274996
0.347628266 0.086148009 0.086274996
0.376091272 0.084629998 0.086274996
0.406199008 0.089943029 0.086021967
0.433523387 0.086907417 0.082985587
0.463250965 0.086274996 0.079949200
0.498165548 0.087792799 0.079949193
0.537002087 0.089563578 0.080455437
0.573434949 0.086527959 0.071347028
0.609867036 0.083491646 0.070588000
0.651992202 0.080455266 0.070588000
0.694497287 0.079443134 0.069576129
0.731182992 0.082353003 0.066540487
0.773687780 0.082353003 0.063504092
0.813915253 0.080075718 0.060468290
0.851992309 0.075648010 0.054649338
0.887919068 0.070588000 0.045540936
0.921315432 0.070588000 0.036432557
0.962681592 0.070588000 0.032637846
0.987475932 0.067046016 0.027830567
0.996078014 0.062744997 0.020872626
0.996078014 0.062744997 0.011765000
0.106767610 0.099304385 0.084503770
0.121947996 0.102339998 0.081467390
0.138393551 0.101454608 0.086654000
0.156989560 0.103605159 0.085515447
0.177356318 0.104996838 0.080961324
0.199367806 0.101960547 0.086274996
0.224161997 0.101454608 0.086274996
0.244276017 0.103225611 0.082985580
0.265781403 0.102339998 0.079443328
0.290828526 0.101581089 0.077166617
0.321062744 0.101454608 0.080075741
0.345604002 0.102339998 0.082226485
0.373054892 0.100568995 0.083238617
0.403162628 0.102087028 0.083238617
0.430487007 0.099051423 0.082985587
0.460215211 0.098419003 0.079949200
0.495129555 0.099936806 0.079949193
0.533333123 0.101707585 0.081720427
0.567362189 0.098671973 0.077419028
0.612144291 0.101201639 0.076660000
0.649335861 0.102466732 0.076660000
0.689437151 0.101707637 0.074635997
0.728146553 0.100568995 0.069323137
0.770651400 0.100568995 0.060468480
0.810879409 0.098292291 0.057432096
0.848956287 0.096647777 0.054395940
0.885388732 0.093864776 0.048576683
0.921315432 0.088804774 0.039468944
0.954711735 0.088804774 0.030360566
0.985451996 0.085262790 0.024794631
0.999114394 0.081847154 0.021378770
0.999114394 0.083997384 0.020872613
0.108032770 0.112713777 0.081973448
0.123213157 0.117900155 0.083238617
0.136242777 0.118785545 0.082353003
0.156989545 0.117520384 0.088425003
0.178747997 0.118785545 0.083364777
0.198229164 0.119291611 0.078811094
0.222011775 0.116634771 0.084124222
0.244655475 0.116634771 0.082479522
0.265655100 0.115875870 0.078431003
0.291334808 0.114484549 0.076786712
0.319291741 0.116634771 0.079569906
0.343580246 0.114611037 0.080581777
0.370018750 0.114484549 0.082353003
0.400379300 0.114484549 0.082099974
0.429601401 0.113346197 0.080202229
0.459329605 0.112713777 0.079949200
0.492726386 0.114231579 0.081467383
0.531562269 0.117267348 0.082606211
0.567994773 0.117267743 0.076533802
0.608222306 0.117647193 0.076280773
0.649968445 0.116887808 0.072485775
0.685642123 0.118405998 0.069955781
0.723086536 0.116634771 0.064263254
0.767615557 0.116634771 0.063251123
0.807843029 0.114358068 0.056546710
0.844528854 0.112713777 0.052119009
0.879696071 0.112713777 0.048323710
0.914484084 0.109930776 0.042504687
0.952561498 0.109171771 0.022644181
0.982415855 0.109171771 0.024161749
0.997343421 0.105629772 0.018216245
0.993548214 0.107400544 0.014927001
0.111068837 0.132954165 0.082226165
0.126249224 0.133966148 0.081467390
0.138014004 0.135737151 0.083618164
0.156483158 0.137001991 0.084883004
0.180771932 0.133965701 0.089816548
0.200759158 0.135231093 0.080329165
0.220240638 0.134471998 0.079570003
0.244149536 0.133080319 0.083238617
0.266161025 0.133080319 0.079443134
0.292979509 0.130550638 0.078431003
0.319038719 0.130803287 0.081340872
0.343580246 0.132321417 0.083618164
0.368247986 0.130424157 0.082479522
0.398355097 0.130171135 0.082099974
0.427703977 0.129159003 0.079063587
0.459329605 0.130424157 0.078431003
0.490196049 0.130677119 0.078937061
0.527893782 0.134345308 0.084377252
0.567994833 0.138014123 0.077799030
0.607463539 0.137001991 0.074510001
0.645667255 0.137634575 0.071979843
0.683112144 0.134598181 0.064895973
0.716761529 0.134471670 0.058697488
0.760025442 0.135610312 0.059456099
0.802277088 0.134598449 0.056925841
0.837697625 0.130424157 0.050853848
0.871600091 0.130930096 0.045287903
0.905755579 0.131688997 0.042251714
0.944465280 0.131688997 0.025679886
0.980645120 0.131688997 0.014547748
0.998229027 0.131688997 0.019228011
0.989500165 0.131688997 0.007843000
0.114484094 0.159519553 0.089437000
0.128525928 0.154206544 0.084503546
0.140164316 0.152055994 0.084503770
0.156862706 0.152561933 0.087160386
0.182669088 0.154838547 0.089437000
0.206957862 0.151802942 0.086401388
0.224794775 0.151676551 0.084124230
0.244149521 0.151297003 0.083618164
0.268058181 0.151676551 0.085895352
0.292346984 0.151676551 0.079822578
0.317014545 0.148766682 0.081340872
0.341682494 0.149778813 0.084377259
0.368247986 0.151676551 0.085515901
0.398102045 0.151676551 0.082226485
0.425300688 0.148766682 0.079063587
0.458191246 0.150537804 0.079190098
0.490069538 0.152055994 0.078810550
0.522580087 0.152941540 0.078684032
0.565084994 0.159013554 0.081720419
0.604427516 0.157495186 0.076786995
0.641619444 0.157495290 0.072612263
0.677799106 0.159266412 0.068311132
0.711195469 0.156356543 0.059203494
0.750157893 0.159139901 0.055661093
0.791524053 0.159898996 0.052624714
0.828462720 0.158254564 0.046679012
0.859835565 0.152941480 0.041492514
0.896268308 0.155977085 0.038456909
0.934977770 0.156356543 0.027450899
0.972295761 0.156356543 0.019228019
0.998988032 0.155977100 0.013156010
0.992915988 0.155977100 0.007084001
0.120556869 0.180771932 0.083365001
0.126628861 0.180771932 0.086401381
0.140670717 0.177609161 0.085768931
0.159899101 0.175079152 0.086274996
0.185705483 0.173055321 0.086401388
0.200885862 0.170018926 0.083365008
0.225173995 0.172043309 0.085389383
0.244655460 0.171284214 0.084124222
0.264643013 0.170272082 0.084377065
0.286274999 0.172928929 0.088930957
0.313472867 0.170019060 0.082858942
0.340291172 0.171031192 0.084377259
0.368247986 0.172928929 0.086274996
0.398102045 0.172928929 0.085262865
0.422390819 0.172928929 0.079190105
0.459202856 0.174826056 0.083238609
0.493105441 0.176343992 0.083744675
0.525363505 0.176976562 0.081214361
0.565084994 0.180265933 0.078684032
0.602023721 0.183554575 0.076154418
0.637065291 0.181783676 0.072612263
0.672992110 0.181783795 0.069576129
0.711195469 0.183680937 0.065275498
0.744591951 0.183680937 0.056167092
0.783554792 0.184186995 0.052624714
0.819354892 0.185578674 0.042631030
0.850727201 0.186084867 0.029475000
0.887159944 0.183301479 0.029348519
0.923592687 0.183680937 0.018343091
0.958760142 0.183680937 0.011511720
0.987349629 0.182795554 0.007084010
0.998987973 0.180265874 0.001012001
0.129158676 0.204553992 0.084883317
0.140291318 0.204553992 0.087919064
0.150664330 0.206704766 0.088804677
0.166730002 0.204427466 0.087539837
0.189120770 0.201011986 0.086274996
0.206451938 0.195825383 0.085389383
0.224161997 0.197849646 0.079822674
0.250094712 0.200885609 0.081214353
0.274003863 0.200379312 0.080581777
0.300569504 0.201644480 0.084883004
0.325110555 0.198861778 0.089437000
0.354459167 0.197849646 0.085389256
0.381151259 0.200379670 0.086274996
0.408475667 0.201770991 0.086021967
0.435041130 0.201770991 0.082226492
0.471347094 0.206577986 0.080961324
0.510815859 0.209740505 0.082226492
0.546742737 0.210752636 0.078557692
0.588108957 0.211891279 0.073624030
0.624794006 0.212397277 0.075648353
0.659329534 0.213535637 0.066920005
0.693738341 0.212144315 0.059962198
0.731562018 0.213662148 0.053637177
0.767362237 0.216065958 0.044528775
0.807589889 0.216065958 0.044528969
0.844528973 0.216065958 0.037823990
0.876028001 0.217963576 0.023402743
0.908412218 0.218975186 0.017331004
0.947375238 0.216065958 0.009234704
0.973181605 0.216065958 0.004174679
0.993042290 0.213409364 0.002783001
1.000000000 0.207084313 0.000000000
0.136621997 0.228842407 0.086274996
0.140544072 0.227197692 0.086021617
0.154333010 0.229348466 0.086907007
0.167742163 0.229854524 0.085641846
0.185958266 0.227577239 0.084124126
0.205439880 0.225300401 0.087919287
0.228589714 0.223529309 0.081214353
0.250094712 0.224920988 0.078431003
0.276660204 0.227197692 0.080708094
0.305250019 0.227197692 0.085515484
0.331435710 0.224288568 0.084883012
0.358127505 0.224920988 0.086527549
0.389626652 0.226059631 0.083491646
0.416192383 0.229095370 0.082985580
0.446300119 0.230486691 0.081340879
0.478304774 0.233649403 0.077419296
0.516255379 0.236685410 0.074383296
0.554965377 0.240860268 0.071853004
0.595446289 0.243896410 0.067805000
0.632384717 0.243896410 0.061859660
0.668564200 0.243896410 0.061986301
0.704997003 0.243896410 0.052878167
0.742820501 0.244149402 0.045034818
0.780771554 0.248703599 0.035926808
0.818469226 0.247817993 0.030992875
0.859582365 0.249209657 0.028463280
0.894497335 0.248956636 0.017077651
0.928272963 0.249715239 0.007969758
0.963314414 0.247438535 0.003795180
0.983807981 0.249462694 0.000000000
0.998481989 0.248577088 0.000000000
1.000000000 0.240986690 0.000000000
0.141176000 0.251612991 0.086274996
0.141935468 0.250094801 0.082479522
0.149525777 0.250600874 0.083112098
0.164706156 0.252624929 0.080328941
0.180645540 0.249588639 0.078431100
0.201897934 0.251866043 0.087159939
0.226692319 0.251359791 0.083364777
0.251613081 0.249209195 0.078431003
0.277419120 0.249209195 0.079190098
0.301707923 0.249209195 0.088298477
0.328905791 0.247817874 0.083617911
0.355471253 0.248829931 0.081593908
0.385072649 0.251865834 0.081214361
0.418216079 0.254649192 0.077925004
0.451107144 0.257178843 0.076912999
0.482858986 0.260973990 0.073624007
0.514737368 0.262492180 0.069069996
0.550537527 0.263757169 0.062365588
0.586843908 0.272739083 0.061986081
0.624794662 0.274257004 0.054648984
0.660468280 0.274257004 0.047059000
0.698924959 0.274257004 0.044528872
0.741176009 0.274257004 0.041113015
0.780012667 0.279064029 0.031372808
0.817963541 0.279822886 0.023782426
0.855787635 0.279569685 0.017077599
0.894244075 0.281594068 0.009487906
0.933206439 0.278557748 0.001138559
0.965844274 0.276280940 0.000759096
0.989373982 0.277040094 0.002277094
0.993927956 0.279696584 0.000000000
1.000000000 0.276660204 0.000000000
0.141176000 0.269829035 0.086274989
0.153320774 0.272865415 0.080202229
0.160531491 0.273497999 0.082859062
0.170778155 0.274889350 0.082353309
0.186717540 0.276913047 0.075395472
0.207969934 0.273877442 0.081467479
0.229222313 0.276154190 0.082606003
0.250727713 0.275648236 0.080581777
0.274383485 0.273497999 0.079190098
0.304743528 0.273497999 0.082226485
0.331941396 0.276407123 0.079696134
0.357242018 0.279190302 0.078557521
0.385072649 0.282226652 0.078557521
0.418216079 0.285010010 0.077924997
0.448576808 0.285010010 0.071852997
0.481467307 0.289943486 0.070840992
0.513219357 0.292852998 0.070587993
0.544465542 0.294117987 0.068437584
0.577862024 0.300190002 0.059329960
0.619734287 0.303605169 0.061733119
0.656293273 0.304617047 0.054648999
0.692852259 0.304617047 0.044022866
0.735104024 0.304617047 0.035041008
0.771536827 0.304617047 0.022896992
0.810373306 0.307147324 0.013156231
0.849715650 0.309930325 0.005566009
0.888172090 0.311954111 0.000379518
0.921568453 0.308918476 0.000379518
0.949904799 0.308539003 0.002656832
0.979253411 0.308412492 0.007337463
0.999746978 0.306894511 0.008728881
1.000000000 0.300949007 0.000000000
0.144085869 0.296773881 0.074636258
0.150410905 0.299810261 0.077293091
0.164705902 0.302846104 0.075521871
0.175585002 0.303604990 0.075016126
0.189500213 0.305375963 0.070208997
0.208222941 0.309930652 0.081340998
0.232005000 0.304364085 0.079822682
0.256925821 0.306261569 0.081087843
0.282226205 0.306514859 0.081340872
0.310436010 0.306514859 0.082226478
0.332067877 0.306514859 0.076534003
0.361416489 0.307526737 0.075521871
0.388614625 0.309677511 0.074383229
0.418216079 0.312713832 0.072106004
0.448576808 0.315369993 0.066034004
0.481340796 0.317773819 0.064769000
0.514737189 0.323339880 0.060214810
0.547754228 0.326122880 0.056672711
0.583428025 0.327640861 0.056673087
0.619607747 0.328146875 0.047564771
0.658064485 0.331055999 0.042504881
0.693485141 0.332067877 0.033396747
0.731815338 0.332194388 0.026185658
0.765464783 0.334977746 0.016824998
0.801897526 0.337255031 0.011511713
0.837950766 0.338899732 0.006451682
0.873877227 0.339405537 0.002909871
0.909677386 0.336369306 0.002909871
0.943073750 0.335989863 0.000253038
0.976217330 0.335989863 0.001012129
1.000000000 0.335989863 0.003036130
1.000000000 0.333965868 0.000000000
0.149145991 0.328146756 0.066540003
0.157242253 0.329158902 0.073624387
0.163693771 0.332194746 0.070462003
0.180138990 0.335230678 0.067932002
0.194939554 0.335989743 0.063377999
0.214800611 0.338773131 0.072233006
0.238077253 0.338773102 0.073750943
0.259076238 0.337634027 0.072359264
0.285262108 0.339911252 0.073497914
0.312586516 0.339911252 0.072232746
0.338140398 0.339911252 0.068438008
0.363440752 0.339911252 0.064389750
0.393801242 0.339911252 0.064389750
0.422011107 0.341556013 0.062492006
0.450601071 0.341050059 0.059962004
0.485388815 0.348133802 0.054649007
0.517267346 0.349651992 0.053130813
0.549525380 0.354079574 0.045667011
0.583175242 0.355471253 0.044528715
0.619607985 0.355471253 0.040480901
0.654142976 0.355471253 0.031372529
0.690449297 0.359392494 0.024288621
0.726755500 0.361416489 0.018975019
0.760151923 0.362555146 0.007969650
0.793801308 0.365591526 0.005439716
0.833016992 0.365844578 0.007969666
0.867805123 0.365211964 0.007463932
0.901201844 0.363693804 0.005945740
0.934977770 0.363314241 0.003289424
0.966603398 0.363314241 0.002024256
0.995445967 0.364199847 0.002024256
1.000000000 0.365338504 0.002024256
0.152941003 0.374067277 0.054775361
0.164326400 0.372928917 0.061606750
0.174699649 0.375079155 0.062239360
0.185831621 0.376976430 0.058444358
0.204427183 0.379253805 0.053131361
0.225679576 0.378494918 0.057685364
0.247185290 0.378494918 0.056420363
0.272738636 0.380139202 0.055281721
0.294749916 0.382415920 0.057558812
0.322833449 0.382415920 0.056040522
0.346742600 0.381277561 0.050727587
0.375205904 0.381277561 0.048830107
0.403668642 0.381277561 0.045793720
0.433775753 0.381277561 0.045540750
0.461100847 0.379127353 0.044655364
0.496774256 0.382289737 0.039848369
0.532447636 0.387981921 0.035294171
0.563440800 0.387349516 0.031625375
0.594307661 0.389373899 0.025553361
0.629095733 0.390765280 0.023403071
0.664769351 0.393042266 0.021126268
0.697153926 0.391018271 0.014041876
0.733207107 0.396457791 0.011132004
0.766603589 0.397469908 0.003035997
0.803415596 0.398608536 0.002276998
0.835293949 0.398861587 0.000759020
0.875774801 0.396331251 0.008349358
0.906135499 0.396331251 0.005945554
0.940291047 0.396331251 0.004048201
0.967362344 0.397469908 0.002783356
0.987097025 0.397469908 0.002783356
0.997722983 0.400253266 0.002783356
0.153194040 0.436559021 0.034788001
0.168374419 0.434029430 0.037571356
0.183048740 0.435547292 0.036938969
0.200000033 0.437824070 0.037950970
0.217330545 0.437950552 0.037191939
0.238582939 0.434914917 0.037191939
0.258823633 0.434156030 0.032637939
0.282859027 0.435294300 0.028969262
0.313472241 0.437571019 0.027198032
0.346869409 0.437571019 0.036306418
0.366476983 0.434914887 0.029222099
0.392789513 0.433903009 0.025933001
0.423150003 0.433903009 0.024794357
0.453510076 0.433903009 0.022517001
0.480835170 0.433903009 0.019481391
0.517267764 0.433650017 0.014295005
0.555218339 0.434914857 0.009740808
0.591271520 0.437444627 0.006578009
0.624668002 0.434408993 0.000506000
0.658064425 0.436432660 0.000505999
0.693105459 0.441366017 0.002150708
0.727767289 0.443643063 0.003162904
0.758381009 0.437950552 0.000126520
0.791903913 0.440986902 0.000000000
0.831372559 0.441493034 0.004301028
0.867425680 0.440860361 0.005060010
0.895509124 0.438077033 0.000000000
0.925869823 0.438077033 0.000000000
0.961290598 0.438330054 0.000000000
0.987096965 0.439342260 0.000253032
0.998229027 0.442252040 0.000000000
0.992156982 0.442252040 0.000000000
0.156230420 0.451739401 0.028716005
0.171410799 0.454775810 0.028716005
0.182289645 0.458697379 0.016445592
0.198987901 0.464136809 0.014674608
0.219734415 0.468564272 0.021632051
0.226438940 0.471346885 0.012903186
0.260341644 0.468311310 0.012903186
0.284756720 0.465907693 0.014927175
0.309424549 0.464895397 0.014547594
0.337761045 0.464895397 0.005945683
0.365338445 0.464895397 0.012144193
0.392789513 0.464262962 0.008981857
0.423150003 0.464262962 0.006578375
0.453510076 0.464262962 0.004301017
0.483870775 0.464262962 0.010373012
0.516002357 0.461859763 0.007337400
0.552181959 0.460974395 0.003668814
0.588614702 0.462871790 0.001265007
0.624668002 0.467805356 0.000506006
0.658064425 0.464769036 0.005566003
0.691460729 0.468690395 0.006577994
0.725489914 0.471726537 0.006198708
0.758381009 0.468311310 0.003162904
0.794813812 0.471346915 0.000126512
0.828336716 0.469829261 0.002277288
0.863630652 0.471600384 0.003162750
0.895762086 0.474256724 0.000000000
0.928905427 0.471473366 0.000000000
0.961923063 0.474130213 0.000000000
0.987096965 0.471220821 0.001771217
0.998229027 0.471473992 0.002403808
0.992156982 0.478684783 0.000000000
0.156863004 0.486147791 0.013030014
0.162428781 0.489184171 0.010626210
0.184060931 0.494370788 0.014927208
0.199493974 0.497912794 0.003795192
0.221884996 0.500948787 0.007590205
0.236052990 0.501960695 0.004554071
0.257811636 0.502340138 0.003036004
0.287665993 0.499304086 0.003036004
0.311954379 0.497026771 0.006072009
0.340923518 0.497026771 0.000506001
0.365844697 0.499430597 0.001012004
0.393169075 0.497406304 0.003036004
0.423150003 0.497026771 0.001518196
0.454016060 0.496773809 0.000000000
0.488677800 0.494623601 0.001770998
0.519038558 0.494623601 0.003036004
0.550917149 0.493105799 0.001518196
0.584946334 0.492473215 0.000000000
0.619607985 0.493231982 0.000000002
0.655661225 0.495762259 0.000759009
0.690954804 0.498418599 0.004933745
0.723845243 0.502466619 0.004427681
0.756103694 0.500948787 0.001644708
0.794813812 0.501707733 0.003162900
0.826691985 0.502466619 0.000126516
0.859962165 0.500948787 0.001518196
0.892852843 0.503984809 0.000000000
0.924351394 0.502846181 0.000000000
0.962555468 0.502719641 0.000000000
0.987096965 0.505756021 0.000000000
1.000000000 0.503352582 0.001518196
0.996963978 0.507906795 0.000000000
0.158380806 0.521062374 0.002403808
0.164452806 0.525616586 0.000885613
0.177988544 0.529285371 0.002783195
0.195952162 0.535357356 0.006325195
0.218089998 0.535483837 0.001138644
0.243136987 0.534345210 0.000000000
0.263377637 0.534345210 0.000000000
0.287665993 0.534218669 0.001518192
0.313472182 0.531941354 0.000759096
0.343832999 0.531941354 0.000000000
0.369892538 0.531815231 0.000000000
0.399241060 0.533839107 0.001518192
0.426565737 0.529664397 0.001518192
0.456546396 0.529158413 0.001518192
0.490448803 0.528652787 0.001518192
0.522074580 0.528020382 0.000000000
0.553953171 0.526502192 0.001518192
0.584313929 0.526502192 0.001518192
0.616824985 0.524351418 0.001518191
0.651486516 0.523845732 0.000000000
0.686401010 0.528779387 0.000379548
0.720809281 0.531815231 0.002403808
0.751423001 0.531309187 0.000000000
0.789500535 0.531309187 0.001644712
0.823655963 0.532827377 0.001644712
0.855407655 0.531435728 0.000000000
0.888804793 0.532321155 0.000000000
0.920177162 0.534345210 0.000000000
0.955471218 0.531309187 0.000000000
0.987096965 0.531562209 0.006071994
1.000000000 0.534598589 0.004301003
1.000000000 0.535231173 0.003035997
0.160151586 0.552055538 0.000632576
0.169892386 0.558760107 0.000000000
0.182669207 0.563314319 0.001518198
0.196584582 0.565085530 0.003922000
0.207590520 0.571157575 0.003542452
0.243010581 0.568880141 0.000506065
0.266160637 0.568374097 0.000000000
0.287665993 0.567109108 0.001012132
0.312839627 0.567741692 0.003162904
0.343200445 0.567741692 0.000126516
0.371283859 0.564832389 0.000000000
0.402023822 0.565211833 0.002656671
0.434408367 0.566097140 0.003922000
0.461986482 0.560278118 0.004174967
0.492346555 0.562555373 0.004554414
0.522074580 0.563187957 0.002150772
0.553320765 0.562302351 0.000885616
0.586717129 0.559266150 0.003289424
0.617078006 0.559266150 0.003289421
0.649589002 0.557115912 0.001138643
0.682352722 0.558507562 0.000000001
0.716634870 0.562175989 0.000632576
0.746995568 0.559266150 0.000506064
0.782416224 0.559266150 0.000000000
0.816571891 0.560910821 0.000000000
0.849335670 0.561796486 0.000000000
0.883238137 0.558760107 0.000000000
0.916761696 0.564452529 0.000000000
0.949525774 0.561796129 0.000000000
0.980012536 0.558633566 0.004553981
1.000000000 0.558886588 0.012650018
1.000000000 0.561922967 0.006578009
0.157115966 0.585452080 0.003668965
0.169259965 0.594560444 0.000632580
0.181151003 0.601265013 0.000000000
0.194813207 0.602024078 0.001518192
0.210626155 0.598482132 0.003542449
0.234914914 0.604554057 0.000506065
0.262745291 0.604806960 0.000000000
0.287665993 0.601518035 0.000000000
0.312713146 0.598229110 0.000253032
0.340164065 0.601138949 0.000126518
0.370524794 0.598229110 0.000000000
0.400632530 0.597217023 0.004047994
0.432384640 0.597470045 0.006451675
0.465022147 0.596710980 0.004174964
0.495382845 0.593674541 0.007210571
0.523339808 0.593548059 0.005186836
0.552435398 0.593548059 0.002150774
0.583681524 0.592662573 0.000253032
0.617078006 0.589627028 0.000253032
0.647438765 0.589627028 0.000253032
0.678052008 0.589374006 0.000000004
0.711701393 0.589880049 0.001012132
0.750032008 0.589627028 0.003542452
0.780392051 0.589627028 0.000506064
0.813535929 0.589627028 0.000000000
0.845540941 0.589880049 0.000000000
0.877166152 0.589120984 0.000000000
0.913598835 0.586084604 0.000000000
0.944465637 0.589120865 0.000000000
0.975078881 0.587855816 0.000000000
0.997216642 0.585958064 0.001011999
1.000000000 0.586211085 0.000506000
0.156863004 0.668943822 0.001138643
0.169007003 0.669702828 0.000885612
0.181151003 0.674509704 0.000000000
0.198355317 0.676154256 0.000000000
0.219607905 0.671979904 0.001138643
0.246299893 0.670841098 0.000506064
0.270588666 0.671853065 0.000000000
0.299304336 0.671853065 0.000000000
0.327387571 0.668817222 0.000759096
0.356736243 0.667805552 0.002783355
0.386970460 0.665022254 0.000000000
0.421378702 0.661986411 0.002024256
0.453257293 0.658950150 0.003921708
0.484756440 0.655660748 0.001138643
0.515117168 0.655154645 0.001644574
0.547881126 0.654522061 0.002276996
0.577482760 0.654522061 0.001138643
0.607210934 0.653889656 0.000000000
0.636306345 0.650854051 0.000000000
0.666920125 0.650601089 0.000000000
0.702973068 0.646806061 0.003794996
0.737001836 0.643011093 0.003542006
0.772549033 0.639469147 0.001138643
0.802909732 0.639469147 0.000759095
0.837824285 0.639469147 0.000000000
0.868943989 0.638077438 0.000000000
0.897406816 0.636179686 0.000000000
0.927008212 0.633143306 0.000000000
0.963440955 0.632763743 0.000000000
0.983428299 0.635673583 0.000000000
0.997975767 0.635547101 0.000000000
0.997216642 0.635547101 0.000000000
0.153068006 0.707653224 0.000000000
0.161417022 0.707653224 0.000000000
0.179253742 0.713598907 0.001897740
0.195192903 0.714104891 0.000632579
0.219987541 0.712587178 0.000000000
0.250347942 0.715622783 0.000000000
0.277039886 0.713219464 0.000000000
0.301328659 0.714863718 0.000000000
0.331941843 0.713598728 0.000000000
0.363440990 0.709424496 0.001897743
0.395698994 0.710183620 0.001012129
0.424414992 0.707147241 0.000126516
0.457431644 0.704111636 0.002024260
0.487286329 0.699051142 0.000000000
0.519291818 0.697406471 0.000000000
0.552055776 0.695508718 0.001897740
0.586970389 0.693990946 0.001897740
0.618722558 0.693611443 0.001265164
0.648577034 0.691840708 0.000000000
0.678684771 0.691587746 0.000000000
0.709044933 0.691587687 0.000000000
0.747501493 0.686527550 0.004048004
0.781783462 0.681467533 0.000000000
0.813915074 0.679696739 0.000000000
0.845034778 0.679696739 0.001897740
