Assets/EldamarStudio/100 Retro LUTs Pack/LUTs/cube/Diana LUT.cube
LUT_3D_SIZE 8
DOMAIN_MIN 0.000000 0.000000 0.000000
DOMAIN_MAX 0.903226 0.903226 0.903226
0.109803997 0.090195999 0.078431003
0.172042638 0.089816548 0.086274996
0.269576102 0.089437097 0.086274996
0.376091272 0.084629998 0.086274996
0.498165548 0.087792799 0.079949193
0.651992202 0.080455266 0.070588000
0.813915253 0.080075718 0.060468290
0.962681592 0.070588000 0.032637846
0.114484094 0.159519553 0.089437000
0.182669088 0.154838547 0.089437000
0.268058181 0.151676551 0.085895352
0.368247986 0.151676551 0.085515901
0.490069538 0.152055994 0.078810550
0.641619444 0.157495290 0.072612263
0.791524053 0.159898996 0.052624714
0.934977770 0.156356543 0.027450899
0.141176000 0.251612991 0.086274996
0.180645540 0.249588639 0.078431100
0.277419120 0.249209195 0.079190098
0.385072649 0.251865834 0.081214361
0.514737368 0.262492180 0.069069996
0.660468280 0.274257004 0.047059000
0.817963541 0.279822886 0.023782426
0.965844274 0.276280940 0.000759096
0.152941003 0.374067277 0.054775361
0.204427183 0.379253805 0.053131361
0.294749916 0.382415920 0.057558812
0.403668642 0.381277561 0.045793720
0.532447636 0.387981921 0.035294171
0.664769351 0.393042266 0.021126268
0.803415596 0.398608536 0.002276998
0.940291047 0.396331251 0.004048201
0.158380806 0.521062374 0.002403808
0.218089998 0.535483837 0.001138644
0.313472182 0.531941354 0.000759096
0.426565737 0.529664397 0.001518192
0.553953171 0.526502192 0.001518192
0.686401010 0.528779387 0.000379548
0.823655963 0.532827377 0.001644712
0.955471218 0.531309187 0.000000000
0.153068006 0.707653224 0.000000000
0.219987541 0.712587178 0.000000000
0.331941843 0.713598728 0.000000000
0.457431644 0.704111636 0.002024260
0.586970389 0.693990946 0.001897740
0.709044933 0.691587687 0.000000000
0.845034778 0.679696739 0.001897740
0.971030831 0.671853185 0.000000000
0.132068008 0.818848550 0.000000000
0.208981842 0.827956855 0.001644712
0.322959930 0.825806379 0.003036191
0.447185338 0.819987237 0.002783356
0.575205445 0.814927518 0.000000000
0.700569451 0.808728278 0.001897740
0.826691985 0.803162515 0.003922000
0.958886504 0.790132761 0.000000000
0.150410995 0.948133945 0.000000000
0.233016819 0.952687800 0.006072464
0.326375842 0.954585612 0.003162904
0.445161492 0.953446984 0.001138644
0.574826002 0.946869135 0.002783360
0.701834500 0.940923750 0.000000000
0.831878722 0.934977651 0.001265167
0.962428629 0.933712780 0.005312988
0.106261544 0.090575546 0.146615997
0.175205544 0.093359001 0.143453091
0.266413987 0.093738452 0.137507632
0.368627548 0.097280003 0.139911547
0.493105739 0.089184456 0.139911547
0.647691488 0.070461661 0.139278740
0.793548584 0.044275716 0.123466447
0.943200588 0.009614013 0.106261842
0.118785545 0.155218095 0.143832535
0.189373538 0.152056009 0.146995544
0.265275568 0.152435452 0.139911547
0.359646082 0.151296914 0.135610089
0.478558183 0.149399266 0.133206889
0.619986951 0.146236360 0.133712724
0.759139836 0.139532000 0.119544551
0.905629158 0.129411697 0.101201721
0.131309450 0.244908556 0.144212186
0.192030087 0.248450190 0.144718453
0.269576192 0.246046990 0.138014004
0.374825835 0.246426553 0.132827446
0.500948727 0.257431835 0.132953644
0.642757773 0.259708941 0.115116999
0.795825481 0.264896005 0.105502747
0.945603788 0.260088474 0.085768729
0.141935185 0.358759999 0.119164906
0.194686741 0.363187551 0.119164906
0.284250259 0.363187581 0.114863642
0.386337817 0.365591347 0.116887905
0.507526875 0.371031255 0.108665451
0.643895984 0.375458717 0.099430643
0.777862132 0.378115088 0.076913200
0.911701441 0.379127204 0.045793835
0.143706620 0.501707733 0.071599916
0.193295553 0.510942817 0.065781362
0.296647757 0.516255260 0.067299366
0.414168507 0.514737368 0.060974360
0.540164590 0.508032739 0.054775458
0.662365735 0.510815978 0.024288366
0.803289056 0.518406034 0.007210714
0.936748743 0.517646790 0.002656643
0.117394269 0.683870971 0.001897740
0.195319101 0.695003092 0.003542452
0.309044838 0.695003033 0.001138644
0.446299851 0.687539637 0.000759096
0.574446321 0.684376717 0.000379548
0.704364300 0.676154256 0.003035997
0.833269835 0.664769173 0.001518192
0.966097414 0.660468280 0.000379548
0.088172011 0.802403331 0.005313264
0.177862272 0.808349073 0.000000000
0.299936861 0.808602035 0.000000000
0.428715885 0.805818915 0.001138644
0.559392631 0.803921521 0.000379548
0.691587687 0.796584606 0.002024260
0.819607615 0.786590815 0.001644712
0.942062020 0.778747380 0.001897740
0.111448430 0.948387206 0.000000000
0.201391384 0.951422989 0.000000000
0.315496475 0.947374880 0.000000000
0.436558992 0.944465339 0.000759096
0.569639444 0.941682637 0.002403808
0.699177921 0.933838964 0.003036184
0.827071548 0.929790914 0.002656732
0.958633780 0.927134633 0.000000000
0.115243189 0.094117999 0.226439089
0.167741999 0.090575546 0.222517088
0.268817186 0.094117999 0.220114097
0.367109627 0.092979357 0.228842184
0.503732085 0.062238913 0.234282285
0.651739419 0.002024260 0.225806296
0.803036094 0.000759096 0.218596101
0.956609488 0.000000000 0.202656269
0.126249000 0.153700098 0.226944655
0.181151092 0.147754550 0.224541560
0.265275538 0.146615997 0.221758187
0.366350561 0.149019808 0.217457548
0.493231893 0.134218991 0.212270901
0.627197683 0.102466650 0.210752904
0.772169769 0.068184651 0.202783257
0.918912053 0.021125894 0.192916110
0.133332998 0.245288000 0.224921092
0.190512091 0.244149551 0.219355106
0.277419120 0.238204092 0.230360284
0.380012274 0.245288000 0.218596101
0.508412182 0.246173203 0.219481096
0.652751505 0.241493002 0.210879102
0.800632238 0.235927001 0.199746802
0.948766530 0.230739817 0.196711004
0.102593355 0.365591258 0.213789091
0.175458461 0.365591258 0.211511999
0.275775105 0.365211815 0.209108189
0.393928200 0.363693804 0.206831098
0.510056794 0.362428546 0.206451640
0.645541072 0.364832461 0.205312997
0.787729561 0.367362559 0.187602744
0.925616622 0.362934887 0.173055187
0.066540435 0.502973139 0.188994095
0.152561441 0.511954546 0.186338082
0.279064000 0.513219237 0.192030296
0.410246640 0.512080729 0.184566647
0.532827258 0.505376339 0.177229896
0.666413963 0.503352582 0.168500900
0.803162336 0.508665204 0.165591210
0.940796793 0.506135345 0.154206172
0.000000000 0.686274707 0.146742821
0.135483548 0.686780572 0.155977100
0.286527455 0.685515463 0.144212186
0.428336620 0.680835009 0.148640364
0.565718174 0.674256921 0.139278755
0.701328516 0.667931736 0.134471446
0.830486953 0.659709156 0.110815838
0.959772408 0.657432079 0.125616640
0.002277094 0.799367428 0.056166925
0.097659722 0.807083964 0.062618569
0.271220803 0.807843089 0.066793300
0.414294630 0.802023888 0.057179175
0.548640072 0.800000072 0.048956729
0.681847036 0.792915642 0.035294004
0.818089664 0.789879680 0.024794389
0.944718361 0.778621256 0.026312530
0.001897736 0.943580031 0.057811543
0.136495814 0.944592059 0.083618306
0.278431356 0.944844842 0.096521169
0.422011346 0.941176355 0.090828545
0.556483209 0.937381446 0.081341110
0.687918961 0.932194650 0.066666558
0.822011471 0.927893519 0.061479725
0.954205871 0.924604654 0.086654045
0.127766997 0.090195999 0.327387273
0.184693545 0.083491646 0.338519990
0.267932087 0.085895352 0.330170631
0.376596630 0.082859352 0.342441261
0.506894171 0.047438625 0.350537628
0.658696830 0.001897740 0.356736124
0.807716548 0.001644712 0.351928979
0.963314176 0.001265167 0.335357487
0.128779009 0.152181998 0.325616747
0.175585091 0.141809091 0.325869262
0.271600544 0.143959552 0.329791188
0.370271713 0.135989636 0.331436098
0.492346644 0.120809704 0.338013619
0.644149244 0.070841104 0.337254733
0.786969960 0.002024260 0.330677003
0.942314863 0.000000000 0.317267388
0.128905714 0.237824455 0.340923190
0.172548994 0.238583550 0.333333552
0.269576073 0.232384548 0.344338715
0.390638620 0.232764184 0.342441261
0.519797742 0.229348555 0.345983624
0.666034341 0.204554096 0.340038091
0.812902987 0.178874001 0.323971748
0.958001256 0.154459193 0.317647010
0.086527370 0.370018899 0.338646621
0.158254370 0.367615640 0.341429263
0.263757437 0.365338713 0.336242914
0.391903937 0.361037284 0.334092647
0.518912017 0.358127713 0.330802917
0.656925738 0.354332626 0.323466271
0.798228860 0.348133922 0.311701566
0.940670669 0.334851444 0.300189734
0.000000000 0.506135345 0.323339462
0.049968626 0.518405795 0.322959989
0.239974901 0.518785357 0.322074175
0.394940078 0.511701345 0.317773640
0.541049838 0.507400513 0.310309976
0.673877239 0.501581252 0.306894451
0.818089545 0.498545289 0.308033019
0.947121739 0.495003343 0.298798263
0.004048004 0.683870733 0.309677184
0.000000000 0.691334307 0.304490745
0.232764170 0.685642064 0.311448425
0.404047638 0.684503615 0.308032990
0.562302649 0.677545726 0.305376470
0.705376446 0.671600461 0.301075190
0.836179256 0.657432199 0.284376979
0.964199901 0.649968505 0.302972645
0.002277288 0.799114645 0.269955695
0.001897643 0.811005473 0.277039737
0.199873462 0.808222651 0.274509698
0.377102971 0.808728516 0.268437654
0.536875367 0.804427505 0.267552257
0.685262620 0.794560432 0.261227012
0.820493281 0.789120793 0.251613021
0.950537443 0.779379904 0.251992285
0.004807010 0.942062140 0.279569805
0.006830979 0.947754502 0.288424909
0.241745815 0.945098042 0.295382887
0.395825475 0.944339156 0.297659993
0.539025903 0.936622322 0.287792623
0.678811073 0.933333278 0.286527395
0.820872962 0.926249206 0.283365071
0.965717971 0.922074616 0.288551450
0.130044192 0.084124006 0.468311369
0.188994199 0.080834813 0.471600175
0.280455083 0.072232902 0.467552274
0.392030656 0.055155005 0.471852928
0.518659174 0.014421009 0.477039993
0.663504243 0.001518192 0.486147940
0.808602154 0.000759096 0.493611574
0.955976903 0.000000000 0.483365178
0.119544446 0.140670344 0.470841169
0.185958177 0.133586347 0.470208824
0.275775075 0.131309450 0.464389533
0.389374107 0.125616699 0.465275377
0.504996777 0.101707749 0.461606801
0.645161033 0.040101174 0.474004000
0.790765166 0.000000000 0.474383473
0.937381446 0.000000000 0.467805177
0.059329629 0.234408990 0.475648284
0.141682446 0.228842288 0.479443163
0.265654892 0.227324292 0.486527294
0.394560635 0.222264454 0.481846988
0.518532515 0.208475813 0.477799088
0.668311298 0.190891728 0.479822904
0.816445351 0.156989112 0.477039993
0.960657775 0.112460561 0.472865343
0.014421009 0.358127713 0.486780614
0.103731990 0.362934828 0.485136032
0.239468634 0.353953272 0.486401170
0.380518436 0.348892808 0.478431433
0.528526247 0.342947274 0.470208734
0.664389908 0.334851563 0.468943566
0.804427564 0.319797546 0.460847616
0.945097983 0.297280371 0.447944373
0.001518192 0.508412361 0.474004000
0.013029551 0.514864147 0.485009193
0.222011015 0.513219357 0.484124064
0.377735287 0.510183394 0.470841169
0.537634373 0.507780194 0.469196379
0.678431451 0.495635629 0.465275377
0.820366561 0.483491451 0.453637093
0.957621396 0.476154566 0.454901814
0.002403808 0.685641766 0.489943087
0.000759096 0.689690113 0.489816159
0.170272008 0.687286377 0.480075866
0.367489010 0.681720436 0.472865462
0.548007429 0.676660776 0.462112457
0.698671460 0.671220899 0.454142928
0.839721560 0.650727510 0.453257352
0.966982663 0.644781649 0.462239265
0.002403808 0.800885499 0.443643302
0.000758999 0.814294517 0.451992363
0.084377028 0.814421237 0.449968487
0.333206892 0.808728516 0.436685711
0.513345897 0.808855176 0.434029281
0.675522208 0.800885260 0.426691741
0.826059341 0.794560254 0.423782259
0.955597520 0.781656921 0.421631902
0.008348985 0.939658403 0.455408007
0.002783356 0.946236491 0.463757157
0.193548381 0.947501421 0.463124365
0.372296005 0.940923631 0.456799477
0.529032230 0.935736477 0.453510374
0.672738671 0.932700753 0.449968427
0.816951334 0.928652585 0.451106876
0.959645629 0.927387595 0.453637183
0.133332998 0.064895749 0.618595481
0.191144988 0.062492456 0.613535702
0.293864995 0.047944270 0.628336489
0.405819267 0.013662009 0.622264206
0.534471691 0.000000000 0.623782158
0.661859453 0.000000000 0.612903178
0.800632298 0.001897740 0.617077768
0.949398577 0.000000000 0.624667704
0.101960808 0.124351554 0.601391613
0.178747565 0.120303541 0.609993458
0.275015920 0.118532814 0.610246778
0.397723168 0.093105555 0.606451869
0.518279314 0.052371915 0.602277160
0.645793855 0.004427552 0.596710622
0.783301592 0.000000000 0.600759149
0.923971891 0.001265167 0.597343385
0.002277094 0.218975350 0.616318464
0.116634816 0.218975440 0.625047565
0.266919762 0.213915199 0.621758401
0.396331370 0.201391190 0.624541283
0.535104215 0.186211362 0.619101942
0.667299330 0.160531461 0.612270534
0.809614301 0.120050915 0.614800632
0.951549590 0.059582837 0.611132264
0.001517999 0.343580246 0.613282740
0.000000000 0.345983356 0.619987428
0.189120740 0.334724724 0.624162078
0.366477281 0.330044031 0.614801049
0.518912315 0.318659276 0.617457449
0.663504064 0.305755943 0.602403283
0.799493730 0.291208088 0.594939590
0.934851468 0.275521845 0.592916012
0.002024260 0.501960635 0.621378839
0.004427551 0.505123317 0.627830625
0.147754744 0.501707792 0.629601657
0.346742511 0.488678247 0.632384837
0.519291401 0.477798998 0.620620012
0.674383402 0.468816906 0.613662183
0.817583799 0.469955653 0.603668571
0.947375119 0.468690723 0.603289008
0.003922000 0.674003959 0.646552980
0.001518192 0.680202246 0.639342487
0.113219619 0.681214690 0.646173775
0.345477253 0.672612131 0.642125249
0.522454381 0.664389670 0.626312554
0.685642004 0.654142916 0.620746195
0.821125865 0.645540476 0.614041388
0.952814519 0.641492546 0.617457330
0.000000000 0.804174721 0.605945885
0.000379548 0.807210863 0.608728707
0.029981010 0.808348835 0.612650514
0.316382110 0.804554105 0.603162527
0.509930432 0.797596276 0.609740853
0.662871778 0.793674827 0.594180882
0.815939069 0.788108587 0.590638936
0.948387086 0.776597142 0.597975850
0.002656833 0.938140512 0.609108210
0.012144182 0.940544248 0.620113850
0.235926345 0.935736775 0.627324402
0.394939899 0.936748922 0.627071679
0.513219595 0.930170417 0.610499620
0.665907383 0.929790795 0.612270653
0.809740782 0.924225092 0.611638188
0.952561677 0.919670761 0.611511528
0.119291715 0.035673719 0.774699271
0.187096536 0.017330982 0.773434281
0.293106109 0.002403808 0.769259632
0.413662285 0.000000000 0.767868519
0.544591963 0.000000000 0.770145297
0.671853185 0.001897740 0.760784566
0.807083964 0.000000000 0.756103516
0.946489334 0.002277288 0.752435088
0.079443619 0.104364097 0.744212568
0.162429005 0.102593452 0.749905288
0.275015831 0.084882811 0.750411153
0.401644617 0.051865883 0.754964948
0.527261257 0.001897643 0.754839003
0.660973907 0.000000000 0.742694378
0.791271567 0.000000000 0.743959546
0.917141020 0.002656732 0.731561959
0.001517999 0.201517999 0.765464783
0.066540532 0.201517999 0.767995238
0.236812174 0.195192993 0.769386351
0.391777366 0.180265903 0.764452875
0.531941712 0.158507094 0.764832556
0.668184578 0.118532822 0.756989241
0.811891198 0.044276018 0.758380830
0.948007584 0.008349096 0.749019504
0.000000000 0.316761643 0.764705896
0.004174738 0.316761732 0.766476870
0.142062023 0.313346088 0.765717924
0.344718575 0.305502981 0.760657489
0.512587011 0.293611556 0.759392858
0.652751386 0.277672648 0.756230175
0.805439532 0.252877980 0.747248530
0.936495841 0.235926628 0.733839273
0.000000000 0.476533890 0.762302458
0.000000000 0.481593847 0.771030962
0.011385098 0.474004000 0.765211701
0.283111900 0.462998390 0.763061404
0.490701854 0.449082911 0.766477227
0.654269516 0.440733850 0.762428582
0.814927280 0.434155583 0.752941251
0.947501600 0.433776021 0.738899469
0.006831456 0.650727451 0.786464036
0.000379548 0.653510451 0.784187317
0.003036205 0.649082899 0.779759526
0.297406644 0.643010974 0.779633224
0.487792671 0.636179686 0.776723683
0.657431960 0.630360484 0.767109215
0.820872784 0.625932932 0.762049377
0.942188144 0.635420859 0.754079580
0.004553996 0.784187555 0.770145297
0.000000000 0.797596276 0.760657549
0.002277300 0.797596276 0.770904541
0.278051972 0.793168902 0.760151863
0.481088072 0.789879739 0.762302458
0.653130949 0.780012548 0.756103516
0.806072235 0.778621316 0.750537276
0.932447612 0.776976526 0.754206538
0.000000000 0.926628768 0.751423061
0.000000000 0.932447612 0.762808144
0.179126859 0.933080018 0.758886695
0.374446630 0.928526163 0.764958918
0.535230935 0.928272784 0.769639313
0.673371077 0.925236762 0.770398378
0.806072235 0.919671059 0.760025382
0.947248340 0.918912053 0.765464842
0.093991183 0.002656833 0.902213931
0.172422573 0.000379548 0.908412218
0.290322721 0.000759096 0.903478622
0.415053636 0.000000000 0.901960611
0.540797174 0.001138640 0.903478444
0.669955432 0.000000000 0.895255864
0.806704462 0.000000000 0.892852485
0.944212615 0.002656833 0.901074946
0.024288371 0.076533563 0.885009468
0.137381107 0.064390011 0.892852485
0.271220982 0.039974771 0.901328027
0.395699114 0.004807010 0.899177492
0.530929744 0.001138644 0.890955210
0.662239075 0.003542452 0.888551652
0.796205163 0.000379544 0.883112192
0.933712780 0.001265167 0.877545595
0.001517998 0.183048934 0.895382464
0.005439572 0.185452551 0.896014810
0.222138107 0.176723450 0.907400429
0.379506737 0.154965267 0.898039341
0.520430148 0.128652826 0.905376136
0.660214961 0.073877499 0.900442719
0.803668559 0.007843113 0.894876420
0.944338977 0.000000003 0.890575767
0.001265167 0.292726278 0.895762444
0.000000000 0.298039258 0.898797929
0.076280840 0.295129448 0.895762265
0.327514082 0.286148101 0.901834428
0.495635659 0.275015801 0.895509183
0.641239703 0.251992375 0.888804555
0.791524291 0.222896755 0.883997440
0.939785004 0.182795763 0.885515213
0.000000000 0.450347841 0.894117653
0.001265167 0.451486111 0.905123234
0.001265167 0.445540547 0.903858125
0.237444848 0.435294122 0.901075184
0.460721195 0.427957207 0.899177551
0.627577722 0.416192293 0.897406578
0.790385962 0.406072378 0.893358588
0.944591820 0.399114728 0.899303794
0.003415731 0.623402715 0.907147229
0.002530012 0.626565397 0.910057008
0.001518000 0.625047684 0.909930289
0.233270377 0.615180373 0.908538878
0.452119172 0.607463598 0.908412218
0.634408653 0.603035867 0.905502737
0.792662799 0.601771057 0.899557233
0.953320742 0.608602345 0.900316060
0.001644712 0.768121123 0.902339816
0.002656833 0.774573147 0.898544908
0.001518192 0.771410465 0.902466714
0.227450952 0.772422493 0.900948703
0.459329516 0.770651460 0.899557054
0.629728377 0.768247783 0.903858125
0.790259123 0.764705837 0.901707590
0.937887490 0.772042990 0.893990874
0.000000000 0.929664671 0.902339816
0.000758999 0.938140392 0.910816014
0.079443559 0.934471905 0.900568843
0.343833089 0.931182742 0.906135261
0.509677470 0.926754773 0.903858006
0.665907443 0.925236881 0.903098881
0.800505817 0.918026805 0.901454508
0.924477816 0.918026805 0.901074946
