Assets/EldamarStudio/100 Retro LUTs Pack/LUTs/cube/Diane LUT.cube
LUT_3D_SIZE 5
DOMAIN_MIN 0.000000 0.000000 0.000000
DOMAIN_MAX 0.903226 0.903226 0.903226
0.105881996 0.098039001 0.109803997
0.288677692 0.097027294 0.144465417
0.538140416 0.039089181 0.183048993
0.819860995 0.000000000 0.242251858
1.000000000 0.101328582 0.341429651
0.165717706 0.197469980 0.186337993
0.242884710 0.207589701 0.172295704
0.517899811 0.229854688 0.187982276
0.810499549 0.231878698 0.251107007
0.998734832 0.263377488 0.352182090
0.252371997 0.397596806 0.338772804
0.284124106 0.436938792 0.343327224
0.499683768 0.474889606 0.292346388
0.785705090 0.479317218 0.273371249
0.988361776 0.487286359 0.402277052
0.436812371 0.732701123 0.565971136
0.515496254 0.739911318 0.581024528
0.563946664 0.790512264 0.595066249
0.760152102 0.786590993 0.528905392
0.949145794 0.730297267 0.524857342
0.771789730 0.883744657 0.753193915
0.795192659 0.886400819 0.752687931
0.818722486 0.895509005 0.759013414
0.842378080 0.902340114 0.756103516
0.907274008 0.895509005 0.755976975
0.145098001 0.169639707 0.253004402
0.207589701 0.138899282 0.245540693
0.461986125 0.149399117 0.278557956
0.747754693 0.095256418 0.277798831
0.991650760 0.147627920 0.334598094
0.165717691 0.215433702 0.232763976
0.222264409 0.205945417 0.233396411
0.397596419 0.216445416 0.263504416
0.734471738 0.235040694 0.282858700
0.994939983 0.278937668 0.342694819
0.234029412 0.346615791 0.328905404
0.299810112 0.358380795 0.351802796
0.421505094 0.426439196 0.372422129
0.725237250 0.455154806 0.334092230
0.980898082 0.486907095 0.387602657
0.398482084 0.696521223 0.554585397
0.469829082 0.703352094 0.569007277
0.583428264 0.751423061 0.610120237
0.730423808 0.766982794 0.569260120
0.941935420 0.733965755 0.520682871
0.760025442 0.887792826 0.740796924
0.776976585 0.885768652 0.747627914
0.820240498 0.894244134 0.759012938
0.840354145 0.904617250 0.760910690
0.899556935 0.898798168 0.748007774
0.145730585 0.296900809 0.493738204
0.146742702 0.291334689 0.473750681
0.370778263 0.216445386 0.489183784
0.749778569 0.258191109 0.546109796
0.963061392 0.329158366 0.538140416
0.183301702 0.342694402 0.460721105
0.182669282 0.339405388 0.447691083
0.350158125 0.305376410 0.455154806
0.696520984 0.353952944 0.535989642
0.937254906 0.387982190 0.529917657
0.198734999 0.442124784 0.478684783
0.207210571 0.437191516 0.474509895
0.385831803 0.419860780 0.449209362
0.625806391 0.480708629 0.530550241
0.895888627 0.499177337 0.521821797
0.310689569 0.610879302 0.543833077
0.335736692 0.617077649 0.547122121
0.508285820 0.635420561 0.577102959
0.679823101 0.733459949 0.642125428
0.889184237 0.729158759 0.592156708
0.740543544 0.872106016 0.730297387
0.737128556 0.873750687 0.731688619
0.799114585 0.879949629 0.759771764
0.853510559 0.894623697 0.777356207
0.899683774 0.895509005 0.767615676
0.274004102 0.486654252 0.694370985
0.270335406 0.483997434 0.691714406
0.268690526 0.457305431 0.688804567
0.580645204 0.379759371 0.709045112
0.927134752 0.457179099 0.728526115
0.288678259 0.520936012 0.684250116
0.288551837 0.521568537 0.681973279
0.332068056 0.520303547 0.673118591
0.569513023 0.466413826 0.694623709
0.900948584 0.537128150 0.725743055
0.343959540 0.606198668 0.669829130
0.343326986 0.607463717 0.670461714
0.383301377 0.605566204 0.654395878
0.582036674 0.599999666 0.663630426
0.866287231 0.674762428 0.718532383
0.438583136 0.718026280 0.695256114
0.426692247 0.723845720 0.685768425
0.448197395 0.713725507 0.678051889
0.627830267 0.707274139 0.660088420
0.844781816 0.764326453 0.712713420
0.669070065 0.843769491 0.730043948
0.683870792 0.846426308 0.731435657
0.694876552 0.853890240 0.737887442
0.806704581 0.868563890 0.759139657
0.889689803 0.896521151 0.788994193
0.600632429 0.720682919 0.800126791
0.590132594 0.718026817 0.796204805
0.594813108 0.712207317 0.802150428
0.579633176 0.679316819 0.812397182
0.748007834 0.614927411 0.819734156
0.599620342 0.719671071 0.799114704
0.592409849 0.717773497 0.800505936
0.589500487 0.712839901 0.796837568
0.595952034 0.690575540 0.800126791
0.752308667 0.652624786 0.812776923
0.626059175 0.761796176 0.795572400
0.630992830 0.759139359 0.794560254
0.622770607 0.758506715 0.792283177
0.676534116 0.773434818 0.792916000
0.783934236 0.751928926 0.806072295
0.690069735 0.816571951 0.783174992
0.685262322 0.818469286 0.789753139
0.681973457 0.812649965 0.790006101
0.679823101 0.807083964 0.783174992
0.819228351 0.832004964 0.797469854
0.770398438 0.874636114 0.784313977
0.767994881 0.874130368 0.794560075
0.765211582 0.872105956 0.792915642
0.761163712 0.878937662 0.798735023
0.864262819 0.883870780 0.797596812
