Assets/EldamarStudio/100 Retro LUTs Pack/LUTs/cube/Diana LUT.cube
LUT_3D_SIZE 5
DOMAIN_MIN 0.000000 0.000000 0.000000
DOMAIN_MAX 0.903226 0.903226 0.903226
0.109803997 0.090195999 0.078431003
0.244528979 0.092473291 0.086274996
0.433523387 0.086907417 0.082985587
0.694497287 0.079443134 0.069576129
0.962681592 0.070588000 0.032637846
0.136621997 0.228842407 0.086274996
0.250094712 0.224920988 0.078431003
0.446300119 0.230486691 0.081340879
0.704997003 0.243896410 0.052878167
0.963314414 0.247438535 0.003795180
0.156230420 0.451739401 0.028716005
0.284756720 0.465907693 0.014927175
0.483870775 0.464262962 0.010373012
0.725489914 0.471726537 0.006198708
0.961923063 0.474130213 0.000000000
0.148007870 0.722833335 0.000000000
0.302340299 0.738140404 0.000000000
0.514611244 0.728399873 0.001012128
0.744465411 0.718912125 0.001012128
0.971030593 0.704490960 0.000000000
0.150410995 0.948133945 0.000000000
0.299810529 0.956862688 0.002909876
0.504743874 0.947375178 0.000000000
0.734219015 0.938899636 0.002530012
0.962428629 0.933712780 0.005312988
0.111448288 0.094117999 0.203668699
0.244528979 0.091840707 0.200379699
0.430613518 0.085262708 0.202023983
0.697027266 0.000000000 0.193169132
0.959645867 0.000000000 0.177861989
0.133332998 0.223276690 0.210500002
0.252371997 0.217710420 0.207589716
0.444022387 0.225553408 0.201012120
0.696774125 0.212144285 0.186337993
0.956356883 0.205945581 0.171663687
0.103858009 0.444275677 0.171537295
0.264136821 0.450474411 0.179126993
0.478305101 0.450221539 0.170271710
0.715369880 0.449209392 0.164073423
0.957241774 0.457052648 0.142567992
0.029601311 0.713345826 0.077419691
0.258190989 0.722200990 0.080455393
0.500821948 0.716002405 0.070208684
0.737255156 0.705882132 0.047944263
0.961543024 0.692093730 0.039847959
0.040607404 0.942820966 0.016824687
0.258190840 0.949904978 0.034535099
0.494244218 0.942820966 0.027957102
0.725110412 0.931688786 0.019354692
0.958760083 0.925869823 0.037824091
0.130044416 0.083618008 0.396964222
0.246806115 0.085262708 0.398608506
0.438836217 0.061354011 0.404174805
0.682732284 0.002909872 0.423782796
0.949398935 0.000000000 0.409360975
0.109045014 0.211511701 0.404806823
0.239595279 0.205945402 0.405439407
0.451866239 0.193801284 0.403162509
0.691840887 0.156230405 0.402403682
0.953700066 0.041619271 0.396711081
0.006325193 0.431498975 0.406704843
0.212017715 0.439089119 0.410626411
0.462239414 0.432890803 0.400885373
0.709803700 0.422390819 0.391018391
0.959898651 0.411385238 0.384566605
0.003289416 0.703605235 0.384566367
0.074003898 0.710815847 0.385199219
0.460214972 0.708791852 0.376343906
0.725110412 0.697407126 0.359012961
0.963061154 0.677419424 0.366223931
0.002530012 0.940923214 0.357748389
0.144971684 0.941556215 0.380138963
0.450474381 0.938899636 0.368248224
0.711448431 0.930676520 0.364958942
0.956609368 0.927893400 0.371031195
0.130297124 0.058823999 0.661100268
0.264516294 0.039089169 0.659203291
0.479443371 0.000000000 0.662491858
0.703352094 0.000000000 0.654396117
0.948639870 0.000000000 0.658570230
0.014674137 0.192156836 0.663124681
0.232005134 0.185325697 0.675901532
0.472738832 0.160151824 0.672612369
0.707779706 0.095002860 0.662365675
0.955344319 0.005439701 0.654648960
0.001012128 0.427324504 0.670208871
0.078431465 0.428716093 0.679063737
0.444655389 0.405692518 0.675521851
0.716382086 0.390006661 0.662112534
0.958886504 0.381277382 0.649335802
0.003922001 0.700316250 0.671853125
0.011511995 0.716888130 0.679064155
0.429222077 0.704237998 0.668944001
0.716002285 0.688551247 0.657179296
0.949525595 0.682732284 0.656925976
0.002909872 0.935357511 0.644781828
0.186337858 0.938266754 0.667552233
0.471853346 0.931308925 0.662745118
0.701075435 0.928525925 0.648703456
0.952055573 0.918658793 0.651486397
0.093991183 0.002656833 0.902213931
0.263504416 0.002277292 0.907020628
0.472105950 0.000632584 0.903604984
0.702593267 0.001265167 0.895761967
0.944212615 0.002656833 0.901074946
0.000000000 0.160784408 0.900442779
0.198355719 0.151928872 0.908918619
0.456926405 0.107147582 0.905629218
0.702972710 0.006072285 0.896141469
0.947121918 0.000000000 0.894876480
0.006577994 0.371916413 0.906261802
0.003921581 0.371663541 0.910183609
0.396204978 0.363567144 0.900948763
0.683617949 0.337634236 0.902340233
0.949398816 0.316508651 0.900442362
0.002656833 0.659076452 0.902339816
0.002277292 0.660468102 0.905376196
0.351802528 0.652245522 0.909297705
0.668564141 0.641745687 0.901707768
0.950790823 0.654649079 0.898797929
0.000000000 0.929664671 0.902339816
0.036179803 0.932447553 0.907147110
0.425806344 0.930423379 0.908286035
0.702593267 0.923212945 0.902339816
0.924477816 0.918026805 0.901074946
