Assets/EldamarStudio/100 Retro LUTs Pack/LUTs/cube/Diane LUT.cube
DOMAIN_MIN 0 0 0
DOMAIN_MAX 1 1 1
LUT_3D_SIZE 32
0.105881996 0.098039001 0.109803997
0.127134383 0.098039001 0.109803997
0.146236554 0.098039001 0.109803997
0.168248162 0.099304162 0.114863992
0.196331546 0.102340452 0.126249000
0.229727924 0.105376065 0.132321000
0.258064330 0.103352323 0.138393000
0.288677692 0.097027294 0.144465417
0.321315199 0.088678002 0.149778903
0.351675987 0.082605995 0.152814522
0.384945869 0.076534003 0.158760011
0.420366496 0.072485745 0.162808269
0.460214913 0.067172647 0.168121651
0.504744053 0.057305936 0.176976994
0.538140416 0.039089181 0.183048993
0.576343775 0.025680009 0.191524193
0.617330372 0.015053811 0.200632200
0.661100090 0.007210584 0.209740579
0.709676981 0.004174964 0.218848974
0.749905109 0.001138643 0.225174010
0.787476480 0.000000000 0.233143732
0.819860995 0.000000000 0.242251858
0.844781518 0.000126512 0.251991987
0.884250760 0.003162904 0.276280820
0.914611280 0.001644712 0.286907017
0.941935658 0.002782990 0.292979002
0.969260037 0.014421187 0.301581055
0.996584415 0.053890310 0.322833419
1.000000000 0.101328582 0.341429651
0.996457994 0.146363318 0.359645933
0.993927956 0.188868150 0.381404191
1.000000000 0.231372997 0.411765009
0.111953996 0.104111001 0.115875997
0.121062383 0.107147381 0.112839609
0.146615773 0.109297618 0.117141157
0.170018941 0.111448161 0.122707218
0.195952088 0.114105001 0.131941542
0.226692304 0.114484452 0.135357395
0.260088712 0.112460062 0.136369392
0.291714102 0.109424323 0.143074080
0.324351579 0.103099294 0.149778903
0.354712367 0.094750002 0.152814522
0.387982249 0.094497003 0.158760011
0.423402905 0.088678002 0.160784006
0.460974038 0.083491392 0.165085256
0.501960695 0.076280966 0.174699634
0.538140416 0.066413566 0.189120993
0.576343775 0.053004395 0.187982187
0.618848562 0.042378195 0.194560200
0.662238896 0.032637402 0.203035995
0.703604996 0.022390954 0.209740609
0.749399066 0.011005994 0.229980975
0.781783760 0.003415650 0.231625736
0.814800918 0.000000000 0.239216000
0.847944379 0.000000000 0.254522383
0.890322745 0.000126517 0.267172426
0.920683265 0.009993603 0.282353193
0.945224643 0.024667632 0.294117689
0.968248069 0.047311515 0.307147145
0.990512431 0.084250309 0.325869828
0.999241054 0.115749612 0.341809213
1.000000000 0.154965341 0.357874751
0.996457994 0.197596535 0.380138785
0.993928015 0.246552601 0.414800614
0.122327544 0.114484549 0.121947996
0.124984160 0.115370162 0.121062383
0.142694548 0.116255775 0.124477774
0.164958939 0.120556548 0.129285380
0.189247534 0.124478221 0.136242777
0.228463084 0.126249000 0.141049936
0.250601321 0.125869453 0.141555995
0.285641998 0.121188775 0.138266996
0.320303410 0.116888002 0.146363318
0.353447229 0.109171294 0.154965296
0.386717081 0.106641002 0.158760011
0.418089747 0.106641002 0.160784006
0.456546485 0.101960644 0.167615294
0.497027040 0.096900776 0.179253727
0.535357058 0.089690134 0.186843634
0.576343775 0.082479559 0.191903964
0.617330372 0.074889354 0.196457773
0.662238896 0.066413566 0.206198573
0.704743803 0.054269534 0.213788792
0.743327081 0.048576765 0.225174144
0.781277716 0.036432780 0.235041037
0.811132133 0.031119673 0.237571210
0.846299767 0.032258321 0.253257245
0.882732809 0.032258321 0.265401781
0.916002512 0.041366313 0.277545810
0.943326890 0.054901972 0.291081876
0.967615366 0.078178383 0.307779759
0.993801415 0.106388412 0.329285115
0.995319188 0.137507617 0.342694819
0.999620438 0.169639573 0.359645933
0.999114394 0.206578329 0.379632980
0.994307220 0.253130764 0.413535774
0.135737151 0.127893835 0.134345159
0.133206829 0.125363842 0.129285157
0.143200606 0.130424157 0.132320985
0.163188159 0.129159003 0.133332998
0.181024984 0.135231003 0.136369377
0.223908767 0.139152214 0.141556010
0.253004640 0.140923321 0.147627994
0.277293146 0.138899162 0.145604163
0.312966257 0.133586258 0.141809061
0.348892987 0.128020316 0.154965326
0.382415861 0.124857455 0.158507288
0.417583674 0.123845324 0.164579168
0.449082822 0.122706681 0.165717810
0.491208047 0.119671024 0.182542965
0.531688511 0.114611164 0.187602580
0.572295606 0.111069165 0.191903651
0.616065562 0.105250128 0.199494168
0.659202695 0.102213740 0.210373163
0.704743803 0.091967143 0.218848974
0.744465530 0.086906962 0.225427032
0.777735710 0.081973165 0.233270258
0.811132133 0.074889287 0.239341989
0.844528556 0.078052148 0.251612484
0.877925694 0.080329150 0.264895648
0.907780111 0.081847154 0.274509847
0.939278841 0.092852809 0.289310664
0.965085208 0.109045222 0.303985000
0.992409706 0.130297586 0.325236976
0.998608351 0.154459089 0.343959659
0.997849226 0.185325578 0.362175941
1.000000000 0.220493570 0.383048594
0.997343183 0.259961993 0.413029850
0.149779007 0.142694101 0.153320551
0.144844770 0.138519540 0.142694548
0.148007318 0.143453538 0.139784768
0.160151780 0.150031835 0.141302556
0.179127529 0.148134097 0.135230541
0.215559542 0.154206097 0.138266936
0.250221431 0.157748327 0.147754550
0.280708700 0.157115832 0.151676178
0.309171557 0.154459104 0.149399459
0.342567950 0.151423484 0.152435079
0.375964403 0.149146229 0.156609878
0.413409203 0.148134097 0.165338531
0.451739639 0.147375003 0.173687637
0.485136032 0.144338608 0.176217958
0.527261198 0.141302958 0.184819579
0.568121314 0.140670538 0.193421543
0.609867036 0.138773099 0.202150390
0.655028522 0.133333504 0.212650448
0.700569034 0.130297109 0.218722448
0.742947221 0.124478087 0.222770184
0.779759467 0.121062353 0.229601279
0.810752690 0.119291224 0.239341989
0.844149053 0.122327574 0.251486003
0.877546132 0.128146544 0.266413480
0.907147706 0.125869542 0.275521576
0.936875641 0.126375750 0.286780328
0.968121588 0.136369601 0.304364532
0.986337543 0.157621965 0.316508532
0.995825231 0.176217496 0.338520080
1.000000000 0.200379357 0.362808466
1.000000000 0.232637644 0.387223125
1.000000000 0.272106111 0.414547563
0.155851007 0.154838875 0.156356946
0.158886626 0.163946480 0.156356946
0.156103715 0.161922708 0.147881165
0.161416948 0.163946837 0.149651945
0.176091149 0.166350082 0.156482935
0.200379938 0.172422871 0.150410950
0.239342242 0.175964549 0.153447330
0.272865474 0.174066991 0.154712230
0.302719980 0.170018926 0.151676163
0.333459556 0.169639468 0.149399474
0.366856694 0.172422856 0.161163941
0.404301167 0.172422856 0.169766262
0.444908351 0.172422856 0.175964937
0.485136032 0.171663761 0.176217958
0.518532395 0.168627381 0.173181579
0.563061416 0.167994931 0.191397786
0.604554117 0.169513121 0.204048142
0.645667195 0.169766277 0.212397426
0.688425004 0.166729882 0.215686068
0.728399396 0.160910860 0.224541411
0.772169232 0.160531133 0.232637674
0.810120285 0.160530999 0.241745800
0.841113389 0.158760354 0.251486003
0.874509811 0.161795959 0.263630807
0.907906353 0.163060933 0.276280940
0.938899398 0.164832264 0.288804591
0.968248069 0.172422856 0.304491073
0.989373922 0.184946358 0.319544911
0.994307101 0.203541890 0.337001890
0.998355269 0.223529100 0.359772444
1.000000000 0.249841779 0.383175522
1.000000000 0.284250855 0.405439943
0.159392685 0.174573317 0.169513315
0.170019254 0.176091254 0.172042996
0.168753862 0.183048636 0.169892773
0.166982993 0.184946314 0.164073467
0.174446538 0.188488096 0.168374315
0.192283541 0.188108549 0.166603312
0.221632317 0.189120680 0.158001006
0.261100709 0.193801418 0.159392685
0.294876784 0.193548545 0.158760101
0.327008039 0.195319325 0.159266487
0.370398611 0.190638870 0.163187668
0.405819505 0.195698991 0.173307925
0.443643302 0.197849646 0.177862316
0.483364731 0.199747324 0.177482992
0.523592412 0.203542218 0.185831904
0.564199567 0.200505823 0.190006316
0.609614253 0.200379312 0.204554200
0.652371824 0.202403560 0.214294985
0.696774006 0.203162670 0.223023355
0.731436014 0.199873298 0.226565674
0.770904362 0.195699066 0.237571314
0.811132133 0.197469831 0.248323992
0.843010664 0.197596312 0.258696824
0.874003887 0.198228732 0.263630807
0.907400310 0.198987633 0.280328989
0.939405322 0.201770619 0.294370651
0.968753994 0.208349064 0.310563058
0.992030084 0.218469307 0.329791427
0.997343481 0.233396605 0.345098287
0.996837139 0.251612574 0.366856247
0.997469664 0.276533484 0.386717290
0.997469664 0.311574996 0.401391685
0.165717706 0.197469980 0.186337993
0.177862048 0.192536697 0.187729314
0.180898219 0.196837693 0.186464056
0.174066991 0.201644540 0.180898443
0.175205544 0.206957534 0.178241700
0.192915931 0.206451461 0.180771694
0.214168221 0.207589701 0.174826086
0.242884710 0.207589701 0.172295704
0.282353103 0.215939373 0.170777708
0.317520529 0.222517222 0.171157479
0.360910892 0.218469411 0.172548831
0.405313075 0.218848705 0.176343963
0.441745847 0.222643703 0.183175072
0.478178054 0.225174025 0.181404278
0.517899811 0.229854688 0.187982276
0.563693583 0.235294297 0.198608711
0.607716620 0.235293910 0.206198514
0.652625144 0.234787971 0.214674279
0.697153747 0.235800356 0.224794298
0.734851360 0.236559033 0.235167637
0.772042990 0.231878445 0.238962993
0.810499549 0.231878698 0.251107007
0.844528556 0.235420391 0.263250977
0.876407564 0.235420391 0.270841181
0.904111326 0.235420391 0.281973690
0.938899338 0.236812070 0.298797995
0.969260037 0.242631108 0.314484417
0.994686723 0.250600845 0.334598422
0.998734832 0.263377488 0.352182090
0.999873519 0.281973332 0.374319911
0.995951772 0.302845955 0.398608178
0.994433701 0.337001711 0.411511719
0.176344082 0.219481096 0.203795090
0.186210990 0.213409483 0.203035995
0.190512091 0.214295000 0.202403426
0.191524088 0.218342945 0.198355168
0.179759637 0.222517177 0.189627007
0.197217032 0.226692125 0.194181010
0.215939090 0.227450773 0.190892100
0.236811921 0.230360284 0.188994482
0.265655100 0.230360270 0.190512106
0.305123508 0.245540679 0.184440106
0.350537747 0.247817874 0.183428004
0.394307315 0.249589026 0.183175161
0.436432362 0.251486301 0.186211452
0.473118126 0.251739264 0.189247057
0.510056853 0.254775524 0.189752996
0.556103587 0.261859804 0.197849602
0.603162587 0.266413987 0.206957802
0.647438526 0.270082176 0.217330560
0.689816892 0.267426044 0.223782107
0.729538321 0.269196838 0.238203466
0.768247724 0.268817097 0.245034739
0.805945396 0.265275091 0.251107007
0.842378080 0.270967603 0.263124496
0.876407504 0.270335197 0.274636090
0.906009018 0.271094084 0.287539572
0.933586240 0.272485763 0.301834375
0.968500972 0.276028097 0.316508085
0.995825350 0.282100081 0.334218800
0.999240935 0.292726189 0.355471075
1.000000000 0.309424281 0.377482235
0.999747038 0.330929667 0.404680192
0.993674994 0.358254105 0.428969026
0.191524491 0.234661490 0.218975499
0.194560111 0.237697899 0.215939105
0.197975770 0.240227729 0.217330784
0.204680488 0.242125019 0.217583805
0.213156030 0.243769586 0.213915020
0.204048440 0.255914330 0.207843021
0.218975484 0.252498329 0.204807341
0.237191468 0.253383934 0.203289509
0.259582281 0.257685483 0.202656895
0.292979479 0.257685453 0.199620515
0.346995711 0.272865087 0.196457624
0.393042475 0.281214535 0.191524029
0.433396757 0.284883469 0.189247176
0.470082521 0.285136431 0.192283466
0.509550929 0.288172066 0.195319071
0.556103587 0.293611497 0.200632602
0.603162587 0.295256227 0.205439806
0.647438526 0.294370979 0.211258560
0.686906993 0.300442994 0.226438969
0.726501942 0.300569534 0.241239861
0.764073014 0.302593231 0.246932492
0.799620390 0.304237515 0.251107007
0.833270431 0.304364026 0.263124496
0.869702518 0.301328421 0.272232890
0.906008601 0.302972734 0.286021739
0.937760651 0.305882215 0.302466959
0.965464592 0.309424520 0.319544494
0.992788970 0.315496504 0.331688464
0.996204555 0.324225366 0.360025108
0.997975767 0.338772953 0.384566665
1.000000000 0.358001083 0.407843053
0.999746978 0.379506469 0.435041010
0.200885877 0.255660862 0.231245995
0.198102489 0.267425388 0.236938477
0.205439642 0.264010012 0.240353867
0.212523714 0.264769018 0.241619140
0.221125543 0.267552286 0.238962740
0.217077941 0.277166754 0.237950742
0.223150313 0.284250855 0.234408423
0.241872564 0.286274612 0.231372714
0.262112826 0.290069759 0.228589877
0.286907464 0.287918985 0.223403245
0.323212981 0.290828884 0.214547873
0.379886001 0.308032721 0.213535741
0.429095417 0.317646980 0.210373089
0.472359151 0.321188986 0.208855033
0.506514490 0.321568429 0.201265320
0.545983553 0.322200865 0.209107921
0.596078396 0.327260852 0.212650120
0.643263698 0.329664588 0.214926988
0.678178132 0.333459854 0.223276109
0.725995898 0.342315227 0.238456503
0.760151446 0.338899732 0.247944117
0.795572340 0.337887615 0.257052243
0.832764447 0.337634593 0.274636030
0.866413891 0.331814915 0.280961752
0.900569201 0.337887287 0.296900839
0.932194650 0.340796739 0.312713623
0.959013104 0.342820883 0.328905940
0.983934283 0.348892868 0.343453735
0.995319009 0.354964882 0.363567531
0.997849226 0.369133383 0.389626771
0.999114394 0.384693354 0.409360975
0.997090161 0.397849739 0.426565140
0.212017983 0.287033498 0.261606753
0.211005852 0.291081488 0.259582251
0.218595758 0.296394259 0.261606246
0.228968993 0.292852253 0.263883412
0.236938253 0.295509070 0.261606693
0.232257932 0.302973181 0.263250977
0.237318039 0.309551239 0.264769197
0.244782150 0.317267507 0.260088503
0.264896005 0.323719174 0.255914241
0.287413239 0.324478269 0.249842256
0.325237006 0.325237364 0.244908363
0.363693714 0.330297470 0.231751993
0.417963266 0.347375154 0.230613634
0.466793120 0.356609762 0.227324501
0.510815918 0.363693744 0.219987676
0.553067386 0.361669481 0.217204437
0.589500189 0.358633488 0.221758246
0.637444437 0.362049073 0.222390831
0.673624277 0.365085483 0.227071524
0.716888011 0.373687327 0.237444371
0.757874727 0.375205725 0.248829737
0.790512264 0.372296125 0.258064389
0.828715980 0.373181492 0.276786774
0.862112880 0.369006932 0.284756809
0.895509303 0.368247777 0.295888990
0.927514315 0.375964493 0.316887945
0.954965293 0.377229512 0.333965808
0.979253590 0.380265504 0.349146158
0.994307399 0.384313762 0.371663809
0.998102248 0.392156512 0.392916173
1.000000000 0.411385179 0.416951209
0.998102248 0.426186234 0.433649242
0.225300640 0.325743258 0.291967362
0.225300640 0.325743258 0.288171858
0.230487004 0.326755166 0.286400646
0.244908288 0.329664290 0.291966796
0.256672740 0.330043793 0.288931191
0.254395634 0.335357517 0.290448993
0.251612633 0.342568278 0.290069312
0.257684767 0.352561831 0.289310634
0.266034424 0.362428546 0.285515547
0.289184034 0.369260252 0.280581981
0.324604511 0.369513273 0.276280791
0.364073098 0.371284276 0.265148669
0.408096284 0.373940617 0.248829633
0.457938105 0.389880061 0.246046990
0.513093174 0.405566275 0.241745993
0.559898794 0.410246760 0.238077462
0.600505829 0.406830937 0.234281987
0.634534776 0.400758922 0.233016998
0.673497975 0.402277261 0.234535322
0.713472784 0.405186564 0.240860298
0.751043856 0.408981383 0.251106739
0.788488507 0.406957626 0.261226982
0.825173497 0.409487277 0.276027858
0.860594690 0.405439556 0.285136253
0.892852664 0.405819267 0.299937010
0.924857616 0.407463610 0.317647249
0.953700423 0.412523627 0.340417236
0.977355957 0.412523627 0.355597436
0.991397798 0.416318804 0.378747642
1.000000000 0.424035668 0.401265174
1.000000000 0.435799897 0.423403203
1.000000000 0.459582627 0.447691292
0.240227997 0.367236078 0.308412075
0.240481034 0.368248075 0.308665097
0.243137255 0.367742062 0.309171110
0.252245337 0.369512916 0.314231217
0.268564492 0.371536613 0.326881588
0.277672112 0.374572992 0.323845953
0.270082027 0.383681387 0.318785459
0.267046064 0.395825744 0.314610779
0.274889112 0.410500050 0.312586963
0.290069520 0.422644049 0.315622568
0.319544703 0.423656046 0.309930056
0.355724245 0.423656046 0.298545301
0.398987859 0.423023492 0.282732755
0.451107085 0.420240134 0.265022010
0.514864087 0.444528878 0.265022010
0.565464795 0.457811803 0.262618810
0.606704414 0.461606920 0.258064717
0.642884135 0.458191067 0.252245069
0.679316998 0.452119082 0.246173069
0.715496719 0.445794046 0.247691393
0.750284731 0.443896323 0.255154997
0.785705090 0.445920080 0.267299056
0.824793994 0.445793569 0.279822528
0.863883734 0.439848036 0.289436907
0.896773994 0.440354317 0.307147294
0.927134335 0.443137378 0.329791307
0.956483066 0.445920080 0.353320956
0.977735400 0.445920080 0.368500590
0.988361776 0.451486051 0.390638679
0.995193005 0.460847437 0.413915187
1.000000000 0.474004030 0.435800165
1.000000000 0.492220044 0.460088968
0.252371997 0.397596806 0.338772804
0.255408376 0.409740806 0.341809213
0.262112617 0.406451821 0.346363217
0.272485554 0.407969654 0.348640203
0.286400974 0.413535357 0.351043791
0.286780477 0.404933751 0.345098317
0.288298398 0.423150122 0.344592392
0.284124106 0.436938792 0.343327224
0.286021709 0.450474471 0.341935724
0.296141505 0.465148807 0.339911312
0.322959840 0.471473813 0.334218800
0.356989086 0.472232789 0.328146815
0.396331251 0.473371416 0.317900091
0.441998690 0.474889606 0.304490387
0.499683768 0.474889606 0.292346388
0.561037123 0.496773988 0.289943188
0.607969582 0.507906377 0.285389394
0.645540953 0.510183632 0.279949635
0.679316998 0.506767809 0.276533812
0.712966383 0.497912437 0.270461798
0.748893023 0.485642105 0.268184662
0.785705090 0.479317218 0.273371249
0.824793994 0.479190707 0.285895288
0.855154812 0.476154327 0.307146937
0.889689863 0.474762797 0.321315229
0.921062291 0.475395381 0.341935307
0.950917006 0.476533890 0.366223991
0.977735400 0.479317218 0.389752924
0.988361776 0.487286359 0.402277052
0.992156982 0.495761991 0.427577317
0.995192945 0.505502999 0.453383565
1.000000000 0.516508818 0.475268543
0.262112796 0.444781750 0.369133592
0.262745380 0.452118754 0.369766176
0.265781224 0.453510553 0.372802019
0.281973183 0.452751607 0.379886121
0.300568998 0.459582388 0.383681327
0.304616988 0.456546485 0.383681566
0.302213788 0.465528101 0.387476593
0.298924804 0.480202496 0.379253894
0.297406971 0.492346674 0.375458777
0.304870337 0.507527053 0.374067098
0.321821690 0.521189392 0.375331759
0.351169795 0.525237143 0.369259775
0.390259117 0.525616586 0.359772146
0.434029073 0.526628733 0.346362591
0.480961442 0.522327781 0.334218591
0.536242783 0.524731576 0.317267597
0.601517797 0.549019575 0.315749794
0.648576915 0.559392989 0.310816228
0.681973815 0.556356609 0.304237813
0.715370238 0.547754228 0.303225815
0.752561510 0.536748588 0.295256048
0.787476242 0.523086786 0.292219788
0.822643816 0.517141283 0.298671693
0.857558608 0.509550869 0.310815930
0.887918770 0.508791745 0.334345371
0.918405652 0.508791745 0.351296574
0.946742296 0.509297848 0.372548997
0.972169399 0.512334168 0.393041968
0.985957980 0.518279731 0.413914859
0.989753187 0.527387798 0.436685562
0.992409766 0.537381589 0.464389384
1.000000000 0.548007786 0.485641778
0.274257183 0.494876355 0.397976190
0.274257183 0.499430537 0.402530372
0.279443413 0.499050945 0.403162807
0.288804501 0.499810189 0.406198412
0.313092828 0.505882263 0.413662195
0.320303172 0.508159578 0.415559918
0.321821511 0.512207568 0.422644198
0.324731380 0.524225116 0.423276484
0.318659186 0.534851491 0.411132246
0.321695000 0.550031841 0.410373360
0.330423862 0.563694060 0.410246491
0.352688372 0.576850295 0.410246372
0.386464030 0.579885960 0.403035730
0.430993080 0.580012441 0.388867378
0.473497808 0.575205564 0.376723379
0.519544601 0.571790159 0.362808377
0.574193418 0.571790159 0.343074203
0.642757475 0.598482132 0.344339192
0.685009718 0.603415608 0.339658409
0.716888428 0.593295038 0.331309199
0.754079700 0.586843550 0.333206624
0.790512264 0.574699581 0.325110376
0.820872962 0.562682033 0.323845387
0.854522824 0.553573608 0.325996071
0.883364975 0.543706357 0.337381363
0.913725317 0.542314708 0.358887136
0.940670192 0.542694211 0.378115177
0.964958668 0.545730591 0.398355156
0.981657207 0.549905300 0.420746177
0.989753187 0.556230366 0.444275349
0.991524160 0.566224158 0.472865194
1.000000000 0.578368187 0.494750172
0.288804978 0.544085681 0.425933123
0.291967541 0.546489477 0.434408933
0.297786355 0.545856893 0.438962966
0.309424281 0.545350671 0.440227956
0.327640951 0.551422715 0.442504555
0.337507606 0.557495356 0.442251533
0.342188448 0.559772491 0.449209452
0.346616268 0.565718114 0.453004420
0.353826940 0.577988625 0.449335605
0.347754151 0.593168974 0.446300000
0.351043403 0.605439723 0.444528818
0.365085483 0.618342757 0.443516701
0.393169224 0.630234063 0.441366047
0.432637632 0.632763684 0.433016688
0.474762797 0.629727900 0.422390670
0.514105022 0.626186073 0.407084107
0.562681794 0.622264504 0.393548489
0.616065681 0.616065681 0.371663541
0.679822981 0.640354514 0.377735525
0.719291747 0.638203561 0.368121326
0.754079700 0.632384419 0.363693714
0.789879680 0.626312494 0.366982698
0.819987416 0.614041984 0.361416698
0.849336267 0.603921592 0.357368678
0.875775039 0.589626789 0.358507097
0.900316179 0.579380035 0.365717888
0.930676997 0.576343656 0.384440631
0.955218017 0.579126954 0.408602118
0.975458682 0.581530750 0.431625605
0.987855971 0.586337924 0.456546485
0.993927956 0.593548536 0.478304625
1.000000000 0.605692565 0.502593398
0.300949067 0.595699012 0.456294000
0.316129446 0.595699012 0.462365985
0.323593020 0.595952034 0.470841229
0.332448006 0.595699012 0.476660222
0.345857024 0.596964002 0.478937447
0.364073068 0.603035986 0.475901067
0.371410668 0.609108031 0.480708659
0.373941004 0.616318762 0.485389262
0.375458926 0.626438975 0.485641986
0.378114998 0.638709486 0.479696512
0.383680999 0.650980771 0.482479900
0.391524285 0.661100745 0.482985944
0.409867316 0.670714676 0.481847316
0.441746026 0.678304970 0.478557974
0.481214374 0.675268531 0.478557974
0.511321783 0.677039862 0.455914199
0.553573370 0.677798986 0.440481007
0.606957257 0.673750997 0.429348826
0.655534923 0.655534983 0.405060023
0.716508687 0.677040398 0.408349365
0.757621706 0.682226956 0.404174984
0.789500117 0.677925766 0.401138961
0.816951036 0.665654540 0.400885940
0.841239870 0.650474131 0.406957954
0.868311286 0.633523047 0.405186683
0.891207933 0.621125996 0.402909666
0.912460208 0.615812898 0.405693084
0.942820907 0.612776518 0.426945418
0.967362642 0.612902999 0.445793927
0.984060943 0.616698086 0.469829172
0.993927956 0.623655677 0.492473006
1.000000000 0.633017063 0.505629122
0.349272400 0.647312105 0.500569403
0.356104136 0.647312105 0.503858745
0.364832729 0.653763354 0.507779956
0.373434722 0.654395938 0.513092875
0.386717290 0.652119100 0.516129136
0.407337129 0.648577094 0.517899811
0.417963415 0.654649079 0.517393768
0.422644019 0.662365794 0.519671023
0.425300390 0.670715094 0.520809352
0.430360258 0.678811133 0.518785357
0.430739760 0.693737745 0.524224937
0.440860271 0.703858316 0.527261317
0.449589103 0.714104772 0.526881754
0.466287374 0.724857390 0.524351418
0.493105412 0.731941700 0.526881754
0.527767420 0.724098325 0.512460768
0.561922908 0.724098384 0.490828723
0.607083917 0.722833395 0.477798820
0.649209201 0.713219404 0.459961802
0.683871388 0.708918810 0.449589074
0.748387039 0.724478424 0.454522729
0.788488269 0.723972380 0.451992750
0.814294815 0.711954594 0.448450744
0.846552849 0.702087224 0.449209720
0.873118281 0.686906874 0.450727731
0.896267951 0.671979725 0.448197424
0.915496111 0.661606729 0.446173459
0.941302836 0.649462283 0.453763783
0.961036921 0.646426558 0.472359329
0.977988720 0.648070872 0.487033337
0.990132928 0.654016316 0.511068821
1.000000000 0.663124740 0.536496103
0.393295199 0.693232477 0.536622465
0.397469759 0.691334724 0.533966124
0.407337457 0.695888698 0.538899720
0.410879463 0.701201439 0.538140476
0.421632022 0.699557245 0.540797174
0.442884415 0.698039472 0.549904823
0.463504046 0.696394682 0.550410748
0.470967740 0.702466667 0.553700149
0.472738534 0.710563004 0.554965079
0.475395203 0.716634989 0.556103468
0.479443192 0.725743353 0.560025215
0.483744264 0.738772750 0.560277998
0.495888710 0.749019444 0.566729724
0.504237771 0.760151446 0.566729426
0.523592472 0.764326155 0.561543167
0.547501385 0.768500686 0.553447008
0.576344371 0.762428641 0.538267016
0.612017691 0.762049198 0.523972034
0.647691011 0.758507192 0.513851941
0.687286377 0.749525309 0.492852300
0.720683455 0.752182484 0.489436954
0.778368115 0.761290312 0.495509237
0.807590306 0.753826678 0.492979437
0.842757940 0.746489525 0.489436954
0.869702578 0.732827246 0.489436954
