Assets/EldamarStudio/100 Retro LUTs Pack/LUTs/cube/Donald LUT.cube
LUT_3D_SIZE 5
DOMAIN_MIN 0.000000 0.000000 0.000000
DOMAIN_MAX 0.903226 0.903226 0.903226
0.000000000 0.000000000 0.000000000
0.032384705 0.005566289 0.002277292
0.119038828 0.045161411 0.000000000
0.244276121 0.122707121 0.011890996
0.392536461 0.252624929 0.121821634
0.111195408 0.049715411 0.006198711
0.137634695 0.072612405 0.000000000
0.207969397 0.108285688 0.007210997
0.303478837 0.180898115 0.049209412
0.439595371 0.302340358 0.176849946
0.304743797 0.212650374 0.056926407
0.323086381 0.224414796 0.086780682
0.372801781 0.270840973 0.133585960
0.436559111 0.330676526 0.192030102
0.562555552 0.444908589 0.303731799
0.533712983 0.447438240 0.294497252
0.548386991 0.465401530 0.320936114
0.575585306 0.489310235 0.338393241
0.631752253 0.537634254 0.390639246
0.716128945 0.620999098 0.490702212
0.791524589 0.718152940 0.582162738
0.804174304 0.727640688 0.595066369
0.812776387 0.744971156 0.615559995
0.843896329 0.771410286 0.651233315
0.881467640 0.807083726 0.711954594
0.004554003 0.000000000 0.002277292
0.045793995 0.011131996 0.003288997
0.146869108 0.065781116 0.001644708
0.268817246 0.144212127 0.031498995
0.405565947 0.266666681 0.141176671
0.122959986 0.053004410 0.002277292
0.151423097 0.076533988 0.005566289
0.223023400 0.120682694 0.012144282
0.313851863 0.187729403 0.061606824
0.443516642 0.314104915 0.187982365
0.306008965 0.211890981 0.075268984
0.328273386 0.226312399 0.093611389
0.371790081 0.269829094 0.140417531
0.434914380 0.332953632 0.195698649
0.563820601 0.446173638 0.308285803
0.536622107 0.449083120 0.301328540
0.547375262 0.464136392 0.310183227
0.575205564 0.487665951 0.343200356
0.630107522 0.535989702 0.393548548
0.717141032 0.617204309 0.485515207
0.792536259 0.717899859 0.589120865
0.797596514 0.723339736 0.597849607
0.810626268 0.741050005 0.614674330
0.843010783 0.765970767 0.647058606
0.874889433 0.808348954 0.701328635
0.034028992 0.013788572 0.003922000
0.071979567 0.022264414 0.001644708
0.161543414 0.072612412 0.003289416
0.277039707 0.152435407 0.040733822
0.410120219 0.280708373 0.159139365
0.141555697 0.071979985 0.003289416
0.168374702 0.086021699 0.000000000
0.233776107 0.128526121 0.021884711
0.324351430 0.202150553 0.083111994
0.457179219 0.324478209 0.200000077
0.319164991 0.214547813 0.096268393
0.338772804 0.234155819 0.114231683
0.381909966 0.279949784 0.149272799
0.449335814 0.342441499 0.208095983
0.564453125 0.450094759 0.316761643
0.533459961 0.450980127 0.308918238
0.553952873 0.465401530 0.328399837
0.581404269 0.494117945 0.352055222
0.633016884 0.533080399 0.398102582
0.723972201 0.620999098 0.493358612
0.787349582 0.710309565 0.581530333
0.786717355 0.720809340 0.592030406
0.806957603 0.740417421 0.611005723
0.836432636 0.762934864 0.649715424
0.874889493 0.805818617 0.700063407
0.091334864 0.028463127 0.001012128
0.117393702 0.045793578 0.002277292
0.187096402 0.088930994 0.004301286
0.294371009 0.169766128 0.060973994
0.426186055 0.290828496 0.184313655
0.174572989 0.086021699 0.008475996
0.194560260 0.102972858 0.012650290
0.252498388 0.141302824 0.044528995
0.340038002 0.218469247 0.108665243
0.465654373 0.337254882 0.225806355
0.332827389 0.233270094 0.108412102
0.347881377 0.247564659 0.134218812
0.388488352 0.287160218 0.171157673
0.458064675 0.350917101 0.234281957
0.567995071 0.446426362 0.332700640
0.539658248 0.458191127 0.321948230
0.554965019 0.466666549 0.332700729
0.587223291 0.493485570 0.364073128
0.638583124 0.543453217 0.413156152
0.717393816 0.614800632 0.492346942
0.774066746 0.713219464 0.595951617
0.788994133 0.717773497 0.600126505
0.804047942 0.731815219 0.614674330
0.837065279 0.762302458 0.652245402
0.881846786 0.809108019 0.707400382
0.163566977 0.074636146 0.019734144
0.183554515 0.085388951 0.033143528
0.240101382 0.126375377 0.057052389
0.339911282 0.206451535 0.129411772
0.461859614 0.324604601 0.238329932
0.220113844 0.114484400 0.042378098
0.238709643 0.129537985 0.059961688
0.288804680 0.171030849 0.091334693
0.373434424 0.249588698 0.165338263
0.495129645 0.362808347 0.274889350
0.339278728 0.237318411 0.147122398
0.352055699 0.249082997 0.156356826
0.394307226 0.288425356 0.202909634
0.470841229 0.359772235 0.265654802
0.583427906 0.459202796 0.357368588
0.554332376 0.476154417 0.361922652
0.566730022 0.484376937 0.373940527
0.579633296 0.493485123 0.381024569
0.624161899 0.522200942 0.416318953
0.711574793 0.606704950 0.500821948
0.778241754 0.714231610 0.607210577
0.787349641 0.720809758 0.613788426
0.803162456 0.736495733 0.629474699
0.831119657 0.761922538 0.654901624
0.890828431 0.809740603 0.727640569
