Assets/EldamarStudio/100 Retro LUTs Pack/LUTs/cube/Donald LUT.cube
LUT_3D_SIZE 8
DOMAIN_MIN 0.000000 0.000000 0.000000
DOMAIN_MAX 0.903226 0.903226 0.903226
0.000000000 0.000000000 0.000000000
0.008981547 0.000379548 0.003542452
0.040734001 0.007843001 0.000000000
0.089183994 0.026944643 0.000000000
0.162049383 0.068816997 0.000000000
0.223023474 0.107526734 0.005819256
0.297659695 0.166603565 0.049968284
0.392536461 0.252624929 0.121821634
0.045034546 0.005439999 0.000000000
0.054016095 0.013662547 0.003542452
0.083364651 0.030107547 0.000000000
0.128399998 0.055154640 0.000000000
0.179253370 0.084503189 0.005566002
0.240354076 0.129917994 0.013915188
0.314864278 0.184693277 0.062744826
0.402024060 0.265148640 0.138520077
0.134725094 0.064895995 0.005439998
0.143200189 0.071980089 0.003542452
0.160405084 0.091587894 0.000759098
0.205565840 0.108412445 0.003035999
0.247438177 0.138520002 0.021758191
0.301960826 0.181657091 0.049462449
0.363440901 0.236306369 0.104617275
0.450474471 0.317267805 0.189753041
0.245034978 0.151422918 0.019228280
0.252878278 0.153699920 0.028336637
0.277925283 0.172548831 0.041998990
0.299936980 0.197976261 0.066287279
0.337634265 0.227324635 0.092852369
0.377102911 0.261353374 0.128020361
0.428969264 0.314104915 0.178494632
0.513851881 0.387855917 0.255028248
0.361163974 0.270082384 0.124351181
0.370145649 0.271979749 0.128020376
0.379886180 0.285768181 0.144592181
0.401771277 0.307653368 0.166476995
0.436306179 0.337381184 0.195572376
0.472232670 0.370272189 0.228210166
0.533333242 0.422011465 0.281467259
0.607210755 0.490828633 0.354459375
0.503352702 0.417077720 0.268184751
0.506261706 0.423782468 0.271093994
0.513219714 0.432258189 0.282226384
0.531815350 0.445540547 0.292599380
0.563187480 0.469070464 0.320050448
0.595319450 0.497153461 0.350158215
0.634535253 0.536369264 0.393168986
0.697406709 0.596963823 0.462365448
0.639089584 0.560657561 0.415559560
0.643643558 0.570398271 0.415433288
0.652371585 0.573940575 0.431878537
0.667678952 0.586970150 0.441872209
0.683871269 0.602150261 0.461606830
0.710563302 0.618722558 0.482099563
0.737128556 0.649209321 0.509044945
0.776344180 0.683238328 0.558254540
0.791524589 0.718152940 0.582162738
0.798102319 0.725995958 0.598481536
0.801897585 0.727387547 0.601897597
0.809740543 0.737381458 0.609487534
0.819101810 0.752561569 0.623149574
0.840860248 0.766350448 0.646173418
0.859456241 0.787729204 0.673371017
0.881467640 0.807083726 0.711954594
0.003542452 0.000379548 0.000000000
0.005819450 0.003922000 0.000000000
0.054016098 0.012903452 0.003922000
0.108791992 0.039089091 0.003542452
0.169512749 0.075901188 0.000000000
0.234408721 0.120176733 0.011258544
0.308285534 0.176470742 0.059455995
0.394560635 0.260467947 0.124351494
0.046932094 0.016445000 0.000000000
0.062998541 0.024667548 0.003542452
0.095509090 0.037571095 0.000000000
0.140923291 0.062618993 0.000379548
0.196584195 0.096268184 0.002403808
0.254649192 0.138140544 0.024161996
0.314864248 0.185452282 0.056799371
0.393295467 0.257052511 0.125363797
0.137001991 0.074383095 0.000000001
0.155471563 0.082226098 0.000000000
0.176976174 0.091587894 0.004301453
0.209487751 0.112333633 0.006957902
0.251739711 0.142820746 0.021378737
0.302719623 0.183934093 0.050980538
0.367741793 0.239468455 0.108159341
0.450221658 0.316761732 0.189753041
0.248956278 0.156103641 0.022011539
0.258064628 0.162428632 0.022770539
0.269323170 0.172928289 0.038456731
0.299810171 0.195192918 0.056799371
0.337508172 0.223782375 0.090449177
0.371536940 0.257811606 0.124477915
0.425426990 0.307779998 0.172169521
0.496141791 0.378494412 0.237318337
0.353194386 0.264516175 0.121315375
0.365844399 0.274762988 0.127261177
0.376343817 0.285262734 0.142567918
0.402276844 0.304870546 0.165338635
0.433143586 0.333459556 0.195066527
0.468437463 0.368753999 0.228083625
0.523339570 0.413029730 0.276280969
0.596837342 0.482732505 0.342947274
0.488298744 0.411764473 0.260973811
0.496900946 0.416192025 0.266919464
0.506641269 0.429854393 0.274509639
0.525363684 0.445161015 0.291714281
0.560404718 0.467046201 0.321442157
0.591650903 0.489690036 0.352435023
0.632764399 0.530803502 0.393548429
0.698165834 0.596204877 0.462745011
0.632637560 0.554079533 0.402909368
0.643643558 0.561163962 0.416824520
0.649462283 0.570777833 0.424667656
0.665781200 0.580645144 0.441239625
0.680455565 0.598734975 0.458191097
0.705376089 0.616824865 0.478558004
0.729411542 0.637571275 0.500948846
0.766603231 0.673497617 0.542820632
0.795066118 0.711448133 0.584693313
0.791903794 0.720303595 0.589626729
0.796458066 0.726375520 0.595193028
0.810752392 0.734977961 0.608222365
0.821631789 0.745856941 0.617330790
0.833649576 0.764452696 0.644275665
0.853637040 0.781910002 0.672105968
0.882099569 0.803541839 0.694749713
0.002277095 0.001517998 0.000000000
0.020367000 0.004301452 0.000000000
0.057937998 0.017963096 0.007084098
0.112333730 0.043769997 0.000000000
0.180898085 0.088551894 0.002403808
0.252119005 0.130297348 0.023402996
0.324984163 0.192536369 0.072485991
0.405565947 0.266413718 0.142441690
0.057178997 0.014041902 0.000000000
0.067678638 0.021885000 0.000000000
0.099051543 0.042252000 0.003162904
0.155851007 0.071220994 0.000000000
0.208728641 0.104111090 0.008222548
0.265148729 0.146362990 0.034282185
0.330170721 0.200758815 0.077672727
0.407843232 0.273118287 0.147122070
0.145730197 0.072738990 0.000000001
0.160531089 0.086148098 0.004680904
0.185578987 0.096268192 0.009361001
0.220493436 0.118153088 0.008855450
0.259962082 0.151043475 0.034282092
0.316128761 0.194560453 0.072991736
0.375964552 0.248830080 0.124983981
0.456925780 0.327513963 0.204427794
0.254142731 0.158001184 0.035800185
0.265528172 0.162302539 0.040481087
0.281847090 0.183175281 0.051739726
0.304996639 0.203035921 0.071347632
0.341049820 0.228463173 0.099557631
0.378241450 0.266034305 0.131941363
0.433396637 0.317267716 0.182795569
0.505123079 0.387476087 0.253384084
0.365085185 0.270714551 0.128905565
0.370525181 0.279063702 0.140796989
0.384566486 0.290449083 0.149272472
0.404174477 0.310057163 0.170398369
0.434788376 0.335863382 0.197090179
0.468690723 0.370777726 0.231499359
0.527261019 0.414294720 0.280961365
0.603036046 0.481973410 0.345730513
0.499177724 0.413915128 0.269955546
0.499936730 0.417330623 0.271094203
0.510942757 0.430233926 0.282858729
0.533839107 0.443516821 0.300442547
0.559266269 0.465148658 0.323972195
0.589373767 0.495256215 0.350284725
0.635167539 0.534724653 0.396710575
0.695888698 0.593927681 0.462239087
0.629474699 0.549778581 0.403036296
0.640733719 0.563061357 0.417583793
0.652371764 0.570904374 0.425806344
0.658317745 0.579885960 0.439342290
0.678304732 0.595319331 0.457811564
0.702213943 0.612017930 0.478684187
0.727767348 0.635926664 0.502593458
0.769259810 0.677166283 0.553193986
0.784187019 0.715622544 0.586590767
0.791524589 0.718279660 0.593421698
0.798102558 0.723592520 0.596837401
0.803794980 0.737254798 0.607842803
0.815180182 0.748639584 0.619228601
0.834661663 0.762428939 0.639974892
0.855787456 0.778367698 0.669196606
0.876407444 0.805818558 0.701581419
0.021884998 0.003922000 0.006704646
0.037950546 0.006198998 0.000000000
0.068058096 0.022644095 0.000379548
0.128399998 0.048829637 0.000000000
0.194686830 0.089563638 0.004554189
0.258064747 0.137001991 0.021505257
0.327387571 0.197975993 0.076407567
0.413535446 0.278558165 0.154205799
0.067299090 0.023023546 0.001138644
0.087286539 0.028083190 0.000000000
0.113092735 0.044149548 0.001517998
0.164832547 0.072738990 0.003922000
0.216192290 0.106767729 0.011005905
0.274256885 0.154206082 0.041745733
0.341555983 0.211005628 0.090575568
0.418848842 0.283364981 0.156230241
0.157748446 0.080202542 0.008981645
0.163187638 0.087666094 0.001897547
0.193422094 0.104111187 0.008222647
0.228716195 0.125616640 0.016698450
0.276154518 0.160910636 0.040986739
0.323086828 0.201517820 0.085515633
0.383807451 0.261480272 0.139911264
0.458570600 0.336242616 0.214674190
0.264010280 0.160404995 0.041619636
0.267046273 0.171789736 0.041872278
0.288298190 0.184693173 0.065907732
0.312839925 0.210878924 0.079190627
0.352182031 0.240733624 0.111954629
0.390385628 0.276660621 0.145603910
0.443516910 0.329790920 0.202023908
0.514611065 0.398228914 0.264895618
0.362175822 0.279190540 0.145604178
0.378747761 0.285768390 0.148387372
0.394433826 0.300696105 0.160278276
0.412017554 0.317900181 0.184566572
0.440986365 0.340164542 0.210373372
0.478558004 0.381404370 0.241745651
0.533965826 0.424035639 0.288425028
0.604553998 0.491840422 0.355850518
0.500316381 0.417836845 0.272738844
0.500569403 0.424415082 0.280455530
0.519797683 0.436179489 0.289942920
0.538899481 0.450600713 0.311574966
0.563187480 0.473118454 0.332194686
0.593295157 0.495382726 0.358380467
0.640733659 0.538772643 0.401518077
0.702972770 0.601011813 0.466793239
0.639089584 0.557241917 0.420113534
0.644655585 0.566982567 0.423782110
0.651866257 0.570145309 0.429601282
0.664768875 0.581404209 0.445793927
0.680708289 0.599241316 0.462365508
0.705755651 0.615559638 0.482226461
0.733712912 0.639595211 0.511954308
0.773560822 0.680455387 0.556609571
0.781277716 0.717014611 0.592156768
0.794307411 0.716635108 0.587729394
0.795066416 0.726375759 0.591777205
0.809487581 0.734977961 0.608222365
0.820872843 0.740796864 0.620366991
0.836559057 0.762049496 0.641872525
0.853257596 0.781530619 0.670208454
0.880329013 0.807083726 0.704364538
0.046172999 0.011765000 0.001518192
0.063757345 0.016824644 0.000000000
0.097912900 0.028083386 0.004807003
0.135736838 0.057938091 0.001138644
0.198861182 0.096267998 0.006957998
0.264642268 0.143959463 0.038203992
0.335230976 0.201897576 0.092093572
0.420113981 0.285894960 0.166729778
0.097786084 0.038709741 0.000758999
0.110056728 0.039089192 0.000379548
0.129917890 0.056293286 0.000379548
0.172675639 0.082226291 0.001138547
0.225553378 0.112713382 0.018090000
0.281973362 0.162428722 0.052245278
0.347754568 0.215306893 0.099051178
0.420872986 0.290322334 0.172169596
0.178621188 0.090828992 0.005439805
0.185325652 0.098671995 0.012144452
0.204554200 0.111195281 0.012523904
0.235420644 0.132700741 0.025300546
0.275648296 0.166730091 0.051486284
0.331688732 0.210119933 0.092599638
0.390006304 0.265401483 0.147122294
0.472991556 0.342062145 0.225426868
0.268691063 0.168374196 0.051865831
0.276913434 0.172548831 0.054901734
0.292093366 0.186211273 0.068943731
0.319544286 0.213662282 0.096015275
0.350031435 0.245793983 0.120936185
0.398228914 0.284503639 0.159013107
0.446299553 0.332574278 0.207843259
0.522074461 0.397469729 0.273624450
0.372042954 0.281847000 0.153320372
0.387856185 0.290069550 0.159139723
0.397217095 0.304617286 0.174320266
0.419861197 0.325743198 0.192410156
0.448071152 0.355471343 0.225174353
0.484883159 0.390006185 0.257052630
0.532700419 0.430740058 0.296774060
0.607716620 0.492852598 0.359518975
0.502087474 0.422517508 0.283364981
0.507906497 0.429474920 0.289563268
0.524857461 0.438077003 0.300569147
0.542820990 0.453384101 0.317773461
0.564705670 0.472991467 0.339658469
0.599746943 0.503099203 0.371789962
0.644275963 0.545351028 0.414421201
0.703731894 0.599493980 0.470841199
0.639215648 0.560784459 0.420493484
0.644149184 0.569006920 0.429095477
0.652498305 0.574067295 0.439848274
0.665022433 0.583175004 0.450094640
0.682479322 0.600759149 0.464769334
0.710309803 0.618469059 0.489690006
0.733965635 0.643769622 0.514990449
0.779885828 0.686400831 0.565211892
0.784440041 0.714484215 0.584693372
0.791144788 0.716129005 0.589879751
0.791777313 0.722453773 0.597596288
0.802277207 0.730803192 0.607084036
0.818975270 0.744465292 0.624288261
0.835167348 0.762934923 0.645034909
0.853257596 0.781530619 0.667931437
0.880202413 0.807336748 0.703858197
0.082226478 0.023402996 0.000000000
0.092726246 0.030107740 0.000000000
0.116634995 0.047311835 0.002783356
0.156230345 0.070714734 0.004048004
0.208349183 0.104364440 0.018216446
0.272106707 0.152561471 0.046805993
0.339152575 0.205818981 0.099936984
0.422390789 0.289057791 0.181277528
0.121315278 0.046173286 0.002277191
0.128020540 0.052751541 0.000758999
0.153953359 0.069196537 0.008349455
0.184693187 0.090828896 0.008475997
0.227704182 0.118912183 0.024541544
0.284629732 0.165085480 0.059329476
0.346362799 0.217963442 0.108412467
0.421378851 0.291081637 0.180012792
0.186211184 0.106514998 0.019860836
0.203415468 0.101454981 0.022011099
0.218596101 0.118912086 0.024541451
0.243896440 0.138520002 0.038963091
0.287033617 0.168627545 0.065148830
0.333965719 0.214421183 0.104617178
0.392283380 0.270714343 0.158127725
0.472991526 0.345350802 0.233649522
0.275901526 0.172043279 0.063883476
0.285768300 0.179886281 0.066160567
0.300695986 0.194813266 0.081846982
0.322200924 0.216318637 0.102593631
0.357115358 0.247185275 0.129917622
0.398102641 0.284377098 0.166729927
0.445794016 0.330044270 0.216445267
0.518532574 0.396963894 0.279190272
0.380265802 0.285641998 0.163440898
0.387349933 0.289816827 0.170651719
0.404933482 0.306135267 0.185325563
0.420620173 0.325616568 0.204048082
0.447564721 0.353320628 0.230233923
0.486780494 0.383933902 0.264769107
0.541303158 0.427577198 0.302846164
0.601391315 0.484630078 0.356989294
0.503225684 0.424794704 0.291587710
0.506388545 0.430993021 0.296267807
0.523086548 0.440860450 0.310689479
0.545477569 0.451486617 0.323845565
0.569006741 0.476913452 0.343579978
0.603162527 0.509045005 0.371663481
0.639974535 0.541808546 0.410499752
0.699177802 0.589247286 0.469070256
0.636938572 0.559772432 0.415433258
0.643010616 0.564579487 0.430613458
0.649588883 0.571157217 0.437697828
0.659456134 0.579126894 0.450221211
0.681720138 0.596457779 0.463124633
0.707273781 0.617077887 0.488298237
0.734724879 0.644528806 0.520936012
0.784313679 0.685515165 0.570398450
0.776090920 0.712207317 0.595698714
0.784313440 0.712333739 0.587096572
0.781656981 0.717014611 0.593295515
0.797849238 0.727134585 0.606957197
0.812776744 0.742061734 0.621884704
0.829221785 0.758507252 0.642125249
0.851612926 0.782416224 0.670841277
0.882858574 0.811638296 0.711448431
0.116635285 0.049335707 0.002277288
0.126502439 0.053636834 0.002024260
0.145604283 0.064263001 0.010879191
0.183427915 0.088677928 0.013535640
0.230107471 0.117393985 0.034282088
0.288045287 0.160910532 0.070588440
0.353194296 0.219861269 0.121821277
0.428716093 0.295382500 0.189500079
0.142821029 0.063757442 0.000379548
0.156103715 0.069702707 0.004301451
0.172422186 0.080328643 0.009360998
0.204048023 0.101834089 0.019354800
0.248197466 0.133080184 0.047185544
0.300695777 0.178494275 0.083364986
0.357874364 0.231245816 0.134345278
0.428083539 0.292979062 0.189879432
0.209993795 0.108033001 0.020114092
0.214674294 0.117393993 0.030613519
0.231878459 0.126882091 0.037191570
0.255281270 0.148766279 0.055281572
0.299304187 0.181657195 0.084250182
0.344212443 0.223276421 0.124477915
0.402530193 0.278558016 0.175964370
0.477293104 0.343959510 0.236432791
0.283744633 0.179506630 0.081593975
0.294117719 0.185958430 0.086906821
0.309803635 0.202782989 0.100316629
0.330676705 0.219860986 0.115623280
0.363820523 0.249589175 0.146489531
0.404048264 0.286401272 0.178874284
0.458064586 0.336495548 0.226691976
0.517520189 0.395951927 0.285768658
0.386211187 0.289437205 0.169512883
0.391777486 0.293991119 0.183175087
0.403415382 0.307653487 0.190765366
0.416445524 0.320683032 0.203794912
0.444908291 0.344465464 0.234029084
0.483997464 0.381404370 0.266034156
0.533459544 0.425300479 0.312333971
0.596710801 0.478051722 0.362681925
0.511954725 0.431499004 0.306135476
0.520809472 0.438456595 0.316888005
0.532826960 0.446678996 0.323972285
0.548766673 0.458570719 0.337001711
0.565591276 0.475395262 0.350284636
0.593674719 0.495635718 0.374446750
0.638077319 0.535989702 0.418722242
0.684882820 0.582036674 0.464769214
0.626691997 0.559013307 0.424415261
0.639089584 0.560278118 0.428336084
0.646932542 0.566223860 0.441366255
0.660847604 0.575205564 0.451992214
0.679443598 0.590512574 0.468943536
0.702340245 0.612903297 0.489690006
0.737128556 0.643643558 0.522074521
0.776596785 0.680835068 0.567742050
0.775964499 0.711701632 0.592662692
0.783681035 0.709930182 0.589753151
0.779126763 0.712966442 0.595825255
0.790006459 0.720809758 0.600632429
0.811891198 0.738140464 0.617963433
0.829601645 0.753573358 0.648070633
0.853763282 0.776597023 0.672232866
0.881088078 0.812017798 0.715622723
0.163566977 0.074636146 0.019734144
0.170777991 0.072612166 0.020367000
0.188614964 0.090449147 0.038203984
0.217710271 0.109550990 0.044022627
0.266666830 0.147374824 0.071220808
0.323212892 0.191271722 0.114231706
0.385452092 0.251992255 0.172296107
0.461859614 0.324604601 0.238329932
0.176849976 0.088045537 0.023655821
0.190765545 0.088804536 0.026692104
0.206324831 0.101707980 0.035040986
0.234029055 0.122833565 0.054016706
0.277166337 0.159392536 0.084250361
0.332447708 0.204680443 0.126881614
0.391904116 0.255787551 0.174446404
0.460594654 0.330170304 0.244149044
0.233775914 0.124098733 0.053004179
0.238330394 0.135357454 0.064136699
0.256925970 0.145730197 0.075142324
0.282226652 0.166729912 0.090069614
0.320303380 0.198734984 0.119544268
0.368121356 0.247817919 0.163567275
0.428462982 0.303352416 0.216951102
0.503731966 0.374446809 0.283997625
0.292220086 0.187602639 0.102719635
0.300569564 0.195951909 0.108538881
0.315749198 0.207083821 0.123465978
0.341935664 0.232131630 0.147122085
0.373561174 0.259202987 0.173434645
0.417963445 0.301075459 0.213788614
0.474130124 0.356483102 0.262365699
0.541302860 0.415812582 0.317773610
0.390512347 0.292093188 0.198987991
0.394560337 0.300063401 0.205692366
0.399999946 0.305882454 0.211764634
0.412397176 0.318026453 0.222643718
0.447817802 0.344718188 0.251739144
0.489183694 0.383428127 0.289816469
0.546868980 0.429980993 0.328779399
0.607969701 0.490322649 0.380518645
0.522453964 0.444528729 0.334851533
0.529158890 0.449841917 0.333080411
0.533080220 0.452245533 0.341555804
0.541049719 0.454901874 0.343959719
0.555471241 0.462492198 0.353826642
0.588235438 0.488804549 0.383175194
0.634155691 0.531435728 0.425553650
0.690828502 0.582669437 0.475015551
0.649588704 0.584187567 0.467299372
0.661606431 0.582036376 0.462492228
0.664642751 0.589373708 0.470335245
0.673750520 0.595951557 0.478178263
0.683112204 0.600759149 0.489816338
0.700569332 0.615686357 0.499430776
0.727893591 0.639342129 0.520176828
0.778620958 0.682099938 0.568880498
0.778241754 0.714231610 0.607210577
0.786084771 0.717267334 0.601138294
0.789373875 0.722833455 0.613282681
0.796837270 0.730170965 0.623149931
0.805945456 0.739278793 0.629474759
0.823782444 0.754585743 0.647564769
0.848450303 0.777988136 0.674762845
0.890828431 0.809740603 0.727640569
