Assets/EldamarStudio/100 Retro LUTs Pack/LUTs/cube/Donald LUT.cube
DOMAIN_MIN 0 0 0
DOMAIN_MAX 1 1 1
LUT_3D_SIZE 32
0.000000000 0.000000000 0.000000000
0.000000000 0.000000000 0.000000000
0.002150774 0.000000000 0.000000000
0.005186839 0.000000000 0.001265161
0.008981547 0.000379548 0.003542452
0.018089935 0.003415935 0.000506065
0.024667999 0.003922000 0.002530322
0.032384705 0.005566289 0.002277292
0.040734001 0.007843001 0.000000000
0.046806011 0.007843005 0.000000000
0.064515993 0.016571870 0.000000000
0.076660253 0.021631740 0.000000000
0.089183994 0.026944643 0.000000000
0.106894061 0.036053032 0.000000000
0.119038828 0.045161411 0.000000000
0.140796989 0.056672990 0.000000000
0.162049383 0.068816997 0.000000000
0.179000974 0.080328569 0.000000001
0.191145018 0.089436978 0.000000003
0.203289017 0.095762007 0.002783357
0.223023474 0.107526734 0.005819256
0.244276121 0.122707121 0.011890996
0.259709477 0.137760982 0.024161497
0.280961901 0.149905011 0.039341904
0.297659695 0.166603565 0.049968284
0.317014307 0.184819967 0.061859652
0.341302991 0.204048127 0.078557998
0.365590990 0.228336871 0.102845967
0.392536461 0.252624929 0.121821634
0.419861138 0.278684139 0.145351142
0.448070943 0.308665156 0.174446568
0.478430986 0.345097989 0.207843006
0.003036387 0.000000000 0.000000000
0.000000000 0.000000000 0.012143999
0.002150774 0.002150774 0.005692774
0.006452000 0.004301225 0.001771226
0.012397385 0.005692549 0.001265161
0.024161935 0.003415935 0.003542452
0.025680000 0.008981999 0.000506065
0.038962699 0.009994000 0.002530321
0.053637095 0.010879388 0.002277291
0.061986394 0.010879393 0.000000001
0.073877394 0.019607514 0.002909870
0.087792374 0.026692126 0.001012131
0.097912647 0.031878773 0.000000000
0.110183418 0.039342385 0.000000000
0.125110820 0.051233411 0.000000000
0.142061993 0.057937995 0.000000000
0.162049383 0.068816997 0.000000000
0.179000989 0.080328576 0.000000001
0.191145033 0.089436993 0.000000006
0.211638361 0.106894016 0.005566003
0.226439118 0.113978483 0.008855353
0.244276121 0.124731384 0.013915256
0.259835958 0.138013974 0.024035018
0.283997506 0.155977011 0.036306292
0.302972585 0.172675565 0.053763371
0.323086292 0.190891966 0.067931652
0.347375125 0.209614068 0.083112061
0.371663779 0.231372491 0.099810362
0.395951748 0.255661249 0.124098331
0.422896743 0.281720549 0.148386762
0.452877760 0.310815960 0.181909993
0.487539381 0.345097989 0.226059765
0.010373225 0.000000000 0.000000000
0.011638387 0.002150774 0.003542000
0.008601999 0.006451774 0.009234775
0.016698385 0.005693000 0.002656839
0.024668001 0.006831225 0.000000000
0.029727997 0.010879161 0.001265161
0.038203772 0.006831225 0.001391678
0.043137480 0.012903223 0.003288997
0.060088772 0.014674323 0.006072225
0.070588492 0.016066005 0.004427515
0.082605995 0.024794675 0.002909871
0.092726253 0.029854288 0.001897744
0.105882414 0.036938868 0.000000000
0.117773771 0.044528998 0.000000000
0.134851411 0.056672987 0.000000000
0.150284752 0.066160768 0.002150774
0.166982964 0.073750965 0.003668579
0.184566975 0.085262537 0.003036009
0.199747026 0.095888756 0.000000007
0.215939358 0.104743786 0.005566004
0.231498986 0.119164757 0.011637996
0.247438475 0.128779352 0.017963480
0.264136970 0.142314970 0.028336532
0.288424999 0.160530999 0.040480811
0.308159530 0.174446568 0.050727759
0.326375514 0.192662969 0.068943746
0.349146128 0.211385071 0.085895061
0.373434901 0.232637435 0.104364432
0.395572722 0.256546646 0.127513945
0.423402667 0.287918895 0.153573588
0.452877790 0.315496415 0.180898115
0.488045752 0.345097989 0.220620230
0.024541158 0.001265161 0.000000000
0.027577545 0.004301225 0.001265161
0.023782387 0.009487838 0.002150774
0.027071159 0.011764999 0.003922000
0.041113093 0.007590450 0.000885613
0.042884320 0.016698062 0.000000000
0.049209479 0.015686002 0.000000000
0.058317542 0.014927156 0.000758997
0.067425929 0.020999160 0.005313001
0.079064004 0.024541488 0.005312999
0.091207989 0.030866871 0.003668710
0.102593407 0.038456738 0.001897744
0.112840161 0.043769639 0.000000000
0.127894029 0.052878030 0.000000000
0.145098150 0.064010143 0.000000000
0.158380643 0.071220636 0.003668643
0.174826190 0.080329031 0.002909805
0.190638959 0.090702400 0.005945577
0.208855018 0.103479013 0.001771166
0.221758366 0.111322165 0.005566004
0.237570986 0.121189147 0.012903158
0.251739264 0.133333161 0.019987287
0.270082504 0.148260489 0.032005467
0.293232173 0.165338174 0.045287844
0.311701566 0.180265561 0.057685122
0.331183136 0.193928137 0.068438128
0.350411147 0.213156164 0.087666161
0.374699742 0.235167429 0.109677427
0.397596806 0.259076655 0.133586273
0.422897071 0.287918895 0.157115594
0.455028325 0.322580189 0.187982544
0.488804996 0.347627997 0.216825008
0.045034546 0.005439999 0.000000000
0.048450384 0.007716612 0.003036387
0.044402320 0.012902998 0.003542452
0.043390092 0.016318709 0.004301451
0.054016095 0.013662547 0.003542452
0.060088869 0.022770161 0.000506065
0.066919997 0.025426548 0.000758999
0.074256830 0.026312256 0.000000000
0.083364651 0.030107547 0.000000000
0.092473038 0.036179550 0.000000000
0.104111090 0.039721873 0.000000000
0.116255499 0.046426281 0.000000000
0.128399998 0.055154640 0.000000000
0.140544057 0.064009994 0.000000000
0.155597955 0.072991863 0.000000000
0.166350275 0.078810737 0.004427544
0.179253370 0.084503189 0.005566002
0.196331516 0.093738012 0.001012029
0.214547560 0.108918428 0.004048423
0.225932896 0.119291812 0.007463646
0.240354076 0.129917994 0.013915188
0.258949786 0.142441556 0.023023577
0.277040005 0.154459059 0.032258436
0.297786355 0.169133455 0.047185101
0.314864278 0.184693277 0.062744826
0.332448095 0.200632647 0.076533787
0.353827000 0.216951549 0.090322994
0.378114969 0.241239533 0.114610970
0.402024060 0.265148640 0.138520077
0.428083599 0.292599469 0.161796615
0.456926167 0.322200745 0.187602997
0.493358999 0.352561563 0.227071449
0.060214929 0.017583998 0.000000000
0.066286936 0.014547611 0.003036387
0.069702774 0.018974999 0.001771226
0.071979865 0.025047323 0.003036065
0.078304872 0.028842937 0.006578065
0.078304872 0.028842935 0.000506065
0.089436993 0.037950546 0.005059999
0.097279988 0.038962647 0.003542002
0.104617029 0.039215934 0.000000000
0.113725424 0.045287937 0.000000000
0.122833803 0.051359929 0.000000000
0.134471864 0.056925990 0.000000000
0.146615997 0.063503928 0.000000000
0.158760056 0.070081994 0.000000000
0.170904815 0.076153994 0.000000000
0.183554918 0.089942858 0.002403804
0.195192873 0.098544925 0.005945741
0.207716584 0.105122991 0.006831001
0.217583954 0.111954048 0.007084039
0.238583297 0.127134427 0.012903068
0.254016668 0.137507796 0.018468997
0.271726996 0.149146125 0.026059192
0.292220384 0.163567439 0.035294048
0.307400018 0.172675833 0.047438070
0.325869650 0.189626932 0.064642571
0.343579978 0.208728641 0.079569913
0.362808138 0.228969067 0.093232118
0.384186983 0.250347912 0.114610970
0.405818790 0.271979749 0.136242792
0.431119233 0.297280163 0.161543205
0.458443880 0.324225128 0.189626619
0.487286985 0.349525928 0.224035054
0.085515320 0.034787998 0.005059999
0.086527318 0.034281932 0.000506065
0.090449095 0.035547093 0.003542452
0.096015155 0.039974481 0.001265161
0.102972545 0.044402223 0.002783001
0.105123319 0.046552997 0.001012001
0.112713635 0.051612996 0.000000000
0.121568635 0.055787317 0.002783001
0.129158646 0.055913996 0.000759096
0.140037805 0.061985999 0.002530321
0.144086197 0.065528318 0.000000000
0.153194055 0.071600318 0.000000000
0.165970638 0.077672318 0.001138644
0.179253355 0.084250316 0.003036322
0.189120829 0.094876312 0.007590321
0.201264992 0.100948311 0.005186517
0.213409379 0.112713188 0.007969869
0.226186037 0.120429888 0.011638314
0.239088982 0.128399655 0.015433328
0.254269361 0.137761012 0.020999324
0.271726727 0.154838622 0.028969057
0.285894990 0.166856304 0.037697639
0.302593172 0.180392012 0.048576817
0.322580397 0.191904232 0.063124649
0.337760597 0.205566019 0.077545919
0.357115626 0.222137645 0.095509291
0.377482444 0.241619125 0.111954443
0.400759071 0.264895737 0.135231078
0.424541086 0.288677812 0.159013107
0.451106668 0.313472152 0.183807462
0.480075836 0.342567801 0.212903097
0.509045303 0.371790320 0.246299952
0.111195408 0.049715411 0.006198711
0.112839699 0.049715411 0.001771000
0.113345757 0.053510472 0.000506066
0.115116984 0.055281699 0.003542453
0.123465791 0.057558414 0.001265160
0.130297348 0.059329636 0.000000000
0.138393313 0.066539995 0.001644708
0.137634695 0.072612405 0.000000000
0.147501782 0.073371306 0.000000000
0.162302405 0.078557707 0.002150775
0.167362571 0.085009567 0.001012129
0.174446434 0.086780697 0.000000000
0.183554336 0.091714054 0.000000000
0.197469696 0.097533025 0.002530324
0.207969397 0.108285688 0.007210997
0.217836693 0.117267400 0.012650194
0.231498882 0.124857210 0.014167994
0.244402558 0.133965567 0.017963439
0.259582460 0.143073976 0.024035713
0.273118079 0.155471340 0.030107709
0.288298428 0.163693979 0.038077023
0.303478837 0.180898115 0.049209412
0.316381902 0.193801194 0.062112492
0.334598303 0.207463801 0.077292897
0.351296276 0.221885115 0.092473269
0.369259626 0.239848062 0.110436633
0.390512049 0.256546468 0.129411772
0.413662165 0.279696584 0.152561873
0.439595371 0.302340358 0.176849946
0.465781063 0.333332866 0.197975859
0.496141672 0.358000904 0.224414676
0.526502311 0.387602985 0.255534559
0.134725094 0.064895995 0.005439998
0.139278710 0.063377999 0.000885614
0.141682282 0.065401904 0.000000000
0.142441183 0.071980089 0.001265161
0.143200189 0.071980089 0.003542452
0.154585868 0.071980089 0.000506066
0.160404772 0.078810863 0.002530323
0.164958715 0.084756419 0.002277293
0.160405084 0.091587894 0.000759098
0.181657478 0.094623521 0.000759098
0.189121082 0.102719970 0.000759098
0.196457922 0.107274093 0.002277096
0.205565840 0.108412445 0.003035999
0.214421198 0.111701086 0.003541999
0.225553185 0.120303407 0.007084318
0.237570897 0.130170897 0.014168379
0.247438177 0.138520002 0.021758191
0.261986166 0.148260176 0.029095177
0.277040094 0.157495081 0.035420943
0.288678020 0.170651466 0.040734101
0.301960826 0.181657091 0.049462449
0.317141026 0.190006122 0.058317225
0.332321405 0.205186501 0.073497593
0.347501814 0.220366910 0.088678002
0.363440901 0.236306369 0.104617275
0.382921815 0.253510654 0.122580640
0.404174238 0.274763077 0.144845068
0.425426602 0.296015412 0.166603416
0.450474471 0.317267805 0.189753041
0.478558064 0.343579978 0.208981484
0.507527173 0.380012184 0.233523250
0.537887216 0.398228973 0.257811278
0.155977502 0.089184009 0.011511997
0.165085107 0.083112016 0.002403618
0.171790034 0.079443246 0.000000002
0.176344305 0.083111852 0.001265160
0.179632992 0.093232490 0.003542451
0.185704991 0.093232498 0.000506070
0.181910008 0.098292500 0.002530325
0.186337501 0.101201981 0.002277295
0.196837112 0.103731915 0.000759102
0.205945507 0.112839535 0.003795493
0.215559885 0.118785754 0.003795493
0.222517490 0.124984488 0.007843489
0.229854628 0.129664838 0.012523846
0.238709986 0.132953495 0.015686009
0.244781986 0.139025494 0.021758003
0.260720968 0.150031626 0.027704135
0.272485495 0.159013495 0.033902977
0.280202150 0.166476965 0.041239966
0.292346954 0.178620994 0.053383984
0.301834166 0.187855855 0.056926370
0.312966466 0.199114501 0.065781489
0.326249361 0.211005494 0.075774983
0.341429025 0.223402500 0.082605995
0.356609434 0.238582924 0.097786404
0.374067098 0.256040573 0.115243480
0.396331578 0.274130464 0.134724647
0.422391027 0.292979062 0.156989083
0.443643391 0.314231426 0.184313416
0.464895755 0.335483789 0.206071779
0.491713881 0.356736153 0.222137913
0.522833288 0.383934051 0.243390650
0.556104004 0.422517002 0.285136461
0.180139005 0.104743868 0.005946001
0.189247355 0.110309862 0.011385482
0.194054514 0.106388092 0.002277096
0.199367866 0.104616866 0.000000000
0.204427734 0.109044671 0.002150677
0.210499734 0.111575000 0.009234934
0.214041412 0.116634995 0.006198548
0.214041576 0.121062703 0.008475836
0.222390726 0.123845860 0.010246869
0.233649358 0.130803257 0.015433484
0.236938745 0.134091869 0.018469127
0.246047124 0.144212648 0.020493383
0.253004730 0.152055874 0.025679994
0.260594875 0.156862706 0.030739866
0.271979868 0.160277858 0.036811862
0.278051883 0.166350469 0.038076870
0.291207850 0.177482873 0.049209505
0.301328033 0.186970443 0.060215283
0.313472837 0.196837753 0.065528013
0.325616866 0.208981752 0.077672713
0.334851503 0.218216598 0.084883124
0.345983863 0.229348749 0.096014999
0.359266251 0.241619229 0.106261492
0.374446660 0.256799638 0.121441901
0.387349755 0.269702733 0.129790992
0.408475637 0.286653996 0.146868631
0.435294151 0.305882156 0.168627113
0.458950281 0.329538286 0.193548307
0.480202645 0.350790650 0.215559661
0.506767809 0.375585020 0.240354016
0.537128031 0.401771039 0.263504177
0.568500996 0.435167730 0.297913015
0.210499749 0.125995979 0.005945740
0.213535890 0.128019989 0.007969744
0.220367014 0.131688729 0.011385479
0.222138241 0.128652334 0.008602252
0.227071702 0.128652334 0.010120248
0.234787971 0.133333430 0.014294930
0.240354434 0.138899505 0.019354925
0.243390039 0.143326789 0.019607957
0.247185230 0.147121981 0.023403250
0.256799251 0.153193980 0.029475253
0.260215104 0.156356618 0.032637376
0.267299503 0.163440764 0.039721500
0.276407599 0.174446598 0.042757887
0.283870995 0.181151032 0.047944501
0.296014965 0.184187084 0.054016501
0.305376261 0.191650853 0.061353244
0.311448246 0.197723240 0.064389624
0.322580397 0.208222821 0.078684658
0.334725201 0.217331231 0.084503293
0.344844997 0.227198005 0.093864709
0.353193998 0.237444729 0.104111724
0.364199877 0.248577118 0.115243375
0.377355993 0.261733234 0.128399253
0.390639156 0.275015891 0.141682416
0.407590270 0.291966975 0.158127502
0.422517240 0.305502653 0.168374151
0.447438121 0.322580308 0.187855497
0.471726894 0.342314899 0.209107861
0.495382518 0.365971059 0.232764035
0.518406153 0.388994187 0.252245188
0.547374845 0.416065574 0.278810561
0.576596975 0.445287734 0.308032721
0.245034978 0.151422918 0.019228280
0.245034978 0.151422918 0.019228280
0.248197630 0.153573409 0.019101765
0.252878278 0.156356752 0.022264637
0.252878278 0.153699920 0.028336637
0.259708971 0.158254504 0.029854635
0.265148640 0.163187996 0.033776280
0.274130553 0.168753922 0.038203701
0.277925283 0.172548831 0.041998990
0.283997297 0.178620934 0.048070997
0.286021531 0.184060499 0.052371763
0.291967243 0.190006241 0.058317535
0.299936980 0.197976261 0.066287279
0.309044659 0.207083881 0.069829606
0.320303261 0.211891055 0.076786980
0.330044061 0.219734445 0.085262462
0.337634265 0.227324635 0.092852369
0.344971240 0.233396634 0.097659983
0.357115954 0.241998971 0.105249681
0.367615283 0.252245575 0.115496352
0.377102911 0.261353374 0.128020361
0.384186804 0.270461768 0.137128755
0.399114132 0.285389125 0.152055383
0.412270784 0.298545301 0.165211812
0.428969264 0.314104915 0.178494632
0.447185248 0.332067937 0.196457922
0.465907335 0.348260343 0.212650344
0.489563525 0.364705712 0.231498897
0.513851881 0.387855917 0.255028248
0.540417016 0.411005855 0.278051853
0.566476822 0.437064886 0.299809873
0.594054282 0.464642286 0.327387273
0.280455053 0.179254025 0.047818031
0.280708015 0.179254025 0.049589060
0.282605767 0.181151286 0.047185257
0.286148190 0.184187159 0.046932220
0.288298994 0.186843991 0.050095029
0.288298994 0.186843991 0.056167029
0.291081697 0.189120710 0.059709352
0.299936712 0.194307089 0.062239315
0.312334001 0.199873224 0.066034034
0.318406016 0.205945998 0.072106041
0.319418043 0.214421153 0.078178033
0.323719054 0.221758053 0.084503509
0.330044031 0.228083313 0.090829030
0.336369038 0.234408990 0.097153999
0.345477402 0.243516609 0.106261596
0.354332775 0.252371848 0.115116857
0.361922979 0.259962052 0.122707054
0.369007021 0.266286999 0.128273025
0.381151050 0.272359043 0.128273040
0.393295050 0.283997744 0.139405102
0.405186474 0.294244260 0.154585466
0.416824937 0.303352147 0.169260129
0.426185548 0.312713504 0.178621486
0.441365957 0.327893943 0.193801150
0.458823562 0.342821270 0.204933360
0.477292985 0.359645993 0.218469366
0.495762110 0.378115118 0.236939058
0.517014503 0.399367481 0.258191407
0.540670693 0.423023671 0.281846970
0.568753958 0.445288181 0.306641400
0.599114239 0.469703019 0.332954019
0.629475057 0.500063062 0.363314062
0.304743797 0.212650374 0.056926407
0.307779402 0.212650374 0.078178793
0.308032393 0.212650374 0.075648263
0.312460124 0.214547634 0.075268716
0.318405956 0.217203960 0.080329254
0.312586993 0.217203960 0.083491385
0.317646980 0.217203960 0.087033711
0.323086381 0.224414796 0.086780682
0.329537958 0.232258230 0.087286398
0.330549985 0.233270347 0.093358405
0.339531839 0.236432523 0.099430397
0.346742630 0.244781643 0.107526645
0.355218142 0.253257453 0.116002619
0.363693446 0.261733353 0.124478355
0.372801781 0.270840973 0.133585960
0.379506379 0.277545989 0.140291005
0.386210978 0.284250796 0.146995813
0.392915547 0.290955216 0.153700233
0.402403414 0.299683422 0.161669388
0.414547414 0.311322123 0.172802091
0.424794137 0.321568638 0.183048487
0.436559111 0.330676526 0.192030102
0.450474292 0.340037882 0.196837485
0.465654731 0.355218321 0.212017894
0.483111799 0.368121386 0.227198094
0.502719581 0.385072619 0.243896469
0.522833526 0.405186534 0.264010400
0.541303217 0.423656225 0.282479405
0.562555552 0.444908589 0.303731799
0.591524482 0.465022326 0.330929756
0.623402953 0.489184141 0.360910952
0.653763831 0.524351776 0.393674821
0.333839595 0.241239786 0.092472970
0.324857384 0.241239786 0.094497368
0.338646322 0.241239786 0.104996987
0.340164393 0.241239786 0.099936590
0.343959570 0.243516594 0.101454981
0.337887585 0.247564584 0.106514849
0.349145800 0.249968395 0.114358105
0.350284517 0.251612693 0.115749784
0.354079574 0.259961993 0.115749583
0.357368588 0.263250977 0.121821597
0.363693625 0.268564522 0.127893582
0.368754029 0.271600127 0.131941840
0.377103120 0.279949427 0.140290946
0.386210829 0.288551748 0.149145991
0.395319194 0.293358356 0.156103358
0.404427558 0.302466601 0.165211588
0.412017763 0.310057163 0.172802180
0.419607788 0.317647189 0.179127201
0.428715765 0.326754838 0.184692845
0.435799778 0.333839506 0.191777512
0.447944254 0.345983773 0.203921780
0.460594565 0.356609583 0.214547589
0.477166265 0.367362261 0.222264275
0.492346704 0.382542700 0.237444699
0.507527053 0.397723049 0.252625048
0.525616586 0.411385238 0.271979749
0.545350969 0.430107564 0.293738127
0.563567638 0.448323876 0.311954588
0.584440589 0.466793597 0.330423594
0.612776935 0.491587937 0.348133951
0.639974833 0.513472557 0.374446541
0.661227226 0.543833017 0.404807001
0.361163974 0.270082384 0.124351181
0.356609792 0.268564194 0.128905758
0.358380526 0.270082384 0.127767175
0.370272160 0.271347225 0.132574350
0.370145649 0.271979749 0.128020376
0.365211993 0.276913375 0.131815374
0.370778054 0.280455321 0.137381315
0.380644917 0.281973481 0.143074185
0.379886180 0.285768181 0.144592181
0.385958195 0.291840196 0.150664166
0.390512377 0.296394736 0.155218378
0.397596240 0.303479105 0.162302256
0.401771277 0.307653368 0.166476995
0.410246551 0.316129178 0.174952239
0.418089777 0.320429951 0.181024566
0.425679982 0.326754987 0.187982172
0.436306179 0.337381184 0.195572376
0.445414573 0.346489578 0.204680756
0.454522401 0.355597407 0.209487617
0.462365538 0.360404909 0.215306893
0.472232670 0.370272189 0.228210166
0.483365059 0.381404340 0.239342302
0.499936461 0.393168867 0.251106858
0.515116930 0.408349305 0.266287297
0.533333242 0.422011465 0.281467259
0.548513591 0.438583165 0.293864638
0.567109287 0.454396129 0.318026245
0.586337805 0.472612381 0.339278877
0.607210755 0.490828633 0.354459375
0.632511139 0.509803951 0.376976550
0.660594583 0.537128627 0.396584332
0.673371196 0.562049389 0.424541175
0.387349516 0.299810529 0.147501126
0.388488382 0.298671722 0.159013331
0.392789364 0.299304307 0.162934929
0.395825297 0.302972943 0.159898728
0.398861557 0.306008667 0.163694113
0.396331191 0.309045047 0.164453119
0.397722840 0.311448395 0.165085241
0.401138544 0.312839717 0.167488694
0.407210529 0.314357698 0.171284139
0.413282543 0.320429713 0.177356124
0.416445404 0.323592395 0.181783825
0.422896862 0.330044240 0.188235268
0.431498826 0.338646531 0.196837127
0.437824517 0.344971567 0.203162163
0.444275945 0.351423085 0.209614381
0.449715525 0.356862515 0.212523982
0.458823532 0.365338117 0.219228566
0.470335126 0.376217127 0.227198124
0.479443520 0.385325491 0.236306533
0.489816874 0.390132874 0.243896559
0.499557525 0.397596538 0.255028546
0.511321962 0.409361094 0.270841092
0.520682633 0.418469459 0.279949456
0.535863042 0.432637900 0.294117898
0.553699791 0.445540965 0.308665246
0.572801769 0.460468113 0.322959781
0.587982178 0.478178203 0.333080202
0.608981550 0.496268451 0.359898567
0.629601359 0.514484525 0.375205636
0.653763294 0.533333123 0.396837711
0.677545547 0.551675797 0.421885133
0.692725956 0.579000950 0.452245176
0.420746028 0.327135026 0.177862003
0.414674044 0.333207011 0.186970383
0.420113862 0.334218979 0.196331799
0.426186174 0.337002039 0.196837783
0.429222435 0.342441559 0.191018581
0.432258070 0.345477939 0.200126946
0.432258010 0.345983982 0.195825353
0.432511032 0.346236974 0.193801031
0.434534997 0.347754955 0.195572257
0.440607011 0.353826970 0.201644987
0.443769872 0.356989086 0.210626110
0.448830009 0.362049043 0.217204034
0.456293643 0.369512707 0.224667653
0.465148985 0.378368050 0.233523011
0.474256575 0.387476414 0.242631391
0.478304863 0.391524196 0.237065226
0.486148000 0.397849202 0.238330260
0.497659594 0.406577975 0.248450592
0.506767988 0.412649959 0.263630986
0.521442354 0.421758354 0.275522023
0.530423999 0.428463012 0.283365011
0.539026022 0.437065005 0.292473018
0.551043510 0.448829532 0.304237545
0.566223860 0.457937956 0.313345969
0.579127014 0.469829053 0.325237036
0.594813347 0.484756380 0.340417325
0.612271070 0.502467036 0.357369065
0.627451420 0.517647445 0.372549444
0.645793915 0.535736978 0.391397983
0.667805374 0.555724204 0.416192383
0.689690351 0.574952602 0.441872597
0.704870045 0.591145039 0.458317995
0.468058437 0.379506767 0.233270109
0.467552453 0.380012751 0.228463143
0.461479902 0.383934528 0.231119752
0.464895546 0.385831922 0.235800222
0.467552394 0.389626741 0.233902380
0.468184829 0.390259326 0.235799953
0.468690753 0.388235688 0.242378667
0.470335454 0.391271740 0.238962740
0.472992092 0.395066768 0.239342093
0.479064107 0.401138753 0.245414346
0.482226253 0.401518226 0.254396230
0.489310652 0.404553831 0.255407840
0.496141762 0.409867018 0.259202719
0.503352404 0.417078108 0.266413450
0.509930313 0.423656136 0.272992134
0.521441758 0.430360734 0.282099932
0.527134776 0.435294092 0.282858729
0.535484076 0.442504734 0.290069371
0.542441726 0.448576719 0.298798025
0.554332793 0.454648733 0.308412403
0.563820422 0.465654850 0.318659127
0.571916401 0.473498076 0.326628894
0.584060431 0.482100070 0.337002069
0.596584678 0.493864655 0.348766655
0.611765027 0.507526994 0.362429023
0.625806391 0.521568716 0.376470745
0.641619146 0.537381709 0.393295735
0.654522777 0.550284863 0.410752833
0.677672327 0.565465212 0.428589374
0.696141779 0.583554685 0.446805805
0.715749741 0.606451511 0.471347332
0.730929375 0.631119788 0.492220044
0.503352702 0.417077720 0.268184751
0.499557227 0.418975472 0.265907735
0.500948906 0.421125770 0.266034454
0.502466440 0.421632141 0.267299294
0.506261706 0.423782468 0.271093994
0.503225744 0.426818460 0.275648206
0.507020712 0.429981023 0.280708343
0.511954427 0.426945001 0.283491701
0.513219714 0.432258189 0.282226384
0.514737725 0.438330472 0.287159711
0.516002595 0.440480739 0.286653847
0.524984002 0.442504942 0.293358445
0.531815350 0.445540547 0.292599380
0.537128448 0.450853974 0.297912449
0.543200493 0.456925958 0.303984821
0.554079413 0.462998450 0.312460661
0.563187480 0.469070464 0.320050448
0.569260001 0.475142449 0.326122463
0.575331986 0.481214464 0.332194507
0.585072756 0.489183724 0.344844818
0.595319450 0.497153461 0.350158215
0.602403581 0.506262064 0.358254462
0.613535643 0.511575162 0.366730213
0.623908758 0.521947980 0.380645484
0.634535253 0.536369264 0.393168986
