Assets/EldamarStudio/100 Retro LUTs Pack/LUTs/cube/Donna LUT.cube
LUT_3D_SIZE 8
DOMAIN_MIN 0.000000 0.000000 0.000000
DOMAIN_MAX 0.903226 0.903226 0.903226
0.031373002 0.058823999 0.121569000
0.076027997 0.062744997 0.129032448
0.130044192 0.069829099 0.128652900
0.196204633 0.068944000 0.124351643
0.296015203 0.079949193 0.129411995
0.416951180 0.084250741 0.125489995
0.564579546 0.092473283 0.123845704
0.731309593 0.096774153 0.108412012
0.051739097 0.091334544 0.125489995
0.078810550 0.091334544 0.124731004
0.128905550 0.098418549 0.129032448
0.201391190 0.097533450 0.127514452
0.289689988 0.111321993 0.124730997
0.413535655 0.121948257 0.125616997
0.564958990 0.133586243 0.122074746
0.730930030 0.146109834 0.105122998
0.061100900 0.137128100 0.127007991
0.087792993 0.137128100 0.133332998
0.130044177 0.137128100 0.123086996
0.198229089 0.143327102 0.124351546
0.288931072 0.163694084 0.124731094
0.413409352 0.182795733 0.118912168
0.566729784 0.202783197 0.109930098
0.740290701 0.227577254 0.089690015
0.086780354 0.206324920 0.120430358
0.098292351 0.213029996 0.118026547
0.152308732 0.213789091 0.128273353
0.210246637 0.216951281 0.120430358
0.298671752 0.230613619 0.118912168
0.423149735 0.264263004 0.106767908
0.569639206 0.293231934 0.093991362
0.740670383 0.326881826 0.066160530
0.092599809 0.319544196 0.109171197
0.116761185 0.324604809 0.105629355
0.177735388 0.318659186 0.103605099
0.248197272 0.322201043 0.105629362
0.324984372 0.326502174 0.098292194
0.436053276 0.352687925 0.079443522
0.585705340 0.393042475 0.045414440
0.751296401 0.433649361 0.007337015
0.094117999 0.459962189 0.032384545
0.136748731 0.460341632 0.031119799
0.204933554 0.462998092 0.026312282
0.294117659 0.468058437 0.026312282
0.385578752 0.473244905 0.023782471
0.481593996 0.477545470 0.012144012
0.607842982 0.504490733 0.004048004
0.767235696 0.547248423 0.001897740
0.106514998 0.639089584 0.000000000
0.166223824 0.633902788 0.001644712
0.240227565 0.637318611 0.000759096
0.337001920 0.639721513 0.001138644
0.435926676 0.644275546 0.000000000
0.543453276 0.647564530 0.006072264
0.656673133 0.652118564 0.006198708
0.792030454 0.673244536 0.002909557
0.197849452 0.821631730 0.000000000
0.247944146 0.821125984 0.003542452
0.311574876 0.818975568 0.002656832
0.405692607 0.821505547 0.001518189
0.509677172 0.826565266 0.004048204
0.617457390 0.828842342 0.001897740
0.734092355 0.834282041 0.007084007
0.853004396 0.838583291 0.000000000
0.047817998 0.070208549 0.134092003
0.072106093 0.067046449 0.130170986
0.125363901 0.077672102 0.140417099
0.181657284 0.080328740 0.134092003
0.277293175 0.084756806 0.136116356
0.398481965 0.086274996 0.137254998
0.554332733 0.088804908 0.142820716
0.725489795 0.085136451 0.129158556
0.058444452 0.091713995 0.133712545
0.079949096 0.095635995 0.130929992
0.124225453 0.093231991 0.133712545
0.186843738 0.103858545 0.136495993
0.280329198 0.108918183 0.136116356
0.400126457 0.123086996 0.136875451
0.554332733 0.123845994 0.130676553
0.717014551 0.137507826 0.120936006
0.065401636 0.137128189 0.134471551
0.095256448 0.135989636 0.136875451
0.130044177 0.133586541 0.137254909
0.186338082 0.142947555 0.130170912
0.282985538 0.160151646 0.131688893
0.402782887 0.176597014 0.128652990
0.559013247 0.201265097 0.129158542
0.728146613 0.222011536 0.110436276
0.083871096 0.205186278 0.127007991
0.102213643 0.210752994 0.140543908
0.154712543 0.209108189 0.129411906
0.207083821 0.208349183 0.129411995
0.294370383 0.224667981 0.130676568
0.411764562 0.258064538 0.118532807
0.568753958 0.289310634 0.107526809
0.729538381 0.318785459 0.090448916
0.085009642 0.316381991 0.112839893
0.122200988 0.318405837 0.113472551
0.176344007 0.313598841 0.114484191
0.246679187 0.321441948 0.117267452
0.326122731 0.326122731 0.112586647
0.433649570 0.345983475 0.102213815
0.579000831 0.387855709 0.072865270
0.746362925 0.427830637 0.038710006
0.094497450 0.457938462 0.063377827
0.128779352 0.456420243 0.063124530
0.196837544 0.459076703 0.058570728
0.285262734 0.463377655 0.058191180
0.381277651 0.465401888 0.042125531
0.478051901 0.474762738 0.032890830
0.605566144 0.501834452 0.008981720
0.765211761 0.545603931 0.003035997
0.110183276 0.630233824 0.006198708
0.158507258 0.632131577 0.005186744
0.238077104 0.635673642 0.000000000
0.334977657 0.636812091 0.001644712
0.437697470 0.641239762 0.001644712
0.547248602 0.642884493 0.000758999
0.656040549 0.651486516 0.001897740
0.787223160 0.670967817 0.000000000
0.211132258 0.810120106 0.005819156
0.248829871 0.823782325 0.004553989
0.319038391 0.818596005 0.000379548
0.406957448 0.820240438 0.002783356
0.507400155 0.827703893 0.004048204
0.614927232 0.828336358 0.002024260
0.730297506 0.834661603 0.005060164
0.849968135 0.842504561 0.002276998
0.061100900 0.071347095 0.147375092
0.088931449 0.074510001 0.151676446
0.130803093 0.075268902 0.147375092
0.192662984 0.089057647 0.154079542
0.277166277 0.089437097 0.158380806
0.390259117 0.085262358 0.165338099
0.539405227 0.061480008 0.166224003
0.716761410 0.037191823 0.168247938
0.074889451 0.105502546 0.156862915
0.093231998 0.099936545 0.149778917
0.130423635 0.103099450 0.149020001
0.191524535 0.107020542 0.151296988
0.281593859 0.112966090 0.150917456
0.391903937 0.115243092 0.158253998
0.540923476 0.110942543 0.163820103
0.713345885 0.111321993 0.168247834
0.079949193 0.132447988 0.153700098
0.101075090 0.130803183 0.149779007
0.144086093 0.146489099 0.151296899
0.198102280 0.148007289 0.145730183
0.286527306 0.159013182 0.156736091
0.402150631 0.175205454 0.162808269
0.548892975 0.187223285 0.153700307
0.722200751 0.209360927 0.156989157
0.087666094 0.209993899 0.148133993
0.116381638 0.208349183 0.150158346
0.157874733 0.214674085 0.149778903
0.211005732 0.212650552 0.144212186
0.296394765 0.227450714 0.152561650
0.406577975 0.250221550 0.148134083
0.558507144 0.278431535 0.142694399
0.730803192 0.309930354 0.138266832
0.106008902 0.311701179 0.141176194
0.126122892 0.310183376 0.144718543
0.180139184 0.313219368 0.143579811
0.243896544 0.316761553 0.140670434
0.324225247 0.317140996 0.138899297
0.427830607 0.342567861 0.132827446
0.581024706 0.382795662 0.126502097
0.748766303 0.422011167 0.111701362
0.098924905 0.451612860 0.120177001
0.135357544 0.452118844 0.120936006
0.203668386 0.453889936 0.114737719
0.286148012 0.459203094 0.110309847
0.380139023 0.462618560 0.107653208
0.474762827 0.465022355 0.098039098
0.603541851 0.494750470 0.090702072
0.768753827 0.544971406 0.081846930
0.110183381 0.628715575 0.038836014
0.150411084 0.626312256 0.036432821
0.239595383 0.630992949 0.040227719
0.335736662 0.630360544 0.031625722
0.435926646 0.634914756 0.027704012
0.540543735 0.636180043 0.025300626
0.651359856 0.647438526 0.018722195
0.786337674 0.668690503 0.028589182
0.226818576 0.813915431 0.031625412
0.256040424 0.811511695 0.033016790
0.315876007 0.815812647 0.032637339
0.410246789 0.819354951 0.044022601
0.513092816 0.822517335 0.055660881
0.621378541 0.825300455 0.069449663
0.729917943 0.833396435 0.086274318
0.850221515 0.841113627 0.121188559
0.093611643 0.074510001 0.187223285
0.119038284 0.075648353 0.184566543
0.163694084 0.079569645 0.185831904
0.210246637 0.082353003 0.179886356
0.290575176 0.087539554 0.188108996
0.397343725 0.083238617 0.194560543
0.549525559 0.057052359 0.210246637
0.718279421 0.007843381 0.219734639
0.093105987 0.108158998 0.183048636
0.119924091 0.110942543 0.192536458
0.156610101 0.104996994 0.182668999
0.210246637 0.108538635 0.174699277
0.289690197 0.115243196 0.182163447
0.401264906 0.112839803 0.192283452
0.550031602 0.104617253 0.211891338
0.715875745 0.086527638 0.219481617
0.102592997 0.154332995 0.184187084
0.123339638 0.149272546 0.181024894
0.170145094 0.154333010 0.180645436
0.211005732 0.154712558 0.179127336
0.292852372 0.162555441 0.187223285
0.407210469 0.170777902 0.196331546
0.548639894 0.179759830 0.204427376
0.717520177 0.189247265 0.211764827
0.108158998 0.211891636 0.181530640
0.130423546 0.209108278 0.180265978
0.178241551 0.218595996 0.181404442
0.246679276 0.237697631 0.187223285
0.314357817 0.238077179 0.185325533
0.424415052 0.250980645 0.194434002
0.562428892 0.272991627 0.196204633
0.732194901 0.301834613 0.210626468
0.112586647 0.309297979 0.184946001
0.138140634 0.312080741 0.183807656
0.194307089 0.316382110 0.184566543
0.259203285 0.322201043 0.182542786
0.331688732 0.325237006 0.175837830
0.439595103 0.346489638 0.184440449
0.579380333 0.376597106 0.191650838
0.748133957 0.417963356 0.201771051
0.104743741 0.450221479 0.175837740
0.136748642 0.450980395 0.177862078
0.209234908 0.450094461 0.174699381
0.290069640 0.456293464 0.177861989
0.380897999 0.462745279 0.175837740
0.478810817 0.467805207 0.177482545
0.603541970 0.493991375 0.181277737
0.766856372 0.542567730 0.193548620
0.116128929 0.618469238 0.167109355
0.163946643 0.628083348 0.173434645
0.238330126 0.624035597 0.169892296
0.333712906 0.626312256 0.169892281
0.434408486 0.630233824 0.170524999
0.545603931 0.633017242 0.174952641
0.652118802 0.643643260 0.175079271
0.792156935 0.670967817 0.192409992
0.231751785 0.808601916 0.210120440
0.264769316 0.810752690 0.211764738
0.328905612 0.815939367 0.211385429
0.414674222 0.816698551 0.212650061
0.514863729 0.817837000 0.221252054
0.625426710 0.823276341 0.227324247
0.732574046 0.830360174 0.240227893
0.851992548 0.837444663 0.259203225
0.137002185 0.081467383 0.259202987
0.158127904 0.082353003 0.255028635
0.204301193 0.083112098 0.250601083
0.269070446 0.082732551 0.251106739
0.330423564 0.086274996 0.245920181
0.414547920 0.082479522 0.249082983
0.561922550 0.053637005 0.274762869
0.727640927 0.005060025 0.304617375
0.139405385 0.116761185 0.250600994
0.162175894 0.114484191 0.250980526
0.202783182 0.118405901 0.246679366
0.257558465 0.114863642 0.245540738
0.323718935 0.116002187 0.239215821
0.414168268 0.114863634 0.249082997
0.563820481 0.101201713 0.277672559
0.730297089 0.084629908 0.302340388
0.134092093 0.169133097 0.241999179
0.153573886 0.167235747 0.242504641
0.198102280 0.167615280 0.234914273
0.260847300 0.167235658 0.235293835
0.324984163 0.171663195 0.234155178
0.418089449 0.170778006 0.245540828
0.562934637 0.179380089 0.269323260
0.736875415 0.189120829 0.301075369
0.137254804 0.240481094 0.243010789
0.157495186 0.236052915 0.233775735
0.198861390 0.238456622 0.233775720
0.265780807 0.244781822 0.240480989
0.332700580 0.243516982 0.237318188
0.433649570 0.256925881 0.250980556
0.577862382 0.271347344 0.270082176
0.739025772 0.295003474 0.296142012
0.139405370 0.318659186 0.235041186
0.164958745 0.323086619 0.229474977
0.209867090 0.325743288 0.236432463
0.281088173 0.336369544 0.242378622
0.385325581 0.361796170 0.264642566
0.470335096 0.359771907 0.256926179
0.596584380 0.382922202 0.271726906
0.754838586 0.411385208 0.297027022
0.131688997 0.452118725 0.254142731
0.165717736 0.450980365 0.253763288
0.224162102 0.455661148 0.252119005
0.304237694 0.462745279 0.259962171
0.397343636 0.465401888 0.261100620
0.494497150 0.473244905 0.259076357
0.620872736 0.497912556 0.277040184
0.771283627 0.543706179 0.303985000
0.136242703 0.621758223 0.277672350
0.179886341 0.621884882 0.276027739
0.246552989 0.624035358 0.277040184
0.336875021 0.628715754 0.279696465
0.442125171 0.633396745 0.283238262
0.550790787 0.633776307 0.287539631
0.659202993 0.640480638 0.288678080
0.797469974 0.672359228 0.315622926
0.236812040 0.809993625 0.327893794
0.265654325 0.811005771 0.330929965
0.329285145 0.811132252 0.338140279
0.416571766 0.814674139 0.341176361
0.517014503 0.816571772 0.342441529
0.623149633 0.822896600 0.351043642
0.738013804 0.830233812 0.364579439
0.847944379 0.835041106 0.372422159
0.182036728 0.080455266 0.377735734
0.210626289 0.084756806 0.375205934
0.262365550 0.081593908 0.374572814
0.328146458 0.074510001 0.367488712
0.402403653 0.073118202 0.364452928
0.487286717 0.062998012 0.358001202
0.578115284 0.044149298 0.358886689
0.746868610 0.002530012 0.405313373
0.180898175 0.114357807 0.371536940
0.202150300 0.119923994 0.372169703
0.250094891 0.120809607 0.362807989
0.322201014 0.120809712 0.361922830
0.399746805 0.112080991 0.356103450
0.477672458 0.109803796 0.357748270
0.574952483 0.096774444 0.356356889
0.737254739 0.077039830 0.400758982
0.159772083 0.187729359 0.352814555
0.190006360 0.187729359 0.351296455
0.249968201 0.181657091 0.352182448
0.311195433 0.182163358 0.350917011
0.390132725 0.182163358 0.350157917
0.473750472 0.179759830 0.349146098
0.579633236 0.179000735 0.355218470
0.742188573 0.188614890 0.404933602
0.156356737 0.267805278 0.347754717
0.179380178 0.267805278 0.350284725
0.233396471 0.263124555 0.343200624
0.304996729 0.265528291 0.343200624
0.384693027 0.261480182 0.344212443
0.471600205 0.264010280 0.340037704
0.585325897 0.270082265 0.353952974
0.749778450 0.298165560 0.404427648
0.155850992 0.363441199 0.350284725
0.179507002 0.360784262 0.342441529
0.234155357 0.362555176 0.345983267
0.312080741 0.363314301 0.349905193
0.398102641 0.367868364 0.354585648
0.489310473 0.367994994 0.357621640
0.612270772 0.384440392 0.370145261
0.768627167 0.414041638 0.414168239
0.155091748 0.461859435 0.344465464
0.183681354 0.460341632 0.346742272
0.239215821 0.467046112 0.352561742
0.318785280 0.472232491 0.352182478
0.421379179 0.481467485 0.365338266
0.538393199 0.510942698 0.397216707
0.649968565 0.513978481 0.403415918
0.786590636 0.545098186 0.427957118
0.151549742 0.617710233 0.383807719
0.185958341 0.623908579 0.387223274
0.257432103 0.622011304 0.392536014
0.347501457 0.626312256 0.397849232
0.449335754 0.633396745 0.408728689
0.557495415 0.641239822 0.410626173
0.669449806 0.647438586 0.415433437
0.802403450 0.675521791 0.449209154
0.242378131 0.809614003 0.460468173
0.272738725 0.806957245 0.465022057
0.329664499 0.811638296 0.464769274
0.416192412 0.811132252 0.467678636
0.517773747 0.818596005 0.472232550
0.626438498 0.818975568 0.476913393
0.733207047 0.828715742 0.486654252
0.853004396 0.836179554 0.499936312
0.218595698 0.086274996 0.555724263
0.245288000 0.086148001 0.554965258
0.301581293 0.080708288 0.549398839
0.381277561 0.070588283 0.550158083
0.466666669 0.055787615 0.541429341
0.559519291 0.035167556 0.536495805
0.651486516 0.008855296 0.528273284
0.758001506 0.000000000 0.529032290
0.215812549 0.132194981 0.547121823
0.238203704 0.128146544 0.544212282
0.294876635 0.127767086 0.541935086
0.375205368 0.119924091 0.540037632
0.460088849 0.111701258 0.532068551
0.554332554 0.102340259 0.530297101
0.647944093 0.089310996 0.518912077
0.753447056 0.075268716 0.521821856
0.189753190 0.209867105 0.538393557
0.218216255 0.206325114 0.534851313
0.281847149 0.205186576 0.532827258
0.363314271 0.203668386 0.530044198
0.457305461 0.201264992 0.529791474
0.548386931 0.195445836 0.524731278
0.652118564 0.191777095 0.521062851
0.754459023 0.188108623 0.525110781
0.165338278 0.303352326 0.520556450
0.201771021 0.299430907 0.523592353
0.266034454 0.299810380 0.520809710
0.353194296 0.298292279 0.523213148
0.447564930 0.299430907 0.521948278
0.543832779 0.297533393 0.521189272
0.642631531 0.292726278 0.511574566
0.763061225 0.299051285 0.525363863
0.163946718 0.406325459 0.516255617
0.198608652 0.409866989 0.525996566
0.267678559 0.407084197 0.521062613
0.346110076 0.405945837 0.520430267
0.440860391 0.403162569 0.516381741
0.546236515 0.403542131 0.519924223
0.645920277 0.404807270 0.521062434
0.771663249 0.418848753 0.538899481
0.170904279 0.519038439 0.523339570
0.206451640 0.525363564 0.527767301
0.267172903 0.523719251 0.527894020
0.352435291 0.520936191 0.524604797
0.453763634 0.523719251 0.529285073
0.554459453 0.525743008 0.527767062
0.664516330 0.527767181 0.531815290
0.798102140 0.550664008 0.561669767
0.171537280 0.634787858 0.531182528
0.202150583 0.636432528 0.527134538
0.268564165 0.638077259 0.529538214
0.364452899 0.635800540 0.535104215
0.461986184 0.641239524 0.533839583
0.570904255 0.650727570 0.547754765
0.700822234 0.675648570 0.574952483
0.824667633 0.692093551 0.596078515
0.237191767 0.809234381 0.598102450
0.273750782 0.807716191 0.599114597
0.327893734 0.809867382 0.602783322
0.414926946 0.813788414 0.603415549
0.517773747 0.815812886 0.610626340
0.625426829 0.822517157 0.619734347
0.736748636 0.827703834 0.629601538
0.851106524 0.838203669 0.644149184
0.226185828 0.112586975 0.766856194
0.256420016 0.109044522 0.760910571
0.324857831 0.107273988 0.762302101
0.410626471 0.096900977 0.762808383
0.511827946 0.090448961 0.757242441
0.619101763 0.081340790 0.754459202
0.721315265 0.072359443 0.745983362
0.830613434 0.067299418 0.744591713
0.216444999 0.158760071 0.750031292
0.253383696 0.148640364 0.757242084
0.317014337 0.155344829 0.759772062
0.404300958 0.150158063 0.754585862
0.507400632 0.146616206 0.754206240
0.614041686 0.141429350 0.751802504
0.725490272 0.138899341 0.747248530
0.832510531 0.138013721 0.745856583
0.202024072 0.246046886 0.750537634
0.235294387 0.241872370 0.754206359
0.309297830 0.237824157 0.754459143
0.401011884 0.239848018 0.751296759
0.506388485 0.238583252 0.753573775
0.610752761 0.240860060 0.751802325
0.721694827 0.240860254 0.749019563
0.830739558 0.244275793 0.746489525
0.194307476 0.348766416 0.750663877
0.228336439 0.350031614 0.747248471
0.300316334 0.350158095 0.750031590
0.398608476 0.351296455 0.751170218
0.498671621 0.350158095 0.744465172
0.604933798 0.350158095 0.741935611
0.716002226 0.347375035 0.739025712
0.830486953 0.352814615 0.739025712
0.199114382 0.463630974 0.751802444
0.235926703 0.468690723 0.744718194
0.301455051 0.466540158 0.746868849
0.393295079 0.467299372 0.747374773
0.498545200 0.463757187 0.743453383
0.606072426 0.461353689 0.743073940
0.714863896 0.464515895 0.742947102
0.822770417 0.466413647 0.738266945
0.216571525 0.585325778 0.753194332
0.246932313 0.587096512 0.753067613
0.315116733 0.586464465 0.749905407
0.398228705 0.583301544 0.749272227
0.499177694 0.584060609 0.750031590
0.607337236 0.584693491 0.749778509
0.719291508 0.584819734 0.751549244
0.835673630 0.584566474 0.752814412
0.231625780 0.704111338 0.756989121
0.256166875 0.710056901 0.760024905
0.322454274 0.706261992 0.756989300
0.408981800 0.706261992 0.757495046
0.508032799 0.702340484 0.758633673
0.614547551 0.705882430 0.756230354
0.727134943 0.711195350 0.757621527
0.840227842 0.714484334 0.767868102
0.267172605 0.828083456 0.782669365
0.294497281 0.830739558 0.772296011
0.351296633 0.830233812 0.772042692
0.434535265 0.832257807 0.773434401
0.530170798 0.830739558 0.769765735
0.633776248 0.833396435 0.781277359
0.747248352 0.838583291 0.783554614
0.871220708 0.862112582 0.808728397
