Assets/EldamarStudio/100 Retro LUTs Pack/LUTs/cube/Donna LUT.cube
DOMAIN_MIN 0 0 0
DOMAIN_MAX 1 1 1
LUT_3D_SIZE 32
0.031373002 0.058823999 0.121569000
0.034408614 0.058823999 0.121569000
0.043896001 0.060974225 0.121569000
0.058570322 0.062744997 0.124099001
0.076027997 0.062744997 0.129032448
0.088171996 0.062744997 0.125996053
0.102846317 0.065275319 0.128020316
0.116381988 0.068311289 0.129411995
0.130044192 0.069829099 0.128652900
0.148260966 0.066793479 0.125616506
0.157748133 0.066666998 0.122580871
0.174952254 0.066666998 0.123592734
0.196204633 0.068944000 0.124351643
0.217710063 0.074510001 0.121821970
0.241998821 0.074510001 0.124857575
0.268690795 0.076913193 0.127893806
0.296015203 0.079949193 0.129411995
0.323972136 0.082353003 0.128779426
0.354332954 0.082353003 0.125743032
0.384692997 0.082353003 0.125489995
0.416951180 0.084250741 0.125489995
0.450348109 0.086274996 0.123466000
0.484123975 0.086401477 0.117773511
0.526628792 0.089437097 0.120809905
0.564579546 0.092473283 0.123845704
0.603795290 0.094117999 0.124098681
0.646300137 0.094117999 0.120556869
0.688804865 0.094117999 0.114484102
0.731309593 0.096774153 0.108412012
0.773814321 0.098039001 0.104111232
0.816319168 0.099809989 0.101961002
0.858824015 0.105881996 0.101961002
0.040480614 0.064895995 0.127640992
0.040480614 0.064895995 0.121569000
0.047817774 0.067046225 0.119418226
0.059076384 0.067552157 0.122327767
0.072991706 0.066540383 0.128273442
0.085136384 0.071853384 0.119924054
0.099810064 0.071853384 0.124477997
0.114990309 0.074383289 0.123086609
0.128526002 0.076660000 0.121062711
0.142188206 0.075901099 0.122580901
0.160404980 0.075774617 0.125363514
0.175964385 0.077798873 0.120556608
0.195066288 0.078811005 0.121694997
0.214927420 0.080582000 0.124857634
0.241998821 0.080582000 0.127893969
0.266286969 0.080582000 0.126122579
0.291460991 0.082985580 0.124857806
0.318532526 0.086021803 0.123972416
0.351296574 0.088425003 0.125743032
0.384439975 0.091208354 0.125489995
0.413156211 0.093358651 0.125489995
0.445288002 0.096394747 0.123466000
0.480961084 0.098419003 0.117773511
0.520556808 0.098545484 0.120809905
0.565338314 0.101581089 0.119291715
0.605439603 0.103225611 0.120809674
0.646300137 0.103225611 0.120050937
0.688804865 0.103225611 0.111448489
0.731309593 0.108538598 0.108032554
0.772043109 0.110183001 0.100569248
0.814168394 0.112839602 0.096774384
0.858824015 0.121062383 0.098924614
0.040986773 0.073118225 0.120809451
0.045287773 0.073118225 0.123339996
0.049588773 0.073118232 0.123719223
0.059961997 0.074889004 0.121947996
0.071726546 0.073497772 0.126881763
0.082100093 0.077799000 0.121315837
0.101075448 0.076660231 0.120556772
0.112966478 0.078304939 0.121695064
0.126375765 0.081340872 0.119164996
0.138519794 0.082732551 0.123592705
0.158633739 0.082732551 0.126628906
0.176849991 0.082732551 0.127640769
0.196204633 0.084503770 0.124098770
0.215939298 0.084756747 0.127387732
0.241366386 0.086654000 0.126628637
0.266286969 0.088804774 0.127008185
0.293611377 0.088804774 0.127008185
0.319797546 0.091208421 0.125870004
0.350158006 0.094244041 0.127387792
0.379253387 0.099430583 0.123339772
0.414547473 0.098671973 0.123339772
0.444655359 0.101201646 0.123339772
0.480201960 0.104237735 0.119418271
0.521694958 0.106261998 0.114358127
0.557116032 0.108538710 0.112839937
0.602656364 0.111574672 0.112586893
0.644655406 0.113345772 0.115623154
0.688804865 0.116634771 0.113092788
0.731309593 0.121947758 0.111448169
0.773814321 0.124477774 0.104870252
0.814547956 0.125363380 0.097533397
0.858824015 0.131941766 0.098039001
0.043010838 0.082226165 0.117520161
0.047817998 0.082226165 0.121062614
0.051360000 0.082226165 0.123719223
0.062491998 0.082226165 0.125489995
0.073118001 0.081846714 0.126249000
0.079569779 0.083112098 0.125869766
0.097533315 0.086147845 0.124099001
0.116002545 0.085135706 0.123719454
0.126628935 0.086654097 0.121442162
0.139279008 0.088678479 0.126502156
0.156356707 0.088804998 0.127134696
0.179379985 0.088804998 0.129411995
0.196457624 0.091081999 0.127134994
0.217710063 0.091334999 0.127388000
0.241998821 0.093358740 0.127387747
0.265022129 0.097659796 0.125489995
0.292346209 0.099177994 0.125743017
0.322706968 0.100442983 0.128146827
0.350664020 0.104111195 0.128146827
0.380518377 0.108665325 0.126375988
0.409740627 0.109044738 0.121569000
0.447185278 0.109044991 0.121569000
0.481467128 0.112333670 0.121695481
0.523971975 0.115370065 0.117141090
0.560910821 0.118405864 0.112587035
0.597343564 0.121441826 0.107273668
0.642884195 0.124478087 0.109297931
0.688425303 0.129790992 0.110815540
0.731309593 0.134598151 0.111194998
0.777609169 0.138393313 0.104617089
0.819228649 0.141049683 0.100822441
0.861353993 0.144844994 0.099304162
0.051739097 0.091334544 0.125489995
0.053636838 0.091334544 0.125489995
0.055281546 0.091334544 0.124730997
0.062871546 0.091334544 0.125489995
0.078810550 0.091334544 0.124731004
0.078810550 0.088298932 0.130803004
0.093991093 0.094244219 0.130044311
0.111827992 0.098797999 0.129411995
0.128905550 0.098418549 0.129032448
0.144085959 0.095382929 0.129032448
0.157115549 0.095256448 0.126502126
0.178620785 0.095635995 0.127514258
0.201391190 0.097533450 0.127514452
0.216824546 0.103352480 0.121948451
0.240860268 0.103478998 0.127767444
0.264263242 0.107906543 0.127008185
0.289689988 0.111321993 0.124730997
0.319670677 0.112586983 0.125110552
0.350031525 0.118659005 0.125110552
0.382795364 0.121948354 0.128273353
0.413535655 0.121948257 0.125616997
0.444908649 0.121188991 0.121948451
0.484376997 0.127261013 0.121948451
0.526628792 0.130550444 0.124731094
0.564958990 0.133586243 0.122074746
0.602783203 0.136242673 0.117014788
0.642884195 0.139658481 0.108538933
0.688425303 0.142694086 0.105502553
0.730930030 0.146109834 0.105122998
0.778368056 0.149905205 0.099177584
0.826438785 0.153953463 0.091714054
0.865907967 0.163061097 0.100822456
0.057811871 0.100442939 0.125489995
0.051739097 0.100442939 0.125489995
0.055787615 0.100442939 0.121188998
0.065907933 0.100442939 0.121188991
0.081846938 0.100442939 0.124730997
0.081846938 0.100442939 0.118659005
0.097026929 0.099936999 0.122201324
0.113598764 0.103099220 0.125870004
0.128526002 0.104869999 0.128652900
0.141049564 0.104490541 0.125996053
0.159139812 0.104364060 0.125996053
0.178368196 0.106388316 0.127514258
0.198355585 0.108918346 0.128273353
0.213788942 0.112460092 0.124984063
0.232004926 0.115496479 0.124984063
0.263250858 0.118026800 0.125996053
0.291587263 0.121568739 0.122454002
0.319417715 0.124730982 0.119291581
0.346995890 0.130803004 0.122074939
0.377355933 0.134092361 0.127640933
0.412017465 0.137128264 0.125616997
0.447944462 0.138139993 0.122580871
0.487413377 0.139405012 0.124984063
0.526881874 0.145477802 0.124984063
0.566856265 0.148766637 0.116382003
0.605819046 0.150410935 0.109930389
0.645794094 0.151928991 0.105376065
0.688425303 0.157874480 0.099430554
0.728652775 0.163566917 0.099050999
0.773940384 0.170904189 0.097280234
0.820366800 0.177229598 0.092726327
0.859835982 0.181277871 0.091714062
0.056293678 0.109550677 0.125489995
0.057811871 0.109550677 0.120430000
0.064642645 0.111701451 0.124730997
0.071474001 0.113346159 0.123972155
0.083491549 0.113852225 0.127640769
0.089943320 0.109550677 0.123718992
0.097532995 0.114611320 0.127766997
0.112460412 0.114611320 0.127514377
0.126755223 0.116761543 0.129411995
0.140670016 0.118532315 0.128146827
0.156103417 0.116002642 0.120430000
0.176343933 0.118026376 0.124477990
0.197596312 0.122200996 0.125743315
0.216318741 0.126628339 0.123213284
0.239089310 0.129664734 0.125489995
0.262112290 0.132700503 0.125489995
0.293611377 0.137255058 0.125489995
0.321315467 0.141303062 0.121442005
0.346742928 0.145477325 0.118785650
0.376850009 0.151296362 0.119544692
0.411005467 0.152435005 0.123719417
0.448450387 0.154838458 0.120556869
0.487792939 0.156483129 0.120177008
0.524857581 0.160151482 0.115369998
0.562049210 0.166224241 0.115369998
0.604047954 0.169512957 0.109803997
0.646300137 0.171663314 0.107400320
0.688804865 0.177735314 0.101328328
0.733712792 0.186337635 0.095509320
0.773181558 0.190638855 0.090196125
0.819481492 0.197343633 0.085642077
0.863883972 0.202024326 0.082605682
0.056546707 0.121947698 0.125489995
0.059582673 0.123592407 0.124351695
0.067425996 0.124098472 0.125236988
0.078305162 0.124604538 0.128778994
0.084756710 0.126502290 0.130676821
0.092599936 0.122959830 0.127640769
0.103352383 0.123718925 0.127260998
0.114104696 0.126502290 0.128399715
0.125490382 0.125743389 0.128399894
0.138899252 0.127008229 0.131056279
0.159012854 0.129158869 0.125616834
0.176596969 0.128526434 0.121694997
0.196710706 0.132700697 0.126628637
0.217710063 0.138519734 0.124857992
0.241998821 0.141556114 0.126502290
0.264642686 0.146236613 0.125489995
0.291966707 0.150790408 0.123972192
0.322327435 0.156862989 0.123845711
0.348640263 0.160910755 0.119797707
0.378494710 0.163440719 0.119291708
0.409361184 0.170651406 0.117900029
0.446805835 0.171663269 0.118912160
0.486274749 0.174699500 0.116002291
0.524224997 0.177735507 0.112966284
0.565591276 0.183048561 0.108159289
0.603415310 0.191903964 0.106767975
0.648450434 0.195698753 0.106008939
0.692093849 0.200632393 0.101075299
0.737254739 0.206071809 0.095003307
0.779253542 0.213282913 0.092093796
0.818722546 0.217204690 0.082100011
0.865022242 0.223276705 0.076786712
0.061100900 0.137128100 0.127007991
0.064136706 0.138646483 0.127767295
0.070714772 0.138772994 0.131562218
0.079823159 0.139784932 0.131815001
0.087792993 0.137128100 0.133332998
0.093106002 0.137128100 0.132194832
0.104237996 0.137128100 0.127640769
0.116381988 0.137128100 0.124604613
0.130044177 0.137128100 0.123086996
0.139152586 0.134092480 0.132194608
0.160530984 0.139026091 0.130423874
0.180012405 0.141809002 0.126628831
0.198229089 0.143327102 0.124351546
0.216951087 0.149399102 0.127640903
0.241239727 0.152941421 0.128652900
0.263883799 0.159140095 0.127767280
0.288931072 0.163694084 0.124731094
0.320556194 0.169133514 0.121695489
0.351170063 0.175079003 0.121569000
0.382289737 0.177862093 0.120809905
0.413409352 0.182795733 0.118912168
0.445288211 0.189880058 0.116634868
0.484756559 0.193042189 0.113472007
0.524224997 0.196711004 0.112207003
0.566729784 0.202783197 0.109930098
0.611005723 0.210120171 0.104490682
0.650980234 0.221252188 0.100949004
0.696268260 0.224541545 0.097659655
0.740290701 0.227577254 0.089690015
0.784566462 0.233902529 0.085642003
0.826312602 0.239975080 0.085894920
0.865781009 0.246047094 0.073750906
0.070208520 0.152308494 0.133079991
0.073244907 0.149272889 0.127007991
0.078431487 0.146489725 0.129917502
0.085895158 0.147375003 0.130803004
0.093864992 0.152308494 0.127260998
0.093865015 0.152308494 0.139404997
0.104238003 0.152308494 0.133206829
0.116381988 0.152308494 0.127640769
0.130044192 0.152308494 0.126122609
0.148260981 0.152308494 0.129158989
0.163187608 0.155091882 0.129538476
0.178747252 0.158254236 0.125364006
0.195192799 0.161163658 0.120556831
0.213915482 0.164579511 0.118532516
0.238203451 0.170651495 0.124604501
0.262492120 0.179000810 0.128020316
0.288172185 0.183428496 0.127767295
0.317520589 0.184313923 0.124731101
0.353953451 0.187349558 0.121695489
0.387349874 0.196078375 0.118785650
0.420619726 0.202909499 0.115875781
0.453889906 0.208096147 0.113851517
0.487792939 0.211258978 0.113472000
0.527261376 0.217330977 0.107399993
0.566729724 0.225553781 0.108412281
0.609234512 0.233143970 0.106894493
0.654016614 0.239468977 0.100949004
0.696521282 0.245540977 0.094876997
0.736495733 0.248829663 0.080961667
0.781530321 0.257178932 0.071474016
0.829727650 0.267299503 0.068311378
0.877925038 0.273371518 0.070714518
0.079316869 0.164579004 0.124604873
0.073624387 0.170272246 0.127260998
0.080961771 0.171537086 0.125489995
0.082732543 0.171283871 0.128779173
0.086274356 0.172548860 0.126881778
0.111575000 0.167488873 0.118785135
0.109044679 0.170019194 0.128399462
0.122580536 0.172043025 0.126502126
0.137254879 0.172548965 0.124731094
0.151170105 0.170398742 0.123466492
0.163567126 0.170398742 0.123593003
0.180771500 0.173434615 0.119544491
0.197975859 0.175331876 0.115749255
0.216951162 0.177103043 0.114990160
0.243895978 0.185831860 0.118405998
0.268184602 0.191903859 0.124477997
0.293991208 0.198987991 0.126502126
0.321948141 0.203035995 0.124857582
0.353826970 0.208348915 0.121821977
0.384692997 0.214167863 0.124351643
0.419860601 0.223149732 0.117773265
0.456293374 0.230233863 0.111700997
0.493485481 0.235167503 0.107779518
0.527387917 0.238456875 0.104490869
0.569133520 0.246806145 0.105249576
0.610626161 0.254522860 0.104111142
0.654143155 0.261606872 0.096521072
0.696647823 0.272485882 0.083238266
0.736495733 0.275901705 0.074510112
0.783048511 0.282479346 0.068691000
0.827450991 0.292599618 0.066666998
0.863883913 0.300695866 0.067678869
0.086401001 0.182795241 0.121569000
0.076281004 0.186843768 0.120556623
0.078937516 0.192789465 0.125489995
0.088045903 0.193295404 0.122959994
0.088045508 0.192156956 0.123719290
0.108538873 0.187729239 0.119797640
0.125236928 0.187223315 0.123339571
0.128778949 0.190259710 0.127514258
0.143580079 0.192536503 0.126755163
0.154459283 0.190765724 0.123719215
0.172675520 0.190639243 0.123592734
0.184819490 0.192662984 0.121569000
0.204174638 0.194560245 0.117773511
0.223276243 0.194813281 0.117267445
0.245287389 0.200379670 0.114990160
0.270208597 0.207084239 0.120430261
0.297533393 0.213156238 0.121948071
0.325363815 0.219228238 0.120809421
0.354332954 0.225300267 0.117773458
0.386717260 0.235420242 0.116255656
0.418974966 0.239594996 0.115496263
0.455281228 0.247438252 0.109677002
0.493738204 0.253763229 0.105755515
0.530929685 0.262491882 0.102719903
0.567109287 0.270082265 0.098165974
0.612397015 0.279190630 0.095635608
0.655660927 0.285895258 0.088931009
0.696647823 0.295003235 0.078304827
0.740543723 0.303226084 0.072485596
0.781783342 0.308033228 0.061606776
0.829980910 0.316002518 0.058823757
0.864895761 0.323972255 0.056546751
0.086780354 0.206324920 0.120430358
0.080329001 0.209361032 0.119671255
0.082226649 0.213409275 0.119671002
0.089563519 0.215686157 0.124098636
0.098292351 0.213029996 0.118026547
0.108918346 0.210752696 0.118785650
0.124983996 0.210246637 0.124352001
0.141682342 0.210752711 0.128273353
0.152308732 0.213789091 0.128273353
0.162176132 0.214168638 0.125616506
0.177229866 0.213029996 0.125489995
0.196963981 0.212777033 0.124604613
0.210246637 0.216951281 0.120430358
0.230993032 0.216698244 0.119924359
0.248323619 0.217963412 0.113851815
0.273624241 0.223402977 0.115116961
0.298671752 0.230613619 0.118912168
0.328399897 0.236685634 0.115243368
0.355724365 0.242757648 0.111701027
0.388615012 0.253257275 0.112080701
0.423149735 0.264263004 0.106767908
0.456546396 0.267299145 0.101707518
0.492979109 0.273244619 0.101075009
0.532447577 0.283364654 0.097027265
0.569639206 0.293231934 0.093991362
0.609360933 0.302340299 0.086527690
0.657431722 0.311954647 0.077419423
0.698165655 0.319291621 0.070715010
0.740670383 0.326881826 0.066160530
0.785578310 0.335357606 0.058950037
0.829854131 0.341429651 0.045034803
0.872865021 0.347501636 0.037950717
0.078937069 0.233650029 0.117900029
0.081720419 0.236432686 0.120936356
0.089057744 0.238962770 0.119165197
0.098671868 0.239468887 0.118153125
0.107400022 0.237318069 0.121568933
0.113472022 0.237318069 0.115496159
0.127387375 0.237318069 0.118532613
0.143706411 0.237824067 0.123213284
0.160405055 0.238077089 0.124730967
0.175585449 0.241113484 0.124730967
0.183301985 0.238583162 0.124730967
0.201011971 0.235800251 0.124730967
0.221884638 0.235673994 0.122453965
0.237571031 0.241493031 0.117141001
0.252751410 0.238456652 0.111069001
0.278937578 0.242125064 0.109803997
0.306515008 0.249209195 0.110562831
0.331688553 0.257685065 0.112713039
0.359012991 0.263757050 0.106641032
0.391904086 0.272865385 0.110942006
0.426691979 0.285262674 0.107526749
0.462365359 0.296900898 0.098671906
0.496015459 0.300316006 0.089816518
0.535483956 0.306641012 0.083871000
0.572928548 0.314737350 0.080835007
0.611891270 0.324351668 0.076660343
0.654649079 0.333460063 0.067299031
0.700189412 0.345604032 0.058191430
0.740670383 0.352688015 0.051992334
0.783934057 0.360278189 0.043137193
0.829601169 0.369260043 0.032890804
0.878178060 0.375332028 0.014674000
0.085009828 0.260974407 0.120936416
0.085009828 0.260974407 0.123972028
0.092093639 0.259456038 0.118405804
0.103731737 0.257685125 0.113092743
0.116508409 0.255787820 0.113219582
0.122580402 0.261606812 0.124604538
0.138773039 0.261606812 0.118532412
0.153067827 0.264895827 0.121568576
0.164958999 0.267425716 0.123212904
0.172549084 0.265401483 0.115622588
0.193548456 0.265527993 0.115622588
0.209613979 0.264895409 0.115622588
0.227956638 0.264262974 0.113345586
0.243643031 0.265781015 0.108032614
0.264895409 0.268817395 0.111069001
0.282479584 0.268184811 0.109803997
0.307780176 0.270967603 0.106768005
0.335104376 0.275901139 0.105123416
0.365084976 0.281973839 0.109677404
0.397976071 0.293611825 0.106388055
0.429474980 0.303225636 0.101454750
0.463124245 0.313598692 0.093359008
0.499051064 0.321568370 0.086780906
0.538520277 0.333712399 0.083744518
0.577988684 0.340037972 0.068691015
0.616824627 0.350917101 0.058444355
0.657431722 0.363314092 0.048830025
0.700189412 0.369892806 0.036939062
0.743073583 0.379379958 0.033143774
0.788487911 0.386084378 0.018848855
0.833775818 0.395445555 0.006325193
0.875142395 0.408728391 0.002530012
0.091081992 0.290701985 0.116761394
0.083871193 0.290701985 0.112586819
0.092473194 0.290701985 0.111321978
0.103098996 0.290448964 0.109044813
0.116761290 0.289310753 0.108286001
0.126881808 0.287286788 0.104238011
0.140670642 0.290701985 0.115623005
0.157242283 0.289057702 0.111195296
0.171663389 0.291334778 0.114231296
0.184313804 0.289943099 0.111701325
0.200126678 0.292219788 0.111321807
0.219354793 0.292219788 0.111321807
0.237571090 0.292219788 0.111321807
0.254269600 0.292472810 0.108285800
0.273371190 0.295509189 0.109171413
0.294623584 0.296141773 0.107400194
0.315875977 0.297659576 0.108918384
0.341049761 0.301327914 0.104238011
0.366097033 0.307400733 0.099684000
0.399241090 0.316635013 0.095003456
0.434535474 0.326881737 0.090069339
0.468943745 0.337001562 0.085515529
0.506767809 0.347501278 0.083365209
0.543959737 0.357368588 0.073498100
0.581151545 0.367235869 0.063630447
0.620493412 0.374826074 0.045667421
0.660973847 0.386969864 0.033523142
0.705375850 0.394939899 0.023276407
0.745477438 0.406071931 0.016698373
0.793295324 0.416951180 0.011891223
0.837191582 0.425173759 0.000000000
0.872106194 0.437317789 0.000000000
0.092599809 0.319544196 0.109171197
0.092599809 0.321062386 0.104617007
0.095509194 0.318026394 0.102213584
0.105123192 0.321821541 0.100442812
0.116761185 0.324604809 0.105629355
0.128905669 0.319671184 0.099178001
0.143580124 0.318152875 0.099683806
0.161796480 0.320935905 0.105123296
0.177735388 0.318659186 0.103605099
0.195952177 0.318659186 0.106641486
0.209740862 0.320050508 0.105249807
0.229980975 0.321062386 0.106768005
0.248197272 0.322201043 0.105629362
0.266667008 0.322580576 0.104743809
0.286148161 0.324351788 0.102213815
0.306768000 0.324984372 0.101328202
0.324984372 0.326502174 0.098292194
0.349272341 0.328905374 0.099430852
0.371410191 0.333206922 0.089057609
0.400758892 0.340543836 0.083997801
0.436053276 0.352687925 0.079443522
0.473497927 0.362808168 0.072359137
0.512586772 0.374952197 0.072738998
0.546236634 0.385452271 0.060594618
0.585705340 0.393042475 0.045414440
0.622138083 0.403542161 0.034661353
0.662998080 0.412270367 0.018848814
0.709550560 0.420366615 0.010752564
0.751296401 0.433649361 0.007337015
0.793295324 0.444275588 0.005819210
0.843137562 0.455534756 0.000632584
0.876660407 0.464642555 0.000000000
0.090828575 0.348133713 0.100063428
0.099304385 0.351169914 0.094497062
0.105629422 0.348387122 0.096141592
0.113598987 0.346742690 0.097406581
0.120429985 0.355850995 0.096268035
0.132573992 0.353826582 0.098292373
0.147248313 0.350790381 0.096268117
0.164452702 0.349778235 0.094244026
0.185578614 0.352688104 0.095002957
0.203795403 0.352688104 0.098039344
0.218089968 0.352055520 0.095888570
0.237697542 0.352688104 0.095635705
0.260973841 0.353194177 0.097027384
0.279443592 0.356230497 0.094496995
0.300695956 0.356609970 0.089563429
0.320050776 0.356609970 0.087033436
0.340164602 0.358127922 0.085515633
0.357242525 0.359898537 0.083744846
0.381530583 0.359898537 0.077672064
0.407969534 0.365464717 0.073118366
0.439721465 0.375331849 0.067552298
0.476533711 0.389500111 0.062492006
0.515875578 0.401517630 0.053257886
0.547248423 0.413156360 0.041113224
0.585452139 0.421378970 0.026945030
0.625173867 0.430234104 0.014168346
0.663124621 0.442378134 0.006578009
0.711574852 0.448703110 0.000759007
0.754838586 0.461479962 0.000000000
0.798608303 0.473750740 0.001138640
0.841366172 0.482859135 0.003668968
0.886907399 0.491967529 0.000632576
0.093864970 0.381530970 0.090955004
0.099936970 0.384566575 0.075774632
0.104111232 0.383301795 0.080961563
0.112460196 0.381277978 0.089563936
0.126502007 0.383175462 0.093232386
0.138645992 0.392283052 0.084124006
0.153320342 0.390259326 0.081087686
0.168500721 0.387223244 0.078051724
0.185705110 0.386211127 0.076786876
0.206831038 0.389120996 0.079822518
0.227956921 0.386211097 0.079949036
0.248450264 0.387476295 0.077672273
0.271094263 0.389120996 0.076281011
0.294624001 0.389626980 0.076280937
0.315876365 0.392662585 0.079316542
0.329917997 0.393042058 0.074383005
0.348893017 0.394560248 0.070335202
0.372422218 0.396331429 0.068564415
0.396711051 0.393295020 0.071600020
0.420999706 0.398861736 0.062745318
0.449335933 0.404933959 0.050348241
0.482226253 0.413788974 0.038203850
0.518912017 0.425806493 0.028969062
0.555344820 0.434914887 0.016825059
0.591271579 0.444275707 0.009235002
0.628210306 0.454522371 0.003542329
0.666161060 0.466666967 0.000506000
0.711701393 0.478810966 0.000506000
0.754838586 0.487792790 0.000000000
0.800885320 0.499177963 0.000000000
0.847185194 0.510183632 0.001138640
0.889943063 0.519292057 0.003668968
0.094117999 0.420493394 0.070714623
0.100189999 0.423529685 0.066666961
0.106261998 0.424415082 0.064389572
0.116255350 0.422011554 0.068311438
0.132194549 0.420493394 0.068691075
0.141935363 0.422390819 0.064389691
0.161669672 0.426439047 0.060341306
0.180645064 0.423909038 0.058949631
0.198102459 0.422390848 0.057811279
0.215306863 0.425427228 0.058823150
0.239341870 0.425427198 0.058949631
0.262618542 0.424415082 0.058949631
0.283491373 0.426692098 0.055534277
0.304237694 0.428336382 0.052245274
0.325490028 0.428842306 0.052751206
0.349146247 0.431878567 0.053383626
0.365844369 0.432258099 0.048070628
0.388234913 0.433396757 0.042504705
0.414673984 0.432511121 0.036938295
0.441746116 0.435040742 0.037191264
0.460341632 0.439215750 0.029980918
0.488298237 0.445414513 0.020493278
0.524731040 0.455534726 0.013535635
0.561163843 0.461986303 0.012017638
0.599873304 0.473371357 0.008981643
0.639594913 0.485768378 0.003921658
0.678810716 0.498292387 0.000000000
0.717520416 0.505882382 0.000000000
0.763061464 0.518026352 0.000000000
0.803921461 0.529032469 0.000000000
0.847691178 0.542062104 0.000885608
0.890196025 0.554965019 0.003922000
0.094117999 0.459962189 0.032384545
0.100189999 0.461100847 0.033143926
0.111954734 0.463883698 0.036306508
0.120556727 0.462618858 0.034282118
0.136748731 0.460341632 0.031119799
0.147374928 0.461859465 0.032637604
0.166603312 0.462492019 0.027703958
0.182921991 0.465528399 0.026312282
0.204933554 0.462998092 0.026312282
0.224668235 0.463757187 0.026312282
0.248576716 0.465781450 0.026312282
0.270967513 0.465781450 0.026312282
0.294117659 0.468058437 0.026312282
0.313345790 0.471347153 0.022264278
0.334598124 0.469702452 0.022264278
0.358254343 0.470208526 0.022264278
0.385578752 0.473244905 0.023782471
0.406577885 0.474256903 0.019481439
0.432637483 0.475521743 0.012903045
0.456167072 0.472612113 0.014041752
0.481593996 0.477545470 0.012144012
0.500821888 0.479569733 0.008096008
0.534597993 0.485894978 0.004048004
0.571030796 0.491966963 0.004048004
0.607842982 0.504490733 0.004048004
