Assets/EldamarStudio/100 Retro LUTs Pack/LUTs/cube/Donna LUT.cube
LUT_3D_SIZE 5
DOMAIN_MIN 0.000000 0.000000 0.000000
DOMAIN_MAX 0.903226 0.903226 0.903226
0.031373002 0.058823999 0.121569000
0.116381988 0.068311289 0.129411995
0.241998821 0.074510001 0.124857575
0.450348109 0.086274996 0.123466000
0.731309593 0.096774153 0.108412012
0.056546707 0.121947698 0.125489995
0.114104696 0.126502290 0.128399715
0.241998821 0.141556114 0.126502290
0.446805835 0.171663269 0.118912160
0.737254739 0.206071809 0.095003307
0.085009828 0.260974407 0.120936416
0.153067827 0.264895827 0.121568576
0.264895409 0.268817395 0.111069001
0.463124245 0.313598692 0.093359008
0.743073583 0.379379958 0.033143774
0.097153865 0.500442982 0.000000000
0.192030117 0.504996836 0.000000000
0.344718367 0.512839854 0.000000000
0.521062434 0.520050287 0.000000000
0.773813725 0.579885900 0.005186845
0.197849452 0.821631730 0.000000000
0.290322483 0.818722248 0.001644708
0.454775333 0.824161768 0.002656833
0.644275665 0.829348564 0.003668703
0.853004396 0.838583291 0.000000000
0.058823999 0.070588000 0.145098001
0.114104696 0.076786712 0.142820701
0.229854688 0.083997287 0.152309000
0.428463250 0.081973709 0.163061142
0.719544590 0.050854020 0.155850708
0.076154284 0.122580700 0.146109700
0.125869706 0.129791275 0.144465432
0.226944983 0.145856991 0.143832996
0.429474950 0.158254415 0.149652004
0.723465919 0.188361809 0.149398714
0.094117999 0.254395962 0.138520002
0.148766279 0.256040692 0.140164301
0.261606812 0.259962112 0.137887001
0.459202796 0.304490536 0.137887001
0.742441118 0.369892508 0.116761535
0.098672003 0.497153819 0.083238289
0.191271275 0.495888382 0.087160289
0.343453407 0.500442982 0.077672578
0.516761720 0.513852119 0.065148577
0.774066925 0.578874052 0.027450986
0.221505433 0.813662589 0.012397003
0.293611616 0.818342745 0.011890981
0.460847497 0.817963481 0.019734401
0.650221050 0.829348326 0.037824262
0.853004396 0.838583291 0.082479060
0.115116984 0.077798583 0.220366567
0.173307985 0.080708295 0.215180397
0.264895409 0.085642412 0.207969829
0.443896115 0.080708288 0.229222268
0.717520356 0.004427603 0.261606812
0.114104703 0.150410995 0.199747115
0.164832398 0.147121996 0.203036129
0.267172694 0.148766696 0.201391831
0.442884237 0.155977115 0.222643703
0.724098325 0.167109281 0.258064508
0.120303832 0.267552376 0.200759411
0.177861989 0.262618661 0.202023998
0.310689390 0.292346388 0.220366567
0.476280779 0.302845985 0.224035531
0.743706167 0.352561384 0.254522383
0.118911982 0.490702242 0.218089536
0.200506121 0.494876742 0.214168102
0.353573680 0.497786283 0.216824681
0.520050228 0.509298146 0.214927107
0.775458455 0.574699342 0.251992613
0.230613589 0.809740603 0.267678380
0.308665037 0.808855116 0.275395304
0.460594624 0.816318750 0.280961186
0.651612937 0.824161768 0.293738037
0.855660617 0.838583291 0.323719233
0.196204990 0.080455258 0.414168239
0.258317590 0.083618157 0.408222228
0.378747821 0.073497869 0.403415382
0.529791296 0.049841873 0.397470117
0.748133838 0.000000000 0.429348648
0.175205842 0.174320117 0.398102373
0.241619542 0.173307985 0.392915934
0.368880421 0.166476861 0.392283559
0.516508520 0.161796272 0.385072529
0.746742427 0.164579257 0.433776081
0.160910994 0.321189374 0.385452092
0.224035278 0.321821570 0.384566814
0.363693804 0.321188956 0.381150961
0.520683289 0.320936263 0.381530225
0.765338182 0.353952944 0.439721644
0.151043996 0.506388247 0.380898267
0.229854271 0.508286238 0.391271681
0.373434812 0.512207270 0.391651124
0.578874290 0.551423252 0.437697232
0.794433892 0.583807945 0.464642793
0.240354195 0.812397420 0.493864745
0.312207341 0.812397420 0.501960635
0.465528011 0.812397420 0.502593219
0.651233196 0.824541509 0.514863729
0.855534375 0.835673749 0.535357177
0.226185828 0.112586975 0.766856194
0.301834524 0.107020684 0.760278404
0.455787390 0.095003225 0.756989002
0.643895924 0.078810781 0.751423240
0.830613434 0.067299418 0.744591713
0.207843006 0.220493227 0.754332542
0.289310545 0.216571644 0.756989419
0.452877939 0.218595788 0.752434969
0.640354276 0.215053663 0.749525487
0.832004726 0.217710495 0.745224535
0.194813162 0.416192442 0.746489167
0.281214416 0.413535774 0.746489108
0.449336201 0.410246372 0.749145985
0.632511258 0.407969505 0.740923285
0.834661603 0.410246372 0.745350897
0.219860956 0.611638069 0.748893261
0.292852759 0.615559816 0.753953397
0.452371925 0.612270653 0.752561569
0.635167778 0.614294648 0.749525547
0.839215577 0.617204070 0.754079640
0.267172605 0.828083456 0.782669365
0.331562459 0.830992877 0.771789670
0.478937626 0.828083396 0.773434401
0.661353648 0.835926473 0.782289505
0.871220708 0.862112582 0.808728397
