Assets/EldamarStudio/100 Retro LUTs Pack/LUTs/cube/Dorothy LUT.cube
LUT_3D_SIZE 8
DOMAIN_MIN 0.000000 0.000000 0.000000
DOMAIN_MAX 0.903226 0.903226 0.903226
0.000000000 0.003922000 0.000000000
0.106515095 0.000000000 0.003542452
0.239722088 0.000000000 0.000000000
0.374446273 0.000000000 0.002783356
0.524098396 0.003922000 0.000000000
0.679443181 0.009740740 0.001897740
0.835167587 0.032004997 0.017963288
0.976976573 0.065527976 0.049968794
0.012523999 0.113219544 0.000000000
0.111195087 0.113219544 0.000000000
0.249968201 0.113599092 0.003542452
0.378494412 0.120682999 0.005945550
0.511068821 0.129285082 0.003162807
0.667046189 0.135104343 0.009867260
0.817077816 0.146868825 0.016445000
0.953067482 0.153826535 0.046426147
0.051612996 0.242884189 0.000000000
0.148007184 0.250347644 0.000759000
0.267173082 0.251486301 0.001517999
0.402276933 0.257305533 0.005060354
0.544465423 0.267931998 0.011765001
0.695382714 0.276154429 0.021505257
0.842251658 0.282099992 0.033522997
0.975584924 0.288678020 0.076280959
0.118405923 0.393168926 0.011765000
0.190133169 0.401897907 0.006198998
0.306009084 0.402403444 0.013662450
0.431751907 0.405945927 0.020240286
0.568880022 0.411005557 0.023529001
0.698545277 0.407969683 0.036179733
0.835293949 0.411511630 0.053383633
0.963061213 0.415559739 0.088678256
0.176470995 0.552435338 0.006325195
0.235800192 0.565718174 0.012650003
0.343200266 0.562555313 0.010120095
0.462744832 0.556735933 0.018721998
0.593169153 0.557874560 0.036812194
0.726755202 0.555471361 0.042124994
0.851866245 0.552435338 0.078937478
0.977988422 0.552182019 0.132574141
0.245287746 0.731182694 0.057305269
0.301075071 0.738013744 0.071853183
0.392156720 0.735990107 0.074256994
0.505249739 0.727007747 0.079316825
0.630486965 0.719038725 0.085894987
0.762175679 0.711195767 0.099683724
0.879317284 0.698671699 0.132321298
0.988614798 0.691460729 0.188361630
0.303857982 0.831625283 0.115243264
0.334851235 0.843769848 0.144465566
0.413662374 0.840101302 0.147375166
0.518405914 0.838962674 0.154964909
0.628589272 0.830613554 0.156356379
0.747754455 0.826059580 0.162935004
0.864263296 0.822138011 0.185199276
0.974573076 0.805818796 0.220746085
0.393801630 0.948007762 0.286780596
0.433143646 0.960784256 0.304743499
0.489183903 0.957748055 0.319544584
0.569006979 0.955850780 0.319038600
0.658191144 0.950410962 0.320809752
0.762808263 0.948007762 0.331815332
0.876660466 0.944085777 0.344591886
0.987222791 0.937507927 0.378367603
0.000379548 0.000000000 0.086527549
0.099051543 0.000000000 0.097533546
0.235800177 0.000000000 0.102213547
0.368121356 0.000759096 0.101834096
0.513472557 0.000000000 0.106135547
0.667046010 0.005060257 0.119544357
0.815180302 0.012903257 0.122201093
0.959519625 0.037697524 0.134218529
0.023908548 0.102213547 0.093611546
0.119038090 0.102972642 0.098292544
0.235800177 0.110436089 0.099051446
0.366982818 0.117140740 0.104617454
0.504870653 0.121442094 0.111322097
0.647817612 0.126881793 0.115116902
0.795951545 0.133206993 0.113978542
0.941555858 0.143074051 0.124857828
0.057938091 0.236179635 0.101075098
0.152814984 0.240101546 0.105376452
0.267173111 0.244402185 0.106135547
0.394813269 0.249462634 0.111574635
0.538646698 0.260088295 0.126881987
0.678937554 0.266414106 0.116255447
0.817457259 0.271094203 0.129664734
0.959013224 0.280075848 0.135357171
0.104744084 0.380265534 0.111069188
0.189374074 0.382669479 0.111069091
0.291967183 0.384313464 0.113851637
0.417204469 0.388614804 0.108665183
0.548766673 0.391397446 0.120935932
0.682732522 0.395446271 0.124730825
0.822770536 0.402909547 0.134472087
0.957495034 0.404933274 0.151296631
0.162934899 0.530802906 0.109551087
0.227957189 0.544592202 0.118405901
0.330677092 0.541303039 0.116634995
0.450601101 0.544592202 0.123466350
0.576597393 0.544212759 0.125363991
0.704237640 0.541429400 0.127640888
0.837191880 0.542694569 0.146742448
0.964579344 0.542188466 0.178368166
0.233270451 0.710562944 0.134471640
0.282100081 0.715117037 0.139658347
0.375711679 0.717773438 0.145224631
0.495635718 0.710689366 0.149525374
0.620113730 0.707527161 0.155471355
0.739531755 0.702087462 0.162428826
0.865148365 0.692725956 0.176470533
0.976723492 0.689057589 0.215686142
0.280582011 0.815686524 0.161543339
0.322074562 0.827830553 0.184186921
0.400379151 0.824288428 0.179506645
0.505123615 0.824288309 0.186464116
0.614294529 0.820493400 0.188867614
0.735104203 0.816951275 0.198987931
0.856799662 0.817330837 0.221505105
0.972169816 0.802529991 0.254142880
0.388108611 0.951928794 0.291840732
0.429348648 0.954206049 0.321442306
0.478810996 0.951043546 0.324098557
0.560278237 0.948639870 0.330803305
0.653763413 0.947248578 0.339784950
0.759898663 0.944085777 0.351170331
0.872612417 0.937634468 0.356862575
0.986211061 0.933079898 0.393422127
0.000000000 0.000000000 0.203668192
0.104490645 0.003162904 0.206831202
0.238962993 0.000759096 0.208349094
0.376470715 0.001138644 0.224414825
0.523339510 0.000000000 0.227197990
0.675015807 0.001138645 0.232764184
0.821758270 0.001644712 0.232511282
0.968374491 0.000000000 0.242884189
0.011765001 0.098671995 0.207590193
0.108412541 0.104617551 0.209994093
0.239722088 0.108918093 0.208728641
0.375711739 0.108538546 0.219354987
0.512334108 0.106641196 0.226059541
0.654522717 0.104617350 0.226059541
0.806957543 0.103858449 0.229095429
0.955471098 0.112333626 0.236938924
0.058064908 0.232637197 0.225679994
0.142568082 0.233775735 0.220114097
0.260847270 0.241240084 0.225553274
0.396837652 0.244781733 0.230360284
0.539026082 0.251486301 0.232764095
0.680961311 0.257811278 0.236938730
0.823402762 0.258570164 0.238962993
0.962555468 0.269955844 0.244022831
0.083744191 0.377229452 0.226945087
0.168753758 0.385199279 0.228589371
0.295129389 0.385958374 0.231245935
0.412143916 0.388740897 0.231372729
0.548007548 0.389500022 0.236811921
0.680455446 0.395446181 0.237191468
0.824920774 0.395572335 0.241872191
0.956483424 0.401138484 0.253257543
0.146615997 0.528905392 0.226312384
0.207590088 0.534724772 0.226312175
0.325996310 0.542315066 0.237444997
0.444276094 0.539152145 0.239848197
0.577482581 0.537634373 0.234408990
0.707906604 0.537128508 0.238583446
0.837571442 0.539026141 0.253763378
0.964958727 0.538772881 0.270209074
0.215559900 0.703099132 0.256799459
0.270335197 0.710057080 0.259708732
0.365464866 0.712334096 0.261985838
0.490322649 0.706009090 0.260974169
0.612396955 0.700189769 0.257685095
0.739405572 0.698292077 0.259582847
0.859709263 0.682099879 0.272865474
0.979506612 0.679822862 0.299810261
0.269449770 0.810246468 0.256799400
0.314357996 0.819734454 0.272486091
0.393295109 0.822897077 0.275015920
0.495256394 0.820493281 0.276027620
0.607969403 0.817204297 0.280708551
0.732194841 0.818469226 0.289563477
0.856420040 0.812523782 0.305249900
0.971916318 0.801264882 0.332447529
0.382415891 0.943073809 0.372548968
0.412397206 0.949904978 0.378115356
0.477039963 0.949398816 0.384692907
0.557494998 0.945477784 0.390132815
0.647312045 0.942188561 0.395572096
0.754459381 0.936116278 0.397343636
0.865654528 0.933712780 0.416445166
0.979506791 0.933079898 0.440733850
0.003922000 0.001138644 0.331815630
0.119038187 0.000759096 0.340038091
0.244022638 0.002783356 0.343200177
0.373307914 0.000000000 0.343579650
0.528399825 0.000000000 0.361796260
0.684376836 0.000759096 0.372422516
0.828969002 0.000000000 0.367109627
0.968121469 0.000000000 0.375711620
0.001518095 0.099557199 0.323466271
0.122201189 0.101075195 0.334598273
0.243263632 0.101454645 0.336495757
0.380771369 0.097153902 0.341556102
0.518279612 0.096394897 0.347374886
0.666034341 0.083491549 0.359013408
0.813662112 0.050600745 0.352940828
0.960025191 0.043137334 0.362175822
0.026312552 0.235041186 0.343959183
0.137128085 0.238583550 0.359646112
0.271600455 0.238962993 0.362049311
0.403921723 0.242125183 0.353699803
0.549778640 0.244528890 0.366350532
0.686021626 0.238583446 0.365211993
0.833017290 0.239468753 0.360025615
0.971663415 0.251486391 0.371283978
0.082353003 0.384060919 0.366097629
0.166856080 0.384060919 0.370904714
0.283870846 0.387981921 0.364832282
0.422138274 0.386843592 0.364959270
0.548513830 0.387223125 0.359772116
0.688425303 0.388488293 0.355850607
0.829095244 0.390132993 0.365591258
0.961922586 0.395192921 0.371157259
0.084882833 0.534851551 0.360151649
0.182163447 0.537634373 0.362428635
0.308791995 0.544718146 0.368374288
0.448323995 0.542314947 0.365591437
0.580391765 0.540670395 0.357748449
0.710309923 0.534851551 0.368248105
0.835800052 0.535990179 0.378494471
0.971663415 0.534472048 0.387223303
0.187602997 0.706388116 0.384060800
0.252498299 0.707780063 0.385452181
0.357874632 0.708918750 0.390765518
0.480708629 0.706135392 0.393674731
0.610879004 0.701454878 0.388361841
0.744212747 0.695129454 0.387729287
0.858570635 0.686021566 0.392915636
0.976343989 0.680075884 0.422896892
0.253383905 0.815939248 0.388994336
0.305882096 0.823656082 0.395319462
0.387476444 0.822897136 0.397975981
0.492599636 0.822138250 0.397469908
0.612017453 0.818469107 0.399114639
0.733459532 0.818469107 0.404048264
0.863124609 0.814927280 0.416065633
0.969513118 0.803542078 0.434408545
0.379253775 0.939026177 0.458191156
0.418343067 0.949525774 0.475015908
0.481467515 0.945983529 0.486021698
0.556735814 0.944465697 0.480835140
0.652751386 0.942821264 0.484250456
0.753194213 0.938140512 0.486148030
0.864389300 0.936242759 0.499304205
0.978621006 0.936495900 0.516128778
0.013282806 0.000000000 0.474004000
0.126881897 0.000000000 0.473624557
0.253890097 0.000759096 0.469196379
0.391397804 0.000379548 0.474636167
0.533459544 0.000000000 0.486401170
0.680202007 0.000379548 0.504111469
0.825679839 0.001644712 0.500569344
0.966476738 0.000000000 0.498924643
0.005945647 0.094750091 0.458570808
0.132068351 0.097912997 0.471726984
0.253383815 0.093611643 0.470841378
0.388994575 0.088551804 0.474003971
0.517014503 0.085136257 0.474004000
0.665401876 0.062365644 0.486147940
0.815053880 0.028336713 0.491587728
0.956862807 0.026944976 0.493485183
0.000759096 0.232637376 0.482732177
0.130171001 0.234661549 0.493611276
0.269576281 0.235041186 0.496015191
0.414927453 0.236179635 0.496774286
0.546869099 0.237444803 0.500696123
0.693864524 0.231878281 0.495888472
0.832131386 0.229601398 0.496774286
0.967615426 0.241239980 0.501075327
0.026312646 0.381783754 0.493737996
0.144971177 0.383681387 0.499683440
0.281088114 0.376597166 0.498544902
0.420493364 0.376217633 0.497280210
0.553194225 0.375838071 0.491714239
0.690702140 0.379759461 0.492219985
0.835546970 0.380265743 0.495382696
0.964705944 0.387729198 0.502213836
0.086907186 0.531309247 0.505376339
0.183428183 0.546615720 0.510057151
0.309677124 0.543074191 0.514864028
0.437191278 0.539152205 0.505755842
0.581404209 0.537634373 0.501454949
0.708665490 0.535483837 0.503984928
0.839342117 0.533586085 0.507020891
0.965844274 0.535483837 0.522580564
0.178621069 0.707526743 0.528905451
0.245793745 0.708539188 0.533459783
0.356989563 0.706514895 0.526628494
0.475268841 0.703732193 0.524604619
0.605819166 0.696774244 0.517520428
0.742567658 0.696394742 0.521062374
0.857685030 0.685515463 0.529538095
0.971790195 0.686274529 0.547121882
0.264769286 0.818089843 0.520936131
0.317014635 0.825806677 0.532827377
0.388868004 0.823782504 0.527387559
0.484376907 0.821758687 0.525743306
0.608981609 0.822011471 0.528020382
0.733206928 0.817330837 0.531941354
0.858823478 0.818848610 0.537381411
0.969639361 0.808348835 0.554965079
0.389879644 0.940164804 0.573434412
0.421758592 0.949399054 0.582795858
0.479190707 0.947121918 0.585705161
0.557115555 0.946110129 0.584060788
0.649083018 0.942568004 0.590006351
0.756356478 0.939405560 0.589879870
0.862365663 0.935357153 0.596204698
0.970398426 0.936116278 0.608475626
0.013915263 0.002024260 0.609108210
0.133966088 0.001518192 0.608602285
0.267046094 0.002024260 0.615433335
0.400505900 0.002024260 0.621505141
0.538013637 0.002024260 0.626565456
0.679569721 0.001897740 0.624794781
0.821252286 0.000000000 0.632384717
0.965591371 0.000000000 0.634535491
0.001897740 0.086654164 0.594686806
0.128652811 0.081214361 0.604554296
0.262744993 0.076786906 0.609993458
0.396710902 0.062998451 0.612776935
0.530929446 0.047564648 0.612903237
0.671979666 0.020113649 0.622263968
0.809614301 0.006831090 0.618722260
0.954712093 0.007969638 0.627324462
0.000000001 0.223150194 0.623023152
0.119544543 0.226312384 0.630993009
0.256799310 0.227198184 0.626818240
0.407716513 0.219734445 0.629222095
0.549525797 0.215433195 0.628083587
0.690069556 0.214294836 0.628969252
0.828842282 0.218595907 0.626691997
0.965211749 0.230993077 0.634535491
0.000000000 0.370651633 0.628969133
0.096774444 0.366350383 0.630992651
0.257685095 0.364832461 0.633143961
0.408349007 0.367236257 0.631372154
0.560025454 0.365212023 0.632764161
0.696141481 0.362049103 0.631119490
0.830740035 0.367995173 0.630487204
0.959139764 0.381530702 0.629981101
0.001518192 0.521315813 0.635420740
0.135484084 0.527767181 0.642125487
0.276913345 0.528652489 0.643390238
0.419861078 0.522454202 0.643896282
0.571157396 0.518659174 0.641745925
0.707020760 0.529158592 0.640354216
0.833269835 0.530676663 0.638962924
0.967362225 0.543200552 0.651865900
0.153068006 0.697533011 0.660341740
0.225047737 0.701707900 0.665907443
0.336116105 0.700442553 0.659455836
0.466160476 0.694623590 0.660088718
0.595445991 0.686401010 0.656925857
0.718911707 0.681593955 0.650094450
0.842378557 0.681973517 0.659962237
0.961922884 0.681594014 0.668564320
0.248323798 0.815812707 0.655407667
0.304996550 0.814927518 0.656925857
0.384187073 0.817204297 0.652877748
0.495256186 0.817710221 0.658697188
0.609993815 0.814421117 0.662745178
0.727767169 0.812903285 0.660341740
0.854775548 0.817204297 0.668058217
0.966603100 0.808602214 0.680834711
0.419354707 0.930549860 0.696774244
0.456040680 0.941555798 0.697153628
0.501834154 0.938519776 0.697027564
0.565970600 0.939531684 0.697533250
0.638203859 0.938520014 0.690196216
0.745856941 0.933712780 0.691713870
0.856040418 0.934851468 0.696394682
0.974066973 0.935736775 0.707779646
0.003922000 0.001644712 0.762934804
0.143326789 0.000000000 0.767488956
0.275901109 0.001518192 0.764705598
0.409740269 0.002783356 0.765717924
0.546110153 0.000000000 0.765591264
0.688171744 0.000000000 0.764326096
0.831245959 0.000000000 0.771789968
0.959898651 0.000000000 0.759645998
0.002024260 0.061859805 0.752308965
0.126249284 0.061226808 0.751549542
0.265275329 0.053383905 0.753953099
0.404427350 0.030613709 0.757621765
0.541176438 0.009740643 0.757874906
0.683238268 0.003415545 0.762428761
0.828083217 0.000379548 0.766097248
0.958380640 0.003795093 0.766730011
0.001644712 0.213915393 0.769513249
0.080076002 0.218722194 0.767741799
0.258570194 0.215560094 0.766982794
0.405439734 0.209234908 0.767235994
0.547628164 0.205313087 0.766982794
0.688678205 0.197343186 0.772549033
0.838203549 0.191903979 0.771536589
0.964200020 0.213282913 0.767362118
0.000000000 0.353826553 0.769133270
0.007590283 0.355217904 0.759139895
0.235041082 0.355217993 0.768880308
0.393548667 0.356482953 0.771916211
0.551676154 0.354332626 0.770398080
0.695255995 0.351676255 0.769639194
0.838583231 0.352687895 0.774699569
0.960404754 0.368754089 0.762048960
0.004933716 0.513978302 0.775585115
0.029854616 0.515116751 0.779633164
0.243011102 0.511574864 0.777229548
0.392283261 0.510689318 0.776470482
0.550790489 0.507653475 0.778621495
0.701707900 0.509550691 0.776344001
0.844781816 0.512207448 0.772675514
0.959519088 0.531056046 0.767488956
0.103225447 0.677798986 0.787856042
0.188867897 0.679696679 0.785578668
0.302340388 0.678937435 0.785325944
0.436432302 0.675522089 0.786464036
0.576470554 0.673497915 0.784693122
0.711068690 0.669829488 0.785578787
0.844402313 0.678052008 0.785452306
0.954965115 0.689184189 0.781024575
0.223402560 0.815559566 0.788108587
0.277799249 0.817457259 0.786337972
0.363946587 0.821125805 0.787349820
0.485388964 0.818342924 0.791397572
0.601518214 0.815686405 0.794433773
0.723592699 0.813029826 0.788108587
0.840733826 0.813282847 0.785199285
0.951043546 0.814548016 0.796205163
0.414168328 0.935736597 0.793928087
0.436812162 0.934471786 0.795319319
0.488045871 0.933965802 0.793169081
0.567362309 0.932574153 0.798102617
0.658950090 0.933712780 0.804553807
0.754459500 0.934218526 0.815180123
0.852245688 0.930170357 0.810752809
0.964073360 0.933712721 0.814168096
0.001265167 0.000000000 0.899683595
0.138267025 0.001265167 0.896900535
0.275648355 0.001897737 0.901074946
0.413915277 0.000000000 0.902719617
0.548007548 0.001138640 0.902719617
0.680581808 0.000000000 0.899177670
0.829475045 0.000379544 0.905629516
0.973054588 0.000000000 0.908918619
0.002277285 0.047944248 0.898165464
0.110309951 0.038709939 0.895003021
0.262239069 0.030107353 0.895888746
0.406830996 0.010879199 0.897912502
0.548007369 0.005313091 0.901960611
0.685262680 0.004933830 0.898291826
0.822011590 0.002277288 0.899430335
0.969006777 0.002277285 0.896141708
0.000000000 0.210246831 0.905249655
0.050727747 0.204806745 0.901454508
0.244402185 0.205186188 0.904616952
0.401264995 0.202150479 0.899557173
0.540544271 0.200506091 0.900568902
0.686021566 0.193042457 0.903731763
0.828715801 0.193421990 0.903225482
0.974826097 0.200253189 0.910815895
0.001138644 0.346742630 0.904870391
0.000379548 0.345477492 0.902340114
0.219228655 0.344718367 0.903352201
0.389626622 0.345477492 0.905882239
0.536749005 0.348513275 0.902213573
0.682479501 0.346236289 0.904111326
0.826818585 0.348893106 0.900822043
0.966223836 0.359139562 0.902972817
0.001518192 0.500695825 0.898544967
0.001897643 0.502719820 0.905123174
0.196078330 0.499936789 0.899557292
0.369892478 0.496521264 0.904364407
0.533586442 0.499177665 0.901074946
0.680961251 0.502593219 0.905502737
0.826818585 0.508918643 0.903984547
0.970145464 0.518912196 0.908918619
0.017077725 0.662744761 0.908286035
0.147880912 0.664516509 0.911195338
0.279317021 0.664895773 0.911321938
0.418469280 0.663251102 0.911448419
0.555977166 0.661733329 0.904870391
0.696647525 0.661227405 0.910183787
0.833396554 0.672612011 0.909424722
0.963820636 0.680075824 0.909424722
0.231878728 0.811258972 0.911574781
0.292599559 0.806831002 0.903984785
0.368753999 0.809487522 0.907020748
0.475015730 0.806704462 0.909171224
0.592283428 0.810373127 0.908159316
0.716887891 0.807589829 0.912713647
0.832764149 0.805439293 0.911701441
0.955470860 0.819481552 0.911322236
0.403162450 0.942947447 0.912839949
0.432637602 0.943579793 0.924731195
0.476660609 0.941555798 0.913472533
0.558633626 0.941303134 0.914484620
0.648324013 0.939152300 0.912839949
0.751043618 0.937634528 0.916002572
0.853004694 0.930170357 0.919417799
0.953320801 0.933712780 0.920682907
