Assets/EldamarStudio/100 Retro LUTs Pack/LUTs/cube/Dorothy LUT.cube
LUT_3D_SIZE 5
DOMAIN_MIN 0.000000 0.000000 0.000000
DOMAIN_MAX 0.903226 0.903226 0.903226
0.000000000 0.003922000 0.000000000
0.206325114 0.000000000 0.000000000
0.444022387 0.003289416 0.000000000
0.721948266 0.012776870 0.004933870
0.976976573 0.065527976 0.049968794
0.044781707 0.214800701 0.002277292
0.233776107 0.220366985 0.000000000
0.473497808 0.232511103 0.011132416
0.732068539 0.253384113 0.018974997
0.978873789 0.257305712 0.069196515
0.155598000 0.482479811 0.008475584
0.307653666 0.493358672 0.014041712
0.529664814 0.495003372 0.028083583
0.758254111 0.491713971 0.049082845
0.987349808 0.494370788 0.122454226
0.247311994 0.747375250 0.052245121
0.373687685 0.756483197 0.088424996
0.564958811 0.751296282 0.098545283
0.789500117 0.739531994 0.117899992
0.986337483 0.724098504 0.192662671
0.393801630 0.948007762 0.286780596
0.472232819 0.961290240 0.314231455
0.611385167 0.954585791 0.321442157
0.791144788 0.946995616 0.332574427
0.987222791 0.937507927 0.378367603
0.002277292 0.000000000 0.173307985
0.206325114 0.000000000 0.184060693
0.446300089 0.000000000 0.195825696
0.720556438 0.000632580 0.208222702
0.970145524 0.007337139 0.215559527
0.047438703 0.205312982 0.192283407
0.230486691 0.210879132 0.197469980
0.466919810 0.223023415 0.204047978
0.723213255 0.232763976 0.209866986
0.968374670 0.241366386 0.218469396
0.126502290 0.467425406 0.206198707
0.292599261 0.476660371 0.204933703
0.515876412 0.479949385 0.218722701
0.747627735 0.478937238 0.223909125
0.973561227 0.482606202 0.248956084
0.226185843 0.736242652 0.222643703
0.354079545 0.741429269 0.234408528
0.554458976 0.735231161 0.239342391
0.771537006 0.732953846 0.244908690
0.977482617 0.716761470 0.280329108
0.390258908 0.944844961 0.349525571
0.458823532 0.951928794 0.370018780
0.600885808 0.945097923 0.376596898
0.787097037 0.940164804 0.386717349
0.975205541 0.935610235 0.425806284
0.007210577 0.000632584 0.389752954
0.218089700 0.000000000 0.402530104
0.446679354 0.000000000 0.411385208
0.711448252 0.000000000 0.427577823
0.959266186 0.000000000 0.429728210
0.012397003 0.198481694 0.412650377
0.228209987 0.201771110 0.418216527
0.471473366 0.204680398 0.427324504
0.717647135 0.195825696 0.422390997
0.964199901 0.197217107 0.428336799
0.085642420 0.454396397 0.430866390
0.266792953 0.460974395 0.434155822
0.502846420 0.460974395 0.436811954
0.735230684 0.465907663 0.431246102
0.967741609 0.471600205 0.449336052
0.179000542 0.724857330 0.444022387
0.327261150 0.732321262 0.452245533
0.539405406 0.730677128 0.453131229
0.767995119 0.723212838 0.451233387
0.973560810 0.710815787 0.486654192
0.378747344 0.935610235 0.509551048
0.457811654 0.946363091 0.526755095
0.597596645 0.942820966 0.526502192
0.784693062 0.936622322 0.541302860
0.977482378 0.934345245 0.570651412
0.009866998 0.000000000 0.647565246
0.237444401 0.000000000 0.654649258
0.473118097 0.000000000 0.659203291
0.719038427 0.002909872 0.661227286
0.966603637 0.000000000 0.667932153
0.006831295 0.190259397 0.668311417
0.232510939 0.192536697 0.672865391
0.485515505 0.183048829 0.672485709
0.731056392 0.171283990 0.668944001
0.965211749 0.189500347 0.664136708
0.005566124 0.453383684 0.675015748
0.223529562 0.453510523 0.681340873
0.491334647 0.450474411 0.682985127
0.750031650 0.444022387 0.679443359
0.964199901 0.467299074 0.673877537
0.153068006 0.723845243 0.685642123
0.313092977 0.731309533 0.696394682
0.534471691 0.724477828 0.693738401
0.752308428 0.717014432 0.689563394
0.957874656 0.719038427 0.702972829
0.419354767 0.935356915 0.724604666
0.491460949 0.940797210 0.723592520
0.610752523 0.937254906 0.727767289
0.774193227 0.934724927 0.723592579
0.971536994 0.932700574 0.731056273
0.001265167 0.000000000 0.899683595
0.238709554 0.001644708 0.902087033
0.479949802 0.000000000 0.904996634
0.716255367 0.000000000 0.900189757
0.973054588 0.000000000 0.908918619
0.001012124 0.178115293 0.911574781
0.218848586 0.170018822 0.902087033
0.473371416 0.162808403 0.903352141
0.722960174 0.154332832 0.902466655
0.973307848 0.156483218 0.905755579
0.000000000 0.425680220 0.908918619
0.133586302 0.422390997 0.905882478
0.460974216 0.425047636 0.908918619
0.721568346 0.430992961 0.912839949
0.971663594 0.446046770 0.909677148
0.074509591 0.697912574 0.905249655
0.269196719 0.700569332 0.912586927
0.497659355 0.703984678 0.908286035
0.730044305 0.700695932 0.907906473
0.963820636 0.717014372 0.914231777
0.403162450 0.942947447 0.912839949
0.466540366 0.941809058 0.915243328
0.604300797 0.937634468 0.916129172
0.779380083 0.936369658 0.916002810
0.953320801 0.933712780 0.920682907
