Assets/EldamarStudio/100 Retro LUTs Pack/LUTs/cube/Dorothy LUT.cube
DOMAIN_MIN 0 0 0
DOMAIN_MAX 1 1 1
LUT_3D_SIZE 32
0.000000000 0.003922000 0.000000000
0.018215999 0.000885613 0.000000000
0.045034543 0.000000000 0.000000000
0.075395316 0.000000000 0.001265161
0.106515095 0.000000000 0.003542452
0.142947868 0.000000000 0.000506065
0.174319997 0.000000000 0.000000000
0.206325114 0.000000000 0.000000000
0.239722088 0.000000000 0.000000000
0.273118496 0.000000000 0.000000002
0.306514859 0.000000000 0.002909871
0.339911252 0.000000000 0.003922000
0.374446273 0.000000000 0.002783356
0.410626024 0.000253032 0.000000000
0.444022387 0.003289416 0.000000000
0.484629601 0.003922000 0.000000000
0.524098396 0.003922000 0.000000000
0.561163723 0.004554415 0.000000000
0.600632966 0.007590032 0.000000000
0.637318015 0.007843000 0.000000000
0.679443181 0.009740740 0.001897740
0.721948266 0.012776870 0.004933870
0.758507490 0.016065504 0.008095992
0.797975957 0.025173904 0.014168002
0.835167587 0.032004997 0.017963288
0.870208621 0.036685672 0.020999318
0.904111087 0.041239999 0.024541128
0.940543830 0.053383984 0.030613897
0.976976573 0.065527976 0.049968794
0.995698988 0.074129984 0.067678727
0.999114394 0.083744198 0.082858592
0.996078014 0.101961002 0.098039001
0.006072000 0.013029613 0.000000000
0.012143998 0.022138000 0.000000000
0.047564548 0.021252386 0.002150774
0.082732156 0.017457226 0.001771226
0.114484258 0.013662095 0.000885613
0.142947868 0.024288775 0.000506065
0.171790317 0.026818451 0.000000000
0.203289077 0.027324386 0.003288997
0.236685693 0.027324386 0.004554002
0.270082116 0.027324390 0.000000003
0.303478479 0.030234257 0.005818998
0.338899106 0.028336518 0.004933873
0.372169286 0.027324386 0.003922000
0.405060053 0.027830385 0.003289354
0.444022387 0.033649415 0.006072000
0.479822606 0.031878807 0.003668809
0.518026412 0.032764189 0.001518195
0.555724144 0.034914576 0.001264991
0.597596586 0.037950810 0.006071997
0.639848351 0.040986422 0.003289353
0.674889088 0.043137126 0.004933643
0.713851988 0.046173513 0.006957613
0.752435505 0.049209636 0.008095992
0.791903973 0.052498288 0.014168002
0.835926890 0.061606668 0.020239996
0.874636352 0.068437763 0.025426958
0.909677148 0.073118448 0.030613774
0.943580270 0.077672757 0.036685895
0.980012357 0.081846930 0.050727807
0.995192647 0.092852347 0.067678727
0.997849226 0.104110971 0.082858592
0.999114394 0.120176993 0.098039001
0.007843000 0.039342321 0.000000000
0.018215999 0.046299927 0.002150774
0.047944322 0.046805769 0.000000000
0.084123932 0.046805769 0.001771226
0.115369864 0.041872092 0.000000000
0.144465804 0.048703641 0.000000000
0.171790317 0.055408224 0.000000000
0.204048395 0.055154838 0.000000000
0.237950861 0.055407867 0.003542000
0.271347284 0.056799546 0.000253003
0.304743648 0.059708871 0.003668773
0.340164274 0.060721003 0.005692774
0.376597047 0.058949776 0.002783356
0.408981800 0.058949776 0.001771226
0.442757398 0.061226770 0.002909578
0.479822606 0.062238805 0.003289035
0.514737189 0.062239192 0.006325415
0.551802337 0.064642549 0.005186784
0.594307244 0.066160746 0.005186778
0.632510960 0.071347192 0.009361353
0.673118412 0.076280542 0.006325260
0.709044874 0.079569899 0.006831130
0.748387218 0.082479775 0.005819255
0.785831928 0.083491646 0.009867002
0.827704072 0.086780280 0.018089769
0.869070530 0.091713995 0.024161763
0.904996812 0.095762067 0.030234223
0.938393533 0.098798446 0.036306221
0.976596951 0.106135696 0.048197258
0.995319009 0.112713292 0.063377634
0.996078014 0.122706756 0.079443194
0.997849226 0.134092003 0.095888771
0.009108162 0.075269155 0.000000000
0.031372484 0.075015992 0.001771226
0.048956320 0.078431383 0.004301226
0.084629998 0.077925317 0.000000000
0.113851927 0.077545770 0.000379548
0.147754699 0.078810930 0.001265161
0.176850319 0.081846997 0.000000000
0.207843229 0.085515611 0.001265161
0.242758021 0.083238319 0.001265161
0.275648504 0.085768640 0.001265162
0.305249691 0.088804290 0.001644709
0.343200356 0.091081321 0.005186839
0.376217782 0.089942679 0.002909841
0.412018031 0.090322226 0.000253032
0.443390131 0.092346482 0.001265161
0.477292597 0.093611322 0.001265161
0.516002357 0.093864352 0.000759029
0.550663710 0.096900739 0.009867407
0.592535973 0.097533323 0.006958004
0.629474699 0.100569323 0.009488005
0.667805195 0.105376154 0.009867260
0.706261992 0.109424159 0.008855128
0.745350838 0.112333991 0.006578480
0.781783640 0.114611000 0.009614097
0.821505547 0.116888024 0.013409123
0.859962165 0.117267154 0.018595830
0.895383000 0.117773220 0.026691966
0.928020418 0.120809600 0.035800155
0.965464592 0.127893820 0.045919977
0.989247024 0.137002066 0.056040343
0.996204615 0.144338697 0.072106130
0.997343183 0.150031164 0.090322837
0.012523999 0.113219544 0.000000000
0.048197772 0.105249703 0.000379548
0.065022543 0.105755545 0.003542000
0.080835089 0.110562705 0.005313001
0.111195087 0.113219544 0.000000000
0.153699875 0.110183157 0.003036387
0.186084643 0.110056639 0.002530225
0.217710242 0.111701250 0.002024159
0.249968201 0.113599092 0.003542452
0.280328989 0.113599092 0.003542450
0.306388110 0.116128772 0.001391678
0.341302484 0.119544350 0.003668545
0.378494412 0.120682999 0.005945550
0.406578511 0.117899641 0.000379548
0.440101385 0.123719379 0.003289416
0.473877341 0.127387732 0.004301451
0.511068821 0.129285082 0.003162807
0.552561522 0.129538119 0.001897568
0.592029989 0.132574514 0.011005969
0.629095256 0.133586541 0.012144452
0.667046189 0.135104343 0.009867260
0.705882549 0.137507632 0.008855128
0.742188036 0.137634113 0.011891481
0.778367817 0.143453091 0.014927098
0.817077816 0.146868825 0.016445000
0.854143083 0.147121966 0.016065547
0.887033582 0.145097598 0.017963126
0.917394280 0.148133993 0.036179885
0.953067482 0.153826535 0.046426147
0.977861702 0.161290199 0.055281430
0.990512013 0.168627486 0.063377976
0.999620438 0.171663091 0.081594005
0.018595999 0.140543938 0.000000000
0.048956770 0.140543938 0.003036387
0.073877767 0.136875093 0.001265161
0.095130086 0.137887090 0.001012001
0.123339869 0.140543938 0.000000000
0.153699875 0.140543938 0.000000000
0.186084643 0.142568186 0.008096387
0.216445401 0.145098090 0.008602226
0.246553034 0.146616027 0.005819066
0.274256974 0.143959865 0.000506066
0.310436726 0.143959865 0.003415935
0.340796858 0.148513794 0.003415935
0.373181283 0.151802868 0.004427936
0.403542131 0.151296809 0.003415935
0.439974874 0.151296809 0.003415935
0.475901604 0.154712126 0.006325191
0.511827946 0.157748133 0.007337064
0.549272180 0.159645870 0.007463576
0.585958004 0.159898907 0.011005972
0.625427067 0.165717930 0.014547646
0.662492394 0.166982919 0.011385068
0.700443149 0.168500990 0.008855128
0.739152372 0.171031281 0.011891481
0.772548795 0.174066901 0.014927098
0.811005831 0.175331861 0.020239996
0.849082947 0.174446613 0.021125682
0.883997202 0.172422737 0.020619998
0.914357901 0.175458387 0.030107886
0.950031638 0.181150928 0.040354144
0.977609098 0.187222913 0.054775398
0.992536306 0.192915604 0.067425989
0.996584058 0.195951864 0.075522006
0.034787998 0.180518642 0.002530322
0.052498449 0.177988321 0.000506065
0.078558221 0.180139095 0.001391678
0.102720156 0.179126963 0.001265161
0.130803540 0.180518642 0.002150774
0.163314313 0.180518642 0.000000000
0.196204633 0.183048964 0.000000000
0.226565406 0.184440643 0.004174679
0.259203076 0.185831964 0.003542098
0.293611526 0.184567124 0.002783324
0.319544733 0.186970323 0.005439547
0.351929516 0.186970323 0.006451677
0.385705292 0.189753324 0.006451677
0.420999348 0.190259323 0.006704709
0.459708780 0.194813311 0.008981999
0.498545378 0.194813311 0.006578195
0.536622465 0.199240625 0.010878997
0.574699342 0.202656314 0.012902999
0.613029957 0.202656329 0.014041651
0.649715066 0.203162327 0.019607646
0.685389221 0.213029787 0.016951002
0.720177412 0.212523833 0.012902999
0.756356776 0.209487826 0.014421189
0.789753199 0.212524056 0.017457420
0.827704132 0.213282958 0.022770315
0.865781248 0.213282958 0.028842311
0.902213454 0.212903634 0.031751998
0.936622143 0.217963502 0.042884119
0.969765604 0.218595952 0.057052463
0.984946012 0.224667937 0.066160515
0.994686663 0.231625557 0.082985580
0.996078014 0.237950951 0.097280316
0.044781707 0.214800701 0.002277292
0.069829084 0.211764723 0.000885613
0.083238542 0.216318473 0.001644708
0.110056996 0.218089700 0.000379547
0.137760922 0.217710242 0.002277292
0.168627635 0.216445401 0.000506065
0.205313012 0.218975306 0.004933705
0.233776107 0.220366985 0.000000000
0.264895797 0.219608083 0.000000000
0.302593231 0.218722701 0.002150778
0.332447737 0.221631825 0.005186840
0.362428784 0.224288404 0.006198711
0.393928200 0.225426748 0.007337065
0.432637781 0.226438746 0.008096032
0.473497808 0.232511103 0.011132416
0.508032620 0.233776107 0.011005905
0.545983613 0.235293910 0.006451711
0.585958123 0.240606979 0.012017707
0.626439214 0.241619110 0.014041719
0.663124740 0.241619110 0.019607715
0.697659492 0.244275466 0.023023002
0.732068539 0.253384113 0.018974997
0.766350508 0.247185394 0.019101510
0.802782893 0.248703599 0.022137899
0.839089096 0.249462694 0.027450992
0.875774920 0.250854015 0.033522986
0.911448181 0.251106977 0.040607121
0.946742594 0.254901975 0.052751403
0.978873789 0.257305712 0.069196515
0.997722745 0.257558674 0.082479194
0.995951772 0.264516294 0.090701982
0.994433701 0.273624688 0.108159289
0.051612996 0.242884189 0.000000000
0.081214480 0.240607470 0.000000000
0.098924682 0.244655326 0.001391678
0.118406095 0.249968097 0.002656840
0.148007184 0.250347644 0.000759000
0.174952790 0.248071030 0.001517999
0.210120410 0.249335870 0.007590321
0.242125392 0.249968097 0.006831297
0.267173082 0.251486301 0.001517999
0.300569534 0.248450667 0.001518000
0.336242974 0.251233310 0.003668773
0.369639337 0.255028367 0.004680903
0.402276933 0.257305533 0.005060354
0.435927033 0.260088176 0.007843000
0.477419794 0.265148818 0.010373320
0.511069000 0.267173082 0.011765001
0.544465423 0.267931998 0.011765001
0.582163155 0.271600187 0.007590413
0.624668062 0.274763077 0.013535909
0.660088658 0.274257004 0.019608099
0.695382714 0.276154429 0.021505257
0.730550170 0.279190123 0.024288097
0.766982913 0.282099992 0.024541089
0.805818915 0.282099992 0.028209902
0.842251658 0.282099992 0.033522997
0.877292752 0.283491522 0.039594989
0.910689175 0.286527276 0.046679124
0.944086194 0.286780298 0.058823887
0.975584924 0.288678020 0.076280959
0.993548214 0.291461200 0.091714054
0.998987913 0.292599589 0.102087080
0.992915869 0.301707983 0.108159088
0.069829009 0.273245007 0.000000000
0.088045776 0.273245007 0.000000000
0.104743712 0.275268734 0.000000001
0.128525838 0.277292520 0.000126520
0.163187593 0.277672052 0.000759006
0.187476367 0.280708462 0.006831001
0.216951638 0.280961514 0.010120322
0.246047184 0.279443294 0.006831297
0.273245126 0.278810710 0.001518005
0.300569534 0.284883469 0.007590002
0.342694730 0.287666112 0.007590002
0.378747731 0.292725980 0.007716519
0.411005765 0.296394497 0.007716519
0.441999048 0.296520978 0.007843002
0.478431791 0.296520978 0.007843004
0.512713730 0.299177855 0.010373326
0.547501802 0.300569534 0.014801002
0.585199535 0.301961005 0.019734420
0.627704442 0.308032990 0.022770040
0.659076512 0.305629134 0.028716233
0.693485022 0.306514770 0.027198005
0.730803132 0.309550881 0.024541130
0.770018518 0.312460035 0.027577477
0.806451321 0.312460035 0.033649489
0.840733826 0.312460035 0.039594997
0.874257147 0.313851714 0.045666996
0.907653570 0.316888094 0.052751135
0.941049874 0.319924414 0.064895891
0.974446297 0.320177466 0.082352951
0.993548214 0.323845983 0.098798171
0.999114394 0.328779370 0.111195460
0.995951533 0.332068026 0.117267475
0.085135870 0.303604990 0.000000000
0.091713905 0.312333852 0.000000000
0.116381899 0.312333852 0.002150774
0.140923172 0.313345730 0.006704709
0.172169417 0.313725293 0.011258546
0.193927854 0.316761672 0.009740870
0.223276645 0.317267746 0.008222548
0.253636986 0.317267746 0.012144126
0.282985330 0.316255629 0.010879096
0.312460542 0.318026841 0.010499871
0.339784861 0.321188986 0.010752871
0.380265862 0.324225128 0.012776610
0.414294869 0.328273088 0.012523646
0.445161164 0.330043852 0.011005838
0.481593907 0.330043852 0.013661999
0.515622914 0.332447648 0.018468995
0.552055657 0.333965868 0.022011321
0.589880109 0.333965868 0.026691990
0.627830982 0.335483879 0.032004900
0.661986411 0.341555864 0.029475225
0.692472816 0.340796739 0.029475261
0.726881385 0.340797007 0.027450997
0.764199495 0.340038091 0.030613864
0.797849655 0.342820734 0.036685873
0.832005143 0.342820734 0.045034576
0.864010453 0.342820734 0.053130660
0.896394968 0.343832880 0.059708871
0.932194531 0.344465435 0.062239021
0.965591609 0.347501814 0.069070116
0.990132809 0.349525630 0.088045292
1.000000000 0.353573620 0.103731729
0.998987854 0.356609732 0.111827999
0.098291993 0.340037763 0.006072253
0.112460494 0.345097631 0.000000000
0.127514020 0.347754240 0.002150774
0.151043579 0.350284576 0.003922000
0.178368255 0.351802766 0.009993715
0.204553932 0.353194445 0.010246680
0.229348630 0.355724245 0.009234678
0.259709388 0.355724245 0.009487708
0.290069520 0.355724245 0.012903165
0.320429981 0.355724245 0.009867229
0.355977386 0.356609613 0.013788740
0.381277472 0.359645754 0.013788740
0.417331010 0.361543506 0.014547646
0.448450297 0.363440752 0.012017968
0.486653805 0.363440752 0.015053578
0.520682752 0.365844041 0.020492995
0.552561343 0.367362231 0.023529001
0.589247286 0.366729826 0.026059320
0.624288440 0.365338504 0.030740004
0.657938421 0.368880242 0.030487096
0.693232000 0.369260013 0.031246485
0.724857330 0.370145380 0.030487126
0.760151744 0.369386494 0.033649731
0.793548465 0.372422576 0.039721739
0.826945066 0.375205249 0.046046704
0.860341728 0.376596928 0.055154663
0.891335011 0.377229512 0.063251063
0.924730957 0.377229512 0.064769253
0.960531235 0.375837803 0.074130237
0.986843944 0.378874183 0.085515432
1.000000000 0.381024510 0.101834245
1.000000000 0.382922262 0.109803997
0.118405923 0.393168926 0.011765000
0.133206770 0.395066172 0.004933611
0.152561635 0.395951569 0.003289128
0.170777962 0.397343248 0.006198998
0.190133169 0.401897907 0.006198998
0.219734281 0.400379926 0.008475708
0.247311920 0.401771218 0.010119998
0.274889410 0.403162539 0.010626062
0.306009084 0.402403444 0.013662450
0.336748689 0.402023911 0.011385160
0.372422606 0.404300898 0.014800644
0.405186653 0.404048175 0.019101642
0.431751907 0.405945927 0.020240286
0.462112695 0.405945927 0.017204609
0.498924673 0.405945927 0.018469220
0.535863042 0.408349127 0.022770284
0.568880022 0.411005557 0.023529001
0.599240780 0.409740567 0.024161579
0.632131279 0.406198889 0.027197974
0.667805076 0.408728570 0.033143640
0.698545277 0.407969683 0.036179733
0.734977543 0.404933780 0.039216124
0.768501103 0.407716423 0.042378277
0.801897526 0.410752803 0.048450284
0.835293949 0.411511630 0.053383633
0.867551982 0.412270308 0.060847305
0.900443137 0.415306717 0.070461631
0.930803239 0.415939271 0.075395435
0.963061213 0.415559739 0.088678256
0.984946191 0.417204112 0.101454817
0.999114394 0.416698307 0.117520608
0.998861372 0.415939271 0.124604627
0.149526000 0.464263082 0.011511968
0.158886656 0.464769065 0.008728613
0.176596805 0.465022027 0.007590032
0.196331322 0.465781212 0.008855130
0.215939581 0.468691021 0.012271000
0.243263975 0.462619036 0.012271000
0.272865653 0.461354017 0.014041709
0.302973002 0.461607039 0.015686000
0.333586127 0.460847944 0.016192066
0.366982579 0.457811534 0.019228453
0.397722751 0.463251084 0.019860968
0.429854274 0.463504314 0.023149997
0.462112308 0.461607039 0.028336611
0.493232071 0.461607039 0.031119969
0.523592770 0.461607039 0.028083583
0.560657740 0.463504225 0.029854804
0.597090185 0.466287196 0.028842680
0.630107164 0.468185037 0.024414610
0.660468042 0.462113053 0.027451016
0.698165417 0.463883668 0.040607333
0.728905439 0.463377774 0.050094962
0.757495224 0.460594893 0.055914126
0.793674946 0.457685024 0.059203472
0.826944947 0.460594922 0.065401971
0.860341311 0.459329754 0.069955774
0.892346323 0.456293404 0.075774662
0.923213124 0.454522133 0.085642032
0.953573823 0.457558483 0.097786024
0.981277764 0.460341871 0.114484638
0.995193005 0.464643002 0.129411995
0.999114394 0.467552453 0.142315015
0.996078014 0.458444059 0.160531044
0.155598000 0.482479811 0.008475584
0.167741984 0.488551825 0.008475584
0.185705185 0.491208047 0.005692774
0.204427570 0.491081566 0.005819261
0.222138077 0.490449399 0.009614131
0.252372324 0.496015370 0.018342994
0.279696733 0.492473066 0.013282996
0.307653666 0.493358672 0.014041712
0.335610539 0.494244277 0.015686000
0.363946974 0.491207898 0.016192071
0.397343308 0.493991256 0.022137582
0.428083509 0.495635808 0.020872839
0.459076703 0.495003372 0.023150004
0.490196466 0.495003372 0.028083583
0.529664814 0.495003372 0.028083583
0.562428772 0.492599577 0.029854804
0.597090185 0.492346406 0.031373002
0.630486727 0.493611574 0.030107833
0.663504422 0.495509386 0.030487390
0.691081762 0.492220014 0.033523068
0.724731147 0.492346406 0.040986583
0.758254111 0.491713971 0.049082845
0.796710610 0.491081387 0.059203472
0.827071428 0.491081387 0.068311095
0.860341311 0.491713971 0.079064146
0.892346323 0.489690065 0.087919131
0.923719108 0.488172233 0.098039046
0.959645867 0.493991226 0.112966388
0.987349808 0.494370788 0.122454226
0.995193005 0.495003372 0.137002170
0.994307339 0.498039395 0.148893401
0.996078014 0.500948787 0.157495424
0.168880790 0.517520785 0.007843000
0.173813999 0.523592770 0.003036004
0.196710765 0.521062791 0.009487778
0.213409156 0.525869727 0.009993834
0.228589535 0.527767599 0.011890996
0.260974050 0.529791534 0.010879135
0.286401302 0.528273284 0.012144197
0.312080950 0.526881576 0.009361196
0.339405388 0.528399765 0.012397002
0.368374527 0.527008116 0.015686002
0.399114698 0.524983823 0.019101808
0.430486798 0.525995970 0.019101553
0.461986125 0.527134597 0.020619838
0.493865013 0.528146744 0.027704032
0.529032350 0.525995970 0.029854804
0.561290562 0.525995970 0.032257996
0.594686985 0.522959948 0.033776194
0.628715932 0.522074580 0.033143777
0.663883924 0.523339748 0.031373005
0.694117546 0.523213208 0.034155648
0.725237370 0.522074580 0.039088994
0.758633912 0.523086488 0.046173126
0.794939816 0.524351299 0.056926180
0.825300634 0.522074580 0.068311095
0.853384078 0.522074580 0.077419288
0.886527479 0.522074580 0.092220157
0.918406069 0.521062732 0.104870126
0.952941060 0.525236964 0.118153237
0.983807802 0.523592770 0.128020018
0.996963739 0.525363564 0.140670374
0.993674815 0.525995970 0.156736404
0.993674815 0.529031992 0.168880790
0.176470995 0.552435338 0.006325195
0.187096804 0.558507323 0.007842994
0.201264963 0.559013367 0.001897585
0.223529339 0.558001339 0.009740811
0.235800192 0.565718174 0.012650003
0.268057942 0.565718174 0.008855000
0.290828645 0.561670005 0.006325195
0.318152964 0.563314378 0.009361193
0.343200266 0.562555313 0.010120095
0.372802198 0.561796188 0.015433001
0.400126547 0.558886707 0.017077679
0.433523178 0.557874560 0.020619743
0.462744832 0.556735933 0.018721998
0.495129883 0.558760166 0.026438871
0.527261376 0.556988955 0.030740418
0.559772372 0.557874560 0.035294387
0.593169153 0.557874560 0.036812194
0.625933111 0.555471361 0.037444610
0.660595000 0.555471361 0.036179770
0.694497049 0.553953171 0.037191644
0.726755202 0.555471361 0.042124994
0.758128107 0.554459214 0.046172999
0.790385962 0.556229889 0.054016307
0.820746422 0.553194225 0.067552000
0.851866245 0.552435338 0.078937478
0.879190624 0.551043689 0.086654186
0.911828041 0.550917149 0.104364194
0.944212198 0.552940965 0.118532702
0.977988422 0.552182019 0.132574141
0.993927777 0.551170170 0.140670374
0.996963620 0.554206014 0.158507168
0.995193005 0.554838598 0.177988797
0.180265978 0.582163513 0.003922010
0.197217003 0.588235497 0.013029621
0.212650344 0.591271520 0.008349001
0.228463143 0.593801498 0.004427574
0.244402543 0.599114537 0.009361027
0.274003565 0.599114537 0.009108000
0.295509040 0.594687104 0.007210737
0.318405986 0.593928099 0.007843420
0.348639697 0.598355651 0.013156486
0.375964910 0.595319271 0.016192099
0.401012003 0.591650844 0.016950997
0.432131499 0.591904104 0.020999154
0.467046201 0.591398060 0.024794161
0.494370580 0.588361681 0.024794161
0.524351776 0.587982118 0.030107841
0.556483328 0.589753330 0.036180001
0.590132773 0.591271520 0.039848421
0.625300527 0.590638936 0.040481001
0.655661404 0.590638936 0.043516617
0.690955043 0.589120746 0.045034572
0.725490093 0.587982297 0.048829570
0.757495522 0.589626968 0.054142565
0.785072863 0.586590588 0.054269075
0.815939009 0.583554804 0.067425489
0.847944260 0.582163513 0.079696573
0.879823029 0.581404448 0.091587976
0.907147467 0.578874111 0.098166049
0.937380970 0.578874111 0.116002560
0.971789598 0.578241527 0.132953554
0.992409587 0.578241527 0.146615848
0.996331036 0.579127133 0.155471563
0.999367416 0.582163513 0.179759592
0.198482051 0.609488130 0.003922060
0.210626051 0.615560114 0.013029663
0.223276585 0.621632099 0.011385051
0.238204002 0.627198040 0.011132209
0.256546587 0.632511020 0.018469460
0.277798980 0.632511020 0.015433081
0.302340001 0.629981339 0.015180046
0.324477762 0.628337026 0.014927078
0.348766208 0.628843009 0.016192174
0.379000545 0.628716469 0.019228525
0.406324953 0.622770190 0.022264132
0.435420513 0.625047624 0.027071549
0.468564302 0.628336966 0.030866973
0.503479004 0.627830923 0.030866979
0.530803442 0.624794543 0.030866975
0.560784638 0.624414980 0.036180031
0.591398001 0.624668002 0.040733837
0.622264206 0.624035418 0.043516643
0.652625024 0.620999098 0.046553038
0.685768485 0.623782456 0.052372001
0.719417751 0.620619953 0.057937995
0.751802385 0.617331028 0.064009994
0.782036543 0.616951466 0.069449507
0.815433025 0.613915086 0.072485909
0.846299589 0.610879362 0.081088290
0.878304660 0.609488070 0.094624005
0.910183072 0.609235048 0.110310093
0.937507451 0.609235048 0.119418487
0.967741609 0.606578112 0.131941989
0.989753127 0.605566025 0.148133963
0.998861372 0.606451631 0.163567290
0.996331036 0.609488070 0.176724032
0.236179382 0.692473114 0.051233388
0.248324096 0.692979157 0.051992357
0.260468096 0.694750130 0.052498512
0.272612393 0.697027087 0.048323933
0.288171917 0.698924661 0.050980374
0.309424311 0.696521461 0.055154804
0.328147024 0.699051142 0.052119061
0.351929039 0.696521521 0.051866092
0.376596928 0.695383072 0.052624993
0.406957746 0.695383072 0.055660862
0.437191963 0.689563334 0.050347857
0.466540068 0.687539101 0.055407725
0.495762020 0.688678026 0.061480023
0.526755095 0.687033772 0.064516060
0.556609750 0.686527669 0.061986379
0.588741124 0.681088090 0.061986379
0.620999634 0.678810894 0.067299373
0.651992679 0.676913321 0.070967734
0.680202782 0.673877478 0.071853355
0.718912125 0.673624516 0.077672377
0.746616185 0.674763143 0.085642114
0.777356207 0.670462132 0.090575732
0.809487700 0.666793585 0.093232200
0.840227962 0.663757205 0.101580925
0.869070351 0.658444107 0.111448593
0.898924708 0.654902101 0.123846032
0.929411471 0.653510392 0.140164673
0.954459131 0.653510392 0.153826460
0.981783509 0.653510392 0.170904666
0.994307339 0.652371764 0.185072929
1.000000000 0.654142737 0.204933673
0.998861372 0.659076393 0.226565748
0.245287746 0.731182694 0.057305269
0.263124764 0.729285002 0.068690740
0.271474004 0.734977722 0.064642772
0.286148012 0.737507701 0.070462003
0.301075071 0.738013744 0.071853183
0.323845685 0.733459890 0.073370993
0.344465643 0.733586431 0.075648315
0.367615700 0.738266706 0.074256994
0.392156720 0.735990107 0.074256994
0.420240253 0.734851718 0.076154254
0.444908261 0.732827485 0.074256733
0.477166742 0.727007747 0.074383467
0.505249739 0.727007747 0.079316825
0.532574058 0.724983990 0.084376767
0.566223800 0.724983990 0.084630154
0.597090542 0.722074747 0.085894987
0.630486965 0.719038725 0.085894987
0.663251400 0.716381848 0.090575568
0.691841066 0.713345945 0.091840744
0.728399634 0.713092983 0.095508993
0.762175679 0.711195767 0.099683724
0.788488507 0.711195767 0.108792119
0.820746481 0.706894696 0.111701727
0.849336088 0.702087522 0.119038574
0.879317284 0.698671699 0.132321298
