Assets/EldamarStudio/100 Retro LUTs Pack/LUTs/cube/Douglas LUT.cube
DOMAIN_MIN 0 0 0
DOMAIN_MAX 1 1 1
LUT_3D_SIZE 32
0.098039001 0.101961002 0.082353003
0.098039001 0.101961002 0.082353003
0.100189775 0.104111224 0.084503770
0.107020997 0.104617156 0.087539837
0.119923994 0.102720000 0.090954997
0.138139993 0.108792000 0.097027004
0.151296645 0.112333678 0.103098996
0.170018986 0.112080708 0.105881996
0.192789197 0.109803997 0.105881996
0.211005986 0.109803997 0.105881996
0.237950876 0.112713128 0.105881996
0.263250977 0.109677002 0.099810265
0.290954918 0.107020639 0.096395001
0.324352026 0.109803997 0.101961002
0.357748389 0.109803997 0.101961002
0.400758773 0.112207189 0.099557199
0.444781363 0.116761386 0.102593191
0.487918675 0.122201413 0.110436410
0.533459961 0.125237033 0.113472030
0.579000354 0.128273353 0.113724999
0.628336191 0.131309256 0.115622737
0.678937256 0.135356992 0.117647000
0.727513969 0.141429022 0.118026502
0.776090801 0.147501811 0.127134904
0.820113540 0.153574005 0.133965999
0.862618268 0.163820654 0.140037984
0.905123115 0.179000929 0.147121996
0.947627842 0.194180533 0.159265995
0.982162774 0.214673787 0.179379791
0.997849226 0.235926151 0.200632155
0.998229027 0.260720789 0.222770184
0.992156982 0.294117987 0.247059003
0.104111001 0.101961002 0.082353003
0.098039001 0.101961002 0.082353003
0.108791776 0.101961002 0.086654000
0.116635002 0.106641218 0.090575770
0.125616536 0.111068614 0.093991384
0.141176388 0.111827612 0.100063391
0.154332399 0.112839609 0.108665064
0.171410322 0.117014416 0.103731714
0.192789197 0.118153289 0.098292388
0.211005986 0.115875997 0.102846391
0.235040992 0.118785866 0.108665377
0.264263123 0.119797774 0.106894128
0.292852670 0.119165123 0.100948617
0.324604988 0.121695027 0.098671645
0.360783994 0.118912384 0.095889002
0.394181013 0.121315569 0.098292194
0.438709736 0.125869378 0.101074994
0.483617902 0.131941602 0.106767610
0.524351597 0.137381032 0.107400037
0.583808124 0.140417352 0.116002358
0.630613506 0.141555995 0.120556377
0.676913261 0.144465387 0.122707129
0.721441984 0.150663897 0.121189371
0.770018816 0.159645811 0.133206904
0.820872843 0.167995274 0.140037999
0.865654707 0.177609369 0.144718677
0.907147527 0.191145062 0.150664330
0.944592237 0.206325307 0.165337980
0.984440148 0.218848750 0.182795629
0.995572388 0.242504537 0.196584597
0.995698988 0.268057942 0.218089938
0.998228967 0.297153592 0.253131002
0.110183001 0.099810228 0.084503770
0.106261775 0.108412229 0.086654000
0.104490772 0.104111224 0.086654000
0.117141157 0.107906386 0.092726000
0.125237226 0.116255321 0.097027227
0.140417159 0.118026547 0.103099227
0.155218005 0.115875773 0.098798454
0.169006705 0.117520481 0.106261775
0.190006196 0.123845898 0.099177904
0.211005986 0.126375511 0.103858225
0.235040992 0.124857865 0.101328224
0.261353254 0.127893746 0.103352226
0.292726159 0.128020227 0.100442648
0.324352026 0.130044028 0.095888771
0.358886719 0.130803421 0.094750419
0.397216648 0.132574186 0.098671965
0.435167611 0.135610193 0.104743578
0.480581939 0.141049758 0.110183001
0.520050764 0.147121787 0.110183001
0.570398688 0.152561367 0.112080589
0.625426948 0.157495007 0.113598965
0.672485471 0.159013122 0.119924121
0.717520237 0.163946763 0.121821992
0.766097605 0.171030909 0.129918009
0.814800799 0.177988514 0.139658228
0.862239301 0.188488558 0.144338906
0.905250072 0.201138705 0.150411293
0.946616113 0.216318667 0.168880299
0.979253769 0.228842750 0.178114861
0.997469723 0.251612693 0.198102400
0.995192826 0.277545571 0.214041799
1.000000000 0.302340001 0.248450235
0.112460159 0.108159319 0.091334999
0.113219388 0.112713322 0.091840610
0.114863992 0.115749151 0.088931158
0.114863999 0.110942319 0.093991160
0.124351837 0.119671158 0.099304162
0.138646066 0.123592936 0.103605159
0.155091494 0.125363842 0.102087155
0.172801867 0.125616550 0.099936999
0.187982261 0.127893835 0.102973007
0.210752994 0.135483503 0.104490668
0.232510999 0.134218708 0.098798156
0.261353254 0.135230899 0.100569002
0.288677633 0.138266802 0.099430650
0.321821749 0.138646275 0.096648000
0.355218381 0.141682416 0.096648000
0.392156929 0.145983353 0.101454996
0.434408367 0.149019346 0.105249964
0.477545679 0.152688146 0.113725148
0.518279970 0.158760175 0.114990160
0.566097736 0.164832175 0.116255321
0.614041746 0.169639319 0.114357740
0.664642274 0.175711304 0.113346130
0.713345468 0.179253653 0.122074984
0.763061464 0.186464325 0.130423993
0.809108377 0.192536324 0.134977862
0.853636980 0.200126171 0.145097673
0.896141827 0.212270975 0.149651989
0.940923214 0.226691842 0.168627262
0.974446595 0.241745651 0.177861989
0.993927777 0.259456247 0.191524327
0.996963620 0.287159681 0.215433121
1.000000000 0.308412015 0.243137002
0.109803997 0.130550444 0.100822456
0.117393993 0.125616997 0.100063160
0.122327544 0.125237226 0.092726223
0.126628548 0.126502156 0.090576001
0.127767086 0.123466447 0.101202004
0.139911085 0.129538447 0.101202004
0.156736091 0.135231003 0.103731677
0.175079152 0.139658377 0.106388159
0.195572555 0.142314553 0.108286001
0.210752949 0.142314553 0.102213994
0.229601547 0.142314553 0.096901000
0.256799221 0.144718260 0.100189731
0.287918627 0.147754639 0.104743645
0.315749079 0.150790960 0.102213971
0.349146217 0.153826579 0.102340452
0.385705590 0.159645543 0.106388450
0.425553620 0.164579198 0.110183448
0.471473604 0.168247998 0.110689439
0.517014861 0.174320012 0.116761461
0.565338731 0.180392101 0.120050810
0.612397254 0.184566736 0.119671263
0.658949792 0.188614994 0.118659131
0.707653046 0.194813505 0.121695481
0.759266138 0.203921914 0.133080453
0.804047942 0.211511999 0.137634456
0.845161200 0.218216404 0.142061979
0.885135710 0.227830127 0.154206008
0.927640378 0.239974886 0.166349977
0.961416900 0.256293505 0.176596820
0.985705316 0.274509847 0.191397861
0.996584058 0.293232441 0.211258963
0.999620438 0.314484090 0.241619006
0.109803997 0.139658064 0.091714062
0.128019989 0.142694458 0.106894448
0.129158765 0.139911219 0.101834163
0.131435931 0.140417159 0.095256224
0.136875480 0.141682446 0.095129997
0.145983860 0.138646066 0.095129997
0.160657540 0.142188385 0.097659677
0.173054755 0.145730719 0.099050999
0.187223166 0.148766771 0.100316159
0.207716554 0.151422933 0.102214001
0.231625795 0.151422933 0.101961002
0.254901946 0.155470937 0.102972731
0.281846642 0.159898639 0.104743645
0.309677094 0.162934959 0.102213971
0.343074232 0.165970564 0.105249576
0.383681566 0.173813805 0.105376065
0.422137976 0.180897921 0.109424062
0.462618172 0.186463982 0.113219060
0.510942101 0.192536011 0.113725074
0.559266567 0.198608711 0.117014423
0.607843459 0.202783138 0.118153065
0.655914187 0.206830993 0.118659131
0.704617381 0.213029489 0.121695481
0.756229818 0.222137898 0.124731094
0.801011562 0.233522981 0.136116058
0.842124999 0.240480676 0.142061740
0.882100046 0.246046871 0.148133993
0.924604774 0.258190870 0.160277992
0.953826725 0.267678827 0.175078809
0.982163191 0.283617854 0.192789167
0.998608351 0.301834255 0.211764649
0.996584058 0.320556879 0.229474992
0.122454315 0.148766324 0.095256001
0.128019989 0.151802719 0.100316390
0.135483772 0.154838547 0.106894225
0.138267159 0.155091494 0.103098996
0.145224780 0.157368779 0.101707675
0.150031611 0.154332384 0.101707675
0.154080003 0.153826326 0.096647680
0.174193308 0.156862721 0.099683709
0.190765098 0.159898907 0.101328224
0.212017491 0.162934512 0.104364157
0.231119737 0.165591314 0.107020997
0.253384262 0.169639319 0.100948744
0.280581951 0.175711319 0.103098996
0.311195344 0.180139035 0.104490675
0.344591916 0.183175221 0.105249576
0.385199249 0.193421632 0.103478812
0.429222226 0.201138318 0.106388316
0.470588148 0.207210302 0.111827739
0.517267287 0.213282332 0.113725014
0.565844119 0.221884713 0.124098673
0.610626101 0.231751978 0.123339579
0.660974085 0.235673308 0.122706994
0.713851988 0.238835812 0.124478176
0.758254230 0.247944221 0.132321417
0.807589889 0.257052600 0.135357022
0.851992249 0.267552316 0.149525329
0.893738329 0.274383634 0.157748327
0.934218824 0.286527634 0.161796317
0.968500793 0.298545152 0.186717138
0.985199213 0.314737469 0.207210705
1.000000000 0.335483819 0.230107605
0.998608351 0.356989652 0.250221312
0.129411995 0.161163703 0.102972701
0.132447615 0.165844381 0.101075388
0.137128055 0.168880627 0.109044932
0.142694443 0.165591091 0.108285703
0.150284827 0.167109385 0.107147157
0.150790781 0.167868465 0.105881996
0.158760324 0.170651406 0.104110993
0.173307985 0.165717721 0.102972701
0.193042189 0.170272082 0.105249994
0.209867209 0.175078928 0.107400224
0.231499031 0.176470563 0.112080865
0.250095248 0.179885998 0.108665444
0.275901645 0.187096640 0.102972701
0.309551060 0.193674698 0.107779674
0.344339103 0.198102415 0.109170996
0.381656855 0.205059975 0.108412094
0.427198052 0.218722194 0.108412474
0.473498106 0.226438671 0.113725573
0.520050764 0.234534696 0.116761453
0.563440740 0.241745755 0.118279308
0.614800453 0.252751380 0.127514258
0.660341382 0.262871385 0.124478124
0.716382027 0.264642388 0.124098703
0.761922777 0.275268584 0.131688908
0.810626268 0.282732278 0.139531702
0.855028391 0.293232322 0.143959343
0.898545384 0.303099692 0.161670074
0.936875403 0.315243691 0.169639707
0.972675502 0.330676675 0.191903785
0.993548214 0.341555864 0.210878968
0.997343421 0.362808287 0.235167772
0.995066285 0.386337996 0.259456009
0.131688893 0.176344097 0.110562898
0.130929619 0.183175191 0.104490906
0.137633994 0.184819669 0.108285911
0.146489158 0.184566766 0.115875900
0.155217990 0.174319640 0.110942446
0.153320834 0.180012867 0.108665153
0.161417097 0.182289898 0.105881996
0.176343992 0.183934301 0.107526705
0.199873090 0.177102983 0.109803997
0.205945879 0.186211377 0.109804004
0.227198005 0.188109100 0.114863902
0.248956501 0.190132841 0.115116999
0.271347642 0.195445731 0.110562898
0.304997057 0.204807088 0.110815927
0.341429800 0.211891100 0.113851674
0.377103060 0.219481096 0.112966098
0.418848574 0.228589267 0.116002284
0.468058497 0.242504656 0.118406095
0.516761959 0.254522204 0.121315964
0.558507442 0.262618721 0.119038478
0.606704414 0.271727085 0.119417734
0.658064306 0.282605976 0.124478124
0.709677398 0.288804501 0.121821992
0.758886814 0.300316095 0.127893999
0.809740782 0.310183167 0.137001798
0.856546760 0.319038332 0.146236241
0.895509124 0.330170989 0.152814955
0.931941748 0.341808975 0.173055321
0.969133615 0.358507067 0.196964055
0.990638912 0.372169375 0.215686053
0.999620497 0.384819776 0.234408274
0.990512073 0.406072199 0.258697093
0.140796512 0.191524506 0.113598518
0.128652528 0.200632900 0.107526526
0.134344995 0.198861435 0.105755523
0.147501156 0.195698529 0.108791523
0.161289990 0.195572048 0.113978066
0.167361990 0.198608443 0.117014445
0.173055157 0.191650689 0.109677158
0.181024775 0.191397533 0.107526705
0.193801105 0.195319012 0.109803997
0.215053484 0.195319012 0.109803997
0.229854375 0.201518267 0.112713128
0.251486510 0.205313236 0.115875773
0.276660651 0.210626155 0.116255358
0.304997057 0.219987497 0.113851547
0.341429800 0.232131496 0.116887935
0.375458777 0.244022474 0.112713486
0.415053636 0.254395664 0.114484668
0.461985707 0.263757050 0.121442474
0.513599038 0.272865504 0.121442482
0.559519649 0.284882993 0.127134994
0.608602166 0.294876754 0.127008229
0.657305241 0.304111362 0.124478124
0.700568974 0.313092500 0.121821992
0.752182245 0.322200924 0.127893999
0.803668857 0.335989773 0.138519987
0.851107299 0.349398941 0.150537476
0.892473459 0.360531002 0.161922574
0.928905427 0.366603017 0.171030954
0.967994988 0.380897850 0.193928137
0.989626765 0.394433916 0.214674428
0.997090161 0.409108579 0.237950653
0.999620497 0.430360973 0.273877472
0.138266876 0.209613994 0.116634868
0.143579870 0.215812519 0.116381869
0.140037864 0.218469128 0.112460092
0.150411025 0.216444865 0.110436156
0.164452881 0.217203960 0.110815868
0.170524865 0.222770676 0.111321934
0.179127187 0.220746413 0.106768005
0.190512687 0.218975455 0.106261864
0.201391742 0.220746413 0.109803997
0.211891368 0.216444865 0.109803997
0.227324739 0.219354734 0.109803997
0.250601113 0.223403260 0.114863865
0.275774986 0.227577746 0.115369998
0.302087188 0.235420898 0.111068837
0.338519931 0.250221729 0.114104547
0.370145738 0.259961933 0.114737131
0.410626352 0.271600246 0.112713128
0.457558423 0.282732725 0.116381831
0.504617155 0.294117868 0.118659139
0.553446889 0.308792233 0.121442489
0.601012170 0.317267746 0.121695265
0.651612937 0.325363755 0.121694997
0.700062990 0.334597886 0.124478124
0.748892844 0.346489638 0.124984130
0.793674707 0.357874751 0.133333415
0.840607226 0.369639516 0.146236658
0.884630263 0.379759669 0.159392819
0.925869823 0.388234854 0.168500572
0.964958608 0.404933512 0.190891758
0.990259290 0.418595701 0.215180516
0.998102248 0.431625575 0.239215821
0.997090161 0.448829979 0.271600127
0.143327251 0.233902231 0.115622744
0.149399251 0.235926241 0.117647000
0.149145991 0.235673502 0.115496226
0.154206008 0.238203496 0.111194998
0.167488828 0.239721507 0.108159289
0.173561260 0.242504865 0.109803997
0.186211050 0.245035172 0.112839997
0.196964145 0.243643492 0.110056996
0.211765081 0.246300146 0.113851994
0.221632257 0.244022533 0.113851994
0.236432612 0.242631361 0.111827739
0.251612991 0.245667249 0.111827739
0.276660353 0.248703629 0.115622744
0.300316006 0.253890246 0.112333804
0.331435531 0.263757408 0.117141090
0.373181581 0.280202419 0.115749255
0.408096164 0.289310426 0.117267445
0.453889847 0.301581562 0.117773511
0.498039037 0.315117300 0.119418234
0.546362758 0.328020334 0.120430358
0.596837223 0.339405715 0.123466253
0.644529104 0.347628236 0.121694997
0.693991244 0.357874483 0.125995979
0.742568076 0.370018780 0.133585989
0.788614511 0.384187251 0.142441541
0.831119239 0.394939899 0.148766577
0.875015795 0.403542250 0.160910875
0.916002333 0.411132067 0.171537042
0.955850780 0.426185906 0.187855363
0.988235116 0.439089447 0.215686098
1.000000000 0.452751487 0.239595324
0.998102248 0.469070256 0.266539991
0.152435347 0.268057913 0.117140643
0.158507347 0.268057913 0.117900029
0.162681863 0.267046034 0.118911870
0.163693652 0.266666621 0.118026279
0.175837740 0.271979630 0.112333730
0.183428496 0.271979630 0.113851927
0.194813311 0.272232950 0.116002642
0.210626051 0.273624629 0.118785642
0.223529726 0.274383545 0.118785642
0.238710135 0.277419150 0.118785642
0.253889769 0.276913494 0.117014416
0.269069880 0.275648355 0.114863642
0.286527276 0.276407272 0.116002284
0.308032691 0.279696643 0.115749255
0.334471673 0.285768628 0.119165190
0.375079036 0.300316274 0.119165197
0.418722451 0.315116823 0.118026547
0.458823383 0.324857622 0.119797781
0.501328290 0.339531988 0.119291715
0.549399018 0.351929307 0.122707352
0.597596169 0.365591377 0.122327901
0.649209380 0.374699771 0.127387509
0.694876969 0.386843771 0.127766997
0.741429806 0.399999917 0.135863006
0.786590934 0.413282543 0.149145931
0.830739915 0.426818281 0.158254325
0.873244762 0.435926706 0.165338069
0.913345695 0.442631274 0.180645227
0.951676071 0.456673086 0.197722763
0.978368104 0.471726805 0.220619649
0.999493957 0.481720597 0.252751231
1.000000000 0.499430627 0.275268644
0.161543041 0.312081009 0.124730967
0.167362049 0.312587023 0.122454390
0.175331801 0.312081009 0.123213224
0.183681026 0.313598901 0.126755163
0.190259099 0.316255063 0.128273413
0.202403873 0.316255063 0.125237018
0.212776706 0.314231366 0.122960322
0.226312369 0.313093036 0.122327968
0.243770063 0.313345999 0.120556936
0.258950442 0.316381603 0.120556936
0.274636149 0.319417894 0.121315971
0.290069312 0.318658799 0.119797774
0.307273656 0.316128701 0.118279576
0.329032063 0.313346058 0.121315971
0.353320807 0.319418043 0.118279584
0.390259564 0.331435829 0.117393970
0.432764351 0.345098019 0.117647000
0.475269079 0.357242018 0.118279450
0.517773986 0.369386077 0.115243070
0.565591753 0.382289737 0.121315330
0.612523735 0.397723049 0.123592742
0.660088360 0.412903130 0.123845898
0.711448491 0.422390997 0.132953510
0.754079819 0.437697947 0.133332998
0.797596574 0.450348049 0.144971311
0.839848280 0.462998033 0.156989023
0.881847084 0.474636137 0.165844128
0.924351811 0.483744502 0.193168476
0.961543560 0.497912824 0.215685844
0.984060943 0.514863968 0.240227550
0.993927956 0.531056046 0.270208985
1.000000000 0.543200076 0.306641042
0.170651406 0.339405388 0.115622588
0.173687801 0.345477402 0.121695362
0.179506823 0.341682374 0.119418226
0.188741416 0.341935396 0.122707166
0.199240968 0.346615821 0.127893895
0.208475873 0.346615821 0.116128646
0.225679994 0.349146128 0.120683230
0.238709390 0.350917071 0.126502290
0.252877653 0.351802468 0.126122475
0.268058062 0.349778742 0.108412176
0.289057434 0.352814347 0.117141046
0.307020903 0.353826374 0.120303839
0.324604809 0.354332447 0.118659131
0.344212413 0.355850816 0.115243196
0.371536762 0.355850786 0.118279584
0.393421739 0.357115805 0.115243196
0.429727942 0.366350383 0.115875773
0.472232699 0.378494352 0.120176978
0.514737606 0.390638411 0.130423427
0.560025692 0.411131769 0.116255037
0.608096421 0.424794436 0.119418062
0.657052517 0.437191665 0.121569000
0.708412111 0.446678996 0.123845905
0.753953338 0.464895815 0.132953525
0.805692554 0.475648671 0.146995574
0.850853920 0.489563763 0.164579391
0.890449405 0.504996896 0.180265531
0.927387416 0.514105260 0.199241251
0.964579165 0.525869787 0.226565614
0.988614738 0.542188346 0.250853747
0.998735011 0.557747960 0.279316753
1.000000000 0.567488790 0.315749407
0.184566796 0.381151378 0.111321807
0.180392385 0.382416397 0.122200958
0.189879999 0.384187400 0.121821962
0.200253144 0.381151378 0.122580804
0.212017789 0.384566844 0.128273442
0.215053916 0.386590570 0.118152931
0.236558989 0.386717081 0.123592637
0.251486391 0.388108760 0.121442296
0.265148610 0.389626592 0.125237003
0.281973273 0.388235241 0.118785307
0.302972674 0.391018510 0.117014669
0.322200805 0.392030388 0.120050803
0.341555834 0.390891731 0.121569000
0.361543030 0.391144782 0.118532605
0.386717200 0.391144782 0.119418219
0.414041549 0.393548608 0.120050803
0.438329965 0.390512615 0.118532605
0.474509537 0.397976011 0.118153237
0.511701167 0.411890805 0.117900014
0.564200103 0.429980993 0.126628429
0.611638427 0.451233357 0.124730796
0.659203112 0.465907931 0.130803183
0.707779527 0.477925390 0.133839205
0.753320754 0.491587609 0.140670702
0.796584547 0.507527053 0.147501603
0.845161319 0.516888082 0.163820654
0.885642290 0.531056106 0.182542861
0.923971951 0.542062223 0.206451878
0.955597579 0.553826749 0.227830783
0.983175159 0.569512725 0.258697122
0.996963978 0.586843371 0.288424969
1.000000000 0.598987758 0.324857801
0.198229000 0.422137976 0.111321799
0.196711183 0.423656166 0.118912004
0.200506195 0.422137976 0.123339772
0.210120186 0.425933123 0.122833841
0.224920988 0.426692158 0.128652811
0.231751978 0.428589433 0.125237063
0.241366193 0.429095358 0.120683126
0.265148580 0.430613548 0.125996485
0.278052092 0.429854453 0.118406095
0.295508981 0.429095358 0.122200996
0.316634864 0.430487037 0.122580871
0.340417206 0.431499183 0.123086803
0.360910475 0.430360824 0.123086803
0.382542431 0.427577555 0.122833833
0.405566007 0.427577555 0.121569000
0.432257980 0.429980993 0.120050810
0.456546366 0.433017373 0.124604993
0.484503299 0.428210348 0.123340003
0.517014384 0.438962638 0.115117222
0.562302232 0.453889906 0.117900014
0.613156259 0.474003941 0.126249000
0.661733091 0.493232310 0.132321000
0.707652986 0.508286178 0.138393000
0.751802564 0.520430148 0.144465432
0.795066357 0.533333242 0.152055815
0.837571084 0.547122300 0.163694143
0.879063904 0.557368517 0.180518985
0.917520404 0.570524871 0.206831232
0.953573406 0.578115165 0.233396783
0.978621006 0.595319331 0.260215312
0.994560421 0.612649977 0.298039347
1.000000000 0.627830386 0.337002188
0.210372999 0.459835142 0.113725007
0.212776810 0.463503927 0.119291365
0.219228566 0.464136481 0.121062763
0.225932971 0.463630289 0.123466417
0.232764080 0.471979678 0.125363573
0.250474125 0.472232699 0.130423591
0.259202868 0.471600115 0.123213001
0.272485822 0.472612262 0.119291708
0.295130044 0.475395590 0.121442482
0.310309649 0.472359210 0.118406095
0.332573980 0.470967561 0.120556869
0.356609374 0.471600145 0.123592734
0.381530255 0.471726745 0.124857582
0.406072080 0.469197065 0.125110552
0.428083539 0.469576508 0.122833841
0.452245355 0.471347302 0.119165204
0.477798730 0.474383295 0.121568613
0.500948668 0.476787090 0.128147006
0.531309545 0.476787120 0.122074999
0.568121374 0.485389113 0.119418219
0.610752463 0.500063300 0.121441990
0.658696830 0.519291699 0.128146574
0.707020581 0.534472048 0.134092063
0.749525368 0.547122121 0.139658004
0.792662501 0.559898555 0.149272278
0.833902299 0.572042882 0.164452717
0.875901103 0.584187508 0.183175460
0.912460268 0.599240661 0.207336962
0.949019372 0.604427397 0.234408617
0.981656730 0.617457330 0.266034365
0.996331036 0.635041177 0.296015590
0.999367416 0.650221586 0.344592452
0.222517043 0.502340078 0.113725029
0.222517043 0.508412004 0.128905386
0.231372610 0.514231622 0.130170777
0.241745844 0.515749812 0.128906012
0.250980109 0.514484584 0.128399983
0.263124913 0.517520964 0.122327983
0.280834973 0.515243649 0.119797669
0.297785997 0.514105022 0.119291730
0.316508234 0.515117168 0.121569015
0.334598482 0.517900467 0.121442504
0.361416847 0.511954248 0.121315986
0.384187222 0.512460351 0.123592757
0.404806972 0.515243709 0.124351665
0.424288154 0.517773986 0.122074954
0.451613247 0.520809591 0.125110567
0.471220970 0.521189034 0.120430060
0.494750202 0.522960186 0.120683022
0.522201180 0.525363982 0.125110626
0.552562058 0.525363982 0.122075021
0.582922041 0.525363982 0.121569023
0.617836475 0.530170977 0.123213239
0.658317387 0.540544152 0.128526136
0.703984916 0.555724561 0.137128457
0.746489763 0.570904911 0.140164092
0.791271210 0.585831702 0.152561307
0.832384288 0.599367380 0.172801673
0.869829059 0.611512065 0.198355138
0.909297407 0.623656034 0.219607487
0.937887490 0.630739987 0.238456681
0.973308086 0.643643439 0.268311381
0.998861372 0.658571005 0.299810618
0.996331036 0.665401995 0.323340088
0.251359731 0.581024885 0.133206367
0.254143089 0.587096870 0.131688744
0.262745112 0.586717069 0.138266578
0.273624539 0.587096989 0.137760654
0.283491522 0.584060967 0.137760654
0.298038900 0.582289696 0.136495650
0.310183704 0.582795739 0.132953972
0.327893734 0.581657112 0.131562367
0.346868843 0.582416236 0.133459911
0.367109329 0.585452557 0.135483652
0.388488233 0.582542717 0.135483652
0.413788855 0.582542777 0.133459911
0.438077360 0.584440529 0.137254998
0.461227119 0.585073113 0.140797347
0.480961233 0.580519080 0.138772950
0.508285820 0.583554685 0.139405370
0.530676782 0.583934069 0.137128368
0.555471301 0.585072756 0.138140380
0.579380393 0.585072756 0.132953972
0.618089736 0.585072756 0.135483652
0.648450196 0.585072756 0.137381390
0.680075884 0.591397703 0.139405370
0.714737475 0.604806900 0.143833011
0.754585445 0.619987249 0.165465176
0.799367487 0.628336430 0.175332069
0.843516648 0.639215410 0.198355347
0.882226408 0.650474429 0.226438805
0.917140782 0.664895773 0.243137166
0.953952968 0.671726763 0.275015473
0.978115201 0.684882700 0.302719504
0.998229027 0.700442612 0.339025795
0.993295372 0.708412349 0.371663749
0.277925462 0.632637739 0.148766473
0.273371398 0.638709724 0.143833116
0.286653996 0.640227675 0.143200696
0.293738008 0.638456464 0.147501469
0.303984910 0.636053264 0.148766473
0.328273267 0.633017242 0.148766473
0.333333373 0.636306167 0.150031313
0.352055699 0.634661436 0.151928991
0.370777905 0.635167539 0.150916979
0.390891969 0.638203919 0.150537252
0.414041609 0.637318313 0.152561471
0.437318236 0.636432707 0.154332235
0.461606741 0.637191832 0.150157973
0.487666041 0.636432707 0.154712260
0.507526696 0.633649707 0.153320581
0.527261257 0.632890701 0.152687997
0.557621658 0.635926664 0.154206187
0.584313869 0.636938572 0.153320745
0.609361470 0.638203442 0.147248745
0.637824118 0.636306167 0.153320372
0.671600163 0.636306167 0.154458717
0.700948834 0.636306167 0.155471116
0.728273213 0.644908190 0.155091718
0.760657668 0.658317387 0.172296062
0.798987806 0.668564200 0.195066720
