Assets/EldamarStudio/100 Retro LUTs Pack/LUTs/cube/Douglas LUT.cube
LUT_3D_SIZE 8
DOMAIN_MIN 0.000000 0.000000 0.000000
DOMAIN_MAX 0.903226 0.903226 0.903226
0.098039001 0.101961002 0.082353003
0.119923994 0.102720000 0.090954997
0.192789197 0.109803997 0.105881996
0.290954918 0.107020639 0.096395001
0.444781363 0.116761386 0.102593191
0.628336191 0.131309256 0.115622737
0.820113540 0.153574005 0.133965999
0.982162774 0.214673787 0.179379791
0.109803997 0.130550444 0.100822456
0.127767086 0.123466447 0.101202004
0.195572555 0.142314553 0.108286001
0.287918627 0.147754639 0.104743645
0.425553620 0.164579198 0.110183448
0.612397254 0.184566736 0.119671263
0.804047942 0.211511999 0.137634456
0.961416900 0.256293505 0.176596820
0.131688893 0.176344097 0.110562898
0.155217990 0.174319640 0.110942446
0.199873090 0.177102983 0.109803997
0.271347642 0.195445731 0.110562898
0.418848574 0.228589267 0.116002284
0.606704414 0.271727085 0.119417734
0.809740782 0.310183167 0.137001798
0.969133615 0.358507067 0.196964055
0.152435347 0.268057913 0.117140643
0.175837740 0.271979630 0.112333730
0.223529726 0.274383545 0.118785642
0.286527276 0.276407272 0.116002284
0.418722451 0.315116823 0.118026547
0.597596169 0.365591377 0.122327901
0.786590934 0.413282543 0.149145931
0.951676071 0.456673086 0.197722763
0.198229000 0.422137976 0.111321799
0.224920988 0.426692158 0.128652811
0.278052092 0.429854453 0.118406095
0.360910475 0.430360824 0.123086803
0.456546366 0.433017373 0.124604993
0.613156259 0.474003941 0.126249000
0.795066357 0.533333242 0.152055815
0.953573406 0.578115165 0.233396783
0.277925462 0.632637739 0.148766473
0.303984910 0.636053264 0.148766473
0.370777905 0.635167539 0.150916979
0.461606741 0.637191832 0.150157973
0.557621658 0.635926664 0.154206187
0.671600163 0.636306167 0.154458717
0.798987806 0.668564200 0.195066720
0.951675892 0.708538711 0.289816529
0.394307286 0.801518261 0.239089549
0.430107802 0.802529812 0.265907794
0.473624468 0.804554045 0.268058538
0.541429281 0.806072235 0.268311203
0.624794662 0.803794980 0.267678618
0.725616455 0.803794980 0.276154280
0.823402584 0.805439234 0.290701985
0.936242938 0.816698074 0.350411028
0.607210577 0.928525925 0.472738564
0.625300288 0.941176355 0.476913422
0.650600553 0.940290630 0.482479304
0.692599773 0.939278781 0.483111590
0.749904990 0.940164804 0.493990958
0.811638236 0.940164804 0.497406602
0.883491397 0.937634468 0.506514728
0.965085447 0.936242759 0.528779566
0.112966001 0.114484094 0.107779540
0.131309554 0.106640995 0.107779540
0.178368434 0.122707449 0.122707449
0.237824440 0.132068455 0.126628637
0.355471164 0.143453196 0.147375196
0.548260212 0.155977190 0.160657808
0.762428820 0.173940569 0.188867792
0.946742415 0.230993167 0.227704361
0.114104547 0.126628548 0.099556997
0.137634456 0.127387553 0.107400090
0.158254102 0.135230541 0.119924001
0.224414736 0.147754654 0.130171001
0.351549447 0.167741910 0.143073559
0.535104036 0.186084554 0.160278365
0.730044067 0.208855256 0.175585091
0.913598716 0.248450205 0.210373059
0.143073633 0.166603550 0.121062547
0.154079556 0.163061097 0.119923994
0.169259995 0.167741999 0.127007991
0.233396292 0.181784004 0.132068545
0.365718067 0.216571733 0.148133993
0.551549733 0.255661041 0.161417007
0.760657966 0.299557328 0.192536280
0.942820847 0.354838610 0.234029248
0.165338293 0.237065271 0.142568007
0.176723555 0.241113275 0.140670449
0.207083836 0.248197183 0.141049996
0.258696824 0.249715373 0.141809091
0.370904446 0.288424909 0.151170194
0.546489418 0.340544164 0.161796555
0.738520086 0.394054115 0.184313551
0.913598776 0.444022804 0.231499061
0.193042636 0.390765369 0.150790647
0.222896740 0.389499903 0.152561560
0.270967960 0.392662734 0.153067544
0.342947364 0.396584749 0.161037445
0.423149854 0.401264906 0.157115549
0.570398331 0.449082702 0.169386297
0.759139478 0.513472557 0.190259084
0.928652406 0.566350341 0.262491971
0.282732487 0.600379527 0.188361630
0.309677720 0.605313301 0.193042547
0.367615730 0.608349442 0.190765440
0.443896383 0.609993577 0.189500272
0.545477808 0.613029659 0.197976083
0.650600612 0.616571665 0.197343275
0.786717355 0.653510273 0.229981273
0.934598625 0.705250025 0.327261388
0.395446122 0.778874278 0.269956112
0.428336382 0.783175290 0.293105572
0.470335364 0.786590695 0.288425267
0.539784968 0.785199165 0.294243902
0.625173986 0.789626777 0.300063044
0.712460756 0.789626837 0.299810112
0.814547837 0.786843836 0.303605378
0.924351335 0.798228681 0.357242137
0.616445243 0.934092343 0.496520966
0.628968894 0.934724927 0.500822425
0.664769053 0.930549860 0.505502820
0.695256174 0.934724927 0.506135345
0.751296401 0.932574153 0.508412302
0.813535690 0.932194710 0.516128957
0.882732570 0.934092343 0.527134717
0.961543381 0.932194471 0.538520098
0.119924091 0.117647000 0.171537101
0.147754550 0.121189453 0.165717661
0.185705081 0.123086996 0.153574005
0.238203987 0.134851098 0.159519359
0.343833119 0.152814895 0.190512091
0.495509356 0.173560828 0.215812743
0.699810326 0.204427287 0.258317351
0.907400250 0.282605886 0.311068982
0.135610089 0.141935095 0.142188549
0.154838547 0.136748537 0.150917441
0.165338084 0.146616101 0.137507647
0.218596086 0.152814910 0.153194353
0.312334061 0.177609354 0.181024894
0.464642733 0.199873284 0.207590088
0.670208573 0.229854539 0.241492629
0.886653602 0.284882993 0.300189555
0.149778903 0.161416993 0.140290990
0.164579093 0.167742103 0.144971192
0.191903993 0.189627096 0.160531193
0.230739638 0.193927631 0.166856095
0.324225068 0.217836991 0.187349990
0.492599458 0.252498627 0.217710093
0.698165596 0.300696105 0.257685184
0.907779515 0.375711739 0.325869918
0.176217288 0.228209913 0.168374196
0.194686726 0.231752172 0.174699292
0.218469173 0.235293910 0.175458282
0.248576730 0.239974633 0.177355826
0.339658499 0.273624420 0.193042532
0.493611515 0.318785608 0.220366731
0.697659373 0.381910264 0.254269391
0.885641813 0.454396009 0.313978612
0.222517073 0.352308452 0.202783182
0.236052826 0.359392464 0.211258739
0.271727085 0.363314152 0.213788897
0.321441829 0.363314152 0.209867284
0.391524285 0.371157378 0.213029996
0.533965588 0.420872718 0.238203987
0.723719060 0.496394545 0.269323260
0.901960492 0.569386184 0.343580067
0.301455081 0.569386423 0.268437743
0.327134371 0.570777655 0.265780985
0.375711560 0.573813975 0.262744933
0.442757607 0.575079083 0.267678380
0.523086607 0.582542598 0.271726996
0.617836595 0.588867545 0.270841181
0.761669934 0.633017004 0.312587112
0.917520404 0.702846289 0.401264936
0.427197844 0.755218387 0.342821360
0.446552843 0.769639254 0.360657454
0.494497061 0.768374503 0.360531479
0.549904943 0.768880308 0.363440901
0.622517407 0.771536767 0.364579380
0.706894100 0.771283984 0.369133472
0.798987508 0.770651340 0.372295648
0.913219690 0.798482060 0.430740148
0.643769860 0.921947777 0.525490105
0.654775679 0.927008033 0.533459544
0.675142288 0.923845530 0.540417671
0.714484096 0.930929542 0.548766494
0.760657847 0.924098670 0.550790727
0.817710340 0.925869823 0.556735992
0.884503543 0.928399563 0.566730142
0.952181995 0.929917812 0.580265403
0.144591644 0.121062644 0.265780926
0.171916544 0.123845994 0.258064628
0.225679994 0.131688997 0.239722088
0.265655011 0.136748642 0.222517282
0.348766744 0.158380806 0.235673472
0.511195481 0.175078824 0.279949635
0.701960921 0.213661984 0.331435621
0.886780620 0.325110584 0.404680431
0.152814999 0.160278350 0.216192096
0.175964549 0.159519464 0.218975633
0.201265082 0.163061202 0.211511984
0.245920300 0.161416903 0.202403635
0.322833806 0.182289645 0.223529547
0.479696691 0.204933554 0.267046094
0.671094298 0.242884189 0.322327644
0.852371812 0.335610121 0.386211276
0.170524731 0.191903993 0.203288734
0.190385982 0.196331546 0.198102280
0.209108189 0.204554096 0.209487632
0.243137628 0.206072092 0.201644629
0.330423564 0.228716195 0.230993181
0.473371029 0.266287297 0.277672559
0.663124621 0.330043882 0.335104346
0.859582424 0.425174147 0.416698277
0.189500287 0.232131630 0.199620277
0.209614560 0.236432388 0.208728641
0.249842092 0.257178932 0.222770542
0.326375544 0.308412284 0.269702643
0.363440812 0.304111630 0.265401363
0.479949087 0.338899255 0.290449381
0.661859810 0.395445913 0.335483551
0.857431889 0.483618051 0.414421439
0.249842003 0.352055728 0.261606634
0.267046273 0.356356382 0.269450068
0.313345969 0.366097569 0.273750722
0.353573620 0.374320269 0.281593651
0.401391745 0.377482563 0.283997625
0.521821856 0.422011197 0.312460274
0.696394682 0.495382518 0.358001292
0.878684461 0.587728977 0.447058648
0.353194296 0.544971585 0.345983446
0.370777905 0.546109974 0.348007739
0.405312926 0.551170409 0.344465494
0.456040621 0.553573430 0.345351011
0.524225116 0.560531378 0.350284845
0.604554415 0.567994773 0.355091751
0.744339049 0.625300407 0.401138633
0.894749939 0.705123186 0.495762080
0.474383265 0.739405274 0.432890266
0.500063360 0.746489644 0.441619366
0.531688571 0.748387218 0.445414364
0.580898285 0.750031888 0.448070884
0.635926783 0.756356716 0.453763515
0.707653284 0.755091548 0.453636914
0.786464512 0.758507192 0.456420273
0.903731763 0.797343433 0.516381741
0.678937197 0.914484620 0.595319271
0.692093253 0.910816014 0.592409849
0.711448491 0.919038534 0.601138413
0.737001598 0.915623009 0.605186403
0.776090860 0.914737582 0.605565965
0.827956736 0.921442032 0.611385405
0.885515034 0.923213243 0.617583692
0.954838574 0.929031968 0.631878614
0.189500377 0.141809195 0.417330354
0.230234087 0.145730197 0.401264906
0.290575355 0.152055800 0.388235271
0.356989175 0.153573811 0.360784262
0.422770590 0.165338188 0.346742362
0.526755452 0.182289734 0.355344653
0.718658984 0.222264469 0.419354647
0.893358767 0.337254763 0.483870983
0.192156732 0.198355198 0.361289918
0.215812549 0.191524550 0.353067338
0.269323200 0.193168640 0.347248763
0.330423474 0.195192903 0.334345281
0.387981921 0.195192903 0.320303380
0.495888710 0.214294747 0.339658380
0.684376597 0.250853837 0.398481965
0.859456062 0.346742123 0.467805445
0.206831098 0.245920375 0.317141175
0.237444803 0.244022638 0.317646950
0.264642388 0.247564897 0.323339283
0.315116823 0.245161086 0.304111511
0.373561174 0.248323992 0.302972972
0.492852747 0.276407182 0.335357040
0.679569721 0.337381184 0.412523538
0.868943691 0.445034683 0.490702152
0.240860432 0.300695986 0.315117031
0.254522383 0.297406465 0.313219279
0.293990821 0.303984910 0.309550822
0.348639905 0.320556611 0.319797605
0.404048264 0.325995922 0.324984252
0.501707733 0.361922920 0.359139651
0.660088360 0.421252191 0.417710364
0.831372559 0.518912077 0.497533530
0.264642566 0.361796170 0.310816169
0.291081637 0.366856515 0.323466152
0.332068294 0.383681297 0.324984372
0.415432990 0.420493484 0.362934709
0.525616586 0.490322560 0.428463191
0.567868233 0.482479155 0.416192114
0.694750309 0.526375651 0.452751487
0.852118552 0.619733989 0.531182766
0.376343906 0.544718504 0.401897281
0.400126249 0.545351028 0.407210469
0.443137467 0.553194046 0.418469131
0.512966454 0.571663558 0.436558992
0.567488909 0.575205922 0.445667177
0.619860709 0.581530690 0.454648912
0.737381041 0.639848411 0.492979020
0.881214321 0.720176756 0.576344192
0.526249409 0.726881504 0.509930313
0.547248483 0.739152253 0.513219595
0.580139279 0.735483706 0.524604678
0.609993458 0.737507939 0.525869727
0.657052457 0.746489584 0.523086488
0.714737713 0.747375309 0.533586025
0.780898333 0.751929402 0.536369264
0.895129740 0.801264822 0.591018081
0.712081015 0.906767964 0.648703158
0.722580612 0.903984785 0.654016316
0.738899350 0.908538759 0.657431960
0.763946772 0.909297824 0.658191025
0.794307649 0.910436451 0.659456134
0.839721739 0.916382074 0.666034281
0.893484950 0.920176864 0.670714676
0.949398816 0.924478173 0.678557992
0.258443981 0.176217467 0.581530690
0.299557537 0.176596925 0.573561192
0.368121386 0.184060991 0.561037123
0.449715197 0.189879730 0.548766553
0.533459902 0.195698991 0.525237501
0.614421427 0.203541979 0.506894171
0.724098742 0.229475006 0.508791745
0.892599702 0.350537449 0.566097498
0.255281478 0.229475081 0.533080280
0.297153741 0.224288747 0.535610497
0.348640025 0.230993271 0.530676663
0.427703917 0.228969008 0.515749454
0.504997015 0.227704093 0.495382637
0.581024349 0.235673472 0.480961233
0.685894966 0.255407810 0.483997196
0.858823597 0.348513603 0.542820692
0.287033647 0.309171379 0.502213717
0.309045196 0.308412313 0.492725909
0.354964912 0.309550941 0.490702361
0.423402637 0.308032751 0.481720209
0.497786254 0.306008995 0.474130452
0.567109108 0.309930474 0.462618470
0.689943075 0.342694551 0.490322828
0.874130309 0.453130931 0.571789861
0.306008995 0.372042835 0.463124603
0.337634116 0.378494620 0.469449669
0.374572754 0.380012631 0.455534399
0.426692009 0.381657273 0.448197454
0.483238637 0.385578543 0.444149524
0.545097888 0.380898386 0.437950820
0.669702590 0.422517180 0.480581999
0.838456690 0.518279731 0.559013069
0.344844639 0.457305193 0.465022027
0.364579469 0.464389741 0.463251263
0.411511719 0.466413558 0.465274990
0.477165997 0.482226342 0.465654463
0.549146116 0.496520907 0.481340677
0.599367201 0.501454949 0.481973708
0.707147360 0.551549911 0.526249468
0.845161378 0.635546982 0.602024019
0.405186743 0.561796188 0.481340438
0.427324474 0.559392869 0.479569733
0.470841199 0.567488968 0.485262454
0.529664695 0.579000831 0.496014982
0.620620131 0.616698027 0.536369324
0.712713480 0.675648212 0.591397524
0.760404706 0.680202246 0.588108480
0.868437767 0.735610247 0.636938691
0.528526008 0.723972261 0.558760464
0.555724323 0.735230803 0.567235947
0.587729275 0.733712494 0.575458646
0.630233705 0.733712494 0.582922101
0.694117904 0.743706048 0.604933918
0.741808534 0.748640001 0.606957734
0.785199285 0.754965305 0.609614074
0.892472804 0.808095813 0.658949792
0.723972142 0.900442660 0.688930750
0.738646328 0.901074946 0.691081524
0.760910690 0.897153616 0.702213824
0.790259540 0.899303973 0.704490781
0.818089724 0.898671448 0.709424436
0.847058833 0.905755699 0.707147479
0.895635784 0.910563231 0.724225521
0.947627842 0.917014718 0.725110650
0.353826284 0.261353552 0.731562257
0.384440094 0.261353552 0.726249278
0.451107204 0.268311381 0.725490034
0.529791176 0.278810918 0.722453952
0.624288201 0.287160277 0.701075315
0.715496480 0.301201552 0.690575540
0.808981538 0.314231575 0.671094537
0.900948286 0.366224021 0.663757086
0.351675808 0.298165560 0.702340245
0.389753252 0.300442368 0.702972651
0.442504674 0.306008995 0.702719450
0.522833705 0.311448455 0.691713989
0.610879421 0.314484566 0.681467474
0.698292017 0.323592752 0.670967817
0.784946263 0.327387840 0.650347948
0.870714962 0.362429023 0.646932483
0.401391357 0.394307435 0.678558171
0.424288183 0.400253117 0.688930750
0.475142300 0.403162360 0.679949403
0.540417254 0.406451702 0.679063559
0.617836654 0.410879254 0.669702649
0.699430645 0.411891013 0.655154943
0.782542467 0.419228554 0.649209440
0.877672255 0.462365597 0.653383791
0.442251801 0.481973171 0.650474548
0.467678547 0.486401111 0.652245462
0.503225803 0.495509267 0.648197234
0.552434802 0.495888799 0.640860200
0.615180552 0.492725819 0.638836265
0.676660299 0.489310473 0.624794483
0.744591832 0.486401111 0.612397194
0.847311676 0.526248991 0.636306047
0.477292836 0.564326525 0.639089346
0.502466679 0.573687673 0.637065053
0.539152443 0.583934128 0.635800362
0.586464286 0.587223172 0.633143723
0.635926425 0.588741362 0.626438558
0.689943135 0.585198939 0.619734287
0.748766482 0.587223172 0.617836654
0.851612866 0.638203621 0.657179177
0.540037870 0.669702530 0.650347829
0.554965258 0.675395250 0.649588823
0.586464405 0.676028013 0.645793855
0.627197981 0.678557932 0.646552861
0.680202305 0.686148167 0.643010616
0.738520026 0.701707721 0.648197293
0.784313738 0.703352451 0.650474131
0.876533926 0.757495046 0.692599475
0.559645832 0.732194781 0.634155810
0.570904136 0.736748815 0.639089584
0.602023780 0.739278674 0.639848232
0.646426201 0.738393545 0.642504930
0.701201737 0.748007536 0.650094628
0.765971005 0.771283984 0.676786542
0.850221515 0.811005592 0.712966561
0.900569081 0.835041285 0.730170727
0.733965755 0.894876480 0.728525937
0.744086027 0.896900296 0.740037560
0.755091429 0.893864512 0.738266826
0.790259540 0.895635486 0.739658237
0.830233932 0.901454806 0.750284612
0.871600091 0.901834011 0.752561808
0.903225899 0.907653451 0.763693571
0.943959296 0.916382015 0.772295654
0.506514728 0.421631724 0.844781637
0.525869310 0.422896564 0.839215338
0.571916461 0.430107504 0.837444723
0.627197623 0.444908381 0.836811841
0.708032787 0.466666758 0.827324748
0.782289684 0.482858747 0.818595767
0.867931724 0.504870117 0.816951036
0.953320801 0.532700598 0.801644623
0.507147610 0.445287734 0.824035406
0.529158354 0.452118993 0.825679958
0.571916282 0.460341424 0.828336477
0.634661794 0.470461935 0.822897017
0.704996586 0.483870953 0.820493579
0.780644953 0.496015102 0.812650025
0.855281532 0.508412480 0.798608363
0.935610533 0.530423880 0.793801606
0.571157575 0.543453455 0.811384916
0.596837342 0.554206073 0.820114017
0.624035716 0.562681675 0.825426638
0.671853185 0.565338492 0.815559804
0.724478066 0.570398688 0.809866905
0.793928087 0.578747392 0.806704581
0.864642799 0.583048403 0.799241185
0.937760770 0.601517797 0.793674588
0.623149812 0.630613685 0.797722995
0.634661913 0.638582885 0.796331286
0.661100447 0.640607178 0.799114347
0.694750071 0.643770099 0.797596395
0.741935492 0.642504930 0.790638447
0.791018426 0.640480697 0.785831392
0.852751136 0.641239464 0.780644953
0.919417739 0.644275725 0.774952471
0.651233554 0.708285987 0.785451949
0.681214273 0.716761410 0.792536438
0.701454639 0.720556557 0.785957992
0.732194602 0.724857569 0.787096620
0.764199793 0.720050573 0.778874159
0.806325078 0.721315444 0.780012488
0.855661213 0.716255784 0.774572849
0.915243447 0.725237131 0.770777643
0.703098893 0.783301651 0.787602663
0.715117097 0.787349522 0.793169022
0.736495733 0.791144550 0.794180930
0.762428880 0.792283237 0.789500058
0.796963990 0.796204805 0.786717057
0.830866754 0.797343433 0.779379785
0.871473789 0.795445681 0.777102888
0.919544637 0.799999774 0.779253840
0.711954296 0.840480924 0.778241754
0.728019834 0.846552789 0.790006340
0.745730639 0.844022930 0.785831332
0.775458336 0.844908237 0.786211014
0.806451678 0.848070860 0.779253483
0.847058535 0.849209547 0.779759526
0.889437020 0.859708786 0.787603080
0.928273201 0.863377392 0.784819603
0.765338421 0.915496826 0.789879620
0.780012310 0.917773426 0.802276909
0.791650593 0.916761637 0.794560552
0.816192567 0.911954641 0.796710849
0.844528794 0.909171224 0.796584606
0.884250700 0.913472533 0.796457767
0.919923902 0.916382015 0.806578040
0.961036980 0.938899636 0.822517753
