Assets/EldamarStudio/100 Retro LUTs Pack/LUTs/cube/Douglas LUT.cube
LUT_3D_SIZE 5
DOMAIN_MIN 0.000000 0.000000 0.000000
DOMAIN_MAX 0.903226 0.903226 0.903226
0.098039001 0.101961002 0.082353003
0.170018986 0.112080708 0.105881996
0.357748389 0.109803997 0.101961002
0.678937256 0.135356992 0.117647000
0.982162774 0.214673787 0.179379791
0.129411995 0.161163703 0.102972701
0.173307985 0.165717721 0.102972701
0.344339103 0.198102415 0.109170996
0.660341382 0.262871385 0.124478124
0.972675502 0.330676675 0.191903785
0.170651406 0.339405388 0.115622588
0.238709390 0.350917071 0.126502290
0.371536762 0.355850786 0.118279584
0.657052517 0.437191665 0.121569000
0.964579165 0.525869787 0.226565614
0.303226113 0.670082092 0.163947120
0.369260103 0.680202603 0.170145243
0.526122510 0.678937256 0.169892132
0.715117097 0.681847095 0.178747252
0.948892772 0.737634420 0.306767762
0.607210577 0.928525925 0.472738564
0.644781828 0.940543890 0.485768408
0.713599205 0.940290630 0.487665981
0.833143592 0.936622322 0.498418719
0.965085447 0.936242759 0.528779566
0.119924292 0.122201003 0.153320700
0.171283990 0.121569000 0.146742702
0.277292818 0.143832996 0.162808001
0.553700566 0.179127410 0.213535711
0.920809627 0.271979511 0.290828675
0.146742716 0.147754416 0.130423695
0.172928706 0.170651421 0.148386985
0.264895797 0.191271275 0.165464997
0.556356966 0.247185424 0.217457116
0.924983859 0.351676464 0.305123538
0.193548411 0.291334689 0.179759577
0.231498972 0.294623673 0.186717108
0.321821392 0.304110974 0.187982291
0.588741422 0.400000095 0.224288404
0.926375747 0.529538095 0.326249093
0.316382110 0.629601538 0.266666681
0.382036388 0.634787977 0.260467827
0.515116692 0.638456702 0.274509519
0.678557515 0.647564650 0.276407123
0.924351633 0.732194662 0.390638769
0.637950420 0.925236940 0.511068761
0.664010048 0.930423796 0.534092546
0.732574165 0.928526223 0.536242902
0.834155798 0.930170476 0.547374725
0.954964876 0.931435883 0.570145309
0.169386402 0.132700577 0.334850967
0.238077402 0.139910996 0.313346207
0.328399777 0.151675999 0.272105962
0.563820302 0.184693277 0.329032391
0.880328596 0.322707176 0.436938643
0.188994408 0.206325114 0.259708792
0.218722269 0.205312982 0.252119094
0.298924387 0.207590118 0.242631391
0.527008116 0.260974258 0.317899853
0.862998307 0.411005586 0.448450506
0.228210405 0.289057821 0.250474393
0.271726698 0.309045106 0.262871385
0.425806373 0.395699203 0.345350802
0.556356549 0.416318953 0.356482983
0.858696997 0.562049210 0.482226163
0.392663240 0.585452080 0.396331400
0.447438240 0.590385973 0.406325221
0.524604797 0.598861516 0.407590061
0.649842024 0.609993815 0.417077541
0.889057457 0.736495614 0.535104156
0.694749713 0.910942197 0.612270772
0.712587059 0.910942197 0.623276591
0.765211821 0.912839949 0.634534776
0.851233482 0.914484501 0.638456643
0.954711735 0.927893341 0.650854111
0.278684258 0.191398129 0.620999396
0.369892538 0.198228985 0.610879302
0.520050228 0.207084119 0.590006232
0.671094239 0.224794105 0.554459393
0.894370675 0.355597407 0.595192969
0.302213848 0.306135565 0.564199805
0.369639248 0.311069131 0.556989491
0.498418808 0.310689390 0.547501385
0.638456702 0.318279684 0.526881993
0.882226467 0.443516284 0.601138532
0.369260132 0.447438419 0.520050466
0.418342531 0.459329218 0.512207687
0.515496671 0.468437642 0.514231682
0.623023331 0.474003553 0.499431103
0.858696759 0.604553998 0.609993935
0.439595282 0.606325269 0.522833347
0.491840839 0.612523496 0.534345269
0.595445931 0.633396387 0.549398780
0.754206121 0.715117097 0.624794126
0.874256611 0.765211701 0.665781260
0.730044425 0.898924410 0.697026908
0.755091667 0.900442362 0.705502450
0.807083726 0.900822043 0.717773438
0.866792917 0.904996634 0.724604785
0.944591761 0.915496767 0.734218776
0.506514728 0.421631724 0.844781637
0.558760166 0.426818579 0.837950528
0.669070184 0.452245146 0.832890809
0.802024126 0.489942908 0.819354653
0.953320801 0.532700598 0.801644623
0.567868412 0.530044317 0.822517276
0.603795171 0.538899302 0.828715920
0.695255756 0.548387110 0.818342745
0.812144101 0.563061297 0.804680645
0.937001586 0.586337566 0.796711147
0.661985755 0.690701783 0.798987806
0.692346513 0.694370270 0.795193017
0.744971275 0.696014702 0.797090352
0.820999086 0.692346334 0.790259361
0.922580361 0.701201797 0.784819722
0.700821877 0.795446098 0.783301890
0.731182635 0.800252795 0.796204805
0.781909943 0.807337105 0.785705030
0.843263924 0.812270761 0.776597083
0.919797599 0.819481194 0.779506564
0.765338421 0.915496826 0.789879620
0.785831630 0.913219512 0.797090828
0.831246197 0.911574781 0.801770747
0.892599761 0.912207663 0.797722936
0.961036980 0.938899636 0.822517753
