Assets/EldamarStudio/100 Retro LUTs Pack/LUTs/cube/Edward LUT.cube
LUT_3D_SIZE 8
DOMAIN_MIN 0.000000 0.000000 0.000000
DOMAIN_MAX 0.903226 0.903226 0.903226
0.125489995 0.125489995 0.117647000
0.162681550 0.126249000 0.129791453
0.215560094 0.142694190 0.134092093
0.291460991 0.163060993 0.140037641
0.418848544 0.188867807 0.146616191
0.575711489 0.221378729 0.149272531
0.734851301 0.271853000 0.163061291
0.857811749 0.337507963 0.175205827
0.153320551 0.166224003 0.122707449
0.182289541 0.166982993 0.129411995
0.231246099 0.172042638 0.149399444
0.313725650 0.189247444 0.146995649
0.439342171 0.218216345 0.150917351
0.592915535 0.252751529 0.160025194
0.748892963 0.305123538 0.173308000
0.867425382 0.368754268 0.197469994
0.179506987 0.232764095 0.155345008
0.203415543 0.224414736 0.149020001
0.265528172 0.241366193 0.156863004
0.355976820 0.249968186 0.165844351
0.468311191 0.277292997 0.173308089
0.619987249 0.313725442 0.182669088
0.752814353 0.360278368 0.191018179
0.874130368 0.416951001 0.213030085
0.224161997 0.346868634 0.167488649
0.262239456 0.340797007 0.162428916
0.332195014 0.354585618 0.158381000
0.447312266 0.362049282 0.155218005
0.564073384 0.376091182 0.175585181
0.665275395 0.408602029 0.208981648
0.776217639 0.454016328 0.238204002
0.870714426 0.504870594 0.267425835
0.315623194 0.490322560 0.155344814
0.350284398 0.489563376 0.160404548
0.414294571 0.490322351 0.156736091
0.517773509 0.497785985 0.165338188
0.638456583 0.507526994 0.176217183
0.729538202 0.522454202 0.195825472
0.813535690 0.555344641 0.266287267
0.879317164 0.602403522 0.338646531
0.420746207 0.616698205 0.176217467
0.438709289 0.617204249 0.177862182
0.491840571 0.620366454 0.187855989
0.573055029 0.628589690 0.193927735
0.662239194 0.641492486 0.207083926
0.764199972 0.650094450 0.232890725
0.847818017 0.665022135 0.270208687
0.909171522 0.704237580 0.358507246
0.531941533 0.772422552 0.266919255
0.539911568 0.764705539 0.262492120
0.577356219 0.766097546 0.267552078
0.639974952 0.772422552 0.286148250
0.706135273 0.781024694 0.299557447
0.780645013 0.790638566 0.335990012
0.861353576 0.799873531 0.375331849
0.939785242 0.812397480 0.428716063
0.629221737 0.893231928 0.429474741
0.636305749 0.893990934 0.427830130
0.656420052 0.894623578 0.438836396
0.700189829 0.898671389 0.452751398
0.750537634 0.904996634 0.480581582
0.820746303 0.911574781 0.510309577
0.890195966 0.916761637 0.549272716
0.962302148 0.923339784 0.595572352
0.125489995 0.129032448 0.149779007
0.158381000 0.133332998 0.150537997
0.229348555 0.140796542 0.155218095
0.314610720 0.169006735 0.163060993
0.440860361 0.192409649 0.167362362
0.599114478 0.226818532 0.175711811
0.744592011 0.277672738 0.189627007
0.874130368 0.342694819 0.206830993
0.145857006 0.170524538 0.169386089
0.186211556 0.163440555 0.162302092
0.234282196 0.175964534 0.163440555
0.329791188 0.199114189 0.177229896
0.458823562 0.224288195 0.181277797
0.616824985 0.256672919 0.186211556
0.745097995 0.302719802 0.196331248
0.856040776 0.357621521 0.209108561
0.177609444 0.237065554 0.172548994
0.213662550 0.234661639 0.162681550
0.276534110 0.242125094 0.163820103
0.357494920 0.258570373 0.190891549
0.482732713 0.283997536 0.199114099
0.628210247 0.317141294 0.203795195
0.764326036 0.370904565 0.222264543
0.874509931 0.429222256 0.243896425
0.227830544 0.352561384 0.171283737
0.257431835 0.360151619 0.176091254
0.339279205 0.361669749 0.175585091
0.461859733 0.367488980 0.184693351
0.569639385 0.381150931 0.192789197
0.663630426 0.410879016 0.239089102
0.772169590 0.447185457 0.252877980
0.864263296 0.496015280 0.278431445
0.315116823 0.499051183 0.180265889
0.345477283 0.496267885 0.182922348
0.419734359 0.500189722 0.186084643
0.530802906 0.508791685 0.194054455
0.647564769 0.516255379 0.204047725
0.739278734 0.525616467 0.223276466
0.806324959 0.558254242 0.289184093
0.881973565 0.607210577 0.347374916
0.414674014 0.627704084 0.210373253
0.433270097 0.625174165 0.202909470
0.499051303 0.628210068 0.208981469
0.575458765 0.638836086 0.220872983
0.672359169 0.645414352 0.230107278
0.761796236 0.655155063 0.256799251
0.850094855 0.670081973 0.294370383
0.912460387 0.707400441 0.390638828
0.534598291 0.772169530 0.281340808
0.552181959 0.768247962 0.296521008
0.586084306 0.774067163 0.298671544
0.639342189 0.778747380 0.311195552
0.708412349 0.784187555 0.331688553
0.786464274 0.788361669 0.354838818
0.861479998 0.799620569 0.381151289
0.938013673 0.801391482 0.439721644
0.634661496 0.899809778 0.446172953
0.634535074 0.899683595 0.444275677
0.669449568 0.892346323 0.452498466
0.702339947 0.900568843 0.470841110
0.754459321 0.904996634 0.498924404
0.816192210 0.915117204 0.524731159
0.892599344 0.918785632 0.568121314
0.959771752 0.927260756 0.600885391
0.130929992 0.127007991 0.183428004
0.151676446 0.132953554 0.189753100
0.222644001 0.141935095 0.193548098
0.327766925 0.142441362 0.223782450
0.468437493 0.131815001 0.211638108
0.621125519 0.191271275 0.218342632
0.765464544 0.268690675 0.240733802
0.883491695 0.341302931 0.252751350
0.162428916 0.159519449 0.203036085
0.182669103 0.160278544 0.201391190
0.245667547 0.173308000 0.208855540
0.351676166 0.171283633 0.210373551
0.487539709 0.191650540 0.213283002
0.635673702 0.251233637 0.232384726
0.761163831 0.295635521 0.236432552
0.871726990 0.360910535 0.263251066
0.181151092 0.235041186 0.215560094
0.210879102 0.234282181 0.216698542
0.284377098 0.242884189 0.232005000
0.374320179 0.260467827 0.230739817
0.509045184 0.283617973 0.242125094
0.650221527 0.322707087 0.250727087
0.777103066 0.366477072 0.262365490
0.881340802 0.432004809 0.288172007
0.201770633 0.359772295 0.223402992
0.248070732 0.358507544 0.223023444
0.342441291 0.363567293 0.232005090
0.466539830 0.371030629 0.230487004
0.568754256 0.385072649 0.256293267
0.675015807 0.415559739 0.281340897
0.781151414 0.455408007 0.299177796
0.873371005 0.503478706 0.316255569
0.306261986 0.506008983 0.235041186
0.339405715 0.499683350 0.234788358
0.423023403 0.503605187 0.239721894
0.530676842 0.509550691 0.244529083
0.653384268 0.518532455 0.254649192
0.738646626 0.528020263 0.278052002
0.804174244 0.560910523 0.338519990
0.878684461 0.612270951 0.387856096
0.423023164 0.636053503 0.260341823
0.443643242 0.633649588 0.260341823
0.498544872 0.636432707 0.255281478
0.586211383 0.638836026 0.270841360
0.670334995 0.646299481 0.284250379
0.768121481 0.661100566 0.299810082
0.845287919 0.672865272 0.339531749
0.910815954 0.712207437 0.435041100
0.536749005 0.767995059 0.328779072
0.548766553 0.773308039 0.334977537
0.589879751 0.777229488 0.340290636
0.644655406 0.779253483 0.359645605
0.711575150 0.783554554 0.370904565
0.780645013 0.790638685 0.388867646
0.859203160 0.793674827 0.416318864
0.937001884 0.799241304 0.470082223
0.633270025 0.897912502 0.473497927
0.640986741 0.898292065 0.486907125
0.660847723 0.900568902 0.487792552
0.702593625 0.902466595 0.503858387
0.753826559 0.908159494 0.525489986
0.817077637 0.915243506 0.559519291
0.889184117 0.918658853 0.585831583
0.962555170 0.925869823 0.625173628
0.128273353 0.137254998 0.242125288
0.155597642 0.131309450 0.246426538
0.216698453 0.141176000 0.251486272
0.321189284 0.136116356 0.273497999
0.480076194 0.116635166 0.306388170
0.636685491 0.085768715 0.308285624
0.790259242 0.084756635 0.282985270
0.897786021 0.258949667 0.301454633
0.144591734 0.164705917 0.264895916
0.175585091 0.158760563 0.258444190
0.239722088 0.163061097 0.272232652
0.350537747 0.161922559 0.285515547
0.504996538 0.154965371 0.314610839
0.660720885 0.141176194 0.301581383
0.790638626 0.179127097 0.285515636
0.891208231 0.322580725 0.318532825
0.170651346 0.233523086 0.276407272
0.200252637 0.226059541 0.285515636
0.276913643 0.228842184 0.287539274
0.400632650 0.231878281 0.303605646
0.542315066 0.238583535 0.308285832
0.681467474 0.261859655 0.303099275
0.792915642 0.354079366 0.323972017
0.889057577 0.426059365 0.341935337
0.213029996 0.359772295 0.315496624
0.250727177 0.356483281 0.309551001
0.338013738 0.360404998 0.311828077
0.475901663 0.361543626 0.318405926
0.577482581 0.387349814 0.327514291
0.690701783 0.422770530 0.334598273
0.790258944 0.460847646 0.356609911
0.883617759 0.507779896 0.376976639
0.290575624 0.505250156 0.319671065
0.328020185 0.500821888 0.314864069
0.416192114 0.505250156 0.318026364
0.528652430 0.509550691 0.324351460
0.650600791 0.515749812 0.325869381
0.734851599 0.531562150 0.370524973
0.801517904 0.572802186 0.408096284
0.883365154 0.620113790 0.446299821
0.420872718 0.634788156 0.337634385
0.445161104 0.635673821 0.336748987
0.503225863 0.637318134 0.340290725
0.584440351 0.645414352 0.345983446
0.679063916 0.647817671 0.361669570
0.774825752 0.659835696 0.384693116
0.839089155 0.677672386 0.414041579
0.905249834 0.716761529 0.509297729
0.532447934 0.771790266 0.400885552
0.556483150 0.773308218 0.409613997
0.588108778 0.774067283 0.410879344
0.640480995 0.778621256 0.423402548
0.710183203 0.786211252 0.437317908
0.783427954 0.789120853 0.450853646
0.864136577 0.796964288 0.481087923
0.933333218 0.805566192 0.524098516
0.624288619 0.900695801 0.533080280
0.631119490 0.900948405 0.530423701
0.657305479 0.900442660 0.540544033
0.700189829 0.906135261 0.551043272
0.749272764 0.910057008 0.567109406
0.821378887 0.912207305 0.593674898
0.887033582 0.919417739 0.623529613
0.962808132 0.928652465 0.660341382
0.132447988 0.137254998 0.314737171
0.159645557 0.137254998 0.321189195
0.224794194 0.139658198 0.333713174
0.323845714 0.134977996 0.349399000
0.458950162 0.118532613 0.365718156
0.662239134 0.038962629 0.412270904
0.800759196 0.056293283 0.430866390
0.915623009 0.152182147 0.413029909
0.141555548 0.163061202 0.342947274
0.174446538 0.163440749 0.343074083
0.244022742 0.161922753 0.353573829
0.353699833 0.158886552 0.365464836
0.493232161 0.145983800 0.389753610
0.677292883 0.113725096 0.424161941
0.800379574 0.139025629 0.429095507
0.907400191 0.197216973 0.404174358
0.166983098 0.225679994 0.374573082
0.191650644 0.215812743 0.374573082
0.267805278 0.222517088 0.375964403
0.392156720 0.221758187 0.385831833
0.541935563 0.225806296 0.400253296
0.692473173 0.232637376 0.422138244
0.817330718 0.265401483 0.422137976
0.918911994 0.317900091 0.411132276
0.212271094 0.345224649 0.385452360
0.251865745 0.346742630 0.397596538
0.338013709 0.346236259 0.398735106
0.454648912 0.351043493 0.407716632
0.618343115 0.352435082 0.427956969
0.720936000 0.379127085 0.423023373
0.817710102 0.410752743 0.420999527
0.899683774 0.487919331 0.446173429
0.317773551 0.503605366 0.422137976
0.348133922 0.504870534 0.424794704
0.431499183 0.506009161 0.428336501
0.538519859 0.505629599 0.429981381
0.647817791 0.514737189 0.436938375
0.730676949 0.538899183 0.466160357
0.810625970 0.573561013 0.481087893
0.888804674 0.617077827 0.505375981
0.427324653 0.636432707 0.440354109
0.448450446 0.638456464 0.440733463
0.504237592 0.634535491 0.436812282
0.583048463 0.641492486 0.450601101
0.681467593 0.650980234 0.458064377
0.774446249 0.658444047 0.470840901
0.837950289 0.677545786 0.521189213
0.893738031 0.722706795 0.585958064
0.540037990 0.770272136 0.489310265
0.545603812 0.774446726 0.498545080
0.581404388 0.777103126 0.497786254
0.634661615 0.777862191 0.504743814
0.702214062 0.788235486 0.516635358
0.782036543 0.791018128 0.534598231
0.862998247 0.795951545 0.556483328
0.933459640 0.815433204 0.599114537
0.607842922 0.905502617 0.588488102
0.619354784 0.899050951 0.592030466
0.643263638 0.902466595 0.598481894
0.686527431 0.906135261 0.609107912
0.744085968 0.910562992 0.625806391
0.807589769 0.915243447 0.648703396
0.886401057 0.922960222 0.672359407
0.957874417 0.927387595 0.699556947
0.137254998 0.137381002 0.424794734
0.172042727 0.139278740 0.435041040
0.244402096 0.132574096 0.441998750
0.350537509 0.120430358 0.457811624
0.485262424 0.101581208 0.484882981
0.642251492 0.047565013 0.497280478
0.807969272 0.003415739 0.552182436
0.910309792 0.126628682 0.575837970
0.133080453 0.158760548 0.444908202
0.173055261 0.154459000 0.449462295
0.255408019 0.156483263 0.460468084
0.370904535 0.151043549 0.470588475
0.490575701 0.138899103 0.487792373
0.648576677 0.112334006 0.505502880
0.802782953 0.093358733 0.540290713
0.902593136 0.167995051 0.563314259
0.127260908 0.217583746 0.479063720
0.176850259 0.221505553 0.485388935
0.272359461 0.215812743 0.481720358
0.394560546 0.212776840 0.493358344
0.529538393 0.218722105 0.507906616
0.684376776 0.211385190 0.520177066
0.823276699 0.235926822 0.564199746
0.914863884 0.301834136 0.572928429
0.204427466 0.334851533 0.502593458
0.244022742 0.339278907 0.503858089
0.321188986 0.332953990 0.507020831
0.441745579 0.329411536 0.513978660
0.571031153 0.340290934 0.524351895
0.708286107 0.346362919 0.536748707
0.816065907 0.376344174 0.557874858
0.912840068 0.415433258 0.557621896
0.322074622 0.493864626 0.544971645
0.354332715 0.484883189 0.547501564
0.430486828 0.493990898 0.550284743
0.528020322 0.494749993 0.554079831
0.637444794 0.499303907 0.559519053
0.744971573 0.511954486 0.566603184
0.830107570 0.533206940 0.576217651
0.920935929 0.560151815 0.572801888
0.444528729 0.644275725 0.567868471
0.467172921 0.637697637 0.567995012
0.515116811 0.646679163 0.566603124
0.587222993 0.646299481 0.576976597
0.678178191 0.651739240 0.583428442
0.764326513 0.661986470 0.598987937
0.820999503 0.688298762 0.621378779
0.902719498 0.719164908 0.645920336
0.539531767 0.773560822 0.611891210
0.552687824 0.777608931 0.612903476
0.580771565 0.779886067 0.611891150
0.630107403 0.781151175 0.612397432
0.694244206 0.783807993 0.615686476
0.770145714 0.783934057 0.625679731
0.855407774 0.795572042 0.641366005
0.920809269 0.814168155 0.688045502
0.615686417 0.907653153 0.692599595
0.620619833 0.905882299 0.683364868
0.638836205 0.904870450 0.691461146
0.676154315 0.909677505 0.691208065
0.731182694 0.910056949 0.696900785
0.791524529 0.916761637 0.711448371
0.880076230 0.918406188 0.726881742
0.951549530 0.927387774 0.755597591
0.106261723 0.127767280 0.589373529
0.163187996 0.126881748 0.590765297
0.257938206 0.120809905 0.597216904
0.370525002 0.102972999 0.602782845
0.497659892 0.074003719 0.624920726
0.633270264 0.028083727 0.635041475
0.767235994 0.002277288 0.649841845
0.907906294 0.073371567 0.695762217
0.095382914 0.153700009 0.586337864
0.157875001 0.149904996 0.592283547
0.253257096 0.145604074 0.600505590
0.374193549 0.135863289 0.608222604
0.496647358 0.117394164 0.622264087
0.635420620 0.096268460 0.628210187
0.763567150 0.089563549 0.634914577
0.898165345 0.129664719 0.683364809
0.035673447 0.210879400 0.605059922
0.132194817 0.213915378 0.622137785
0.254016221 0.209235102 0.622390866
0.384187043 0.206198722 0.630233884
0.520303249 0.201391488 0.637444675
0.656673074 0.206451550 0.650853872
0.787602603 0.218342885 0.662745118
0.915875852 0.267552257 0.702466667
0.138267010 0.329032004 0.629095197
0.184187159 0.318405926 0.639974833
0.280582011 0.313345879 0.647185326
0.416445345 0.317267269 0.650853813
0.552435279 0.321821272 0.654522419
0.675015807 0.330803186 0.663630784
0.800885558 0.347628266 0.669449806
0.909297585 0.390132904 0.696521163
0.283871174 0.468564391 0.656420052
0.329538435 0.469323397 0.670081973
0.395699084 0.471600175 0.672738612
0.490955085 0.467805266 0.673118174
0.597976029 0.466160566 0.673624516
0.705882609 0.482226610 0.687033296
0.819861233 0.501328468 0.695635617
0.912840009 0.535483956 0.722201049
0.436559200 0.632258177 0.703352273
0.453889817 0.637318254 0.708285987
0.503225803 0.641998708 0.708032608
0.569133282 0.642504632 0.708159387
0.656546652 0.636053264 0.706894219
0.732068419 0.640227795 0.715117276
0.839088738 0.655534744 0.734851301
0.916888237 0.685009599 0.737001538
0.518912017 0.774067283 0.724351823
0.529917777 0.774446666 0.720683277
0.561416805 0.780265570 0.727134347
0.619734406 0.779126942 0.733206570
0.681214392 0.779632986 0.735610366
0.752182066 0.789500356 0.741555572
0.836179316 0.790385842 0.749525547
0.914231420 0.814800918 0.772802114
0.602276742 0.905376196 0.777862012
0.616318583 0.910815835 0.777482510
0.636432648 0.906894386 0.782669187
0.673245013 0.908918619 0.782542706
0.730423748 0.910563231 0.791397810
0.782289684 0.916888297 0.801138282
0.858570457 0.920303524 0.803795040
0.951296687 0.924857318 0.827703595
0.001265167 0.113724999 0.771789730
0.085136026 0.108665645 0.771789730
0.233017117 0.102213912 0.774699450
0.367868453 0.080202527 0.771663606
0.507780194 0.038456671 0.787729383
0.633649707 0.004554272 0.788867772
0.756356299 0.033649433 0.804427564
0.874762952 0.118152924 0.808348894
0.001644715 0.143326998 0.754965007
0.052751403 0.138393551 0.760657609
0.224035382 0.134598270 0.773940146
0.369892478 0.115749359 0.776090801
0.501708031 0.096015207 0.777988434
0.626818478 0.082479529 0.780897915
0.746869028 0.099304378 0.791650891
0.872485697 0.153067350 0.800379813
0.001897738 0.200379372 0.779506445
0.005819120 0.205819175 0.782416284
0.208222672 0.198861271 0.791397750
0.368121564 0.194813266 0.792662621
0.511321843 0.192156911 0.794307649
0.644655466 0.196584195 0.806071997
0.755850494 0.222896740 0.806072056
0.882605970 0.268184930 0.821252406
0.000000000 0.300822288 0.790259242
0.003162904 0.299936444 0.790638566
0.205439597 0.300063312 0.798482001
0.374573290 0.304744005 0.798229039
0.520050645 0.308412641 0.801897705
0.649209559 0.316128939 0.806578040
0.765338540 0.340164542 0.808981538
0.885894775 0.378241390 0.822390616
0.175838143 0.452118993 0.802909791
0.233523011 0.454902023 0.812650025
0.311701685 0.450980365 0.815433502
0.413156390 0.435294032 0.813915312
0.545983374 0.443643212 0.816065788
0.671727061 0.460721374 0.823276520
0.780518770 0.482226640 0.830866814
0.894370675 0.513219357 0.835926414
0.391903758 0.624541402 0.834661603
0.411132067 0.623529196 0.839089274
0.458949834 0.620746315 0.840860069
0.530929804 0.614674091 0.841998577
0.608096302 0.611511767 0.840101361
0.693990946 0.616698444 0.844275892
0.802909732 0.638203740 0.852118671
0.909930468 0.663883686 0.863756895
0.496900648 0.770398438 0.848577023
0.510563135 0.774320006 0.852624714
0.538266718 0.775964618 0.856673062
0.589247465 0.777988374 0.860088408
0.653763175 0.773308158 0.859835684
0.731309414 0.775584936 0.864389718
0.817078054 0.779506624 0.867299259
0.927893519 0.798228800 0.881720126
0.587222755 0.920682907 0.884123802
0.593548536 0.919038355 0.885768294
0.618848801 0.916761637 0.887665808
0.657178998 0.920935988 0.890701890
0.712713361 0.916508615 0.892220140
0.774952471 0.916761637 0.891966820
0.853004634 0.916002631 0.902087033
0.942947388 0.925869823 0.908918560
