Assets/EldamarStudio/100 Retro LUTs Pack/LUTs/cube/Edward LUT.cube
DOMAIN_MIN 0 0 0
DOMAIN_MAX 1 1 1
LUT_3D_SIZE 32
0.125489995 0.125489995 0.117647000
0.134598389 0.131561995 0.123718992
0.143706769 0.133332998 0.127640769
0.152814835 0.130803004 0.129411995
0.162681550 0.126249000 0.129791453
0.177861929 0.132321000 0.132827058
0.190512002 0.138393000 0.135863319
0.202656418 0.141176000 0.135610282
0.215560094 0.142694190 0.134092093
0.230740502 0.148766965 0.137128487
0.243010998 0.154839009 0.134345129
0.265275240 0.158886746 0.137380987
0.291460991 0.163060993 0.140037641
0.316255063 0.169386029 0.137760997
0.346615821 0.178494409 0.143832996
0.379379779 0.182795808 0.145098001
0.418848544 0.188867807 0.146616191
0.463124543 0.197975576 0.149652421
0.502593040 0.207083985 0.152688041
0.539278746 0.213409007 0.155724362
0.575711489 0.221378729 0.149272531
0.614168286 0.231498986 0.145224258
0.656672955 0.243769497 0.156989485
0.699177802 0.258949906 0.160025105
0.734851301 0.271853000 0.163061291
0.769639313 0.283997327 0.166097313
0.805060148 0.297660053 0.169133052
0.835420847 0.318912417 0.172169447
0.857811749 0.337507963 0.175205827
0.882606149 0.357495159 0.185325727
0.909044981 0.378747582 0.197849214
0.933332980 0.400000006 0.203922004
0.128526390 0.128526390 0.126755387
0.134598389 0.134598389 0.126755387
0.145857006 0.136369392 0.126375616
0.157115623 0.136369392 0.127640769
0.167615086 0.135357395 0.129791453
0.174826309 0.141429394 0.132827058
0.184946060 0.139911070 0.138393000
0.203162402 0.144465417 0.137001619
0.218595892 0.148007676 0.134092093
0.224667728 0.151802585 0.137128487
0.251486808 0.157874629 0.140164122
0.270335615 0.161922887 0.141429260
0.295636028 0.167236045 0.144212395
0.322833776 0.175205767 0.143832996
0.358759820 0.181530803 0.149904996
0.389120579 0.183428392 0.143959194
0.421884567 0.191904187 0.143579796
0.459455729 0.202783197 0.147881180
0.496521026 0.207083985 0.155724436
0.538772821 0.221758366 0.155977398
0.575711489 0.230487123 0.156863004
0.616192281 0.240607381 0.153320774
0.662618458 0.252624899 0.156989485
0.702213407 0.261986315 0.160025105
0.737887442 0.274889410 0.160784006
0.772675693 0.289816380 0.167235941
0.806578457 0.306261748 0.174699768
0.829348862 0.324984431 0.175205842
0.851739824 0.343579978 0.183554530
0.881846845 0.360025167 0.183807850
0.910309851 0.378747582 0.193168968
0.930297375 0.400000006 0.209994003
0.138014004 0.140164778 0.127261221
0.139784992 0.141935766 0.129411995
0.150158003 0.141555995 0.131562218
0.158507168 0.142821163 0.131056160
0.167994767 0.143706769 0.133712992
0.177609086 0.146236777 0.134977832
0.188361675 0.149019450 0.136242777
0.199114412 0.150916770 0.139025778
0.219861001 0.155471236 0.135483772
0.229854301 0.157115519 0.137128487
0.251865834 0.165211782 0.140164122
0.275142491 0.171283767 0.139152259
0.298671871 0.173308000 0.143074006
0.326249301 0.179380253 0.145351037
0.358886719 0.187349990 0.149525777
0.394813359 0.192916006 0.152181968
0.426691949 0.194434196 0.149145961
0.463250875 0.206451982 0.152814761
0.505755782 0.214041829 0.160404965
0.541302741 0.226059362 0.161164001
0.583807468 0.235546991 0.157369003
0.618722260 0.244402349 0.156863004
0.660088480 0.255660981 0.157115996
0.699556947 0.270841122 0.162175879
0.740923047 0.282226771 0.165085003
0.772928536 0.295762062 0.166476682
0.806325257 0.313219130 0.174826279
0.830866635 0.331435889 0.176470995
0.858570755 0.349651963 0.184440136
0.883365095 0.369639158 0.198861405
0.916002333 0.384693205 0.199367777
0.938013971 0.402150780 0.211765006
0.147627994 0.154080003 0.124225155
0.143832833 0.152814835 0.129791230
0.154965177 0.151929229 0.137887374
0.167109177 0.151423171 0.132068172
0.171284005 0.154459447 0.135484010
0.183428004 0.155344844 0.137254998
0.193042323 0.156609684 0.138519838
0.207716420 0.158759996 0.141050160
0.220620111 0.165591091 0.141809061
0.238330171 0.167109162 0.142315000
0.258190870 0.172042862 0.142694443
0.280708402 0.177862167 0.141682252
0.304237783 0.185072511 0.140923634
0.332321197 0.185958058 0.146110132
0.364705980 0.194054574 0.147122249
0.396078616 0.200759158 0.150158361
0.433523178 0.207843035 0.153194025
0.466919512 0.212144405 0.156230405
0.512333870 0.223656014 0.161670014
0.550790370 0.234535173 0.163440838
0.587349474 0.242884159 0.160911009
0.629854262 0.251992285 0.158886999
0.661606491 0.261859655 0.159645990
0.701075256 0.278937310 0.165718004
0.740290523 0.292599559 0.168247879
0.774699271 0.306135595 0.173813835
0.805566072 0.321315378 0.177356154
0.834408402 0.338773042 0.181151450
0.863124490 0.358254284 0.188235298
0.892979085 0.378241479 0.195066243
0.919418156 0.397722691 0.211511821
0.946363151 0.410246819 0.213029847
0.153320551 0.166224003 0.122707449
0.145730153 0.163946703 0.131815165
0.154459000 0.162681550 0.142567784
0.170145556 0.163946718 0.146110013
0.182289541 0.166982993 0.129411995
0.194433555 0.170018598 0.135483995
0.202656642 0.170524538 0.139405221
0.214547992 0.170524538 0.143706322
0.231246099 0.172042638 0.149399444
0.246426493 0.181151032 0.152435064
0.265654534 0.181909993 0.150411338
0.287918955 0.184313804 0.148513734
0.313725650 0.189247444 0.146995649
0.341050029 0.197849065 0.150285006
0.377103239 0.203795284 0.147628129
0.407463789 0.210626543 0.147501811
0.439342171 0.218216345 0.150917351
0.479063630 0.227324113 0.153573573
0.512460053 0.236432523 0.156609967
0.554205835 0.245540902 0.159645647
0.592915535 0.252751529 0.160025194
0.630992830 0.261100680 0.159266442
0.673371077 0.276407510 0.165085450
0.712840199 0.291840911 0.170651451
0.748892963 0.305123538 0.173308000
0.780518293 0.317900091 0.175964653
0.805945635 0.333460093 0.186085001
0.839341998 0.348640442 0.192157000
0.867425382 0.368754268 0.197469994
0.896141350 0.389247596 0.201138556
0.924731195 0.409487903 0.205060080
0.949020028 0.424667537 0.217204094
0.156356946 0.178368002 0.131815061
0.159392565 0.181404397 0.140923440
0.162554935 0.179127097 0.139278933
0.173181385 0.179127097 0.139279008
0.185325935 0.182163388 0.135483995
0.197469950 0.185198992 0.129411995
0.212144256 0.185704932 0.135483995
0.224161997 0.185704932 0.139405221
0.236559093 0.186464027 0.143706322
0.246426493 0.190259412 0.149399459
0.273244888 0.193548054 0.152435064
0.297026932 0.198102504 0.156483069
0.323592365 0.203668937 0.157621652
0.353194028 0.209993839 0.156357005
0.380518407 0.213029444 0.162429005
0.416571677 0.223782659 0.152561948
0.446932197 0.233396739 0.152055994
0.480075687 0.242504507 0.156356946
0.524604857 0.251612902 0.156609967
0.566350639 0.260721296 0.159645647
0.605060339 0.267931938 0.164579004
0.642504990 0.275016069 0.167109057
0.682479441 0.285515904 0.168121055
0.721947849 0.303731918 0.168121055
0.752308309 0.319165289 0.175964341
0.782542288 0.331056237 0.177988678
0.811891139 0.342694223 0.180518985
0.842378378 0.360784441 0.198229000
0.870461762 0.378620982 0.198988006
0.897786081 0.395572245 0.205313206
0.924731195 0.413535655 0.214674518
0.949020028 0.433775932 0.229348868
0.161923006 0.190512002 0.140923321
0.162428945 0.191018075 0.137381390
0.167615324 0.191903681 0.142188221
0.176217318 0.190512002 0.139784679
0.187982231 0.192662776 0.140543774
0.197975993 0.197849706 0.143074319
0.212650314 0.200885326 0.142062321
0.229474992 0.200885326 0.144845322
0.244149089 0.201644421 0.146236643
0.256799489 0.204680815 0.148766965
0.273244888 0.205186769 0.154459447
0.296521246 0.210246637 0.159519330
0.321441948 0.217457637 0.164452672
0.350664020 0.225174278 0.164705709
0.382542402 0.232763901 0.168500990
0.414674401 0.235800132 0.167362183
0.450980306 0.246047184 0.161669672
0.483238101 0.254522622 0.163820267
0.523086607 0.261733294 0.161923021
0.560784459 0.268311352 0.167235956
0.603289187 0.281214714 0.172169313
0.640986919 0.289184302 0.175205454
0.678557992 0.297153980 0.173561126
0.710815609 0.315369993 0.171157315
0.745730519 0.329032004 0.173434600
0.777735591 0.343959332 0.182036623
0.810373366 0.355850458 0.186590746
0.840733528 0.370019227 0.202782989
0.865907788 0.388235301 0.210119992
0.893232107 0.402909279 0.215433195
0.920556545 0.419987202 0.224541590
0.946489692 0.442884326 0.236432999
0.169639707 0.209234402 0.150031701
0.172928706 0.205945402 0.142315000
0.177229702 0.209234402 0.141049936
0.183301687 0.205439240 0.144085884
0.194686696 0.205439255 0.144844875
0.205059916 0.212776855 0.149652153
0.220873013 0.217963383 0.150664285
0.234408692 0.219354704 0.152309000
0.255660892 0.219354704 0.151549906
0.275268883 0.221505478 0.150664285
0.292093575 0.221631989 0.153194293
0.309677243 0.225679994 0.160910994
0.328652620 0.231751993 0.165844351
0.354459077 0.240354314 0.169133052
0.387855798 0.249462277 0.173561126
0.421252400 0.253763527 0.171789899
0.457685173 0.261353701 0.167235717
0.493611217 0.270588577 0.168247700
0.529031992 0.277672678 0.168247968
0.568753719 0.283744723 0.173561007
0.604048193 0.292219996 0.176343992
0.642504692 0.305376410 0.180391997
0.677672267 0.312460482 0.178115278
0.711068690 0.329158694 0.176597089
0.743706107 0.344465405 0.183048561
0.778494596 0.356609374 0.187476620
0.813409328 0.371030688 0.194813415
0.842630982 0.383175194 0.204301149
0.869323373 0.398987979 0.211511701
0.890449107 0.416951358 0.222643912
0.917773545 0.432637364 0.236179680
0.945097983 0.456925988 0.249082983
0.179506987 0.232764095 0.155345008
0.183301896 0.227450997 0.148513705
0.189373896 0.229981184 0.146615997
0.196204990 0.232005119 0.146363169
0.203415543 0.224414736 0.149020001
0.215939090 0.232764021 0.151676163
0.233902633 0.236306101 0.151423007
0.250348002 0.240607098 0.153067723
0.265528172 0.241366193 0.156863004
0.295888960 0.241366193 0.153826609
0.315370083 0.242125094 0.154459000
0.335863203 0.244655102 0.159013256
0.355976820 0.249968186 0.165844351
0.371410251 0.256293207 0.168880031
0.402277321 0.265401572 0.174446732
0.434914798 0.271979898 0.174826279
0.468311191 0.277292997 0.173308089
0.509677112 0.289437145 0.168501094
0.543706119 0.298672050 0.174320102
0.582415819 0.305755973 0.180392101
0.619987249 0.313725442 0.182669088
0.653890193 0.322074234 0.181909993
0.684376657 0.331435591 0.182289496
0.720176876 0.346616000 0.184187084
0.752814353 0.360278368 0.191018179
0.786084354 0.374826163 0.199620247
0.820493042 0.388488233 0.207210958
0.847564399 0.401391268 0.208475992
0.874130368 0.416951001 0.213030085
0.897659838 0.432384372 0.224415079
0.917014480 0.450854123 0.237698063
0.944338918 0.475142181 0.261986077
0.191651002 0.254016519 0.149273008
0.188614622 0.250980139 0.149273008
0.192409530 0.254269570 0.151043713
0.199746683 0.257811993 0.151423156
0.209487557 0.257811934 0.149020001
0.224667937 0.260847539 0.149020001
0.244781807 0.256546527 0.146616161
0.264262974 0.257558525 0.146995723
0.283744186 0.262618601 0.150791004
0.308032990 0.265655011 0.156863004
0.329664886 0.268564135 0.159645617
0.354838759 0.269449532 0.162555262
0.381783634 0.270841181 0.165844351
0.407843053 0.274510026 0.168880031
0.426059812 0.283618391 0.171916410
0.454522491 0.295129955 0.175079316
0.483491212 0.302340329 0.179380476
0.515749097 0.307653159 0.183681488
0.564325988 0.319797963 0.183681503
0.595572233 0.329032153 0.189500496
0.630233943 0.338013738 0.191777483
0.666540265 0.346109986 0.190765366
0.702593446 0.352688015 0.188361511
0.735989928 0.367868423 0.197469905
0.764958739 0.378494799 0.201644778
0.793927789 0.390639156 0.205060288
0.823529422 0.406705052 0.210246593
0.847817421 0.427957386 0.225426957
0.872232616 0.446173429 0.229348838
0.896647453 0.460720927 0.239595219
0.919797122 0.474889189 0.252118707
0.941302538 0.493358970 0.258950472
0.197975993 0.283997744 0.157748133
0.206578344 0.286780328 0.154839009
0.199240983 0.285894722 0.148387223
0.209108189 0.289184153 0.149652004
0.227198198 0.290069878 0.152688131
0.242377922 0.285515815 0.157748133
0.257558316 0.291081756 0.155218452
0.279696405 0.289816737 0.155471161
0.302719861 0.292599648 0.157748133
0.329158872 0.295635492 0.159519121
0.353446871 0.298671871 0.156863004
0.380771488 0.303731769 0.157874882
0.407843143 0.304364085 0.160025358
0.432890773 0.303858012 0.163061038
0.453763694 0.307653397 0.166097417
0.479190648 0.316761792 0.173940793
0.512081087 0.325363874 0.181024805
0.542315125 0.331056327 0.187855706
0.570398748 0.340923846 0.190133005
0.605060160 0.353067905 0.195699006
0.643137336 0.360404730 0.201770991
0.678557992 0.369512856 0.202783138
0.708791971 0.379632890 0.200126737
0.733839095 0.392030656 0.206451789
0.764958680 0.407210439 0.211005583
0.794307292 0.418975323 0.215433106
0.823655963 0.432637930 0.219987065
0.847943962 0.449083298 0.225553438
0.874889433 0.467678845 0.243389949
0.901201963 0.480582058 0.254775316
0.923972130 0.493358731 0.266413480
0.941175997 0.511575043 0.270461977
0.210120246 0.318405986 0.164831996
0.215180129 0.317394108 0.153700382
0.225553736 0.314231515 0.156483486
0.226565659 0.314231515 0.153700247
0.246679693 0.316888273 0.159013256
0.258570313 0.317394227 0.161796272
0.275774837 0.319417983 0.160278067
0.294244230 0.323845685 0.157242462
0.318912357 0.324984342 0.158760265
0.346236765 0.328020275 0.158760265
0.374699235 0.329032391 0.155850619
0.401012003 0.332068264 0.154838741
0.430234134 0.337001890 0.157115743
0.455661267 0.336242706 0.161037043
0.480455637 0.339278668 0.164073423
0.510563016 0.343074054 0.169892535
0.536369622 0.352182448 0.182036921
0.568880796 0.358760506 0.190891683
0.592916250 0.366477221 0.193927720
0.621252656 0.376343966 0.201770991
0.650853992 0.386590719 0.204048008
0.687666118 0.393801391 0.211890996
0.715116978 0.405059993 0.214294761
0.743200541 0.419102043 0.220367253
0.770018816 0.429474950 0.226186216
0.797596216 0.443263590 0.229221821
0.825173795 0.455914319 0.235167325
0.847943962 0.471094668 0.241239697
0.870840907 0.484883219 0.251486480
0.896394849 0.499557227 0.266160458
0.922580659 0.513346195 0.281973243
0.941175997 0.533839524 0.290701985
0.224161997 0.346868634 0.167488649
0.226059258 0.344971389 0.158001393
0.235546887 0.344339013 0.155598000
0.246679515 0.340797007 0.158254355
0.262239456 0.340797007 0.162428916
0.273624331 0.345351011 0.160152003
0.290322632 0.347754329 0.159898683
0.310183704 0.350790352 0.159139723
0.332195014 0.354585618 0.158381000
0.359139860 0.358001471 0.159140006
0.388235271 0.359266639 0.157368779
0.417710096 0.360152006 0.155218005
0.447312266 0.362049282 0.155218005
0.475142658 0.365085602 0.160278007
0.504238009 0.368121207 0.160657778
0.536369383 0.371157438 0.166097343
0.564073384 0.376091182 0.175585181
0.587096930 0.384566993 0.188867986
0.612903416 0.390639007 0.192409709
0.640228033 0.399493933 0.203289002
0.665275395 0.408602029 0.208981648
0.692599773 0.417710155 0.212017506
0.719924152 0.427071482 0.224035010
0.749272823 0.442251891 0.232131809
0.776217639 0.454016328 0.238204002
0.801011920 0.464515984 0.245161608
0.825300097 0.476660639 0.249209225
0.847185075 0.491208404 0.258317441
0.870714426 0.504870594 0.267425835
0.894876420 0.518153191 0.278304935
0.917393982 0.532953858 0.290448964
0.941175997 0.556989610 0.308158994
0.236812055 0.365085095 0.163694009
0.238077030 0.364832044 0.164452970
0.246173084 0.368121058 0.163440973
0.256799191 0.371916115 0.163187876
0.266287059 0.371916115 0.160151556
0.284503818 0.371916115 0.151043937
0.303732008 0.372169077 0.151549682
0.323592722 0.373307765 0.154838681
0.345098048 0.376850039 0.158127964
0.369386077 0.382922024 0.164199963
0.396331608 0.385831863 0.164452970
0.425933003 0.387350053 0.162681744
0.457178921 0.387603045 0.161037043
0.490829051 0.387856066 0.161037043
0.524225414 0.390891671 0.154965043
0.557368755 0.393927842 0.158507034
0.585199237 0.398229033 0.166603342
0.606578052 0.404048026 0.177988946
0.624794126 0.410120040 0.184060976
0.650348127 0.418469369 0.197217315
0.674130738 0.427577764 0.207969964
0.696901143 0.436685890 0.215306923
0.723846018 0.445920020 0.224667519
0.750790834 0.460973978 0.236938775
0.775332034 0.474130005 0.244782001
0.798481643 0.486274332 0.252245665
0.820240080 0.498419017 0.261353999
0.844528854 0.510563016 0.270461589
0.870967805 0.525363803 0.280075848
0.897786140 0.540544152 0.291207999
0.922707021 0.556989610 0.303858072
0.940923035 0.578242004 0.316002101
0.255028814 0.416698217 0.151550010
0.270208418 0.413661808 0.160657629
0.275774926 0.409107804 0.152814582
0.283112228 0.409360975 0.152055755
0.290196240 0.411385208 0.157495424
0.299683422 0.411385208 0.157115936
0.328020185 0.413914889 0.153067678
0.350917101 0.413029522 0.156230003
0.371410400 0.412776709 0.160151586
0.390638411 0.416318387 0.161163583
0.414927125 0.416571379 0.161416590
0.445920229 0.421252489 0.161416590
0.477545679 0.424921155 0.161922649
0.509045064 0.427324414 0.164073423
0.545477808 0.430360764 0.164073423
0.576470375 0.433396399 0.167615399
0.605945528 0.436432570 0.170651406
0.632005334 0.440101206 0.175711557
0.658191204 0.443516403 0.187096581
0.673624575 0.446805745 0.187602580
0.697027385 0.454902142 0.204047903
0.719671130 0.464010268 0.219101831
0.742061973 0.473244399 0.230740294
0.760277987 0.485389203 0.245919928
0.780392110 0.500442505 0.255913854
0.802656353 0.513598680 0.264389634
0.826312125 0.525743365 0.273498058
0.850600898 0.537887394 0.282606363
0.872232795 0.552688241 0.297026992
0.894750178 0.567868590 0.310942143
0.917267561 0.583048999 0.326375574
0.937887430 0.599494398 0.343327224
0.285262793 0.453889787 0.153826997
0.290828377 0.450854003 0.155724421
0.297406554 0.447817624 0.156230032
0.310815990 0.447058618 0.152434990
0.323339492 0.450474322 0.159266204
0.328399628 0.448450595 0.159266204
0.343200445 0.450980276 0.163946673
0.370271772 0.452371597 0.155977011
0.393042177 0.450853765 0.157495007
0.414547622 0.452245116 0.160784006
0.440986514 0.454775393 0.158380806
0.467299044 0.456799120 0.160404548
0.499936432 0.461353630 0.161922649
0.531309068 0.464389622 0.165212005
0.561290622 0.467426002 0.169512987
0.592915773 0.468058586 0.167109177
0.624794364 0.472612381 0.171663374
0.651992798 0.476534009 0.173181579
0.674003959 0.479569644 0.180012822
0.695003331 0.482605964 0.188235000
0.715875983 0.487539589 0.195825472
0.739152133 0.495129794 0.214547798
0.760404468 0.502972603 0.229854673
0.780897856 0.515116811 0.249588907
0.796837091 0.524984241 0.264769077
0.813535631 0.538519561 0.275521755
0.833775938 0.551169991 0.288172126
0.854269683 0.565211773 0.306768209
0.873497784 0.572801828 0.316381931
0.901834130 0.591524184 0.331561983
0.922074556 0.611511528 0.348513365
0.937255025 0.632763982 0.368247986
0.315623194 0.490322560 0.155344814
0.318658799 0.487286568 0.158380806
0.323213160 0.487286776 0.150158033
0.330044359 0.484250396 0.154711962
0.350284398 0.489563376 0.160404548
0.352182120 0.489943087 0.159266204
0.371410519 0.488931239 0.161290199
0.390006363 0.488804370 0.165085003
0.414294571 0.490322351 0.156736091
0.438583374 0.491840363 0.162049189
0.461227059 0.493232042 0.160910875
0.491587430 0.494750112 0.163440928
0.517773509 0.497785985 0.165338188
0.549272418 0.500569344 0.167741999
0.575331986 0.502340555 0.171283990
0.605060160 0.504490972 0.174699381
0.638456583 0.507526994 0.176217183
0.669323564 0.512333989 0.178620994
0.688425183 0.514484227 0.180771768
0.712460577 0.516002357 0.186337844
0.729538202 0.522454202 0.195825472
0.752814353 0.528526187 0.207969993
0.773940206 0.534851253 0.225553483
0.793801308 0.546995580 0.249588907
0.813535690 0.555344641 0.266287267
0.825932741 0.565844357 0.282858968
0.842884064 0.577482462 0.296774060
0.864136696 0.590638816 0.320050687
0.879317164 0.602403522 0.338646531
0.900316298 0.617330790 0.357368559
0.930170774 0.636811972 0.375205338
0.941809237 0.661606193 0.397090167
0.342314959 0.529158950 0.154838577
0.347248316 0.526755154 0.160277992
0.351802498 0.526755333 0.153193787
0.357874960 0.527893960 0.147501156
0.370398521 0.525616586 0.161542997
0.371663541 0.531435549 0.159266353
0.391903877 0.529917836 0.158127993
0.415939271 0.527514398 0.159139872
0.438583165 0.526755154 0.163440675
0.462871939 0.532827079 0.166477069
0.482606113 0.532447517 0.166603565
0.508412361 0.533080101 0.170018986
0.539025843 0.534218729 0.174446568
0.563061595 0.537255049 0.174952567
0.586970150 0.537634492 0.175711557
0.615433156 0.538772881 0.177988574
0.646299779 0.543326735 0.185325563
0.681467533 0.548766136 0.191397563
0.702719986 0.548766136 0.191397563
0.728273332 0.550031126 0.193548337
0.748007536 0.554458857 0.200379714
0.762555122 0.561922729 0.209867567
0.783807456 0.567868173 0.222138032
0.802530169 0.578494728 0.247438326
0.822391212 0.585452557 0.265022278
0.838077486 0.594940126 0.284756541
0.848703206 0.606578112 0.302466631
0.875648022 0.615686417 0.323466003
0.889690101 0.628842771 0.346110046
0.907780170 0.646932542 0.373434544
0.927134991 0.666413963 0.399873525
0.948387444 0.681593537 0.424161583
0.366603047 0.565590978 0.163946971
0.378747821 0.565590978 0.166982576
0.383681178 0.563187778 0.163820013
0.385705024 0.561923027 0.159518987
0.388614565 0.562049389 0.161543012
0.403794944 0.565084994 0.167614996
0.417710334 0.563314319 0.165338367
0.437191695 0.561923027 0.164200023
0.459962070 0.563187957 0.166730076
0.487159967 0.569259882 0.175585464
0.511448741 0.566603065 0.175711960
0.533207178 0.567868233 0.177735701
0.557748556 0.570651591 0.181024656
0.584313989 0.573687911 0.184060976
0.605566382 0.576723576 0.190132961
0.631878734 0.574699819 0.186084986
0.657937944 0.576723933 0.190132976
0.684503138 0.582163334 0.200505972
0.714864016 0.585198939 0.206577986
0.736116409 0.590764940 0.206577986
0.757874727 0.594433725 0.212523744
0.777355909 0.597976148 0.221632123
0.795951486 0.601265430 0.231246442
0.817203879 0.604301035 0.246426061
0.835926592 0.608096361 0.260341585
0.850221634 0.616951644 0.282479584
0.860847950 0.630866885 0.311574996
0.879063904 0.639974535 0.326755404
0.892725945 0.649082839 0.345097959
0.911954403 0.664009988 0.372675151
0.932447970 0.681593597 0.402909219
0.945351005 0.696773946 0.427198023
0.388108373 0.582542360 0.167488649
0.391903818 0.585325718 0.164958969
0.399747014 0.587475955 0.167994574
0.407210350 0.585705221 0.167615175
0.413661927 0.584187388 0.168753818
0.419228315 0.584819794 0.167614996
0.434408695 0.585325718 0.173687637
0.451233357 0.585831642 0.173055366
0.470588207 0.587729156 0.175332263
0.491840839 0.591777325 0.184440136
0.510689378 0.594687164 0.179253638
0.537001908 0.593675077 0.183301628
0.559772253 0.595952094 0.187096655
0.583301663 0.599241018 0.189626962
0.604553998 0.604806960 0.188108638
0.633017242 0.605439365 0.194180638
0.662239373 0.605819225 0.198735043
0.688425064 0.609993756 0.208981782
0.712333620 0.613029420 0.212903008
0.739911735 0.613282382 0.216192365
0.759266317 0.623149812 0.214294627
0.781657100 0.627830744 0.222896889
0.805312872 0.628969371 0.237571508
0.826565266 0.629348874 0.252751797
0.838709652 0.636938453 0.267931402
0.856799662 0.642378390 0.280581981
0.871980011 0.653384268 0.302719951
0.885641992 0.667045891 0.324731082
0.901201785 0.678811014 0.355850428
0.915243506 0.689816713 0.381783366
0.934724987 0.703352332 0.413282543
0.950663984 0.714737713 0.441366374
0.420746207 0.616698205 0.176217467
0.416192114 0.615939081 0.176976368
0.427071452 0.622770429 0.178241700
0.429348290 0.620746017 0.177482471
0.438709289 0.617204249 0.177862182
0.447817653 0.618722498 0.174825788
0.453384072 0.620619714 0.177482635
0.475142449 0.617330730 0.186843991
0.491840571 0.620366454 0.187855989
0.506641686 0.624541163 0.193548247
0.528652787 0.623782575 0.191903725
0.549145997 0.628589690 0.190132722
0.573055029 0.628589690 0.193927735
0.593295515 0.630613446 0.195951998
0.612903118 0.633396447 0.194560319
0.639468610 0.638456464 0.202529728
0.662239194 0.641492486 0.207083926
0.689437211 0.644908309 0.217457563
0.711954057 0.647944272 0.223023504
0.740670323 0.648197234 0.224162087
0.764199972 0.650094450 0.232890725
0.784440279 0.658190966 0.233902588
0.810499787 0.658443987 0.248956725
0.829980910 0.661986470 0.258823901
0.847818017 0.665022135 0.270208687
