Assets/EldamarStudio/100 Retro LUTs Pack/LUTs/cube/Edward LUT.cube
LUT_3D_SIZE 5
DOMAIN_MIN 0.000000 0.000000 0.000000
DOMAIN_MAX 0.903226 0.903226 0.903226
0.125489995 0.125489995 0.117647000
0.202656418 0.141176000 0.135610282
0.346615821 0.178494409 0.143832996
0.614168286 0.231498986 0.145224258
0.857811749 0.337507963 0.175205827
0.169639707 0.209234402 0.150031701
0.234408692 0.219354704 0.152309000
0.387855798 0.249462277 0.173561126
0.642504692 0.305376410 0.180391997
0.869323373 0.398987979 0.211511701
0.255028814 0.416698217 0.151550010
0.350917101 0.413029522 0.156230003
0.545477808 0.430360764 0.164073423
0.719671130 0.464010268 0.219101831
0.872232795 0.552688241 0.297026992
0.455154985 0.660215139 0.190385997
0.492346853 0.660847425 0.193928123
0.628716111 0.668058097 0.210120246
0.788488269 0.690575242 0.258191109
0.919291794 0.728526235 0.367362469
0.629221737 0.893231928 0.429474741
0.647817910 0.893611491 0.429981083
0.718532324 0.902466595 0.470208555
0.837950945 0.912839949 0.520429850
0.962302148 0.923339784 0.595572352
0.131688714 0.125489995 0.173560694
0.201391399 0.138899282 0.179126993
0.386843681 0.140543997 0.196457699
0.647438645 0.227198124 0.211258829
0.874889374 0.341809064 0.237064943
0.171283990 0.211511686 0.198102415
0.247185394 0.219354689 0.209234402
0.421505094 0.251739413 0.222011283
0.668690503 0.309297979 0.234028816
0.878810823 0.410752803 0.268437535
0.245540693 0.420240492 0.209866986
0.346995473 0.419860810 0.211511686
0.556230068 0.434914351 0.219354704
0.719924033 0.474130243 0.284756690
0.883997619 0.562808514 0.344085783
0.455154836 0.673244715 0.258064538
0.507147074 0.672612548 0.255534708
0.638583124 0.677166522 0.277419239
0.791144848 0.698039532 0.312460542
0.916635096 0.732447624 0.425679862
0.636559069 0.899177611 0.468437523
0.654269695 0.897533059 0.473624110
0.724477947 0.906008959 0.504616976
0.833522797 0.918026567 0.555724144
0.961036921 0.924604654 0.619101346
0.135357410 0.137254998 0.281847388
0.202023983 0.138899297 0.289689958
0.388487935 0.130044416 0.323086798
0.691587567 0.068563998 0.381909788
0.916761816 0.154458970 0.338013560
0.158127591 0.210246697 0.315496683
0.237697676 0.204301119 0.324351817
0.454522401 0.202656403 0.346236676
0.718405902 0.216445148 0.360025108
0.909803867 0.337254912 0.361922920
0.264895409 0.429095805 0.359013379
0.353573501 0.427703828 0.363947093
0.563693762 0.434914351 0.372043401
0.739531755 0.489563674 0.404933810
0.893864334 0.569006801 0.443516761
0.457558542 0.677799106 0.391524106
0.513978839 0.674256802 0.402276993
0.646679401 0.684629977 0.413788944
0.795572281 0.698039532 0.448956549
0.908412278 0.742188394 0.558380783
0.618469119 0.897786200 0.566097200
0.647311807 0.901707411 0.563820302
0.723719358 0.907653570 0.584313989
0.835926652 0.915749550 0.626185715
0.969766021 0.928525984 0.675901115
0.136242867 0.134345129 0.461227238
0.226944983 0.133586287 0.471600413
0.418595642 0.109045006 0.496521235
0.679696143 0.026312878 0.534725130
0.913093090 0.120050609 0.608222246
0.116381876 0.196837410 0.502340257
0.237697676 0.198102415 0.501960695
0.447691530 0.187982693 0.521062553
0.708412111 0.182795703 0.560404956
0.916382134 0.270208776 0.615433276
0.255028546 0.406451523 0.559519529
0.344339103 0.404806823 0.555724323
0.543453813 0.407842904 0.567109704
0.759139776 0.434914380 0.590638697
0.923212945 0.494750082 0.621758401
0.472865254 0.681720138 0.609361410
0.519164860 0.683364868 0.607337117
0.640354097 0.682732284 0.620746255
0.782543004 0.696394980 0.641492963
0.905249655 0.747754335 0.673245132
0.620746493 0.900821924 0.720936060
0.635041058 0.907906294 0.711701393
0.698671639 0.910562873 0.716888189
0.811006129 0.916761637 0.735483885
0.950537801 0.929411650 0.770524740
0.001265167 0.113724999 0.771789730
0.202909559 0.105502881 0.774446607
0.439468801 0.062618859 0.777609169
0.664010108 0.003036126 0.793674767
0.874762952 0.118152924 0.808348894
0.002656833 0.184693277 0.782289624
0.169765621 0.180392161 0.785578609
0.443643272 0.169259995 0.790765643
0.673497856 0.175838009 0.798228741
0.880075991 0.243390381 0.820746422
0.027957439 0.385072410 0.809613943
0.200000077 0.373307973 0.812903166
0.470714808 0.372043252 0.818848610
0.696900845 0.395951688 0.823023319
0.896394372 0.457179219 0.841113508
0.416445434 0.657938123 0.839974642
0.466793269 0.659203291 0.842378199
0.584060729 0.653257489 0.846552908
0.721315324 0.656166971 0.847058952
0.913978636 0.700063288 0.862997949
0.587222755 0.920682907 0.884123802
0.609740734 0.914484680 0.890701890
0.679317176 0.915369987 0.886021316
0.796963811 0.918026805 0.894244075
0.942947388 0.925869823 0.908918560
