Assets/EldamarStudio/100 Retro LUTs Pack/LUTs/cube/Elizabeth LUT.cube
LUT_3D_SIZE 8
DOMAIN_MIN 0.000000 0.000000 0.000000
DOMAIN_MAX 0.903226 0.903226 0.903226
0.113724999 0.015686000 0.031373002
0.168121547 0.039595451 0.043516546
0.264137089 0.064262994 0.058823999
0.364832640 0.098671995 0.065021999
0.495762378 0.140923187 0.098671801
0.648323715 0.190006256 0.121569000
0.771157563 0.232637569 0.153574005
0.869575799 0.277292997 0.196204826
0.120430455 0.128905535 0.064642541
0.174825981 0.126122996 0.048956547
0.251612991 0.138266638 0.065022089
0.347122103 0.164958537 0.086274996
0.480329186 0.196963936 0.102720000
0.627830684 0.238962799 0.124984443
0.751549542 0.269450009 0.156862721
0.859456182 0.304617345 0.196711093
0.096647903 0.260847270 0.099556997
0.143832639 0.262365162 0.099431090
0.256167173 0.280455321 0.100316092
0.373687297 0.290195733 0.112840094
0.469955474 0.292979181 0.119038284
0.625300467 0.328273088 0.140164182
0.748387098 0.351929277 0.162808090
0.856925905 0.380012661 0.215306878
0.002783356 0.457052559 0.140164286
0.001517999 0.464895546 0.144465536
0.232384652 0.478684127 0.152435347
0.417709887 0.495635539 0.153574005
0.570272088 0.506388545 0.153447181
0.626692235 0.452498555 0.166729897
0.719670892 0.445035011 0.181024700
0.834028780 0.460215092 0.224035412
0.000000000 0.645035148 0.202783182
0.001138644 0.647058785 0.211385190
0.114105001 0.651233315 0.212903276
0.372548908 0.656419694 0.217584178
0.554838598 0.656799197 0.229348183
0.709298193 0.657938063 0.248450637
0.758633673 0.598861217 0.246553183
0.823023498 0.568754196 0.259329528
0.009487733 0.756609976 0.331056237
0.081340745 0.764705956 0.325489908
0.243263811 0.764705718 0.340290755
0.389374018 0.758380711 0.341049731
0.540544093 0.763567388 0.356230170
0.669955492 0.758507192 0.367994994
0.800759017 0.764453173 0.390765488
0.842124999 0.725363731 0.391397476
0.348513842 0.819861233 0.431625277
0.374572635 0.820493460 0.443010747
0.420113742 0.819987357 0.453384072
0.478937566 0.824162006 0.446805924
0.561796427 0.816951334 0.456040472
0.656040251 0.816318989 0.466539830
0.742441535 0.814674258 0.481593966
0.841239810 0.818089783 0.513219237
0.546995640 0.848450005 0.546995640
0.556735992 0.851359546 0.550284505
0.579000652 0.850474298 0.564326048
0.603795111 0.848576844 0.559013307
0.637571156 0.850979984 0.563820302
0.688804686 0.840733945 0.574319959
0.744845092 0.842757583 0.581277668
0.797470033 0.835294008 0.600379765
0.129032448 0.036052998 0.133586541
0.172422081 0.035673548 0.132068530
0.274383098 0.065021999 0.144591644
0.341935545 0.110815734 0.148007289
0.470714569 0.157495201 0.171663091
0.627071559 0.197722733 0.188614741
0.748386979 0.233776018 0.205313280
0.856926084 0.281973660 0.238077372
0.139152542 0.117140643 0.124605000
0.186970547 0.132827535 0.134345546
0.240227625 0.145730197 0.143453106
0.332574517 0.170019105 0.159519553
0.460214823 0.200252742 0.169765741
0.609108210 0.233902544 0.188867807
0.732827127 0.272991538 0.207969740
0.846299887 0.304743677 0.234408796
0.152181998 0.236179635 0.159013093
0.184314013 0.244402200 0.168880552
0.245161280 0.251739651 0.173181176
0.347501636 0.267425627 0.177103087
0.459329695 0.286654085 0.181783989
0.607210577 0.321568847 0.194180995
0.731056452 0.349525392 0.215053633
0.839974344 0.380391926 0.246299818
0.027830720 0.421758533 0.201644540
0.084250279 0.432764351 0.215180546
0.235041201 0.441366374 0.206324831
0.396457911 0.463251293 0.209108174
0.540290534 0.476533711 0.211764723
0.601518333 0.432763934 0.212650537
0.708665609 0.443896443 0.220872998
0.825047433 0.463377625 0.257558376
0.005439805 0.618722618 0.256926090
0.003415642 0.626059353 0.258190721
0.161164001 0.634029269 0.257811755
0.377229661 0.641872227 0.266287208
0.553953171 0.643137574 0.276027709
0.694749892 0.644908130 0.280708551
0.746995330 0.586590648 0.279822707
0.809867024 0.560531259 0.287286460
0.104744017 0.745097935 0.347248524
0.184819564 0.746110201 0.352561474
0.281087637 0.749778509 0.361416727
0.407337010 0.753320396 0.371157348
0.542567790 0.751675963 0.382668823
0.666034460 0.754079282 0.392662913
0.792663038 0.756862760 0.412776589
0.839215815 0.720682859 0.404047996
0.366223812 0.815306723 0.447691530
0.395825565 0.814041555 0.451866090
0.429980934 0.815433145 0.455028564
0.492852718 0.812903047 0.455281615
0.573054850 0.815306723 0.477925271
0.655914068 0.814674258 0.479696721
0.749651790 0.811132252 0.497659534
0.831625819 0.812397122 0.513345897
0.557874501 0.845161200 0.558886528
0.566477120 0.848450005 0.559519351
0.589247227 0.847944260 0.563187718
0.610752702 0.847311676 0.567489028
0.646173179 0.847059011 0.567995131
0.694749892 0.842631221 0.578747809
0.744465709 0.840606987 0.596584380
0.796331644 0.834662020 0.613156199
0.117647000 0.049336094 0.252245188
0.190512091 0.045034546 0.251106739
0.271221012 0.062618896 0.241240084
0.399114728 0.090069897 0.279316634
0.524731338 0.121442087 0.277419120
0.638962746 0.165464744 0.268058091
0.748387277 0.238077179 0.289816290
0.844655454 0.304491073 0.314484328
0.154459104 0.151297003 0.218975544
0.189373553 0.145350739 0.225680098
0.259076536 0.146489188 0.228336632
0.370904654 0.169260010 0.255408198
0.486021727 0.191650540 0.261100918
0.604048312 0.234661549 0.266160756
0.729917765 0.276154339 0.290322751
0.837950468 0.327008098 0.304237902
0.176470995 0.224794164 0.220114097
0.205060363 0.246806100 0.240986645
0.267931998 0.269450009 0.259329289
0.348640084 0.273371100 0.255408198
0.464516282 0.299304187 0.265654892
0.604933381 0.322833568 0.281340986
0.727134764 0.351802558 0.290702105
0.835293949 0.391650975 0.318279833
0.181277916 0.399114460 0.293231815
0.195572555 0.407843381 0.284629852
0.265148640 0.425426930 0.291334391
0.393801242 0.441871941 0.292979211
0.499557376 0.440860391 0.285136163
0.585072517 0.422517538 0.277293086
0.709804177 0.443896651 0.294876665
0.813282430 0.472359180 0.323086739
0.039468747 0.598608375 0.327387393
0.136369467 0.600885510 0.339279085
0.259076476 0.615939319 0.342315078
0.401391625 0.622643709 0.347881168
0.554712236 0.629348218 0.350917161
0.666539907 0.622643769 0.360784531
0.724098563 0.574320257 0.330423564
0.801771104 0.566350162 0.346995860
0.298418820 0.731309295 0.422390997
0.329158753 0.731309235 0.424035698
0.378367990 0.734724760 0.422897071
0.460847706 0.739531934 0.429095566
0.565970898 0.740417659 0.438709468
0.675901771 0.742694736 0.449588984
0.778494477 0.747881114 0.463124573
0.830486894 0.716002584 0.444149286
0.432890654 0.804301143 0.480329007
0.454775572 0.805692613 0.489183813
0.480708361 0.811511755 0.492979199
0.527514100 0.806324959 0.500316441
0.593042254 0.808981478 0.506008744
0.675142586 0.811511695 0.515875936
0.755850673 0.808349311 0.531309366
0.831245959 0.815939367 0.554205894
0.592536509 0.846931994 0.572422683
0.595319152 0.847691119 0.579253554
0.614041686 0.845161080 0.584313691
0.631372452 0.843390346 0.594560504
0.665148616 0.842251897 0.593295157
0.704996586 0.841492832 0.600885451
0.749272585 0.838330269 0.611385107
0.793421984 0.839974880 0.624541461
0.118785642 0.079063997 0.392915636
0.191650540 0.081846647 0.386211276
0.302466989 0.087792903 0.382289290
0.397469908 0.099177651 0.368247986
0.601644397 0.098039001 0.424035192
0.720682859 0.147754371 0.412144542
0.794686973 0.223276630 0.389500290
0.855787635 0.316761613 0.390765458
0.136875540 0.178621083 0.353699833
0.197216645 0.170019090 0.358887076
0.284756571 0.170019105 0.363187641
0.387349814 0.167235732 0.363567173
0.582795382 0.184566647 0.404680729
0.687665939 0.218975529 0.395445764
0.771663666 0.269196570 0.382795721
0.841492414 0.346995562 0.385578901
0.167867988 0.276913643 0.351170063
0.197470099 0.289057285 0.345477283
0.280834764 0.287159860 0.352435261
0.402150631 0.288677841 0.366223723
0.554585576 0.313345999 0.393295258
0.650854051 0.328905582 0.374446392
0.730297267 0.375205457 0.385578990
0.817457318 0.430739999 0.407716900
0.202277005 0.382415920 0.346489668
0.231119186 0.389500022 0.353194267
0.316382080 0.422138155 0.374446392
0.425553590 0.455787271 0.399114639
0.504491150 0.436685622 0.370904714
0.606072009 0.444402099 0.371030629
0.708412528 0.466919571 0.387856007
0.807842970 0.501834631 0.410120100
0.268817008 0.570145547 0.408475727
0.317014277 0.578747690 0.421632171
0.379759461 0.596458077 0.434914470
0.448450714 0.608601928 0.428968817
0.567362368 0.618343174 0.441619635
0.637318254 0.594813347 0.425173849
0.695509076 0.556736112 0.396457911
0.799241126 0.583554626 0.420493245
0.439974636 0.708285868 0.491840661
0.442251831 0.712460279 0.487792552
0.464136809 0.716002524 0.487033725
0.514357924 0.722706974 0.494117647
0.593295395 0.729791105 0.500822186
0.687286377 0.735610604 0.517141104
0.758760154 0.737507939 0.509677589
0.809234679 0.708159626 0.490322471
0.498418629 0.794560373 0.536242962
0.519670904 0.794054270 0.542315245
0.534724832 0.798481882 0.539911389
0.572295904 0.801265001 0.545351326
0.627324522 0.802783072 0.553573668
0.695256174 0.804427445 0.562555313
0.764326334 0.805186570 0.577861905
0.824161828 0.807210684 0.590765119
0.626944780 0.844655216 0.606831312
0.638582945 0.840227544 0.619860828
0.645160973 0.839468598 0.619101882
0.667552233 0.839342237 0.624668002
0.692346811 0.839848161 0.624921024
0.723971844 0.838330150 0.632258117
0.765211821 0.838077366 0.646173418
0.806831181 0.835547328 0.663124800
0.132447988 0.123086803 0.528273225
0.208855346 0.123718992 0.522707164
0.331562191 0.117520288 0.513978302
0.457811624 0.113219544 0.507780194
0.590512574 0.115875989 0.510183394
0.744971573 0.161669657 0.527261257
0.840354085 0.276027650 0.526755393
0.897026777 0.366350144 0.501454949
0.139911443 0.203668371 0.486401260
0.200632289 0.202909380 0.493231803
0.313725650 0.198988080 0.499430835
0.446553081 0.193548098 0.494876653
0.572675407 0.191903889 0.497153640
0.725996017 0.235167623 0.515243590
0.825047433 0.324604660 0.507400572
0.883744597 0.391903818 0.499051452
0.177102998 0.333712995 0.477166295
0.212270886 0.330297559 0.477545738
0.303099066 0.315623194 0.480961353
0.441113174 0.311321706 0.487413228
0.567236185 0.321948171 0.491208196
0.710942388 0.374572814 0.515243590
0.790006280 0.425047487 0.503732085
0.851486385 0.474509656 0.497027099
0.199494079 0.442504644 0.456167012
0.246932536 0.446805835 0.471094280
0.336622387 0.459329605 0.472865552
0.445540458 0.464389235 0.477419645
0.572422624 0.474889100 0.488804460
0.666793168 0.503225803 0.499178082
0.735231042 0.515876055 0.485388726
0.811764538 0.536115944 0.492346823
0.281847000 0.553953171 0.471853375
0.321695387 0.565085351 0.469450176
0.406578094 0.569766045 0.481973261
0.501581132 0.597217143 0.500442624
0.580771387 0.621505141 0.511068940
0.626818299 0.588361859 0.486400932
0.701455057 0.590259254 0.485136181
0.793801606 0.610499680 0.496773958
0.461985916 0.689057231 0.526881993
0.480581760 0.691713750 0.532700539
0.521821558 0.697533011 0.540038168
0.565085411 0.709803939 0.545983672
0.614041805 0.719164729 0.550537527
0.689183950 0.729664445 0.561164200
0.738393426 0.714357793 0.538772941
0.790512562 0.687286556 0.516002595
0.575838268 0.780012488 0.590133011
0.586084485 0.785072625 0.593801439
0.596331477 0.786337912 0.595698893
0.609993815 0.789753437 0.589626729
0.647312045 0.801897585 0.597090602
0.705882490 0.797723055 0.607716560
0.768121362 0.802024126 0.621884704
0.815306842 0.802909434 0.624921024
0.676154613 0.835420787 0.655407965
0.675774753 0.837318182 0.656546354
0.681214690 0.835926890 0.658190966
0.695002913 0.835167766 0.659203112
0.713345945 0.835167766 0.664769173
0.747628033 0.834535241 0.671726942
0.772169292 0.833902597 0.680328846
0.804174662 0.834029138 0.690955043
0.152941003 0.172295988 0.621125758
0.219101533 0.177735269 0.621125758
0.328400105 0.176850080 0.617204726
0.454902023 0.170145735 0.623023450
0.595192909 0.168627545 0.608601987
0.719038665 0.187602460 0.605439723
0.832384288 0.276407301 0.613915265
0.899683833 0.425173759 0.610246837
0.167868525 0.241998985 0.599747002
0.224667728 0.238836095 0.602276921
0.325616628 0.238709271 0.607716680
0.450600982 0.234534815 0.600758731
0.579379916 0.235673472 0.595572233
0.706514716 0.251486719 0.597090244
0.819861174 0.332447648 0.602530181
0.897912502 0.452877998 0.616066098
0.210625812 0.359771907 0.589247406
0.251107097 0.362555355 0.583681464
0.336622179 0.359013021 0.592789590
0.450094730 0.359772116 0.591271698
0.578747809 0.357368857 0.587223172
0.698039234 0.375711471 0.593169093
0.801011980 0.452118903 0.603794754
0.876407564 0.538772643 0.616318882
0.291207999 0.490196377 0.570777833
0.316382021 0.496521175 0.564832330
0.394054115 0.499177903 0.570145726
0.466666460 0.498039305 0.570524991
0.576723576 0.491334796 0.572675407
0.676533818 0.509045303 0.576723337
0.776976526 0.560025215 0.597090423
0.848450661 0.595445871 0.607337356
0.348007470 0.583175123 0.562048912
0.377103359 0.588614762 0.555976927
0.439721704 0.599494159 0.556230247
0.507273793 0.608475804 0.563440979
0.592030406 0.615559936 0.571536958
0.677419484 0.626945019 0.583301902
0.759898484 0.641492963 0.597217202
0.819354713 0.643769801 0.587476432
0.456419736 0.670082450 0.558633745
0.466919482 0.676660538 0.564959168
0.507653356 0.676027715 0.569007039
0.554838419 0.685009360 0.576850116
0.631498694 0.700316429 0.592915714
0.695762277 0.717267513 0.603415430
0.717773199 0.687665761 0.575585008
0.794433951 0.699430704 0.579126835
0.556989253 0.766983032 0.618595719
0.570018828 0.765338778 0.615559757
0.596204996 0.770904481 0.626186192
0.630740285 0.775964260 0.632004917
0.676533818 0.783934176 0.641239703
0.714484394 0.795319736 0.649968684
0.768374264 0.802783310 0.661859751
0.806325078 0.788867772 0.646932483
0.685515642 0.825426757 0.682605922
0.694244206 0.830739796 0.682858765
0.710562825 0.828842640 0.689816713
0.726122677 0.829095602 0.691460788
0.735104382 0.831246138 0.693611562
0.758633494 0.830107808 0.692852616
0.781910121 0.832131863 0.710309684
0.811891139 0.832890928 0.721189082
0.180012271 0.241112977 0.714611292
0.230487093 0.243137240 0.710436702
0.329917908 0.245794088 0.711448371
0.441619337 0.248450622 0.711195588
0.572043002 0.251866281 0.702972829
0.702340186 0.263630271 0.702340245
0.812017262 0.319165289 0.697279990
0.897280395 0.418848753 0.691714048
0.210752532 0.296647370 0.704237521
0.247438088 0.295129567 0.701581240
0.336116374 0.300948828 0.701328039
0.447438300 0.307779789 0.702972949
0.569766104 0.311068833 0.706641436
0.695635438 0.322454095 0.695635498
0.800505817 0.364326417 0.690575242
0.889310479 0.446932316 0.687792420
0.285515547 0.414294749 0.690575361
0.311701387 0.415686488 0.688678205
0.371790171 0.420493454 0.690449238
0.468437552 0.421631753 0.692346632
0.579759479 0.423529476 0.687160075
0.696141839 0.433776379 0.680455744
0.792536318 0.464136571 0.689563274
0.871093988 0.528652608 0.684124231
0.390385538 0.553826571 0.664263248
0.416192204 0.551423192 0.663883746
0.443896443 0.545098007 0.666539848
0.503984869 0.541555882 0.667552292
0.594433784 0.539911211 0.670461833
0.688045502 0.547501445 0.673624635
0.776723504 0.558886647 0.676407576
0.854142904 0.605692685 0.683238447
0.429980993 0.631372452 0.651233256
0.450727612 0.634029150 0.654269457
0.490955353 0.639468670 0.652625144
0.546110094 0.640733838 0.659456015
0.602656305 0.633902550 0.655914187
0.684503734 0.632384360 0.664389312
0.767362475 0.645035028 0.668563962
0.831499040 0.682985425 0.683870912
0.491207987 0.702593446 0.651866257
0.506514788 0.701075196 0.657052517
0.531815529 0.707653344 0.652498603
0.574952781 0.708791673 0.650727630
0.628463149 0.713598907 0.660721004
0.691334248 0.716382205 0.667552292
0.763061523 0.725742996 0.679443240
0.815559506 0.748133838 0.688804567
0.543706536 0.761037290 0.650601268
0.560151756 0.755218029 0.644275784
0.578115165 0.760278225 0.654522300
0.611005545 0.763314605 0.656293571
0.662871540 0.768248320 0.663757205
0.723971784 0.777609050 0.675395250
0.767235994 0.791777253 0.699936986
0.794180989 0.776091218 0.671853423
0.667552352 0.823023558 0.693358541
0.676027894 0.821378529 0.691966951
0.693611622 0.819734156 0.703984678
0.713092923 0.822643995 0.709045231
0.742188513 0.825173974 0.714484751
0.772548795 0.828083575 0.722707272
0.781404495 0.830487192 0.730550230
0.813030005 0.832763970 0.738393188
0.263124764 0.340290606 0.789753139
0.293358654 0.345857203 0.780518770
0.357874632 0.348893017 0.782542884
0.445920467 0.359772444 0.784566581
0.555977225 0.370651394 0.777735472
0.667931974 0.389120668 0.779000819
0.777229488 0.425173759 0.774066806
0.856293678 0.480328590 0.758253992
0.297912627 0.393042445 0.780391812
0.320809305 0.393295199 0.769765556
0.381657183 0.399493873 0.780265987
0.465654910 0.406451553 0.773434699
0.560278356 0.417457163 0.774699450
0.667046309 0.434155285 0.771789849
0.775584817 0.457431853 0.763946533
0.851106882 0.505755603 0.766350389
0.390006483 0.497406840 0.759645998
0.400505990 0.505629420 0.765085280
0.443263829 0.506514728 0.764832139
0.512586892 0.511701405 0.763946533
0.587223172 0.514358044 0.761163771
0.682099998 0.520556509 0.762934923
0.778873861 0.534471750 0.760151863
0.850347698 0.565464616 0.758760035
0.474256396 0.610373080 0.749905169
0.488425344 0.605945706 0.748893082
0.514990330 0.607463896 0.756862700
0.558507442 0.607843459 0.752181828
0.615433216 0.606831312 0.754079461
0.689816356 0.601644456 0.750537813
0.770271897 0.607843220 0.750537574
0.838077009 0.627830565 0.750284493
0.523845434 0.680834949 0.732827365
0.542314947 0.686021149 0.739658356
0.568247974 0.688804686 0.742694616
0.600126207 0.682479322 0.740417540
0.643137157 0.681340933 0.743959665
0.698798239 0.676913261 0.747122049
0.769006968 0.679696620 0.744339108
0.828716159 0.689942777 0.744971752
0.566350460 0.737887681 0.737128258
0.577862144 0.740544140 0.742314994
0.597975671 0.740290880 0.731435955
0.626691997 0.744212508 0.736622155
0.671473861 0.747627974 0.739152372
0.712839663 0.748133659 0.736622274
0.769892573 0.744971633 0.735610187
0.816571712 0.752055705 0.744592071
0.614674509 0.787096798 0.728146315
0.617583930 0.786717474 0.726628602
0.630740106 0.785072565 0.731435895
0.659961760 0.789373815 0.733333349
0.693738103 0.789753377 0.732068121
0.734598279 0.794054568 0.735483766
0.773434460 0.796205044 0.741682410
0.811891139 0.801265001 0.742821097
0.667172611 0.826312602 0.737634420
0.676660299 0.822390974 0.737002075
0.686148047 0.823023617 0.730929792
0.707400441 0.824794412 0.735989749
0.730170608 0.819481134 0.733079910
0.763314426 0.824414909 0.739405692
0.787602842 0.825300515 0.738772810
0.803921998 0.831498861 0.742568016
