Assets/EldamarStudio/100 Retro LUTs Pack/LUTs/cube/Elizabeth LUT.cube
LUT_3D_SIZE 5
DOMAIN_MIN 0.000000 0.000000 0.000000
DOMAIN_MAX 0.903226 0.903226 0.903226
0.113724999 0.015686000 0.031373002
0.238330111 0.062744997 0.056546707
0.423782796 0.122959986 0.077165999
0.682732284 0.200126261 0.125616997
0.869575799 0.277292997 0.196204826
0.108791716 0.230486691 0.086653702
0.231119707 0.240986690 0.091208287
0.408728808 0.254395992 0.114104703
0.668311298 0.314864129 0.144212127
0.860467970 0.360278398 0.207969651
0.003289416 0.565591395 0.166729569
0.083238311 0.586211085 0.182163104
0.503478825 0.602909803 0.187729403
0.692726254 0.545603693 0.203668550
0.835041225 0.516634762 0.235420823
0.066160731 0.769766152 0.352308393
0.254142642 0.780898094 0.363061249
0.473624378 0.776343703 0.374193668
0.695256114 0.774699271 0.398355246
0.841619134 0.756989479 0.423782259
0.546995640 0.848450005 0.546995640
0.571410477 0.850727260 0.553446949
0.619355083 0.849714994 0.562428594
0.703731656 0.839215994 0.571790040
0.797470033 0.835294008 0.600379765
0.124478295 0.047059000 0.227197692
0.246173695 0.054269418 0.210879117
0.445035100 0.110815704 0.246552393
0.661733270 0.203668565 0.252119124
0.855534673 0.297912687 0.298291802
0.165085703 0.202023983 0.198102400
0.242884696 0.233776093 0.228209972
0.401265115 0.263251126 0.240354091
0.644402564 0.312207699 0.258570284
0.843136907 0.371157676 0.299810529
0.038076974 0.520809650 0.294876814
0.198102400 0.547374785 0.290954977
0.494370788 0.565591335 0.304743826
0.652878106 0.516888082 0.288298815
0.821505487 0.521821499 0.322074264
0.297153652 0.755091965 0.419101804
0.372295827 0.763314486 0.434534967
0.517646968 0.763567269 0.441745549
0.696900547 0.766477168 0.458697140
0.836559057 0.748893142 0.460088730
0.584440351 0.848450005 0.563061178
0.600126326 0.849462092 0.579000533
0.643516660 0.842884243 0.590512216
0.719165206 0.838962674 0.598355353
0.794686913 0.837950826 0.616698325
0.124857575 0.096773997 0.462997794
0.282479405 0.102340281 0.448576808
0.488551378 0.105249576 0.442124784
0.764705539 0.182922110 0.470840961
0.881340981 0.334472030 0.446552396
0.163061306 0.281214416 0.413282812
0.263503969 0.270082384 0.416192144
0.483997792 0.266792953 0.429348528
0.720176995 0.334977835 0.446173251
0.842125237 0.421884775 0.442631394
0.230866402 0.464895397 0.417836398
0.327640384 0.493105412 0.425679803
0.517899811 0.548640251 0.458317429
0.635167718 0.520809531 0.429980934
0.795699179 0.559139371 0.459076792
0.481720120 0.723465919 0.526755571
0.513092935 0.728653133 0.527261257
0.577355921 0.741682529 0.538393140
0.712334096 0.756104112 0.556103587
0.810372949 0.734851420 0.532953799
0.638962328 0.838583410 0.627071381
0.658190906 0.838330090 0.635167480
0.688551426 0.837950826 0.641492486
0.743327200 0.835041225 0.650854051
0.805945575 0.837950826 0.672105968
0.155977130 0.187476128 0.644402146
0.298798412 0.193295121 0.643769681
0.520430386 0.190385997 0.637444854
0.743326962 0.219987243 0.629728258
0.899177670 0.425426573 0.626692116
0.210625827 0.341050118 0.616571844
0.314864069 0.344338953 0.621379137
0.516255558 0.342694670 0.619860888
0.727640390 0.368627518 0.622770131
0.887033820 0.521568537 0.636053443
0.342061818 0.558760107 0.580897987
0.416698217 0.570524931 0.592157125
0.547881186 0.573434770 0.598608553
0.700316429 0.581657231 0.602529705
0.840986729 0.637571275 0.630993247
0.476660281 0.694370985 0.571790159
0.514484406 0.702846289 0.587476134
0.604174376 0.709045112 0.603162587
0.714990139 0.736496091 0.627703965
0.795952141 0.720177114 0.602909446
0.680455506 0.825933099 0.681846797
0.701201499 0.824035704 0.689563632
0.733839154 0.828842402 0.699936628
0.767488956 0.829854488 0.703225911
0.813156009 0.830866635 0.725996137
0.263124764 0.340290606 0.789753139
0.337887347 0.347880900 0.780518770
0.496268392 0.365844190 0.781783998
0.694244206 0.399493933 0.777988791
0.856293678 0.480328590 0.758253992
0.368501008 0.472359180 0.765464783
0.411891460 0.479190320 0.766856372
0.536875367 0.485768497 0.768501103
0.704111397 0.501075327 0.762175739
0.849588931 0.548766613 0.760025084
0.526628375 0.657179177 0.742694795
0.542947352 0.653257191 0.746995449
0.602909625 0.648071051 0.747880816
0.711321831 0.647691309 0.754079700
0.835420847 0.658444166 0.751170218
0.577735484 0.751802802 0.731308937
0.597216785 0.756736279 0.737254918
0.652625263 0.758127511 0.736496091
0.731309295 0.760025263 0.735863268
0.816824734 0.766224027 0.747627914
0.667172611 0.826312602 0.737634420
0.686653733 0.822011709 0.735231042
0.715369821 0.820366561 0.733459830
0.772169828 0.825933099 0.737887502
0.803921998 0.831498861 0.742568016
