Assets/EldamarStudio/100 Retro LUTs Pack/LUTs/cube/Elizabeth LUT.cube
DOMAIN_MIN 0 0 0
DOMAIN_MAX 1 1 1
LUT_3D_SIZE 32
0.113724999 0.015686000 0.031373002
0.119797774 0.021758001 0.034408614
0.132321224 0.025679775 0.035294000
0.148766324 0.031246159 0.037823997
0.168121547 0.039595451 0.043516546
0.195445940 0.042631064 0.046552934
0.215179995 0.055787317 0.052118998
0.238330111 0.062744997 0.056546707
0.264137089 0.064262994 0.058823999
0.285389483 0.070335001 0.058823995
0.306641132 0.073497869 0.055914126
0.335989743 0.084630251 0.058949992
0.364832640 0.098671995 0.065021999
0.387350053 0.110815994 0.071093999
0.423782796 0.122959986 0.077165999
0.457811803 0.130296990 0.088045605
0.495762378 0.140923187 0.098671801
0.536369503 0.155470982 0.106514573
0.569765985 0.167615011 0.109550975
0.611511767 0.179759711 0.118153363
0.648323715 0.190006256 0.121569000
0.682732284 0.200126261 0.125616997
0.718785524 0.212144479 0.137634501
0.746109903 0.221252099 0.146742910
0.771157563 0.232637569 0.153574005
0.795445919 0.241998985 0.162428975
0.820240021 0.249589071 0.174572989
0.847564399 0.264769435 0.186716989
0.869575799 0.277292997 0.196204826
0.896141350 0.291208178 0.212397158
0.922074616 0.306388587 0.231878594
0.937255025 0.321568996 0.247059003
0.122833386 0.036938384 0.037445001
0.122833386 0.036938388 0.037445001
0.137508154 0.045161162 0.042631388
0.156103939 0.051233385 0.044402387
0.176091388 0.058190994 0.046552837
0.195445940 0.063883454 0.049588550
0.212650314 0.071979709 0.055155259
0.235294074 0.079570100 0.057938386
0.261100709 0.080961771 0.057305809
0.282353133 0.082479775 0.052751232
0.306514591 0.094370767 0.061480094
0.327893257 0.101834118 0.062998250
0.358380497 0.113851897 0.070335381
0.390385658 0.125490382 0.079949416
0.426818401 0.132068381 0.083238766
0.458444208 0.144212380 0.091713957
0.492726386 0.153067589 0.095635809
0.532195091 0.163946971 0.100569360
0.572802365 0.173687801 0.115622967
0.606198788 0.194181144 0.115876004
0.642251730 0.199494392 0.122327603
0.676660299 0.206198767 0.128652602
0.712713540 0.218342975 0.140543640
0.740037918 0.230360493 0.146742910
0.767362297 0.239468679 0.155850708
0.793801248 0.252245665 0.165464953
0.819228053 0.263757318 0.176597387
0.841492414 0.273877025 0.183681369
0.868816793 0.283744454 0.193168521
0.890828192 0.297280163 0.205818787
0.918279409 0.311574966 0.224541187
0.946363389 0.324604601 0.244022608
0.119038224 0.062491775 0.041366227
0.129790992 0.064642549 0.043517001
0.140543774 0.066793323 0.043517001
0.156230226 0.073371381 0.049588997
0.175205544 0.078178316 0.050980452
0.196963996 0.082479544 0.050474066
0.210499540 0.086780325 0.056040645
0.232257918 0.095888704 0.060468286
0.256546348 0.100695990 0.060215324
0.275015742 0.103478998 0.055534586
0.301328033 0.108665772 0.057558645
0.333712518 0.118785508 0.068690769
0.354459077 0.127893418 0.070968002
0.384313792 0.139026001 0.079063997
0.416951030 0.148892999 0.087792642
0.457178831 0.159772530 0.091334954
0.489057422 0.167362347 0.097406574
0.524857581 0.176470563 0.098165795
0.564326406 0.188614979 0.111828014
0.602783442 0.200253367 0.119797774
0.636179745 0.213915244 0.117900036
0.669576108 0.217710346 0.125236988
0.704743683 0.228589505 0.137381017
0.736116111 0.238709778 0.147501811
0.763441026 0.248577058 0.155850708
0.789373696 0.256293774 0.162175685
0.816445172 0.268691003 0.172043219
0.842631221 0.279443324 0.181404218
0.869196594 0.288551599 0.194433913
0.891207755 0.306514710 0.208854720
0.913851559 0.319291592 0.224414587
0.944718480 0.327640772 0.243137002
0.116255321 0.093611322 0.049462158
0.127640545 0.095382549 0.048703384
0.142820939 0.097153768 0.052118998
0.159266174 0.097660154 0.047059000
0.173687249 0.101075321 0.053890001
0.199747026 0.104997091 0.055281226
0.212649986 0.108032838 0.057305481
0.229221851 0.110562697 0.060468286
0.254269153 0.118911989 0.063504092
0.269955516 0.124983996 0.061480485
0.292979032 0.129412025 0.063883997
0.325110525 0.136495903 0.070715152
0.358127654 0.144465148 0.078305162
0.378494889 0.153447032 0.078558132
0.411890984 0.164579153 0.087665990
0.448070735 0.174193442 0.095129803
0.483491331 0.185579121 0.096900962
0.518785238 0.190512300 0.101201572
0.556483150 0.205060139 0.110309817
0.594434142 0.214674518 0.118153363
0.632637739 0.223782405 0.123466425
0.666034102 0.230866283 0.122454032
0.699177504 0.239468664 0.133712500
0.730296969 0.248577073 0.144718647
0.757874727 0.258950263 0.157115877
0.786338091 0.265401840 0.164705679
0.810120225 0.271979928 0.168247998
0.838203847 0.283365011 0.178873986
0.868437827 0.295382798 0.194939971
0.890448987 0.308285922 0.211891115
0.911321580 0.329031974 0.224794164
0.938646019 0.333206862 0.238077000
0.120430455 0.128905535 0.064642541
0.127640992 0.129664540 0.058190998
0.140164778 0.129285082 0.060341548
0.156609997 0.128399700 0.059582546
0.174825981 0.126122996 0.048956547
0.205186769 0.132194996 0.061100543
0.220872775 0.136875317 0.064262994
0.233775854 0.137128085 0.063124545
0.251612991 0.138266638 0.065022089
0.269829005 0.144338638 0.068058483
0.288804740 0.149652287 0.074383542
0.315623224 0.156989276 0.080961704
0.347122103 0.164958537 0.086274996
0.375205517 0.171536595 0.087286994
0.414547384 0.180771500 0.090702124
0.449209392 0.188235089 0.097786248
0.480329186 0.196963936 0.102720000
0.510436535 0.208728984 0.104617506
0.552941442 0.220873013 0.113725133
0.590639174 0.230613902 0.119671166
0.627830684 0.238962799 0.124984443
0.664895654 0.247185126 0.131182864
0.698165536 0.250221521 0.134345025
0.725742877 0.258823872 0.143200457
0.751549542 0.269450009 0.156862721
0.778241754 0.278178424 0.167488992
0.807464063 0.281846613 0.174319997
0.828716397 0.290954977 0.180391997
0.859456182 0.304617345 0.196711093
0.884376943 0.318026483 0.213788942
0.905249536 0.330550075 0.228968993
0.932573974 0.342694104 0.228968993
0.111322060 0.156229943 0.079822935
0.126502454 0.162301928 0.070714548
0.140164778 0.160910711 0.070714772
0.156609997 0.159645870 0.070461936
0.174825996 0.159519389 0.064136930
0.193041995 0.162554994 0.064136930
0.225933090 0.173687637 0.073750608
0.242125154 0.172802091 0.071473718
0.254269153 0.168247953 0.069196932
0.269829035 0.171663791 0.080202490
0.293864757 0.171916798 0.089057870
0.315117270 0.174952671 0.089563675
0.341809005 0.180138931 0.088551708
0.372169137 0.186716989 0.087286994
0.408601880 0.198861763 0.099430986
0.443137407 0.210499868 0.102846123
0.476534188 0.220114052 0.106894255
0.510183513 0.229728341 0.110689566
0.549905062 0.239089012 0.119797908
0.592409790 0.251233727 0.123339511
0.626312554 0.257179171 0.124984063
0.658191264 0.264262915 0.130044043
0.689057946 0.274509519 0.140417024
0.719417930 0.277545899 0.146489814
0.749272585 0.283870995 0.159898639
0.777229667 0.292346656 0.169512734
0.804554164 0.299936861 0.174572989
0.828716397 0.306135356 0.186463997
0.852624953 0.315243751 0.200505808
0.876660228 0.327134877 0.212650254
0.899177551 0.340164512 0.225932971
0.926501989 0.354838848 0.241113007
0.112333678 0.196204633 0.079822682
0.122454062 0.187096640 0.075774938
0.141935453 0.195319414 0.077419326
0.155344844 0.193801478 0.077040002
0.170145556 0.193674877 0.072865546
0.190512314 0.201012015 0.079317316
0.211258635 0.201517954 0.079317316
0.246300086 0.213662311 0.086780645
0.265654653 0.211511642 0.082859322
0.282605797 0.209234804 0.084377326
0.298924744 0.211891636 0.096141875
0.321189255 0.207843125 0.097153746
0.344718635 0.210499600 0.097532995
0.374193370 0.216824919 0.099430673
0.410626113 0.226691827 0.107020661
0.447058916 0.236432806 0.114358284
0.482099980 0.248450324 0.114484452
0.518405795 0.259835571 0.116128989
0.559772015 0.272738695 0.123339638
0.594434083 0.277040035 0.124351643
0.635040998 0.285389304 0.133079991
0.666287124 0.290069640 0.137634262
0.695003211 0.298924625 0.146616116
0.722959995 0.304364234 0.155091494
0.748766541 0.309677333 0.161163673
0.777229667 0.315749317 0.171410337
0.805060148 0.323719054 0.177609250
0.833396852 0.331815302 0.191776991
0.857684970 0.338013828 0.198988125
0.881973386 0.347122192 0.214168057
0.905755877 0.360278308 0.228336260
0.933080316 0.377103001 0.248196989
0.108791716 0.230486691 0.086653702
0.116255395 0.226565391 0.083618090
0.125743076 0.224541470 0.085388996
0.145730302 0.228589535 0.087666154
0.159772232 0.226312235 0.083491698
0.188614935 0.232890621 0.091334932
0.208222598 0.236053392 0.092852995
0.231119707 0.240986690 0.091208287
0.269070506 0.253130883 0.096521385
0.294370711 0.252372116 0.093106002
0.314610839 0.251739562 0.101201989
0.333839238 0.250347883 0.104870446
0.353953272 0.245414034 0.105249703
0.379253745 0.249462694 0.110815704
0.408728808 0.254395992 0.114104703
0.441872180 0.261859506 0.115243189
0.481340945 0.272485703 0.122833773
0.518026114 0.283364683 0.122200981
0.558507025 0.295508981 0.128272995
0.597596407 0.302846372 0.128778994
0.629854739 0.307779968 0.133079991
0.668311298 0.314864129 0.144212127
0.697533250 0.321568698 0.150664285
0.724857628 0.327640682 0.155218109
0.753193796 0.332068413 0.165337995
0.777482569 0.339531690 0.172801659
0.804554045 0.345856696 0.181151405
0.833776116 0.353826433 0.197469950
0.860467970 0.360278398 0.207969651
0.884756386 0.366476893 0.217710435
0.909930587 0.376470685 0.233775899
0.937255025 0.393168718 0.254269421
0.096647903 0.260847270 0.099556997
0.104237907 0.263124585 0.095762298
0.112586997 0.264010191 0.101581320
0.123718999 0.265781015 0.102087252
0.143832639 0.262365162 0.099431090
0.182542786 0.264263034 0.104744099
0.203541905 0.268058300 0.103478998
0.228842407 0.272865474 0.104870483
0.256167173 0.280455321 0.100316092
0.298671991 0.292600065 0.103352487
0.329791158 0.296268404 0.110815994
0.353573442 0.294750035 0.112081096
0.373687297 0.290195733 0.112840094
0.392410070 0.287413090 0.119165063
0.414168507 0.287413090 0.120682999
0.438836187 0.287666082 0.118279383
0.469955474 0.292979181 0.119038284
0.512460232 0.305755585 0.128779069
0.549146116 0.312207103 0.135104090
0.589626670 0.320303559 0.136369184
0.625300467 0.328273088 0.140164182
0.656167090 0.333839238 0.144971222
0.692473352 0.342694581 0.153953090
0.721062899 0.348134011 0.155218095
0.748387098 0.351929277 0.162808090
0.778241277 0.356989384 0.175078750
0.803036034 0.366097152 0.185199156
0.830360413 0.372422189 0.203162879
0.856925905 0.380012661 0.215306878
0.883238375 0.385326087 0.227451056
0.906894565 0.393169075 0.242125198
0.934219003 0.405313104 0.260342002
0.075395480 0.300316483 0.105629005
0.087539487 0.300316483 0.099557012
0.101581261 0.300442994 0.112966299
0.117646970 0.304237843 0.123339646
0.137760624 0.310941994 0.120683491
0.171157792 0.304870009 0.120683484
0.189626664 0.309297502 0.113346167
0.218089625 0.313598722 0.114484712
0.256167203 0.316888094 0.118532881
0.292599976 0.319924474 0.109424487
0.340923727 0.340797395 0.121188998
0.374320209 0.348893225 0.122960262
0.397975981 0.347121835 0.121189490
0.416698098 0.339025527 0.122201458
0.440986842 0.339025527 0.131309047
0.457938313 0.329411536 0.130423799
0.476787180 0.322580695 0.128905967
0.503352642 0.323972404 0.131815463
0.545857489 0.339152038 0.143959492
0.582542479 0.345604241 0.147501841
0.617330730 0.353700250 0.152308971
0.649589002 0.360657632 0.156356975
0.680328548 0.363947004 0.156989485
0.713725746 0.366982609 0.163061500
0.737761259 0.370145321 0.168880478
0.764959097 0.374573022 0.179380134
0.796964049 0.381277561 0.194307551
0.824288428 0.390385896 0.209487930
0.848956645 0.402023941 0.219481140
0.875142634 0.408602208 0.230486929
0.900569618 0.414421469 0.245288074
0.922074974 0.426565498 0.266414016
0.022138264 0.339784861 0.120429866
0.048830129 0.342694730 0.123086736
0.058823362 0.346995741 0.119164959
0.080075875 0.349778593 0.128019989
0.108791992 0.355597287 0.128779128
0.144718200 0.362175584 0.118659131
0.180645034 0.361163586 0.123719126
0.213282406 0.364832282 0.128019989
0.252498418 0.367868513 0.134598136
0.286780983 0.370904356 0.127640516
0.331941873 0.376849860 0.121441990
0.380518615 0.394054264 0.127514258
0.417457283 0.401770741 0.129665002
0.446552783 0.401770622 0.132953972
0.468184680 0.396457613 0.131435573
0.485262662 0.391650617 0.133332998
0.503479004 0.380518615 0.135357112
0.524098873 0.372043163 0.138140127
0.548387110 0.369006783 0.141176134
0.574193835 0.370271742 0.144971490
0.606324852 0.376091003 0.149905130
0.639721572 0.383174866 0.155977130
0.673877001 0.388108492 0.160025120
0.704490840 0.391144842 0.166097134
0.731056154 0.398735046 0.172169700
0.757115543 0.403036058 0.181024849
0.787982166 0.407083958 0.194180995
0.815306544 0.411385298 0.206957579
0.837317944 0.417836875 0.219481111
0.866666853 0.427704066 0.232384175
0.897153974 0.433017254 0.250094712
0.924478114 0.439089000 0.275395125
0.003922000 0.391397744 0.129538000
0.015053885 0.390385628 0.134598121
0.019354993 0.397596478 0.133333474
0.024667768 0.401138484 0.131562248
0.054649200 0.403415293 0.134977713
0.110816024 0.409234673 0.127766997
0.157368392 0.412776470 0.132827252
0.202023849 0.416065484 0.137254968
0.246426299 0.419481337 0.144465417
0.284883469 0.422517270 0.139658257
0.321821868 0.426439017 0.139658511
0.371410221 0.434534758 0.137634516
0.421125650 0.448576778 0.137254968
0.462745100 0.456925988 0.139278740
0.498165905 0.461479992 0.138013572
0.518659294 0.451360017 0.139405251
0.533839285 0.442251623 0.140923440
0.552182138 0.430107504 0.145856932
0.567615509 0.419607759 0.147248253
0.585326016 0.410752743 0.150031611
0.605819225 0.401265025 0.153067514
0.633649528 0.404427499 0.158001125
0.665781260 0.408601999 0.163187772
0.696141541 0.415433407 0.171157509
0.721948266 0.418975294 0.175205305
0.749019206 0.425300658 0.181277722
0.779379845 0.428336442 0.192156866
0.808222413 0.431372404 0.204301253
0.834281802 0.439089239 0.218468979
0.859076142 0.446932435 0.232384175
0.889310658 0.455155253 0.248450205
0.917393982 0.459329516 0.272359282
0.002783356 0.457052559 0.140164286
0.005819259 0.456293166 0.146236286
0.003542000 0.456166685 0.144718423
0.002276998 0.464895546 0.146362990
0.001517999 0.464895546 0.144465536
0.054649178 0.467172831 0.138393342
0.118912049 0.471347213 0.145477325
0.180771470 0.472611904 0.150158063
0.232384652 0.478684127 0.152435347
0.278684855 0.482100040 0.149778515
0.322833836 0.483997762 0.152561873
0.366097510 0.487666279 0.155850992
0.417709887 0.495635539 0.153574005
0.469323099 0.507527232 0.148007289
0.516635180 0.518785596 0.148007289
0.553194463 0.521948278 0.154965088
0.570272088 0.506388545 0.153447181
0.584819436 0.492346346 0.155850992
0.596964180 0.478684247 0.158380687
0.614168644 0.466540277 0.164832354
0.626692235 0.452498555 0.166729897
0.644908249 0.439342380 0.168753639
0.668437958 0.438583404 0.171157524
0.692726016 0.441619545 0.174193904
0.719670892 0.445035011 0.181024700
0.746742606 0.448070675 0.187729269
0.776090741 0.450600982 0.195319220
0.805186510 0.453004181 0.208096236
0.834028780 0.460215092 0.224035412
0.862491786 0.470461816 0.240353823
0.886274219 0.479570001 0.256419837
0.909803987 0.485895008 0.274636626
0.000253032 0.532195032 0.157621965
0.002783355 0.535230756 0.163187966
0.001771226 0.533080041 0.161163971
0.002529999 0.532068193 0.162175909
0.007084001 0.540797055 0.168247536
0.001012001 0.540797055 0.153067932
0.057431862 0.545351088 0.158127740
0.137760729 0.546995342 0.162555039
0.210879222 0.545983255 0.162049040
0.262492418 0.552056015 0.162049040
0.322327644 0.552309036 0.165211871
0.374193728 0.552562058 0.169513032
0.421505600 0.554333091 0.171789989
0.473118067 0.560405076 0.166477039
0.524731159 0.569512665 0.166477039
0.574193597 0.582162857 0.177229792
0.607590079 0.581656873 0.181783870
0.619987190 0.561163545 0.174066991
0.632131934 0.539911151 0.174067006
0.651866317 0.526249051 0.184693068
0.664390028 0.512207329 0.189500034
0.673750997 0.498545140 0.189247057
0.691967010 0.489437521 0.189753041
0.704364061 0.480329156 0.181530923
0.726628304 0.477040023 0.185072735
0.754838347 0.477925390 0.195066288
0.784187078 0.480961055 0.206957996
0.808475852 0.480961055 0.222137585
0.838076949 0.486274660 0.238962635
0.867931366 0.495635957 0.257431984
0.893358529 0.506641448 0.276154160
0.908538938 0.515749037 0.294370949
0.003289416 0.565591395 0.166729569
0.000253029 0.568627775 0.166729569
0.000632584 0.575964451 0.167994574
0.002529999 0.575584829 0.174319893
0.007084001 0.574572980 0.186464280
0.001012001 0.583301783 0.171283916
0.005059999 0.583301783 0.176344305
0.083238311 0.586211085 0.182163104
0.176470488 0.587981880 0.182289407
0.238203645 0.591524363 0.177229404
0.292725921 0.591777384 0.183048397
0.352688193 0.593801618 0.182416245
0.404554218 0.595066786 0.183554769
0.451865703 0.596837819 0.184693024
0.503478825 0.602909803 0.187729403
0.555091977 0.604807258 0.187729403
0.604554355 0.612523615 0.195446193
0.638583362 0.610878825 0.197596669
0.653384328 0.597596228 0.192283005
0.665528417 0.576343834 0.197849691
0.681467772 0.560784042 0.203289092
0.692726254 0.545603693 0.203668550
0.704110980 0.531941473 0.201897815
0.722327769 0.522833824 0.214041829
0.734724820 0.511448205 0.210373089
0.755597711 0.506008625 0.214041382
0.781151414 0.505755842 0.221378699
0.805439472 0.511321843 0.228210360
0.835041225 0.516634762 0.235420823
0.861859322 0.524478137 0.252878159
0.882985175 0.533333361 0.274383396
0.893358588 0.540037811 0.297406554
0.001518196 0.608602345 0.183048591
0.000885613 0.604427338 0.183048591
0.000000000 0.609614491 0.183048591
0.000000000 0.615939260 0.185578585
0.003036004 0.614041567 0.196584448
0.001012001 0.617077708 0.189500049
0.002656808 0.620999575 0.192157120
0.046552896 0.619354844 0.194687083
0.143706501 0.621631622 0.198481798
0.220619693 0.626312256 0.202276781
0.282858729 0.626438797 0.195825592
0.333459496 0.626438797 0.197849602
0.388108671 0.627956986 0.197470158
0.434661269 0.627956986 0.200505838
0.479822606 0.629727960 0.203542218
0.529031992 0.630993009 0.206577986
0.579127371 0.634029031 0.211132184
0.628969312 0.642883956 0.218975559
0.667172968 0.644908369 0.218216464
0.681973815 0.626818180 0.218469501
0.694117785 0.609360874 0.222644046
0.706768155 0.593168616 0.224667788
0.716129065 0.576849878 0.223023504
0.732068002 0.567741692 0.223782808
0.748007476 0.556356788 0.231372803
0.763061285 0.546995342 0.230107591
0.782795966 0.541429579 0.233143598
0.797596216 0.536116600 0.235420883
0.824794650 0.537381589 0.243896171
0.856926143 0.546995521 0.255281389
0.880455434 0.556736410 0.279696375
0.892599821 0.564326584 0.310056806
0.000000000 0.645035148 0.202783182
0.000000000 0.643516600 0.204300985
0.001518192 0.641492724 0.201264992
0.001518192 0.643769979 0.205060154
0.001138644 0.647058785 0.211385190
0.000000000 0.650474370 0.211764425
0.001012130 0.651486516 0.208728448
0.035926715 0.654269457 0.214421660
0.114105001 0.651233315 0.212903276
0.201391309 0.655028343 0.222770184
0.266160429 0.653763175 0.217584059
0.327387482 0.655281365 0.217584178
0.372548908 0.656419694 0.217584178
0.419987261 0.656799138 0.219987378
0.465021998 0.656799138 0.221758604
0.507779598 0.658317387 0.224794373
0.554838598 0.656799197 0.229348183
0.602783322 0.662238777 0.237824142
0.654775620 0.671726882 0.241746157
0.692979157 0.669702828 0.248071179
0.709298193 0.657938063 0.248450637
0.721442163 0.642757654 0.251486242
0.730930030 0.624921083 0.251739174
0.741935313 0.610246658 0.247311890
0.758633673 0.598861217 0.246553183
0.776597023 0.586717188 0.249842182
0.793422103 0.580898285 0.249842182
0.802529752 0.571790397 0.249842182
0.823023498 0.568754196 0.259329528
0.846299887 0.566730142 0.265907556
0.875268996 0.576217592 0.280202359
0.891081989 0.584060788 0.311575025
0.000632576 0.671726942 0.224667966
0.000000001 0.674130201 0.228336319
0.001518198 0.674130321 0.224920556
0.003289426 0.672359347 0.227071270
0.003289434 0.669702530 0.235420570
0.000506080 0.678051889 0.241239548
0.000000025 0.679569960 0.234028801
0.034155563 0.680581808 0.231878385
0.100315958 0.683997035 0.236559451
0.185325563 0.680961430 0.239595070
0.248703212 0.678557694 0.238077432
0.308665186 0.678304791 0.241113558
0.367741913 0.679443479 0.244908556
0.407211035 0.683238149 0.244908556
0.454649210 0.684756100 0.244908556
0.496015221 0.685262382 0.247311756
0.537254989 0.685894966 0.252498120
0.581530929 0.683491111 0.257305115
0.627071500 0.686527550 0.263377905
0.678431213 0.692599773 0.273118556
0.717267513 0.696015537 0.281467527
0.735989988 0.688804805 0.281214416
0.748007476 0.673624456 0.283870548
0.754585564 0.653384209 0.277798533
0.769765973 0.640227735 0.274636269
0.786844075 0.626818120 0.274256974
0.807084441 0.615686059 0.274256974
0.816445112 0.612523973 0.274256974
0.832258046 0.608855307 0.282352954
0.849209547 0.604048133 0.288551629
0.867425621 0.599367499 0.293611944
0.885642409 0.602403104 0.305755973
0.003668965 0.696015060 0.248956054
0.000632583 0.696015060 0.255028814
0.000000001 0.698418796 0.252245396
0.000253037 0.700948894 0.256293327
0.000253053 0.703099012 0.271853417
0.000253114 0.703099012 0.274889052
0.000000128 0.703858078 0.265528023
0.036179934 0.703858078 0.260214984
0.106262304 0.705629051 0.260721058
0.188361987 0.711321533 0.260847539
0.247185633 0.711195052 0.263883889
0.297280252 0.708918333 0.268438011
0.350031614 0.705250025 0.272233009
0.407211035 0.701454997 0.272233009
0.446679384 0.713598967 0.272233009
0.486906826 0.710309982 0.274636209
0.526375592 0.708033025 0.280708194
0.566350579 0.707780004 0.287665963
0.605819046 0.707780004 0.287665993
0.648576796 0.705249667 0.290955424
0.697786212 0.712713540 0.304238021
0.737507999 0.717267752 0.313851893
0.760151505 0.710056543 0.311195016
0.769259930 0.694876969 0.305123001
0.784945965 0.686021984 0.303605020
0.798987687 0.673877656 0.306135058
0.810120106 0.658190966 0.310689062
0.825300455 0.652118981 0.310689062
0.837318003 0.646300018 0.310689062
0.849968493 0.640480995 0.311701059
0.864389956 0.635294378 0.314610690
0.882606030 0.632763982 0.323972046
0.001138643 0.734219074 0.301075459
0.003668969 0.734219074 0.304364175
0.000632583 0.740670323 0.303985149
0.005059999 0.741176367 0.298545122
0.019101646 0.739658296 0.303858101
0.069576107 0.742062092 0.314105153
0.112587079 0.731941462 0.312080771
0.136622623 0.735863090 0.307273746
0.184440672 0.739278734 0.306514829
0.236053571 0.741302729 0.304491103
0.289183974 0.744339108 0.301834255
0.328652918 0.738266826 0.306894392
0.368121386 0.735989988 0.315243393
0.415559769 0.735104680 0.321568429
0.455028743 0.734598339 0.319038749
0.496900946 0.741935372 0.319038749
0.533712924 0.738899589 0.318658918
0.569386542 0.738267124 0.322074354
0.604553998 0.740417421 0.326375395
0.638456404 0.737634718 0.331942111
0.684756100 0.734598339 0.333080739
0.730423510 0.742314994 0.346995860
0.761669457 0.746995211 0.358127952
0.781403899 0.742441654 0.354712069
0.790512264 0.727261484 0.348640084
0.805819035 0.716888428 0.346236438
0.818216324 0.702973008 0.348133743
0.831119418 0.694623768 0.352687746
0.843642950 0.688551784 0.352687746
0.857558191 0.682479799 0.352687746
0.869829237 0.676407814 0.359771937
0.882353008 0.671474099 0.378368109
0.009487733 0.756609976 0.331056237
0.039089095 0.758507252 0.332194597
0.054902144 0.759266257 0.332827002
0.064516075 0.767109334 0.329791397
0.081340745 0.764705956 0.325489908
0.125363722 0.767741919 0.333080113
0.169512674 0.761922836 0.340164423
0.209614113 0.759645462 0.338772744
0.243263811 0.764705718 0.340290755
0.276280969 0.762428701 0.340670466
0.319671333 0.765338600 0.341429591
0.359013230 0.764073431 0.334977746
0.389374018 0.758380711 0.341049731
0.426059514 0.760151923 0.350916743
0.462239206 0.757115543 0.351170182
0.496521056 0.757494986 0.348639995
0.540544093 0.763567388 0.356230170
0.572295964 0.761670172 0.355471045
0.599367261 0.762175739 0.357748210
0.638456404 0.763441145 0.365717709
0.669955492 0.758507192 0.367994994
0.712460279 0.756482959 0.367994994
0.747122049 0.764958501 0.382922262
0.777229667 0.769006848 0.392283559
0.800759017 0.764453173 0.390765488
