Assets/EldamarStudio/100 Retro LUTs Pack/LUTs/cube/Ellen LUT.cube
DOMAIN_MIN 0 0 0
DOMAIN_MAX 1 1 1
LUT_3D_SIZE 32
0.011765000 0.074510001 0.070588000
0.014800613 0.071473613 0.070588000
0.019987000 0.077039778 0.070588000
0.028589323 0.081087843 0.071853161
0.039974999 0.078810550 0.074130453
0.046046998 0.081846938 0.071094066
0.057178997 0.084883317 0.075648002
0.070967704 0.087919287 0.078431003
0.083871000 0.090195999 0.079190098
0.089943007 0.090195999 0.082226485
0.101833999 0.090195999 0.079443134
0.116002247 0.092220254 0.082479514
0.131182641 0.096395001 0.088551998
0.146869034 0.101961002 0.094117999
0.168121397 0.101961002 0.094117999
0.189373791 0.104364187 0.101328187
0.212144375 0.108917996 0.108917996
0.237065539 0.113724999 0.114357576
0.264389992 0.113725007 0.117393978
0.277799010 0.116508357 0.123213001
0.301328480 0.125236988 0.129284993
0.329665005 0.134345129 0.137381256
0.353953004 0.137634501 0.149272993
0.378241807 0.146742910 0.155345008
0.409361273 0.153574005 0.163693696
0.439974636 0.161037311 0.174193323
0.468311071 0.170651123 0.186337993
0.501707435 0.182795882 0.198481992
0.535104454 0.194939971 0.210625976
0.564959109 0.210625947 0.224541172
0.595825553 0.229727581 0.237950593
0.635294020 0.250979990 0.247059003
0.017836999 0.080582000 0.070588000
0.017837001 0.080582000 0.076660000
0.031625386 0.083997384 0.074509770
0.039974548 0.085895002 0.072359227
0.045667451 0.082605936 0.072232611
0.049082614 0.090955317 0.077166066
0.060215257 0.088931069 0.079190321
0.075648375 0.089310609 0.081467390
0.088424996 0.090195999 0.081467390
0.089943007 0.090195999 0.082226485
0.104743868 0.093105868 0.082353003
0.121062376 0.097280383 0.085515387
0.138393283 0.100189999 0.091587611
0.155724391 0.101961002 0.097153611
0.174193397 0.101961002 0.097153611
0.195445791 0.104364187 0.104364410
0.216698185 0.107400186 0.110436186
0.238836169 0.112586953 0.116255142
0.261353582 0.119797781 0.126502350
0.288677961 0.122580417 0.126755387
0.307779729 0.127513990 0.136116385
0.331688732 0.134345129 0.143453524
0.354332477 0.137760982 0.149525985
0.387349427 0.149778530 0.161417007
0.413915455 0.156609625 0.167488992
0.443011016 0.164073288 0.177229375
0.470841378 0.173181459 0.187855676
0.501707435 0.182795882 0.192409992
0.532447636 0.200252965 0.212523788
0.569006681 0.214927182 0.224035591
0.602276742 0.233649582 0.239342347
0.635294020 0.257052779 0.259202987
0.023908999 0.084503770 0.072738774
0.032511000 0.086654000 0.078810774
0.030360775 0.084503770 0.078431003
0.044781610 0.090575770 0.076660231
0.050727319 0.088425227 0.075268552
0.059076611 0.090449162 0.079569772
0.071853414 0.093738452 0.080961324
0.077419773 0.092346773 0.079064004
0.090322673 0.093864769 0.079569995
0.094497010 0.096647777 0.082353003
0.109044872 0.099557094 0.084503770
0.126248986 0.098545492 0.088551775
0.144465283 0.104237996 0.093485124
0.162429035 0.106008969 0.098292030
0.178747758 0.104111224 0.100189775
0.201517791 0.108665191 0.105249800
0.218216389 0.113219388 0.112839997
0.238836318 0.117520764 0.116508350
0.263124764 0.125110969 0.124098949
0.283491373 0.128652647 0.131562218
0.312713474 0.133585989 0.135357216
0.334724903 0.137633994 0.145983353
0.356356740 0.139784724 0.151549727
0.387728900 0.149905011 0.161670014
0.416571856 0.157495007 0.169259995
0.445287943 0.164958671 0.178114980
0.473877370 0.174572989 0.190259129
0.504237771 0.185325667 0.198229223
0.534598410 0.206704736 0.210752785
0.570271909 0.219607979 0.226691961
0.607083917 0.236685738 0.240607411
0.637444794 0.260974228 0.264895767
0.035040997 0.088804998 0.075774841
0.038330164 0.091840610 0.079316840
0.044781610 0.091840610 0.081467390
0.049335998 0.088804998 0.083491325
0.057684708 0.094497450 0.082352780
0.067172870 0.093232065 0.081846938
0.080582157 0.093991160 0.083618164
0.091334999 0.097912833 0.082859166
0.092852995 0.097912833 0.079064064
0.101454690 0.102972843 0.084630005
0.116382033 0.106135286 0.087792866
0.133586153 0.107653096 0.094117828
0.149525151 0.105755836 0.096774481
0.167741880 0.111321867 0.100063130
0.184946239 0.110309742 0.105123252
0.202277139 0.115749314 0.111827992
0.226818383 0.118026227 0.112839997
0.240227982 0.123466417 0.119544566
0.265654832 0.128905997 0.123845980
0.287160158 0.133459806 0.132447645
0.310436308 0.138393164 0.138393164
0.339784980 0.145477295 0.145477295
0.361669838 0.146489322 0.154459164
0.389753163 0.154459074 0.162428916
0.416571856 0.161290169 0.170525163
0.444023103 0.168753833 0.178114980
0.474889219 0.177862093 0.190765068
0.506008863 0.189246982 0.203668728
0.537634492 0.208222449 0.214547977
0.569513142 0.229981199 0.229221955
0.608096242 0.239974976 0.243137196
0.639216006 0.262744993 0.266667008
0.051359549 0.095256448 0.078431003
0.044528935 0.097533159 0.079569548
0.046426322 0.098797999 0.081340775
0.057684708 0.098292157 0.085768618
0.072106093 0.095256448 0.092979454
0.075142480 0.098292060 0.083871067
0.085768543 0.099177547 0.085262768
0.095888704 0.102086991 0.086654447
0.104996994 0.106640995 0.087413445
0.111069001 0.106640995 0.090449065
0.125110865 0.109550864 0.093864866
0.142315000 0.112586834 0.100948729
0.158633545 0.114484094 0.105502643
0.170777544 0.114737064 0.103225999
0.191650391 0.117773414 0.112207115
0.208728597 0.125237256 0.120556347
0.226565734 0.129032359 0.123213001
0.252372086 0.126881585 0.119924016
0.270588130 0.129917979 0.129032433
0.293991178 0.136495993 0.138140202
0.317899972 0.141809002 0.143073738
0.343200207 0.148893133 0.148134127
0.370398074 0.157875001 0.157242477
0.394686818 0.163947016 0.163567454
0.418595999 0.170398548 0.172296286
0.445414633 0.177482665 0.181404307
0.472992063 0.187350035 0.191144615
0.506388426 0.196457639 0.206324980
0.539405346 0.210499361 0.215812817
0.571789920 0.230233818 0.230613485
0.603162646 0.251739532 0.248450205
0.639595449 0.263883531 0.266667008
0.054395933 0.104364060 0.078431003
0.063504323 0.101328455 0.087539390
0.058823928 0.103605159 0.088677935
0.062871866 0.106135160 0.089184001
0.075142480 0.107400447 0.089943066
0.084250867 0.104364060 0.083871067
0.094876938 0.107400320 0.087412998
0.103731930 0.109930225 0.089690059
0.111827999 0.112712994 0.090449154
0.123212993 0.112712994 0.093485460
0.132194862 0.115622863 0.099430934
0.148387000 0.118659258 0.107020736
0.165464640 0.120556869 0.111574650
0.179885924 0.120809838 0.109297998
0.192029923 0.123845443 0.115369998
0.224920586 0.129284993 0.119544737
0.245161369 0.134345248 0.123592734
0.261733502 0.135736927 0.125742987
0.282732904 0.135989979 0.132068038
0.303731501 0.147375017 0.141176417
0.325489819 0.150916994 0.144591942
0.349272400 0.154965132 0.148134127
0.376470864 0.163947001 0.157242477
0.400758892 0.170019001 0.166350096
0.422770262 0.178368285 0.177229628
0.451486379 0.185578912 0.187476307
0.484883070 0.193675071 0.197090134
0.512460411 0.208602414 0.209361374
0.543200612 0.220366850 0.216571927
0.577609301 0.236558869 0.232005164
0.611258864 0.255787253 0.250980526
0.642631054 0.272991925 0.266667008
0.065021999 0.116002642 0.088551641
0.069070384 0.112966381 0.090069711
0.078178771 0.114231773 0.097027324
0.079064317 0.116002642 0.095256321
0.087919317 0.117394321 0.093105771
0.094876938 0.116508707 0.093484998
0.109045319 0.118532315 0.095003322
0.119544603 0.121568702 0.101075314
0.127261087 0.124604538 0.103605218
0.137634337 0.126375318 0.106641158
0.151929200 0.121694863 0.110056996
0.161037579 0.126754999 0.112080999
0.180012628 0.130297318 0.117393963
0.199114323 0.131941959 0.117394321
0.211258307 0.134977579 0.118912317
0.228209913 0.140417606 0.127387509
0.256293505 0.144971445 0.132194668
0.274003953 0.148007587 0.136242568
0.297153682 0.149905339 0.140417323
0.313345969 0.155977339 0.144212678
0.340290785 0.164326310 0.151423320
0.362428635 0.166603446 0.155724183
0.385072678 0.172549307 0.164832175
0.409361333 0.178621322 0.173940420
0.435926586 0.189247310 0.183048606
0.460467935 0.198608667 0.193548664
0.492979050 0.206831321 0.203162640
0.524351418 0.219987437 0.215306878
0.554332614 0.232510984 0.227197990
0.586464107 0.249968171 0.242125154
0.620366871 0.271599889 0.263377577
0.650727272 0.294750005 0.281847000
0.078810699 0.126502290 0.100695990
0.088425085 0.126755312 0.100695990
0.089184053 0.124731056 0.098419003
0.097027279 0.129032284 0.104491003
0.102719828 0.129791290 0.099936992
0.107526995 0.129791290 0.099177770
0.119544603 0.132321373 0.107147314
0.129791290 0.133712709 0.106894284
0.142694190 0.135989994 0.112966478
0.156230181 0.138140216 0.116887935
0.167868569 0.137381420 0.118279576
0.182289958 0.137760699 0.122580700
0.193675041 0.142694339 0.122580700
0.215433046 0.145730659 0.125110969
0.227577403 0.148766279 0.126502290
0.242884293 0.150916889 0.128779188
0.262618899 0.156989276 0.134851187
0.283871114 0.160784140 0.142061695
0.307147026 0.164832681 0.148133963
0.326375365 0.169006988 0.151170358
0.346109748 0.176723689 0.159392983
0.373434424 0.181783557 0.165464982
0.392788976 0.185072780 0.173940197
0.420113802 0.192662999 0.183048606
0.445034981 0.201644689 0.190512285
0.472359329 0.212397367 0.199620664
0.500189662 0.222011700 0.209234998
0.532447398 0.234155685 0.221378982
0.563187599 0.249588668 0.236811951
0.593674839 0.262112588 0.249335870
0.627071321 0.283364773 0.269702673
0.658190966 0.309170991 0.290196002
0.094749995 0.137887195 0.112839997
0.106894389 0.138646483 0.109044902
0.112207413 0.138140425 0.109298095
0.110689096 0.138899192 0.105249904
0.118279196 0.143832654 0.112080991
0.123213127 0.143453091 0.108286090
0.131562099 0.145983413 0.113598995
0.142694190 0.147375092 0.117520489
0.150284201 0.148134008 0.116761185
0.174572974 0.148134008 0.122833967
0.185831875 0.151802778 0.123845898
0.198229164 0.154079735 0.126375899
0.214168549 0.157115638 0.132447988
0.229095191 0.159898996 0.132194951
0.241239816 0.162428677 0.134218574
0.256546885 0.164579093 0.135610089
0.273245096 0.167615101 0.138646290
0.295762450 0.172422096 0.141682521
0.317267150 0.178241849 0.153447017
0.336242586 0.183048740 0.158001259
0.359012932 0.189120740 0.165212080
0.378747344 0.196963951 0.176090986
0.400126159 0.200252593 0.182289496
0.429221809 0.209361002 0.191397905
0.455028564 0.218469381 0.198229000
0.481467515 0.227577552 0.205692664
0.508285999 0.237697959 0.215813071
0.538140059 0.250094980 0.228210077
0.569259644 0.266034186 0.242631048
0.601897418 0.282985300 0.261100411
0.632384539 0.297027528 0.274257094
0.665781021 0.318279177 0.292473108
0.112966016 0.156103969 0.124983996
0.116002403 0.150031984 0.109803624
0.123845786 0.148640499 0.114611074
0.127387822 0.151043981 0.118406162
0.127387598 0.155977443 0.115116619
0.145604372 0.152941048 0.127261385
0.150537670 0.155091822 0.125996158
0.160531193 0.156483501 0.123592712
0.174572989 0.157242402 0.122833975
0.186717004 0.160278022 0.128905967
0.202276886 0.166097015 0.132068127
0.215180010 0.167994529 0.132953525
0.229727820 0.169259652 0.136622176
0.247311980 0.172043011 0.144338965
0.259455949 0.172043011 0.141302586
0.276407599 0.176976487 0.143326804
0.292979300 0.182795495 0.149272680
0.310942054 0.187602490 0.156862915
0.338266522 0.187602520 0.159898549
0.351423204 0.196204886 0.166097015
0.373434663 0.203162491 0.172042996
0.396458089 0.209361017 0.179380357
0.412270933 0.215433002 0.188361496
0.436558962 0.224541411 0.197469905
0.461100578 0.233649790 0.204301000
0.488171965 0.242757797 0.211764663
0.517393589 0.252877563 0.221885070
0.541682363 0.268057942 0.237065434
0.574193239 0.280455679 0.244149491
0.611005545 0.298165679 0.263124645
0.647438407 0.318152696 0.286274582
0.677924991 0.336495966 0.301581502
0.137001738 0.165591121 0.122580871
0.137128264 0.171157867 0.130676478
0.140164644 0.167236090 0.121947862
0.143959865 0.166476995 0.124478124
0.144845188 0.169639558 0.122833416
0.160530999 0.176723793 0.127387866
0.168627769 0.171157733 0.134471998
0.176976740 0.174699873 0.134218872
0.190891951 0.177988768 0.133965895
0.205186754 0.181024387 0.137887135
0.214420855 0.178241745 0.141049996
0.231625497 0.184313744 0.144086137
0.247817725 0.186084747 0.147248745
0.265528053 0.187096864 0.153573841
0.277672738 0.187096864 0.150537461
0.294623733 0.191903859 0.152308688
0.312839955 0.196458057 0.161417067
0.330044001 0.201138735 0.172043294
0.350537747 0.205692768 0.175078928
0.366730124 0.211258739 0.180897892
0.386590838 0.216445133 0.185072601
0.409867227 0.222517133 0.190132990
0.427198350 0.230613366 0.197216868
0.448703766 0.239721775 0.203541905
0.472991735 0.246552870 0.210372984
0.497280329 0.256419986 0.220619649
0.525616705 0.268563986 0.234788060
0.559518874 0.286148161 0.254775435
0.581150770 0.301327884 0.259329855
0.611764371 0.317267537 0.270462036
0.644275725 0.335610330 0.291461229
0.672612011 0.351802856 0.310689121
0.157241985 0.180771500 0.133712992
0.161290497 0.180771500 0.136748865
0.165465012 0.184440479 0.137127995
0.168501079 0.185199246 0.131055981
0.170018986 0.186717242 0.130676538
0.180265307 0.190891922 0.137001932
0.191903889 0.193422243 0.142567992
0.197976232 0.190639243 0.146995708
0.210120350 0.195193157 0.147375256
0.225300744 0.198228776 0.149146035
0.236685634 0.197469875 0.152181864
0.251865476 0.200505987 0.155218259
0.270082265 0.204300985 0.157115996
0.287539482 0.204554021 0.161417007
0.297912538 0.206325248 0.163693830
0.312839985 0.211132243 0.169513062
0.328020394 0.215686440 0.172549054
0.344591916 0.218722671 0.183807716
0.361416698 0.223403007 0.188235044
0.382922351 0.229475006 0.194054514
0.398102701 0.233649731 0.196331516
0.420999378 0.238709629 0.200253248
0.440480947 0.247691497 0.206325248
0.463630617 0.254902154 0.212397262
0.487160265 0.265781254 0.224541500
0.511448205 0.274636239 0.233396485
0.536242962 0.287286311 0.247438252
0.568121493 0.303984880 0.264136434
0.595319271 0.319544613 0.281593800
0.618342400 0.336495429 0.289942920
0.647311568 0.355597556 0.305755913
0.674636006 0.373054981 0.325869501
0.181150913 0.201264992 0.148513645
0.184946403 0.199367240 0.148513645
0.191018626 0.199493766 0.148639873
0.195825472 0.202656627 0.147754297
0.199240729 0.207590088 0.142441288
0.205312923 0.206830993 0.149272576
0.214168280 0.209361315 0.152435005
0.225300640 0.211891636 0.158001065
0.232131720 0.213409632 0.161796540
0.246553138 0.216824800 0.162555635
0.259962291 0.216951281 0.164326414
0.273877263 0.218722284 0.167362258
0.290954918 0.224794284 0.171536997
0.308918595 0.225553319 0.171790034
0.319797218 0.230360687 0.176976636
0.334851056 0.234661624 0.185452446
0.348513365 0.239215821 0.190386087
0.362555534 0.241619632 0.194054276
0.378747344 0.244149327 0.200126305
0.398861378 0.249968290 0.205060065
0.418595731 0.254142731 0.210752994
0.433776140 0.259203106 0.211765125
0.454649001 0.268311501 0.217963621
0.476913303 0.275395632 0.226059645
0.503478587 0.284882993 0.237824261
0.526628554 0.298165619 0.251612991
0.550916731 0.310309768 0.263251066
0.577609360 0.324857712 0.274762630
0.606072366 0.341176450 0.292599440
0.632764220 0.358127564 0.310815573
0.657052219 0.378114820 0.326501817
0.684123635 0.399620295 0.345224649
0.214042038 0.225553066 0.157875001
0.213536039 0.225806087 0.157621965
0.218343034 0.225300029 0.160278261
0.223149925 0.226059198 0.163567171
0.225806087 0.229601517 0.165718004
0.231878862 0.226565123 0.165718004
0.238962993 0.228083387 0.163693741
0.247565031 0.231119707 0.165085047
0.259203106 0.234662026 0.171157181
0.268311501 0.240734026 0.177229956
0.282985836 0.240733996 0.177735955
0.296395004 0.241493031 0.179759771
0.309424669 0.243516997 0.183428034
0.324604988 0.249083012 0.189500034
0.339784592 0.258191377 0.192536414
0.357368648 0.262745261 0.199873805
0.372802049 0.265781194 0.204934001
0.385831535 0.268438041 0.205692992
0.407083988 0.268438041 0.211765006
0.422770381 0.273751020 0.215306684
0.439848065 0.278937310 0.222390726
0.457811177 0.283238173 0.229981124
0.473118037 0.292346537 0.233143985
0.491334856 0.301454931 0.245035008
0.517900050 0.311068803 0.257432014
0.544338703 0.322453678 0.269323021
0.565844059 0.337128162 0.281467080
0.590132833 0.349272937 0.290575445
0.619481564 0.366983026 0.304996818
0.647565067 0.384945959 0.321947992
0.673497975 0.405439198 0.342188209
0.697786033 0.429728031 0.366477042
0.241366386 0.249841809 0.170018986
0.235294402 0.252878189 0.166982591
0.243390411 0.248829678 0.173181340
0.250474542 0.245287552 0.179759398
0.252751678 0.245414406 0.183680981
0.250094861 0.256925851 0.177861989
0.266286969 0.253890127 0.180392310
0.273750693 0.255408078 0.180518821
0.280961394 0.258444071 0.183301821
0.292599469 0.261986405 0.189373955
0.304616958 0.259329528 0.192536116
0.319417804 0.265022218 0.194939822
0.332827270 0.269955754 0.196837410
0.345857352 0.273370981 0.198608413
0.361036956 0.273370981 0.204680413
0.378620982 0.280076176 0.207716808
0.395319581 0.283997625 0.213535994
0.408602238 0.287033558 0.217077985
0.419227988 0.289690375 0.217837006
0.434914351 0.292473018 0.223908991
0.451992452 0.303731710 0.233143404
0.472232819 0.311321825 0.243643120
0.494370401 0.313598901 0.251359969
0.512587249 0.322707295 0.257431984
0.533080697 0.336369663 0.271600276
0.557621777 0.347501516 0.283365071
0.580771446 0.358380526 0.294117749
0.602276802 0.370525301 0.308791399
0.629221797 0.390639186 0.323212773
0.653636694 0.407716542 0.340164363
0.675268829 0.427956581 0.361037374
0.694750428 0.457052410 0.387729377
0.268690795 0.271726787 0.182162985
0.269829601 0.269955575 0.181530401
0.268058598 0.275142729 0.182795569
0.275395423 0.271347255 0.190132797
0.279190511 0.268690795 0.195066258
0.284250677 0.272738814 0.191017985
0.282099783 0.281847090 0.199747115
0.295382500 0.278811067 0.201138794
0.302213788 0.280328870 0.201138794
0.314357758 0.283365279 0.203921795
0.326501787 0.285388917 0.209487721
0.338646293 0.284376770 0.208475336
0.351169944 0.290069640 0.211890996
0.362555265 0.293358594 0.214674026
0.379886150 0.297659576 0.218595788
0.397469580 0.302466601 0.222264603
0.411132157 0.307021171 0.226818785
0.425806552 0.310689569 0.232890785
0.441998631 0.315496773 0.236432806
0.456672966 0.320936233 0.244402602
0.471853316 0.325869590 0.252371848
0.489563793 0.335483938 0.260973930
0.510815799 0.337381572 0.267425776
0.529031992 0.348766685 0.278051794
0.549525440 0.360151768 0.286401063
0.572169483 0.372422636 0.301328450
0.595951855 0.382542640 0.312460691
0.617204189 0.396584690 0.323845327
0.641366422 0.414294779 0.343832582
0.663377583 0.433776379 0.360784173
0.685768366 0.451359987 0.380771726
0.708539009 0.477166593 0.406577975
0.289943188 0.294496983 0.195825189
0.294497371 0.294496983 0.201897174
0.296900809 0.293358326 0.197975963
0.298165977 0.298165977 0.201012030
0.301960737 0.296394736 0.207590088
0.311069131 0.297533393 0.210246623
0.314611048 0.299051315 0.213788837
0.318153083 0.306135476 0.219355196
0.326502353 0.303858191 0.220114097
0.337128371 0.306135476 0.220872998
0.347754180 0.309171498 0.222138196
0.359898716 0.313219368 0.228209913
0.370904535 0.314357728 0.225173816
0.380265236 0.317140996 0.230107382
0.395952016 0.320682973 0.234408602
0.411132157 0.326755375 0.237444609
0.432384580 0.332827389 0.241999179
0.441492796 0.335863590 0.248071179
0.459202975 0.341049969 0.254143208
0.476407558 0.347122014 0.259962142
0.491587520 0.354712188 0.269070446
0.507780075 0.362808168 0.280202329
0.526122689 0.367615491 0.285389185
0.545730412 0.378368199 0.294750184
0.566223621 0.387476176 0.306135267
0.583301365 0.398228824 0.313851982
0.607084095 0.408855170 0.329664856
0.629348636 0.425047427 0.342820734
0.650221407 0.442884356 0.361037165
0.672485948 0.458064377 0.380518377
0.693358541 0.477166563 0.402277172
0.720682979 0.498418987 0.427830398
0.307653546 0.320682704 0.212903142
0.314990520 0.322453946 0.223149568
0.317646950 0.320556372 0.220872760
0.320682704 0.321315289 0.216192409
0.324098557 0.323972136 0.219987109
0.332953900 0.326755464 0.231878862
0.340164542 0.325363815 0.233270407
0.346616268 0.326628536 0.233902991
0.354965568 0.331815124 0.234661877
0.361037552 0.331815124 0.237697497
0.369386286 0.334092408 0.235547274
0.380518496 0.339152545 0.239974871
0.393422067 0.344086081 0.245793626
0.402529687 0.347374737 0.243516982
0.414294779 0.348133713 0.249588981
0.425806552 0.352308601 0.253889740
0.442757785 0.358380944 0.257811338
0.465148985 0.363187939 0.263883948
0.474256605 0.366223574 0.269955963
0.491081685 0.373307705 0.275142193
0.506767809 0.380012274 0.280075729
0.522327244 0.390132695 0.290575713
0.540543973 0.401897192 0.305503041
0.561290503 0.409993440 0.312080979
0.583175242 0.418089539 0.322707146
0.600885570 0.426818192 0.333965540
0.614041567 0.436432660 0.341555595
0.638077259 0.454395711 0.362554967
0.657684922 0.471347213 0.381151199
0.678304732 0.488551497 0.400632471
0.698798120 0.502087116 0.419228166
0.726122558 0.523339570 0.449588984
0.334978014 0.354079962 0.237191960
0.347121984 0.351043582 0.240227580
0.348007768 0.346363008 0.237571001
0.348007768 0.346869141 0.233776048
0.351423025 0.354332983 0.235167563
0.357495010 0.354332983 0.244275928
0.366350353 0.354586005 0.243516713
0.371916711 0.355977267 0.244022772
0.376218021 0.359266102 0.246805936
0.382290006 0.362176001 0.249841541
0.388361990 0.362176001 0.249968022
0.398734927 0.366477013 0.253763556
0.413156301 0.371410668 0.258950323
0.429854900 0.374699980 0.261733025
0.438962489 0.380771965 0.267805040
0.448323816 0.383934170 0.273877025
0.462238967 0.388741046 0.278178185
0.480328619 0.393548012 0.282100022
0.495509058 0.393548042 0.288172036
0.510183334 0.404933721 0.299810052
0.523719072 0.410879225 0.303605020
0.537128150 0.417457283 0.308412284
0.552688003 0.429222405 0.320683479
0.570904791 0.432258040 0.329791099
0.593927979 0.442631036 0.340923578
0.613788605 0.455660671 0.354459256
0.629221976 0.469829142 0.368880063
0.647437930 0.481973916 0.384060413
0.668816805 0.494623929 0.402403653
0.691587329 0.514357924 0.424161911
0.712966561 0.534977615 0.445287585
0.729158998 0.550664067 0.461733073
0.370651752 0.393042386 0.264263362
0.371663719 0.392789334 0.264516354
0.377355963 0.394054502 0.267551959
0.378115177 0.391144931 0.265907377
0.380771726 0.393042386 0.265907377
0.382036716 0.393042386 0.267804950
0.385578394 0.395572722 0.266793340
0.394180715 0.395825744 0.267046005
0.401012123 0.398482114 0.270841211
0.409108371 0.403542221 0.275901586
0.420746386 0.403668731 0.273244739
0.426818371 0.403668731 0.275269002
0.437444657 0.407084107 0.280582368
0.452372402 0.410373092 0.285768688
0.469070315 0.416445762 0.294370353
0.475774735 0.422517747 0.300442368
0.486021370 0.424415082 0.306514740
0.501074970 0.427324474 0.310183734
0.516255319 0.429474741 0.311954707
0.531435788 0.437824100 0.320809394
0.546616137 0.448071122 0.331056118
0.559645772 0.453890085 0.336748868
0.573054910 0.462365896 0.346995831
0.588614881 0.470715165 0.356103480
0.604554296 0.478304803 0.367488950
0.623149991 0.491334409 0.382416338
0.639342427 0.506008744 0.398987800
0.659835696 0.518152952 0.414168179
0.680708528 0.532953858 0.432004720
0.701960921 0.548766792 0.450221419
0.725237310 0.570145667 0.477798879
0.746110022 0.589121103 0.510057092
0.391903996 0.423023462 0.283997715
0.395698994 0.430613458 0.285894990
0.401644707 0.425173730 0.288045704
0.403415471 0.426944971 0.287286460
0.406198740 0.425679713 0.287539482
0.409234732 0.428715736 0.293611467
0.411764890 0.431246042 0.291081309
0.421378493 0.430993021 0.294623703
0.428715736 0.432258189 0.296647370
0.434408486 0.438330472 0.299304217
0.440733701 0.440480739 0.300442845
0.454522461 0.440480739 0.303352267
0.461733103 0.442757726 0.307526976
0.472612739 0.446805477 0.313598990
0.484250724 0.452877790 0.321062297
0.498544991 0.455154985 0.327767223
0.507653356 0.461227357 0.335357010
0.520430028 0.462618858 0.340543985
0.535610437 0.465654492 0.340543985
0.546995342 0.472359091 0.346995384
0.564073443 0.481467485 0.358001202
0.576217711 0.487539738 0.365085334
0.586843729 0.492093712 0.372548997
0.603794932 0.502972901 0.383428305
0.618975282 0.512081146 0.394813299
