Assets/EldamarStudio/100 Retro LUTs Pack/LUTs/cube/Ellen LUT.cube
LUT_3D_SIZE 5
DOMAIN_MIN 0.000000 0.000000 0.000000
DOMAIN_MAX 0.903226 0.903226 0.903226
0.011765000 0.074510001 0.070588000
0.070967704 0.087919287 0.078431003
0.168121397 0.101961002 0.094117999
0.329665005 0.134345129 0.137381256
0.535104454 0.194939971 0.210625976
0.078810699 0.126502290 0.100695990
0.129791290 0.133712709 0.106894284
0.227577403 0.148766279 0.126502290
0.373434424 0.181783557 0.165464982
0.563187599 0.249588668 0.236811951
0.241366386 0.249841809 0.170018986
0.273750693 0.255408078 0.180518821
0.361036956 0.273370981 0.204680413
0.472232819 0.311321825 0.243643120
0.629221797 0.390639186 0.323212773
0.412144244 0.452372104 0.304237962
0.444655418 0.466413677 0.316887707
0.501961112 0.488298386 0.348007232
0.591398120 0.521948278 0.393422127
0.704743743 0.595952094 0.482858956
0.612143815 0.745730460 0.596710742
0.622896910 0.750031292 0.589373648
0.656546772 0.768627167 0.609740615
0.727640748 0.789500415 0.648323774
0.812270582 0.821505606 0.696141422
0.019608000 0.078431003 0.090195999
0.074889697 0.087919287 0.098039001
0.183807403 0.111827567 0.123592824
0.344591856 0.143832847 0.169639125
0.544212639 0.200126827 0.234155655
0.088930994 0.128778994 0.111448288
0.140290692 0.132067978 0.127134711
0.237065122 0.156609714 0.153320700
0.376976699 0.181783572 0.192536697
0.564832330 0.254142672 0.260341644
0.242631406 0.240607411 0.194180578
0.276660383 0.251106977 0.202403277
0.363314092 0.278305084 0.226945400
0.472485691 0.310689390 0.261606812
0.627830625 0.393548489 0.345477372
0.432384253 0.455281228 0.333965689
0.444781959 0.460847557 0.341429412
0.500948966 0.482100248 0.365717798
0.587223291 0.518026292 0.402656376
0.702466607 0.593927801 0.490955114
0.608475506 0.746995568 0.582922161
0.622643650 0.756103754 0.597975612
0.661227226 0.767235994 0.616951168
0.726375878 0.789753437 0.654901624
0.816951454 0.824161768 0.709171414
0.041871995 0.092852995 0.128146991
0.088298410 0.092473291 0.143832996
0.196204990 0.109171413 0.169386402
0.358380824 0.146489412 0.221378699
0.551423252 0.206704661 0.300316364
0.116129108 0.132067993 0.170018986
0.149778396 0.135989994 0.175585106
0.253763407 0.155598000 0.205312982
0.391144991 0.187349960 0.244275957
0.575585186 0.253763556 0.320177078
0.253131241 0.249841824 0.243263826
0.286148101 0.256040663 0.257685393
0.368880808 0.277292818 0.276660383
0.483364820 0.314610958 0.317520678
0.637064815 0.395825356 0.397849619
0.432890832 0.459203243 0.381024510
0.447691113 0.467046261 0.385325819
0.504491091 0.484377116 0.409487784
0.585579157 0.522327542 0.449462652
0.704364181 0.599873364 0.533839226
0.603035808 0.737128139 0.609107971
0.614674211 0.747628033 0.621125937
0.654649198 0.763314188 0.641746044
0.721442223 0.789120853 0.671853602
0.818848789 0.829474747 0.731435537
0.083491124 0.095129870 0.215939254
0.126881570 0.099683709 0.225047246
0.234535113 0.117394127 0.258443803
0.387603134 0.151043996 0.306135237
0.572422445 0.220113680 0.394560218
0.139911413 0.138899282 0.250474244
0.180265695 0.144465566 0.265528411
0.278937519 0.158886567 0.288171709
0.420872718 0.196837410 0.338266820
0.595193088 0.267299354 0.418089807
0.274003386 0.259708971 0.334598541
0.306008548 0.267172515 0.348386943
0.381909966 0.283491522 0.372548938
0.496774077 0.321821809 0.408222646
0.644275546 0.398102522 0.480202228
0.441366255 0.464136392 0.474889278
0.452498257 0.474256963 0.476154268
0.504870355 0.495129824 0.491587520
0.586590946 0.528905392 0.526881397
0.710183203 0.596964002 0.591144919
0.587982237 0.749019563 0.674130440
0.600758910 0.754206002 0.676660478
0.638583124 0.766603410 0.679063737
0.713978469 0.793421745 0.715622723
0.822517395 0.830739617 0.768374264
0.162302122 0.092726015 0.414927423
0.220872656 0.095382847 0.429095298
0.331055939 0.103225842 0.456799418
0.484629840 0.148892954 0.512080908
0.635799885 0.247438461 0.575837553
0.196963802 0.138899535 0.453510463
0.247691333 0.143832996 0.459076434
0.358886927 0.157874703 0.488930583
0.500695944 0.208222434 0.532827079
0.646299779 0.299430519 0.592156708
0.255534410 0.268184811 0.524730802
0.299177706 0.267805099 0.531309426
0.407463402 0.295003235 0.548260629
0.542188466 0.344465524 0.592030406
0.678178370 0.427956760 0.645161390
0.438077271 0.524731278 0.643390059
0.452498257 0.521062493 0.644275665
0.499557436 0.520430088 0.650600910
0.587603092 0.542315066 0.669575870
0.728905916 0.610373199 0.715749443
0.597849488 0.773181438 0.766603529
0.608475566 0.772928417 0.772548735
0.644149184 0.788235128 0.784313798
0.714231730 0.804553747 0.796331286
0.821505547 0.842504561 0.841239393
