Assets/EldamarStudio/100 Retro LUTs Pack/LUTs/cube/Ellen LUT.cube
LUT_3D_SIZE 8
DOMAIN_MIN 0.000000 0.000000 0.000000
DOMAIN_MAX 0.903226 0.903226 0.903226
0.011765000 0.074510001 0.070588000
0.039974999 0.078810550 0.074130453
0.083871000 0.090195999 0.079190098
0.131182641 0.096395001 0.088551998
0.212144375 0.108917996 0.108917996
0.301328480 0.125236988 0.129284993
0.409361273 0.153574005 0.163693696
0.535104454 0.194939971 0.210625976
0.051359549 0.095256448 0.078431003
0.072106093 0.095256448 0.092979454
0.104996994 0.106640995 0.087413445
0.158633545 0.114484094 0.105502643
0.226565734 0.129032359 0.123213001
0.317899972 0.141809002 0.143073738
0.418595999 0.170398548 0.172296286
0.539405346 0.210499361 0.215812817
0.094749995 0.137887195 0.112839997
0.118279196 0.143832654 0.112080991
0.150284201 0.148134008 0.116761185
0.214168549 0.157115638 0.132447988
0.273245096 0.167615101 0.138646290
0.359012932 0.189120740 0.165212080
0.455028564 0.218469381 0.198229000
0.569259644 0.266034186 0.242631048
0.181150913 0.201264992 0.148513645
0.199240729 0.207590088 0.142441288
0.232131720 0.213409632 0.161796540
0.290954918 0.224794284 0.171536997
0.348513365 0.239215821 0.190386087
0.418595731 0.254142731 0.210752994
0.503478587 0.284882993 0.237824261
0.606072366 0.341176450 0.292599440
0.289943188 0.294496983 0.195825189
0.301960737 0.296394736 0.207590088
0.326502353 0.303858191 0.220114097
0.370904535 0.314357728 0.225173816
0.432384580 0.332827389 0.241999179
0.491587520 0.354712188 0.269070446
0.566223621 0.387476176 0.306135267
0.650221407 0.442884356 0.361037165
0.391903996 0.423023462 0.283997715
0.406198740 0.425679713 0.287539482
0.428715736 0.432258189 0.296647370
0.461733103 0.442757726 0.307526976
0.507653356 0.461227357 0.335357010
0.564073443 0.481467485 0.358001202
0.618975282 0.512081146 0.394813299
0.692852795 0.565591276 0.458570451
0.503225982 0.572422564 0.403794974
0.509930253 0.576723516 0.409993827
0.521695018 0.584060848 0.417710543
0.549272299 0.595445931 0.434661925
0.583681285 0.603668451 0.446173459
0.624541461 0.623656034 0.471979827
0.670461535 0.648197532 0.504743814
0.737381339 0.682352781 0.558886528
0.612143815 0.745730460 0.596710742
0.611511767 0.749019444 0.581277490
0.627451062 0.753573418 0.595951855
0.649841964 0.763820171 0.604300797
0.675522029 0.774699271 0.620619535
0.716508627 0.784187317 0.643769741
0.762049198 0.805059612 0.670082211
0.812270582 0.821505606 0.696141422
0.015306548 0.079190098 0.074889451
0.039974999 0.085515901 0.086274996
0.087792903 0.094876900 0.091334544
0.144085988 0.103099354 0.105881996
0.218848735 0.115622737 0.116381735
0.311575174 0.137634456 0.145730481
0.414548010 0.156609714 0.175837830
0.538140178 0.199241117 0.222770527
0.050980002 0.099936545 0.089816548
0.065781087 0.106261544 0.091713995
0.106135450 0.110562995 0.105502546
0.165591553 0.113219544 0.113219544
0.234155387 0.133206993 0.132068351
0.326122522 0.148134187 0.157874554
0.423150003 0.176217288 0.184819803
0.536116183 0.218722224 0.231246084
0.109677188 0.133207098 0.121568903
0.122201093 0.140291005 0.116761185
0.153447181 0.145730197 0.125363901
0.210626185 0.150411084 0.135989636
0.281973273 0.167615101 0.150411084
0.357874572 0.187223196 0.176723629
0.455281794 0.214547798 0.205565840
0.565844178 0.263757348 0.253131092
0.190638736 0.200506091 0.155471444
0.202403545 0.207969636 0.161796540
0.238077179 0.209487736 0.166856200
0.285388917 0.224794284 0.178241640
0.349272460 0.237318277 0.197849557
0.419734180 0.256040275 0.216698438
0.505502820 0.288045496 0.246552885
0.598987699 0.342314720 0.298165560
0.288298398 0.289310724 0.205945283
0.305249512 0.295888394 0.211511984
0.326628298 0.302214086 0.220113993
0.373687267 0.315243632 0.234282196
0.430107266 0.330044031 0.253890008
0.489563257 0.351170123 0.270841181
0.561290026 0.386717290 0.309550852
0.648576796 0.444908202 0.367488712
0.395192891 0.422011256 0.287413001
0.404933453 0.424667716 0.293231815
0.428842515 0.428716034 0.301454872
0.460973978 0.440860450 0.310816199
0.506767988 0.455281734 0.335483909
0.552308500 0.479063660 0.358886719
0.615812719 0.509930015 0.395951748
0.693232238 0.565970719 0.458949983
0.498671710 0.565464556 0.410625815
0.502846301 0.576976538 0.419481546
0.521315515 0.577482641 0.426185787
0.546869099 0.590765297 0.438962728
0.582163274 0.602656722 0.453889549
0.621252477 0.619608045 0.478937566
0.675648272 0.647944093 0.515876234
0.729031920 0.683111787 0.561922908
0.613156199 0.742567718 0.593927562
0.612397373 0.753573418 0.584819615
0.626818478 0.751043618 0.593548477
0.647691369 0.760278463 0.603921175
0.679317057 0.769765794 0.619101882
0.717014670 0.786211610 0.643769741
0.757242501 0.800252795 0.666034162
0.813409150 0.821505606 0.705123305
0.020366903 0.079190098 0.090955094
0.043516550 0.083112098 0.092852548
0.089310996 0.091713995 0.102593191
0.149145633 0.107020639 0.120303638
0.227830172 0.119165190 0.137887180
0.317014456 0.140290901 0.166097194
0.420493454 0.165337995 0.195825189
0.543706357 0.202150568 0.237191647
0.056040544 0.099177547 0.107779540
0.073244542 0.106261544 0.105376445
0.110436186 0.107779540 0.116761088
0.169892296 0.122327998 0.130044088
0.243517086 0.135610193 0.150411204
0.333586395 0.156356648 0.173560828
0.436812282 0.179000542 0.209487841
0.552814603 0.226692006 0.249335632
0.105629191 0.137128100 0.123592280
0.122960091 0.138266653 0.132447988
0.167615101 0.144971102 0.136243075
0.218848720 0.159392744 0.155092090
0.289816290 0.171537086 0.175585181
0.373687446 0.193927839 0.200885728
0.461227298 0.219987199 0.225553274
0.574446797 0.268817008 0.274763077
0.196204633 0.200506091 0.173560634
0.207463279 0.204806730 0.172675535
0.237570822 0.216951191 0.181277633
0.286906928 0.223150000 0.194560543
0.349272370 0.236052826 0.214674190
0.421252489 0.259203166 0.232511178
0.509424627 0.289563686 0.265401483
0.608981788 0.344338983 0.316255182
0.292093366 0.292979181 0.234282076
0.303858191 0.296015173 0.233396277
0.330550253 0.304617286 0.238077179
0.372422725 0.310436636 0.248197377
0.428463161 0.326502174 0.262365490
0.489816844 0.355091929 0.288045377
0.563946545 0.393801391 0.331056356
0.646299779 0.449588895 0.387476355
0.403035760 0.422138065 0.311701357
0.409993738 0.427830696 0.312839836
0.428083718 0.431752115 0.319670796
0.462492019 0.443643123 0.329917818
0.507653236 0.457684904 0.353067458
0.554332733 0.477545500 0.377356172
0.614168346 0.511195362 0.413282663
0.685768664 0.565591276 0.474256635
0.501960635 0.569006860 0.421884537
0.499051124 0.572802007 0.425806552
0.521062553 0.581024647 0.436812103
0.541682661 0.590765178 0.451233208
0.571790218 0.605945706 0.466287524
0.620999575 0.623656034 0.493864655
0.672991872 0.648323834 0.525237262
0.732194781 0.686653972 0.574066758
0.605945706 0.746489346 0.582668960
0.613788486 0.743326724 0.586843848
0.623402715 0.754838586 0.598987818
0.643516719 0.759140015 0.608854771
0.674256861 0.771916270 0.625806451
0.713725269 0.783428192 0.648323834
0.759266257 0.802276909 0.673877478
0.814168394 0.824920774 0.711701334
0.029727997 0.086274996 0.116002284
0.053636741 0.088172451 0.118279286
0.097153999 0.095635995 0.137887090
0.156989649 0.103099354 0.144591644
0.239215821 0.120303541 0.170398548
0.324478120 0.139405087 0.195572644
0.427830607 0.167615280 0.226565629
0.553193986 0.204047829 0.275521755
0.062618993 0.102720000 0.124478184
0.080961637 0.103858352 0.134092003
0.116635092 0.114104643 0.140543640
0.177355722 0.120682992 0.159392640
0.256419837 0.139152452 0.179759532
0.339025974 0.157115653 0.201644629
0.438962638 0.184440255 0.238836288
0.558380425 0.221884713 0.285009563
0.111574635 0.137507647 0.161796540
0.138646200 0.141429558 0.162175998
0.175837740 0.153194442 0.176344082
0.227071270 0.162175998 0.182163432
0.299177915 0.177862093 0.200126544
0.380265623 0.192283556 0.232257828
0.471853197 0.226312384 0.259962291
0.583048880 0.271600276 0.309424520
0.204047635 0.204047635 0.209614351
0.212903187 0.208349183 0.207210541
0.248703629 0.212650537 0.216571748
0.293231934 0.225932628 0.224794284
0.357621819 0.244781822 0.242378622
0.424920827 0.262745112 0.264642388
0.516888022 0.298292279 0.298292279
0.611638427 0.346742451 0.349146247
0.298418999 0.298798561 0.260594547
0.313725561 0.302340388 0.266666830
0.336875290 0.303478807 0.266666830
0.379127175 0.314357728 0.281467617
0.434029162 0.331561923 0.299178064
0.493105650 0.360151559 0.322201043
0.564705431 0.393421918 0.361037374
0.650474191 0.449082643 0.409361362
0.404301107 0.423276722 0.336748987
0.411637992 0.426818281 0.343706369
0.429727852 0.433396816 0.350790441
0.464516252 0.440860450 0.362934738
0.504111528 0.457684904 0.381657034
0.558254182 0.481593996 0.403668761
0.612650335 0.515496612 0.437571377
0.690448821 0.571536541 0.494496882
0.495888621 0.571916223 0.458696961
0.500442505 0.579506516 0.455028355
0.520303309 0.579380333 0.457179159
0.542567909 0.589247227 0.469829291
0.580898225 0.602909565 0.488045633
0.620620012 0.621631861 0.507526815
0.673244894 0.651486218 0.544971526
0.735989869 0.687159896 0.590765476
0.600252986 0.746109545 0.607463598
0.607210696 0.749272287 0.604933441
0.622264147 0.754332542 0.613915205
0.644402087 0.759645581 0.625047445
0.671473742 0.770524621 0.643643260
0.714484334 0.783048689 0.660215020
0.763567448 0.803795040 0.690828204
0.816571772 0.825679958 0.721062362
0.047691189 0.090195999 0.149652198
0.068058185 0.092852548 0.155976996
0.111954190 0.097280100 0.162049189
0.165212095 0.107400186 0.181024805
0.250474364 0.123086803 0.204300985
0.337760717 0.144212380 0.235926807
0.438456744 0.169259995 0.270968169
0.557495117 0.210625976 0.322454154
0.080328546 0.107273899 0.159266546
0.099936545 0.111321993 0.172422379
0.130297437 0.115622640 0.176596835
0.191018283 0.126249105 0.197469994
0.262239367 0.135989740 0.216065988
0.348260492 0.159519359 0.242757976
0.451486528 0.183681443 0.277925283
0.563693702 0.230107352 0.329917818
0.132321090 0.142567903 0.199873284
0.144845098 0.148893088 0.205186293
0.188741073 0.152814910 0.216192290
0.237697735 0.161416993 0.221632078
0.310183197 0.179380089 0.241999000
0.387729287 0.198481828 0.269829541
0.478304744 0.230234176 0.302340180
0.591650844 0.275015831 0.354079783
0.212270901 0.208728731 0.241619438
0.223150104 0.215433195 0.247564986
0.255281359 0.214548081 0.248956174
0.308159441 0.226312175 0.263503820
0.363693804 0.241492629 0.279949546
0.435926825 0.267046183 0.307400614
0.521189034 0.296647578 0.340543896
0.617457211 0.342820793 0.387476444
0.301454961 0.298418999 0.298165590
0.325110286 0.303858191 0.304996818
0.346995354 0.308539063 0.310942262
0.382668823 0.320682824 0.323086590
0.436306149 0.334345162 0.341303170
0.498544931 0.363314360 0.364199996
0.572549045 0.396963894 0.397090346
0.653004766 0.448070794 0.446173161
0.407336980 0.425174177 0.381656915
0.420619994 0.430739999 0.385705024
0.437950462 0.438456476 0.390259176
0.466160566 0.445920020 0.401391536
0.504111409 0.459962189 0.417457372
0.558127761 0.483491719 0.437697470
0.622138143 0.519544721 0.474130005
0.691334605 0.571536541 0.524984121
0.501455009 0.573181510 0.485515356
0.505376160 0.578621268 0.486907274
0.516382039 0.583428442 0.491714060
0.541808903 0.594307303 0.499810010
0.582922161 0.610752583 0.522074521
0.621379018 0.628715754 0.543326557
0.672232807 0.652245283 0.569133341
0.742188036 0.691714108 0.618342876
0.588488281 0.748766422 0.620746374
0.600252926 0.751423001 0.625806451
0.613662124 0.752940834 0.632763982
0.637317955 0.759898901 0.640986741
0.665275216 0.769386172 0.652118802
0.710183501 0.785452485 0.676154494
0.762555361 0.806577802 0.704111040
0.821252406 0.826818585 0.739911199
0.074382998 0.094117999 0.197722733
0.093105793 0.094497450 0.203921527
0.136748731 0.099936739 0.218216345
0.186211362 0.109044902 0.230107367
0.267298937 0.123086803 0.254142940
0.354206204 0.144971475 0.281847000
0.452118814 0.171537280 0.320177168
0.568880498 0.219101861 0.378873974
0.101581275 0.109044805 0.212397024
0.115369923 0.108918279 0.216951087
0.155471355 0.118026450 0.226186186
0.211385280 0.125743449 0.244276091
0.280202389 0.136748731 0.265907645
0.368753999 0.159898818 0.291587740
0.463883728 0.185199246 0.330043793
0.573687792 0.233143628 0.389879733
0.150790632 0.152814895 0.241113067
0.171916455 0.153194442 0.253637195
0.198481843 0.155850992 0.255660713
0.253257632 0.165338203 0.271726996
0.322580308 0.179759637 0.292852253
0.403668821 0.202909470 0.316255480
0.490575522 0.230234176 0.354965001
0.600758970 0.280455589 0.411258906
0.224667996 0.211385369 0.287539631
0.239974633 0.215939641 0.291081458
0.267805368 0.218469277 0.302972853
0.319165021 0.229854643 0.317141086
0.375838280 0.245414525 0.334218442
0.447944373 0.271726966 0.358886749
0.530676782 0.300189734 0.391397744
0.626059473 0.352561682 0.446552783
0.315496176 0.307653189 0.355977148
0.330929726 0.311574966 0.357874602
0.353699833 0.315623194 0.366350234
0.386970371 0.324604839 0.374193490
0.444528699 0.341429174 0.390259087
0.509171128 0.362049103 0.417457372
0.576217532 0.397343427 0.449082911
0.659835577 0.447311908 0.494497120
0.419101983 0.430739969 0.434408456
0.416951090 0.439974666 0.431878537
0.436811745 0.442378461 0.440227717
0.464642465 0.451359838 0.449082822
0.505250156 0.463504255 0.461986452
0.556230485 0.485388964 0.487412721
0.620873034 0.517899990 0.515496731
0.695508957 0.564832389 0.557748258
0.493991077 0.580012560 0.529791296
0.501455009 0.580518961 0.530929744
0.519923925 0.585578680 0.540670216
0.541050017 0.596205056 0.548134089
0.576596975 0.612650275 0.559898734
0.619987249 0.627197504 0.580898225
0.675648332 0.653763235 0.609108269
0.748639643 0.694876730 0.654775381
0.586717069 0.749019384 0.658950090
0.597849607 0.751675725 0.656420171
0.606325030 0.750410795 0.659456193
0.626438797 0.760657847 0.668817103
0.656925678 0.772801697 0.678810835
0.702846348 0.786843717 0.700948775
0.757622063 0.805059612 0.724098623
0.821505606 0.830739558 0.761290371
0.110435992 0.098039001 0.277672559
0.131562099 0.096521288 0.283238262
0.170651287 0.101834282 0.295003086
0.229854330 0.112080708 0.310562640
0.307526976 0.120050810 0.334345371
0.390891731 0.143327177 0.365338266
0.483871281 0.175458282 0.400505543
0.585325837 0.223403096 0.449209541
0.131941557 0.114484094 0.291966826
0.147754550 0.116508260 0.297533095
0.186590642 0.120430261 0.309551030
0.247311890 0.126628548 0.323592812
0.320809573 0.137887180 0.340670079
0.408222914 0.161796555 0.377229363
0.496394336 0.190259084 0.411764562
0.587223351 0.244149059 0.454269171
0.173055097 0.151170194 0.326249361
0.185831621 0.151170194 0.329791129
0.226186097 0.159013376 0.339531541
0.281847000 0.168374196 0.352182090
0.356230259 0.181783900 0.374067277
0.436559111 0.203035921 0.403795183
0.523719251 0.237950459 0.437444657
0.606704593 0.285895079 0.472738802
0.228083283 0.216951281 0.367994905
0.245667636 0.218089923 0.376091093
0.282479525 0.224921092 0.384313464
0.336875260 0.233775914 0.400379628
0.400253117 0.250221640 0.421631813
0.471726745 0.272485882 0.441113204
0.556103528 0.312839925 0.475521892
0.632004976 0.358127922 0.512333870
0.319670886 0.321695387 0.430992752
0.324857682 0.320303470 0.436685741
0.353320360 0.324098587 0.440607399
0.389753431 0.330044001 0.449209243
0.448703170 0.343706369 0.467299491
0.519038618 0.369892627 0.490069568
0.591524243 0.405439466 0.517647088
0.664263189 0.448450446 0.555850744
0.419355005 0.449335754 0.508032560
0.430487007 0.454396009 0.515116930
0.444781721 0.456420183 0.517014623
0.466919571 0.466287196 0.525743008
0.509298027 0.473877013 0.536369205
0.563693941 0.489690036 0.552308738
0.627956748 0.523845732 0.580645323
0.702593505 0.567109108 0.617963314
0.501581252 0.598861277 0.591018260
0.504237533 0.589753151 0.587476313
0.519418240 0.600379467 0.592662513
0.539278924 0.605566204 0.604427516
0.574952245 0.618595541 0.616951227
0.616445422 0.637318313 0.635041475
0.683871269 0.661606848 0.656040549
0.746362925 0.696774542 0.686906815
0.594813168 0.751928985 0.711194992
0.600126684 0.750790417 0.703858197
0.603415549 0.756356597 0.705249786
0.626818478 0.766350269 0.714610696
0.658190846 0.775964379 0.723719120
0.697406709 0.791650891 0.739531755
0.755470991 0.806451619 0.756863117
0.827324510 0.835926414 0.784566879
0.162302122 0.092726015 0.414927423
0.188614964 0.091840714 0.423529446
0.232511058 0.095382847 0.431372344
0.292219996 0.097786367 0.445920587
0.371663123 0.114104845 0.474003762
0.459076703 0.140290901 0.502972484
0.548766255 0.185325354 0.533839345
0.635799885 0.247438461 0.575837553
0.187222794 0.110056825 0.417710602
0.202276796 0.107400090 0.437571108
0.237065345 0.114231460 0.443516880
0.303984910 0.118658923 0.462997764
0.383808017 0.138646185 0.484503239
0.466160983 0.163187534 0.508918345
0.558633983 0.204174563 0.545097709
0.640353858 0.265274853 0.580139160
0.205818966 0.153320849 0.462112784
0.218342975 0.154459402 0.470208883
0.264895827 0.158760369 0.470461756
0.329917938 0.167235926 0.488045603
0.402277172 0.182922363 0.506641090
0.483744442 0.216825098 0.535863519
0.568880260 0.254396170 0.561796248
0.653130651 0.313345820 0.598987818
0.239342138 0.219607830 0.499430537
0.253257811 0.223655641 0.503478587
0.292978972 0.227956980 0.509424448
0.359519273 0.241619632 0.524731278
0.429601610 0.260721177 0.545730472
0.511701584 0.285642087 0.565591514
0.589500070 0.330676705 0.591144860
0.668184698 0.385199279 0.622517407
0.304870397 0.332194716 0.551802814
0.314737648 0.329664379 0.561922491
0.333839417 0.325996101 0.557115614
0.389879823 0.332321286 0.567741930
0.463377714 0.351170212 0.582922220
0.532700837 0.384440362 0.604174674
0.611891270 0.424161851 0.629221797
0.690069616 0.472738832 0.656419992
0.411764741 0.484756410 0.624920726
0.420366824 0.481593698 0.625300407
0.437317997 0.480581552 0.625300348
0.464769185 0.480328828 0.630613327
0.502719760 0.477545470 0.636685610
0.559772372 0.502593398 0.653636575
0.642631054 0.540543675 0.675395489
0.719797492 0.581277549 0.698292434
0.506009161 0.636685371 0.693864465
0.510942400 0.635673821 0.691207707
0.521695018 0.633902669 0.696268082
0.546615899 0.641619146 0.701961100
0.573181450 0.646299779 0.709424198
0.617836714 0.652751625 0.718658745
0.676407397 0.667172551 0.726375759
0.764579237 0.702719748 0.761796534
0.597849488 0.773181438 0.766603529
0.601518214 0.773940384 0.766982973
0.610246539 0.775205493 0.777608693
0.631625593 0.780898213 0.781024396
0.656799614 0.787349939 0.781024396
0.701834440 0.801770568 0.792030394
0.756863058 0.813283026 0.813283026
0.821505547 0.842504561 0.841239393
