Assets/EldamarStudio/100 Retro LUTs Pack/LUTs/cube/Eric LUT.cube
DOMAIN_MIN 0 0 0
DOMAIN_MAX 1 1 1
LUT_3D_SIZE 32
0.133332998 0.027450999 0.054901998
0.133332998 0.033523001 0.057938386
0.135483772 0.037444774 0.060974225
0.142315000 0.037950840 0.064010158
0.154079556 0.036052998 0.066666998
0.163187936 0.042124998 0.066666998
0.172296315 0.050727319 0.074256673
0.181404278 0.053257290 0.076786712
0.190512091 0.050221100 0.072992004
0.199620485 0.047185488 0.066920005
0.208728880 0.049968131 0.072485998
0.221885249 0.053004257 0.070462003
0.238203987 0.056040641 0.065528356
0.256926060 0.059329998 0.062744997
0.281214803 0.065401994 0.062744997
0.300695986 0.071473993 0.067551993
0.321947992 0.079064190 0.070588000
0.350031108 0.086907409 0.071220577
0.392535955 0.089943029 0.074256971
0.423908740 0.090195999 0.074510001
0.456166714 0.093990996 0.074510001
0.491587371 0.097027130 0.072485998
0.531435966 0.094117999 0.066666998
0.580012798 0.094117999 0.066666998
0.624035597 0.089564003 0.068943709
0.669323266 0.079317346 0.067805007
0.716888130 0.063124940 0.063756995
0.759392858 0.041872572 0.069828995
0.801897585 0.012650385 0.073244832
0.851486266 0.000000000 0.079823196
0.902593195 0.000000000 0.087160379
0.945097983 0.000000000 0.090195999
0.127260998 0.042631388 0.054901998
0.133332998 0.042631388 0.054901998
0.144085780 0.044402387 0.066540383
0.149398997 0.047817998 0.069323383
0.153320551 0.050853934 0.067046449
0.157115936 0.054269772 0.069702610
0.168753996 0.055281773 0.074762613
0.178368300 0.059582673 0.080075711
0.188235372 0.059329484 0.079063997
0.199620485 0.056293875 0.072991997
0.205819011 0.061986387 0.066920005
0.218848854 0.065148517 0.066413745
0.236306235 0.069322996 0.064769253
0.256673038 0.074256644 0.066034354
0.278178424 0.077546000 0.068816997
0.302466601 0.081214808 0.068816997
0.324983984 0.085136190 0.069070198
0.351802498 0.090575598 0.068817377
0.389500350 0.096015036 0.074256979
0.432005107 0.101833999 0.077292651
0.463377863 0.102339998 0.077545613
0.496647775 0.105123132 0.075521611
0.534218609 0.106261998 0.069576129
0.576976418 0.106261998 0.066666998
0.623276472 0.103984714 0.066666998
0.669323266 0.094497308 0.068943709
0.718912125 0.078811258 0.068816997
0.771536827 0.060088567 0.069828995
0.811385393 0.036180049 0.073244832
0.855281472 0.010120397 0.070968017
0.903478801 0.000000000 0.074636593
0.948134422 0.000000000 0.084123999
0.125489995 0.055660997 0.061353773
0.133712769 0.057811771 0.057052772
0.137634009 0.055660997 0.063503996
0.149019554 0.058190998 0.071094386
0.151170239 0.063503996 0.066666998
0.154206172 0.064769156 0.067931831
0.162681997 0.063124999 0.075648002
0.176470697 0.066413999 0.075142004
0.185831994 0.070714772 0.075901225
0.195193008 0.071853489 0.072612226
0.210120007 0.073244996 0.072992004
0.220240518 0.077293254 0.064895749
0.235294119 0.080328897 0.063883640
0.254522264 0.085135803 0.066919968
0.275774628 0.088172190 0.069955580
0.303731769 0.093358807 0.072738774
0.324983746 0.096394800 0.068184584
0.349272341 0.100062996 0.065781213
0.382669210 0.106135011 0.071853228
0.420366973 0.114357777 0.068690650
0.462871701 0.114737518 0.069829002
0.498292446 0.114484549 0.070841134
0.537254751 0.116255775 0.068184778
0.579759598 0.116255775 0.063124903
0.624541104 0.113978490 0.064516224
0.670082211 0.108159110 0.065907896
0.716888130 0.095509283 0.067931704
0.764958858 0.082226656 0.066286996
0.812776625 0.060847819 0.071094058
0.857558548 0.029475430 0.075901210
0.902593195 0.006325184 0.072232842
0.946869254 0.000000000 0.078051999
0.128019989 0.067805000 0.070461839
0.134598389 0.069576226 0.063124999
0.138140380 0.069576226 0.064010382
0.143706322 0.067805000 0.070588000
0.150158450 0.073877096 0.066793390
0.154965058 0.075648323 0.064136997
0.160531327 0.075648315 0.070461832
0.172928706 0.076281160 0.075142004
0.187349990 0.080835164 0.069829099
0.194434002 0.085895166 0.069323160
0.207084000 0.086148165 0.069702707
0.221252188 0.090702094 0.069702908
0.239089593 0.093738474 0.064010158
0.255028337 0.096521154 0.066160999
0.275268555 0.098545410 0.066160738
0.299936593 0.105250150 0.070461802
0.328020155 0.109803960 0.071220972
0.349398702 0.112839729 0.064010158
0.380391985 0.118279338 0.068817154
0.417583883 0.125869513 0.066287152
0.455281645 0.129917577 0.062744997
0.496774286 0.127893835 0.062744997
0.539025962 0.127893835 0.065275356
0.581530809 0.127893835 0.060341999
0.626312256 0.126881719 0.058570709
0.670587778 0.121062659 0.059076350
0.716129005 0.111448191 0.062618800
0.759392858 0.101581298 0.061859716
0.808475733 0.085642196 0.065527983
0.858317316 0.060594976 0.069069982
0.904237807 0.024162149 0.079569578
0.946363151 0.006325160 0.079569995
0.132953539 0.081087545 0.076533556
0.136369392 0.080708094 0.070082381
0.137634456 0.080708094 0.066666998
0.140670612 0.081087545 0.067552388
0.149399444 0.080708094 0.070208549
0.158507064 0.086780861 0.061100934
0.163314328 0.090702221 0.064642996
0.172169700 0.093358703 0.068311289
0.186970443 0.095635995 0.069829099
0.199114457 0.095635995 0.066793479
0.206198558 0.096774548 0.064136676
0.215938985 0.101707824 0.064389706
0.233396366 0.109297633 0.066287450
0.259962469 0.112080991 0.066034481
0.278178424 0.112080991 0.060089007
0.299177796 0.118912242 0.063630991
0.323845744 0.125743344 0.066287450
0.352055520 0.128399581 0.065148905
0.385452032 0.131435975 0.065148905
0.424415082 0.137634546 0.066287450
0.461606920 0.141429350 0.063630715
0.499431103 0.144212097 0.061606452
0.539025962 0.144212097 0.061479971
0.581530809 0.144212097 0.058444355
0.626691818 0.144212097 0.056167163
0.670840859 0.139658242 0.053130876
0.714610755 0.130803511 0.050853584
0.760151863 0.118658751 0.056926351
0.810246825 0.106514573 0.059962153
0.861480057 0.088425070 0.062744997
0.910309792 0.062492467 0.067425579
0.949779034 0.026059639 0.088678002
0.129917935 0.102339931 0.061353937
0.135989934 0.099304318 0.073497936
0.139405221 0.098924868 0.069196999
0.141935229 0.100189708 0.066666998
0.146363065 0.101960480 0.067172937
0.152435064 0.098924868 0.067172937
0.161543325 0.104996994 0.070714995
0.169639707 0.107273929 0.071853295
0.181277901 0.107779995 0.069829099
0.196078077 0.107780002 0.066793479
0.208222806 0.116508864 0.066666998
0.217330679 0.118026935 0.064136676
0.232637286 0.122960225 0.063251063
0.256926090 0.130296990 0.062998094
0.275142044 0.130296990 0.059962489
0.298165649 0.135103986 0.063630991
0.324984372 0.143200248 0.065148808
0.354838908 0.149398938 0.061353497
0.385452032 0.149651974 0.053004142
0.424415082 0.158254355 0.061353486
0.460088730 0.161163941 0.057558328
0.497027308 0.163693875 0.052498065
0.539025962 0.168500870 0.052371584
0.581530809 0.168500870 0.049335964
0.628589511 0.168500870 0.050853774
0.673877239 0.162934899 0.050094750
0.717900157 0.152308941 0.047564935
0.769260228 0.145983905 0.047817964
0.814800680 0.133839160 0.048577067
0.863124371 0.119923748 0.056166962
0.911321759 0.101454638 0.065401599
0.955851018 0.077672794 0.076534003
0.129411995 0.116002642 0.066413678
0.135483995 0.118026376 0.065908000
0.139405221 0.119291767 0.071600229
0.142441168 0.117141314 0.067931838
0.145857006 0.116002642 0.067046449
0.151929006 0.115117252 0.069196679
0.155471325 0.114611320 0.064136676
0.166223988 0.119038604 0.066919677
0.176217765 0.122959994 0.067045994
0.187855855 0.130043998 0.069323152
0.200126424 0.131182536 0.061606999
0.214294925 0.138267189 0.063630745
0.228968948 0.140417665 0.061606646
0.251866013 0.146489322 0.060721319
0.274635971 0.151043326 0.064516418
0.295255780 0.153447136 0.061480194
0.319418073 0.160910830 0.065654866
0.349652201 0.168754056 0.063377753
0.385705024 0.170651317 0.054269351
0.419355094 0.173940673 0.049209364
0.458823711 0.177356318 0.050727259
0.496521235 0.179380313 0.045919999
0.539152443 0.185325801 0.045793518
0.584060490 0.187729001 0.042757902
0.624288559 0.185452297 0.041999001
0.672106266 0.185199320 0.043390326
0.717900097 0.178621322 0.043010999
0.767488956 0.172549322 0.047059000
0.813789070 0.161163658 0.047059000
0.857558668 0.152561337 0.045287784
0.906388402 0.137887061 0.055407874
0.956862986 0.116634995 0.069449998
0.131056279 0.128146991 0.075521708
0.130550295 0.132827312 0.067552388
0.136116222 0.130929768 0.070461936
0.139152169 0.135230988 0.068437546
0.143326998 0.131056443 0.065401837
0.151929006 0.129791290 0.068437770
0.153826609 0.131435990 0.065527998
0.160151988 0.131435990 0.064389706
0.172295988 0.135989785 0.065148607
0.182289779 0.147248417 0.070334993
0.191018298 0.151043415 0.066793159
0.210120246 0.148513511 0.059203450
0.226438984 0.154586002 0.061100710
0.247185320 0.158886701 0.058823999
0.270081997 0.167741701 0.062112998
0.293611497 0.169765800 0.062618904
0.317899913 0.178874180 0.058064327
0.343580127 0.186970577 0.060088586
0.380012721 0.190006450 0.054016314
0.415559649 0.194687054 0.046046998
0.454396009 0.197469980 0.043516971
0.496900558 0.200506106 0.040480584
0.540796816 0.206831187 0.039595012
0.586337626 0.206830800 0.035041198
0.628968835 0.206957281 0.032637589
0.671220601 0.203921661 0.031246269
0.719544530 0.203668699 0.031499233
0.768121541 0.199873701 0.036432587
0.810752690 0.190132752 0.035547301
0.857811630 0.178241417 0.045287784
0.900316477 0.172169417 0.044022609
0.951929271 0.154712111 0.058444299
0.129537910 0.143326998 0.079317003
0.128020093 0.147881001 0.069449902
0.129790992 0.146110103 0.070208907
0.136116162 0.143580094 0.072991930
0.138772994 0.149272546 0.063504092
0.149398997 0.146995157 0.064642936
0.152182102 0.147501424 0.063377775
0.157115608 0.150411099 0.064389706
0.166224003 0.149651989 0.065148994
0.178368002 0.158760384 0.068184614
0.188488081 0.165717989 0.069069996
0.202909499 0.166730002 0.065275162
0.227198079 0.163694009 0.058823999
0.244908094 0.170019045 0.058823999
0.264642388 0.181657091 0.058823999
0.289816588 0.186464190 0.057305809
0.314105213 0.192536190 0.055028711
0.346489489 0.205186591 0.050853509
0.377735883 0.208222985 0.050979991
0.412144154 0.214801103 0.044149347
0.450853556 0.219734445 0.039974902
0.492346346 0.223276109 0.038962968
0.540796578 0.232258007 0.035547078
0.586337686 0.231119379 0.028209900
0.631119490 0.230360284 0.025173711
0.676533699 0.228968769 0.020619685
0.722580194 0.225933015 0.016571939
0.771157622 0.225679994 0.018595550
0.811764836 0.218469277 0.017077753
0.858064413 0.209867224 0.024920853
0.904111207 0.197976008 0.040986609
0.946615994 0.191903993 0.044023000
0.114357516 0.167615011 0.067172989
0.126502290 0.167615011 0.064136609
0.131435707 0.165717781 0.067172520
0.137128159 0.163820505 0.071979679
0.144844979 0.164452940 0.072612479
0.144845009 0.167488545 0.060468487
0.147881329 0.165211827 0.059077006
0.154079765 0.167362481 0.062239479
0.163187608 0.170904398 0.065149002
0.172296017 0.167868003 0.059077002
0.193168879 0.176976398 0.062112607
0.205692738 0.183934018 0.062997997
0.222264647 0.187223017 0.061480157
0.247944489 0.188235044 0.058823995
0.260088444 0.197343424 0.058823995
0.287033588 0.206578314 0.054016393
0.312587202 0.215306789 0.049715228
0.340417504 0.223402590 0.047817893
0.392029971 0.226438984 0.050853509
0.423276246 0.235041365 0.048197344
0.457684964 0.242125496 0.044908252
0.494370729 0.247058854 0.041998632
0.531688929 0.250474006 0.038583457
0.577229440 0.256546795 0.026438667
0.625047028 0.257685453 0.023655508
0.674762487 0.256293774 0.019354686
0.725616574 0.253257453 0.010499936
0.774193287 0.250221044 0.001391561
0.814800918 0.244655028 0.000759002
0.863124728 0.240227729 0.007716475
0.913093090 0.234155774 0.020113716
0.952687979 0.222264007 0.031878985
0.116634868 0.188993871 0.060847998
0.117140904 0.188993871 0.060721483
0.124984130 0.186843649 0.064136870
0.123718835 0.186337709 0.067678869
0.124098353 0.188741088 0.069070451
0.139279008 0.194307670 0.069576129
0.141808689 0.189752966 0.065022454
0.148133963 0.187981993 0.062998287
0.159519196 0.190765098 0.064516224
0.175079361 0.192030251 0.064895988
0.187096864 0.191903740 0.055914126
0.206324995 0.198987871 0.058950253
0.220366776 0.207336858 0.058697227
0.240607157 0.214673907 0.055661093
0.266034007 0.218469277 0.053004261
0.285388798 0.222770676 0.053004261
0.314231515 0.232384875 0.047944002
0.342188537 0.242884308 0.044149127
0.380138993 0.250474691 0.044908024
0.417836726 0.259076387 0.036812350
0.452245474 0.264389753 0.029728267
0.490702242 0.267425865 0.024667874
0.531309426 0.268564224 0.021505268
0.576849937 0.271852940 0.014927191
0.626944840 0.277925700 0.009614293
0.677545786 0.279190868 0.010373191
0.728652954 0.278178751 0.008855130
0.777229667 0.277546167 0.006957557
0.809866786 0.274509788 0.000506011
0.859202743 0.270461529 0.000000000
0.909677327 0.263883650 0.004048002
0.947121978 0.249715596 0.008096261
0.117647000 0.210246250 0.060847737
0.113599002 0.208222508 0.058823999
0.119924262 0.208096027 0.063124999
0.122201100 0.207590088 0.065401837
0.117267251 0.209866792 0.065401740
0.132194608 0.211005867 0.070082061
0.139784679 0.213029608 0.070082061
0.146109700 0.210246250 0.063757449
0.155218095 0.210246250 0.059962165
0.169639722 0.212017477 0.060468227
0.184060991 0.214168251 0.059962384
0.196204990 0.218216255 0.052877743
0.215559632 0.224288255 0.053637132
0.233017027 0.233902290 0.050854005
0.256799400 0.236938670 0.049588844
0.289437056 0.248071060 0.046932004
0.313725442 0.252625227 0.046932004
0.344212532 0.262492239 0.041239593
0.377609015 0.270208955 0.037065256
0.415812999 0.279317170 0.032764092
0.454142988 0.284629762 0.023656009
0.491714120 0.289690137 0.015559745
0.533459723 0.292726249 0.011385012
0.580897927 0.293864578 0.005313003
0.633017123 0.299177557 0.005566292
0.680455565 0.303858668 0.002530328
0.729159057 0.304491252 0.004807003
0.776217580 0.304491252 0.007843000
0.820999205 0.305882424 0.004554268
0.860214829 0.301075280 0.002024256
0.913345814 0.295129538 0.002909639
0.953194022 0.281088233 0.004047996
0.109677359 0.232637286 0.061606646
0.105882362 0.230740011 0.059709385
0.109424494 0.229854628 0.058570713
0.118026838 0.228842467 0.065401837
0.116508543 0.231878176 0.062365547
0.127893656 0.230360568 0.066160642
0.134977654 0.231245965 0.068310998
0.143832698 0.232637286 0.064516075
0.154459104 0.233396381 0.059203353
0.164326504 0.233775914 0.057305511
0.179253876 0.234408498 0.055534583
0.194686994 0.238330275 0.054775488
0.206830993 0.244402289 0.047564648
0.227830425 0.250727236 0.045034967
0.248197392 0.255534410 0.045920357
0.281467587 0.265907794 0.043516845
0.315623194 0.276533991 0.038583003
0.344212532 0.282605976 0.035420444
0.377609015 0.288677990 0.025300683
0.415433466 0.298671991 0.024035648
0.454902053 0.307400525 0.017204266
0.496394724 0.310436159 0.011132004
0.536369085 0.319038510 0.005566002
0.583933830 0.320050627 0.001517999
0.633649468 0.324604630 0.001138644
0.686148286 0.328146696 0.002530328
0.729665101 0.331183076 0.000000000
0.775838017 0.331815630 0.004806995
0.826312244 0.332194805 0.005186845
0.870840907 0.332194656 0.002783356
0.916382134 0.326122642 0.002783356
0.961922646 0.314484626 0.005566002
0.088172004 0.257432073 0.058317937
0.088172004 0.257179022 0.059076965
0.093231969 0.256926060 0.055534516
0.100569129 0.256419927 0.054016128
0.109677508 0.253636569 0.062618516
0.118785903 0.256672949 0.059582900
0.126375958 0.256926060 0.060594644
0.135483995 0.257432073 0.058950003
0.148893103 0.257685095 0.055154964
0.164073497 0.260721475 0.061226960
0.178241819 0.258444190 0.053257160
0.196457997 0.258697301 0.050221033
0.212396994 0.263125002 0.047564648
0.224794030 0.269450039 0.038962968
0.243010789 0.278557628 0.041998576
0.275395572 0.286906809 0.039468776
0.310816169 0.295509011 0.033649813
0.344212532 0.301580995 0.023782441
0.377609015 0.307653040 0.008602035
0.413788736 0.318785757 0.009867325
0.452371746 0.330677003 0.006072264
0.493864328 0.340290934 0.000000000
0.539405465 0.343453050 0.000000000
0.584945917 0.346615911 0.000000000
0.630739808 0.351929009 0.000759032
0.678557932 0.355471075 0.000505999
0.729665101 0.355977088 0.000000000
0.778241813 0.359013438 0.000000000
0.831119537 0.356736243 0.002656833
0.877925098 0.355218023 0.002150783
0.918911755 0.353700072 0.000505999
0.964452982 0.347628057 0.000505999
0.063884020 0.287792802 0.052245170
0.063884020 0.284756422 0.061353553
0.074636251 0.282353163 0.064263351
0.085388765 0.283744812 0.059076507
0.094497144 0.286780685 0.054016136
0.103605539 0.283997327 0.062618509
0.120303601 0.281973720 0.054522254
0.131056279 0.284503788 0.051233299
0.143833101 0.287033707 0.047564909
0.164073482 0.285009474 0.046046592
0.167615131 0.288045853 0.043390468
0.191397667 0.283744812 0.041113429
0.212396994 0.285262734 0.041113429
0.224794030 0.293738008 0.038962968
0.239974409 0.302846372 0.035926580
0.270208955 0.304743797 0.026945015
0.307274163 0.315749377 0.019734601
0.344212532 0.328905374 0.012397446
0.377609015 0.334977388 0.002530038
0.413788736 0.341050118 0.001265007
0.454016477 0.350284636 0.001897590
0.496900529 0.360025108 0.000000000
0.542441130 0.367741793 0.000000000
0.587982357 0.373813778 0.000000000
0.635799944 0.379253387 0.006831284
0.682352960 0.383934081 0.008475738
0.729665101 0.386337727 0.005565995
0.778241813 0.389373392 0.000000000
0.821505547 0.387096792 0.002656833
0.871853113 0.384060591 0.002150783
0.918279171 0.381657004 0.001770991
0.961416602 0.377988815 0.006577994
0.029981414 0.318152964 0.050980002
0.034788411 0.310310185 0.045667402
0.045541182 0.311574817 0.052625008
0.058190867 0.312839985 0.053384043
0.069576055 0.317014515 0.045793556
0.090828940 0.309930652 0.046805948
0.097913012 0.314105123 0.047944494
0.116129011 0.312713802 0.040480819
0.130550295 0.314990699 0.037445009
0.151802704 0.311954290 0.036053326
0.165211946 0.319544673 0.033017069
0.184440047 0.320556790 0.029980944
0.206451654 0.317520767 0.026186047
0.217836812 0.321821570 0.021885211
0.235167414 0.322327375 0.016698603
0.271979600 0.331435770 0.016066018
0.305376381 0.334471762 0.008475818
0.341808885 0.348513365 0.005819191
0.375205845 0.359898567 0.005566022
0.411384910 0.368374497 0.000000000
0.453510374 0.376344025 0.000000000
0.498545259 0.385451913 0.000000000
0.545477331 0.394560277 0.000000000
0.591018558 0.402909607 0.000000000
0.636559069 0.408981591 0.000000000
0.685009241 0.412270606 0.004554200
0.731562376 0.414294869 0.003036004
0.778241813 0.417330950 0.000759007
0.826312542 0.417457432 0.000253028
0.870588064 0.414421380 0.001518196
0.920050144 0.412270606 0.001770991
0.965591013 0.410752803 0.007843000
0.007210811 0.345477372 0.038836010
0.010246813 0.345477730 0.031246206
0.015180401 0.337381423 0.032890819
0.026565630 0.342947334 0.037697658
0.036938369 0.348513365 0.035546813
0.061986238 0.342821091 0.033649556
0.083744809 0.340291202 0.030107621
0.100948989 0.344592005 0.032890622
0.119164996 0.345351100 0.025300618
0.139658302 0.343832880 0.022264620
0.158127680 0.347881049 0.019355137
0.179886252 0.352435380 0.016318753
0.209487647 0.353573740 0.015559654
0.222391054 0.353700221 0.008475970
0.240607366 0.350664139 0.003668814
0.265907586 0.355724156 0.003922000
0.305376381 0.360278368 0.002403808
0.339405298 0.368247956 0.000000000
0.373687983 0.383428365 0.004300999
0.412903428 0.394560546 0.002276996
0.453510404 0.403668821 0.001518192
0.499051303 0.412776440 0.000506064
0.547122002 0.421758175 0.000126512
0.594054520 0.429474890 0.001518192
0.639595449 0.437824190 0.000000000
0.687918782 0.441113204 0.001391672
0.735610127 0.442631274 0.001012128
0.780139089 0.447691619 0.000000000
0.831372797 0.445035189 0.000000000
0.878178298 0.443263978 0.000000000
0.923718989 0.442884177 0.000885608
0.971663356 0.444149196 0.006325195
0.000000000 0.372928530 0.016445441
0.000000000 0.381404340 0.011638433
0.000000001 0.376723558 0.012903443
0.001265008 0.372801661 0.017077865
0.006578009 0.380392075 0.020113574
0.026059393 0.380139112 0.020366602
0.053004526 0.375711530 0.015939020
0.083618142 0.373940408 0.015180023
0.111828007 0.377608627 0.019228013
0.130044028 0.380645007 0.007084008
0.153067455 0.380139112 0.004933871
0.176976502 0.380898237 0.002530320
0.204048216 0.384566903 0.002403634
0.236685574 0.387855589 0.005186990
0.255661219 0.385958523 0.002530150
0.274509966 0.388868123 0.003036218
0.300569385 0.391904116 0.002403808
0.336369544 0.393169105 0.000000000
0.372802436 0.408349544 0.000000000
0.415433735 0.420113981 0.000000000
0.458570868 0.430993289 0.001265164
0.502720118 0.440101415 0.003542448
0.548386991 0.448956043 0.000506064
0.596963823 0.454522133 0.002530328
0.644528806 0.462871432 0.002909703
0.690322578 0.470335126 0.000759096
0.743453264 0.470335126 0.003289424
0.786716998 0.479063988 0.000379552
0.838583231 0.476154536 0.000632576
0.887286663 0.472485900 0.000000000
0.932194769 0.469576120 0.000253034
0.977735996 0.475648135 0.003289426
0.000000000 0.412397027 0.001265034
0.000000000 0.418468982 0.001265030
0.000000002 0.416192055 0.000759035
0.000000002 0.414673984 0.001265036
0.000506000 0.419860542 0.001897546
0.000506000 0.416824937 0.004933929
0.019987334 0.414041698 0.002656644
0.050221432 0.412397027 0.001011999
0.085136093 0.414168000 0.001518000
0.117899992 0.420113474 0.001012005
0.147754729 0.417330891 0.003415868
0.175332204 0.414547741 0.003921999
0.203542277 0.415433049 0.005945963
0.233649939 0.421252102 0.011258991
0.257937938 0.427324861 0.011258991
0.279316843 0.427830994 0.008602156
0.304870397 0.428336978 0.004554031
0.336369574 0.429601967 0.000000000
0.369766027 0.435673952 0.000000000
0.414548129 0.445287645 0.000000000
0.459835708 0.456546515 0.000000000
0.506135225 0.467425883 0.001265159
0.554459035 0.476280510 0.003542452
0.603035867 0.479316890 0.000506064
0.653889835 0.487160265 0.004807025
0.699430585 0.497659981 0.004554008
0.743453264 0.506767988 0.000253032
0.804174781 0.506767988 0.000253032
0.852751493 0.507527053 0.002656833
0.898292303 0.507021010 0.001897751
0.941050172 0.504997015 0.000000003
0.983808041 0.499936998 0.000253042
0.000000000 0.451866090 0.002783357
0.000000000 0.452372074 0.000000001
0.002150774 0.456293315 0.004300999
0.001518196 0.453383893 0.003036005
0.000000000 0.454143077 0.000000000
0.000000000 0.453510672 0.000632579
0.000000000 0.453004748 0.001138643
0.024415033 0.450221390 0.000000000
0.060088813 0.449841857 0.002277094
0.099557489 0.453890085 0.008349356
0.135610029 0.459582627 0.000126515
0.170018777 0.460594475 0.003162899
0.199620277 0.459076375 0.002783356
0.228589371 0.459962070 0.003415639
0.260468334 0.463503838 0.003415639
0.296774119 0.464769006 0.003415639
0.324857771 0.466287196 0.002276996
0.353953362 0.467552394 0.000000000
0.380898029 0.469323397 0.000000000
0.419861108 0.472612739 0.000000000
0.463504463 0.485515356 0.000000000
0.509171605 0.497533172 0.000000000
0.557748377 0.506514728 0.001138643
0.606325209 0.512207270 0.000759095
0.654901922 0.517520368 0.002277288
0.700442612 0.524731040 0.003668680
0.740923166 0.532574058 0.000000000
0.790259421 0.534851372 0.000000000
0.845667183 0.537508190 0.002656833
0.887412965 0.539405525 0.002150783
0.931435764 0.539532065 0.002656599
0.981530607 0.535357714 0.008349362
0.000000000 0.495129704 0.003922000
0.003794996 0.495129704 0.000885613
0.000253034 0.497280419 0.002403743
0.002024260 0.496521205 0.004680582
0.000000000 0.493611902 0.000379548
0.000000000 0.495129704 0.001897740
0.000000000 0.493232459 0.000000000
0.000000000 0.498165727 0.000000000
0.030866727 0.496900469 0.000000000
0.073371530 0.498798192 0.005692746
0.130929723 0.497153729 0.004933870
0.167362228 0.504996955 0.002024256
0.200379372 0.505755544 0.002783356
0.228968799 0.502972722 0.000000000
0.267299235 0.504364073 0.000000000
0.301707774 0.506894171 0.000000000
0.338140190 0.505375981 0.000000000
0.366982818 0.508285701 0.000000000
0.390006065 0.510815740 0.000000000
0.432005078 0.509804070 0.000000000
0.469576448 0.514737725 0.000000000
0.512081206 0.526881456 0.000000000
0.559013486 0.535104275 0.000126512
0.609361112 0.542947471 0.001897740
0.654142797 0.550917208 0.004174544
