Assets/EldamarStudio/100 Retro LUTs Pack/LUTs/cube/Eric LUT.cube
LUT_3D_SIZE 5
DOMAIN_MIN 0.000000 0.000000 0.000000
DOMAIN_MAX 0.903226 0.903226 0.903226
0.133332998 0.027450999 0.054901998
0.181404278 0.053257290 0.076786712
0.281214803 0.065401994 0.062744997
0.491587371 0.097027130 0.072485998
0.801897585 0.012650385 0.073244832
0.131056279 0.128146991 0.075521708
0.160151988 0.131435990 0.064389706
0.270081997 0.167741701 0.062112998
0.496900558 0.200506106 0.040480584
0.810752690 0.190132752 0.035547301
0.063884020 0.287792802 0.052245170
0.131056279 0.284503788 0.051233299
0.239974409 0.302846372 0.035926580
0.496900529 0.360025108 0.000000000
0.821505547 0.387096792 0.002656833
0.001012128 0.540670335 0.003922000
0.003036126 0.537634671 0.000000000
0.276533931 0.548513353 0.000000000
0.520177245 0.559266269 0.000000000
0.850727320 0.598355293 0.003289165
0.000000000 0.860720634 0.007969820
0.002530012 0.864136398 0.004807304
0.297026813 0.865275145 0.001265006
0.621884763 0.860973895 0.001012128
0.923592389 0.852751434 0.000000000
0.124478295 0.052624710 0.157242283
0.164706007 0.059835702 0.146109700
0.241619110 0.086654119 0.161543399
0.453004539 0.102593005 0.179126993
0.781024456 0.015939219 0.183301881
0.128399715 0.120935991 0.131435990
0.139911413 0.132067993 0.143832996
0.229474992 0.154332832 0.160531268
0.451359808 0.187350109 0.176470578
0.792156577 0.177355886 0.179506704
0.082859024 0.257684976 0.158886582
0.123466007 0.260973960 0.150031701
0.227577403 0.275015682 0.150663868
0.465148687 0.338772833 0.146110117
0.810879111 0.369765967 0.132700577
0.000000000 0.520050287 0.102593154
0.000000000 0.524351597 0.105123565
0.248323932 0.529538155 0.074256733
0.501328230 0.542315245 0.016572151
0.839595139 0.590259552 0.004047996
0.001012124 0.861353397 0.001265167
0.001012125 0.856799603 0.007084177
0.271600217 0.860088229 0.007210577
0.617330909 0.861353457 0.001644704
0.929917693 0.855787516 0.001012124
0.078937605 0.069322996 0.324351817
0.145477697 0.083997712 0.315243810
0.234788403 0.096141577 0.279949814
0.439341962 0.099937007 0.346869111
0.771410167 0.002530012 0.378114790
0.091461420 0.152688116 0.280582219
0.132953703 0.154332832 0.272738814
0.217077568 0.162808403 0.282859087
0.424288392 0.177229404 0.324731112
0.766097128 0.171283990 0.379380196
0.033776194 0.260341823 0.264895409
0.097659722 0.264516115 0.285136372
0.210625961 0.281214803 0.289057821
0.432511270 0.322453976 0.321188956
0.785072565 0.361036986 0.355218232
0.000632584 0.491334647 0.308032393
0.003289420 0.495635360 0.305123091
0.214927256 0.501455128 0.296268404
0.469829261 0.518406093 0.295256257
0.824920774 0.579506457 0.322833508
0.001265167 0.847817540 0.285895199
0.000632584 0.845414340 0.272991687
0.183301806 0.840481043 0.262239397
0.587602675 0.853889823 0.210752696
0.918532491 0.845034719 0.130424201
0.002909872 0.112840123 0.581783354
0.006072285 0.115369707 0.572675347
0.260467798 0.111448288 0.554712236
0.452498376 0.091967009 0.533839285
0.781530738 0.000000000 0.584060609
0.000632580 0.195952117 0.550790608
0.002277127 0.195193127 0.544465542
0.247944236 0.193928123 0.534851551
0.440100968 0.180391997 0.520050704
0.780518413 0.172296122 0.581657112
0.005566124 0.326375395 0.511448383
0.001644708 0.326755077 0.507653415
0.224415228 0.326375812 0.503099203
0.438203812 0.330676973 0.509298146
0.776596844 0.385325789 0.581530809
0.000000000 0.498545229 0.503352106
0.000000000 0.502720118 0.492220104
0.204554066 0.521695137 0.520050228
0.474130362 0.545604229 0.538773179
0.815180302 0.591018379 0.599494100
0.004174717 0.830486834 0.605186760
0.001012124 0.826438904 0.609740615
0.227197871 0.833396554 0.594433904
0.555471182 0.837318420 0.578115046
0.879949212 0.844149232 0.576597154
0.000000000 0.185831800 0.880328596
0.002656833 0.177988812 0.876407623
0.289943218 0.171536952 0.874509811
0.588235080 0.127007946 0.867299438
0.878051579 0.000000000 0.855534434
0.000000000 0.278810769 0.868943870
0.002909876 0.273244500 0.871220767
0.296141505 0.271220505 0.862997890
0.593422055 0.247438356 0.865654707
0.875142097 0.180518329 0.851359665
0.002656833 0.463377565 0.857558191
0.003288997 0.460088581 0.853636980
0.311954558 0.456799597 0.852371991
0.592915654 0.441746026 0.849335670
0.865654767 0.415560037 0.842504561
0.001265167 0.656546593 0.850980401
0.001012124 0.651865780 0.834661424
0.308032572 0.656926036 0.842251658
0.582795739 0.648703218 0.839215398
0.853130519 0.647059083 0.841492712
0.000000000 0.858190596 0.825553417
0.002530012 0.856925726 0.829348564
0.309044570 0.851739407 0.829474747
0.629980922 0.854522288 0.835673749
0.877925396 0.875268519 0.869955540
