Assets/EldamarStudio/100 Retro LUTs Pack/LUTs/cube/Eric LUT.cube
LUT_3D_SIZE 8
DOMAIN_MIN 0.000000 0.000000 0.000000
DOMAIN_MAX 0.903226 0.903226 0.903226
0.133332998 0.027450999 0.054901998
0.154079556 0.036052998 0.066666998
0.190512091 0.050221100 0.072992004
0.238203987 0.056040641 0.065528356
0.321947992 0.079064190 0.070588000
0.456166714 0.093990996 0.074510001
0.624035597 0.089564003 0.068943709
0.801897585 0.012650385 0.073244832
0.132953539 0.081087545 0.076533556
0.149399444 0.080708094 0.070208549
0.186970443 0.095635995 0.069829099
0.233396366 0.109297633 0.066287450
0.323845744 0.125743344 0.066287450
0.461606920 0.141429350 0.063630715
0.626691818 0.144212097 0.056167163
0.810246825 0.106514573 0.059962153
0.129537910 0.143326998 0.079317003
0.138772994 0.149272546 0.063504092
0.166224003 0.149651989 0.065148994
0.227198079 0.163694009 0.058823999
0.314105213 0.192536190 0.055028711
0.450853556 0.219734445 0.039974902
0.631119490 0.230360284 0.025173711
0.811764836 0.218469277 0.017077753
0.109677359 0.232637286 0.061606646
0.116508543 0.231878176 0.062365547
0.154459104 0.233396381 0.059203353
0.206830993 0.244402289 0.047564648
0.315623194 0.276533991 0.038583003
0.454902053 0.307400525 0.017204266
0.633649468 0.324604630 0.001138644
0.826312244 0.332194805 0.005186845
0.007210811 0.345477372 0.038836010
0.036938369 0.348513365 0.035546813
0.119164996 0.345351100 0.025300618
0.209487647 0.353573740 0.015559654
0.305376381 0.360278368 0.002403808
0.453510404 0.403668821 0.001518192
0.639595449 0.437824190 0.000000000
0.831372797 0.445035189 0.000000000
0.000000000 0.495129704 0.003922000
0.000000000 0.493611902 0.000379548
0.030866727 0.496900469 0.000000000
0.200379372 0.505755544 0.002783356
0.338140190 0.505375981 0.000000000
0.469576448 0.514737725 0.000000000
0.654142797 0.550917208 0.004174544
0.841872275 0.566729844 0.000759092
0.000000000 0.688425303 0.008855297
0.000758999 0.679316998 0.003794996
0.003162909 0.680202365 0.002277288
0.200885266 0.686780214 0.003289004
0.372549266 0.684376717 0.001518192
0.534345448 0.686780572 0.000379548
0.694243789 0.692979336 0.000000000
0.869702756 0.696647704 0.000000000
0.000000000 0.860720634 0.007969820
0.000379548 0.864895701 0.000000000
0.000759096 0.865654409 0.001265167
0.156862557 0.863503933 0.006325199
0.398861706 0.864516079 0.000000000
0.580645323 0.862744808 0.001265167
0.758760512 0.862997890 0.004933540
0.923592389 0.852751434 0.000000000
0.136875451 0.050600551 0.104617544
0.148640454 0.043895997 0.103099450
0.181151003 0.064262994 0.110562995
0.220999181 0.079569645 0.110436186
0.295888454 0.096394800 0.118026353
0.432131648 0.107526809 0.118405811
0.607590497 0.097407006 0.126122802
0.800885260 0.029222103 0.114357896
0.140796557 0.077166542 0.098797999
0.149779007 0.083871000 0.106261544
0.168627098 0.096015446 0.112081088
0.220619634 0.106514990 0.118405901
0.303225994 0.126122996 0.115496635
0.435294151 0.146489486 0.119417928
0.624288261 0.142820984 0.120430261
0.821758151 0.111068562 0.108032852
0.127893910 0.137887090 0.114104547
0.135230541 0.136748642 0.097912990
0.164326459 0.141429543 0.101075090
0.206072092 0.159392655 0.109297633
0.296015173 0.184440449 0.111701541
0.430487365 0.208728641 0.109297737
0.612144530 0.223782346 0.105502740
0.806831062 0.219101936 0.089690149
0.104870357 0.220873088 0.107779637
0.115749449 0.222137734 0.102972642
0.145857006 0.218848735 0.103479005
0.204174548 0.230234191 0.101960994
0.298798561 0.265148729 0.101201996
0.440354109 0.300442755 0.094243906
0.631372392 0.324731022 0.076280914
0.825553477 0.330803484 0.042884454
0.015180008 0.334218353 0.107273556
0.043390375 0.333586186 0.097279996
0.116888002 0.335104376 0.091840804
0.199747086 0.340290755 0.085136265
0.291587830 0.350790352 0.069829099
0.446046650 0.393801361 0.038836010
0.634914458 0.431878656 0.006325292
0.833016872 0.445540667 0.002909560
0.000000000 0.487286747 0.025174078
0.000379548 0.488551468 0.024415080
0.019987457 0.486148059 0.012397459
0.192030624 0.496394455 0.004807100
0.327513933 0.494370818 0.000000000
0.458443761 0.508032441 0.000000000
0.645793736 0.544212461 0.005566292
0.840354085 0.564832211 0.003794996
0.000000000 0.676533818 0.003289004
0.000000000 0.676027954 0.000000000
0.001518195 0.672106028 0.003035997
0.183175012 0.677545846 0.005313189
0.369639307 0.683870792 0.005439708
0.533080399 0.685135841 0.000379548
0.696774065 0.692220271 0.002024260
0.878937185 0.701834440 0.000758992
0.004933537 0.863883615 0.000000000
0.001138547 0.860720634 0.001265168
0.000379548 0.860720634 0.006831272
0.139531940 0.859456122 0.000379548
0.397216707 0.861100435 0.003415642
0.578367949 0.864263058 0.000000000
0.759139955 0.862618327 0.001897740
0.923592389 0.855787158 0.000000000
0.119164996 0.055661093 0.174699187
0.151423007 0.056040548 0.172801644
0.166983098 0.068184994 0.158254102
0.215939447 0.083491646 0.169260010
0.287413090 0.098039195 0.189500183
0.404933363 0.100822359 0.187982097
0.580012500 0.088172108 0.206704378
0.779759586 0.012903215 0.208349094
0.135357454 0.095635995 0.160658091
0.145098001 0.093231991 0.160278529
0.163061097 0.094370641 0.151549637
0.203794986 0.115243092 0.169260100
0.280455381 0.125743449 0.185325742
0.405059874 0.138772994 0.188361734
0.591271341 0.133333296 0.205186471
0.799999833 0.096647784 0.207463473
0.120809905 0.130803078 0.150411099
0.136495903 0.144591659 0.162681654
0.151296899 0.145730183 0.156736091
0.195952103 0.155092001 0.170398459
0.272486180 0.178621188 0.183428198
0.404807389 0.201770842 0.190891743
0.582921803 0.211638302 0.195825189
0.790638626 0.203921437 0.203542188
0.108032651 0.204427183 0.164958641
0.117394261 0.207590088 0.167362556
0.151043549 0.211891443 0.172042653
0.176976293 0.218089640 0.166603550
0.276913524 0.250221431 0.173181280
0.415812552 0.282352656 0.184566543
0.601138532 0.313851625 0.182669088
0.812903106 0.317393810 0.186590806
0.019987721 0.318785489 0.168500915
0.047185265 0.313598722 0.170398459
0.117646992 0.313093066 0.170778006
0.178114831 0.323466182 0.171663284
0.277293175 0.330423355 0.160658106
0.424161643 0.377735823 0.161417007
0.612649918 0.416571468 0.152814910
0.820366681 0.433396637 0.145224631
0.002024260 0.471979439 0.149905100
0.001138644 0.472106367 0.156356648
0.009108266 0.472485751 0.148893192
0.178874031 0.475142449 0.137001649
0.307906419 0.475142360 0.129664809
0.438077450 0.492473364 0.111954361
0.632764220 0.531309247 0.088045374
0.836053073 0.553826392 0.048323847
0.000759096 0.668564439 0.055661030
0.002024260 0.665022254 0.047817834
0.000000001 0.666287541 0.043010827
0.164832547 0.668817103 0.031752016
0.350411355 0.674889445 0.003795104
0.522453785 0.674762547 0.001644719
0.687792718 0.685894489 0.000000004
0.877039671 0.697153449 0.001265169
0.002783166 0.859835505 0.003795180
0.003794990 0.858696759 0.005692725
0.000000000 0.856293321 0.003794989
0.075268976 0.859329283 0.001897737
0.384060711 0.857811213 0.002403808
0.566224098 0.861353517 0.001897736
0.755977094 0.857431650 0.003542455
0.930676639 0.856040478 0.000759096
0.104743645 0.057178997 0.272991627
0.125237256 0.069323450 0.260088265
0.156356543 0.080455460 0.249082997
0.206199005 0.086274996 0.238709643
0.276786715 0.100695543 0.263630629
0.407463819 0.102466747 0.289184004
0.563061178 0.068690725 0.298798651
0.765085399 0.001265167 0.317394108
0.106640995 0.106514901 0.238456726
0.127893895 0.106894545 0.240101531
0.150917351 0.110815734 0.233396262
0.193548188 0.113978542 0.230234176
0.275648266 0.129285097 0.260088265
0.396837384 0.135230735 0.279569864
0.577103257 0.121315554 0.304744065
0.775332212 0.087412842 0.322707176
0.114737719 0.153573900 0.227577627
0.123592548 0.152688101 0.227198094
0.145477548 0.157874644 0.221632093
0.184060991 0.166097105 0.229095638
0.269196659 0.180139184 0.253383726
0.383048713 0.194307297 0.268943727
0.560404718 0.205692738 0.291713923
0.767868221 0.195319220 0.317141086
0.083365008 0.213535637 0.215812638
0.104490995 0.209867179 0.230739728
0.134977907 0.223149985 0.244402289
0.173181266 0.232637286 0.237697631
0.257305533 0.248703435 0.253763169
0.391777128 0.270588607 0.266287386
0.575838208 0.298165649 0.291461289
0.794180930 0.307400614 0.307779759
0.014800558 0.306135178 0.240101621
0.029981274 0.311701298 0.250727296
0.100948550 0.309298187 0.244276077
0.173055097 0.312839836 0.251486182
0.259835571 0.327261358 0.248703450
0.402150542 0.364959002 0.261100739
0.595952094 0.402403653 0.272865534
0.803921402 0.424541175 0.289436847
0.001138644 0.451359838 0.253383636
0.002403808 0.450094640 0.251106650
0.002024266 0.454016477 0.246299639
0.162555546 0.455155104 0.248450294
0.284756452 0.459962100 0.243643180
0.425553530 0.477419466 0.246426553
0.613156199 0.517140806 0.249715284
0.821884751 0.544212461 0.256925970
0.002276998 0.647691131 0.244908348
0.001138644 0.649335921 0.234534904
0.005566292 0.646300018 0.230487093
0.113851927 0.653257489 0.229095712
0.334092379 0.657811463 0.219987243
0.502846479 0.660594821 0.204681009
0.677672446 0.669449568 0.193295643
0.868058085 0.688551426 0.195698828
0.001518189 0.849209189 0.165211976
0.005439801 0.851486325 0.163314149
0.000379548 0.853004098 0.157748133
0.022011256 0.853130937 0.130297333
0.345857173 0.854269564 0.083364852
0.554332674 0.853763282 0.057432339
0.742820799 0.852624834 0.002656542
0.922074497 0.848956585 0.000000000
0.024035629 0.079064190 0.385325581
0.073371619 0.087792799 0.382669002
0.136495903 0.091587894 0.373561174
0.205945373 0.096015356 0.355977029
0.266160369 0.104996994 0.343959183
0.400000185 0.102087006 0.377482563
0.575331628 0.062365625 0.411764652
0.768247902 0.001265167 0.432131559
0.043263979 0.126122996 0.366603196
0.076407522 0.127640888 0.356230170
0.133586556 0.131309345 0.357494831
0.198608428 0.131688982 0.341303170
0.263124377 0.129664540 0.337508172
0.403542012 0.133206800 0.383681178
0.570651531 0.123845555 0.408222914
0.777735353 0.082732454 0.438583404
0.047817633 0.180139184 0.335863382
0.082732715 0.180139199 0.333965838
0.125490010 0.178621188 0.332954079
0.186590999 0.186084732 0.325489730
0.254522294 0.182669103 0.332194984
0.384819806 0.196204737 0.360910565
0.562681615 0.202276915 0.399367452
0.763946533 0.199240923 0.429854274
0.024415176 0.236179635 0.323719025
0.050727624 0.238456741 0.324730754
0.111448102 0.244402289 0.321441948
0.178620979 0.243137643 0.324098378
0.264263004 0.254901826 0.336116195
0.387349665 0.275395632 0.368121207
0.567362487 0.298419088 0.399494082
0.773813903 0.323466182 0.438962728
0.003922000 0.314737171 0.320430189
0.005060354 0.312080711 0.330550373
0.069323018 0.326628476 0.333586305
0.170904189 0.342188179 0.342188179
0.270082384 0.343706340 0.346995175
0.401264846 0.364073366 0.364073366
0.582416296 0.399241388 0.392283350
0.788867772 0.422011167 0.425933182
0.000379548 0.443769664 0.353194386
0.003035997 0.449335575 0.353446931
0.000000001 0.452371746 0.355724007
0.134092093 0.453636944 0.356989264
0.271094114 0.454016477 0.349019438
0.408222616 0.470082015 0.360151470
0.606451750 0.513092935 0.380898088
0.814041793 0.543832719 0.409867108
0.000759096 0.637950718 0.386717290
0.004048100 0.633143544 0.382163167
0.004807003 0.634788036 0.376344144
0.027703986 0.642504632 0.369513094
0.298798352 0.646679342 0.363693923
0.477545708 0.648829639 0.357115597
0.651613116 0.661479890 0.364959091
0.858696997 0.683617651 0.391144544
0.000000000 0.843643188 0.377229363
0.001138640 0.843643188 0.380771518
0.000000000 0.844402313 0.369386524
0.000379548 0.844275594 0.369007021
0.309298187 0.845161378 0.357621342
0.529537976 0.848703265 0.341808736
0.721568763 0.849082708 0.319165289
0.904111207 0.843643188 0.300063133
0.001897740 0.103731737 0.534218729
0.001518192 0.109803997 0.538140297
0.069323204 0.112839900 0.529411554
0.200505897 0.108918086 0.520809472
0.312839717 0.111448191 0.509930432
0.404933721 0.102087006 0.489310473
0.581530511 0.054902170 0.526249468
0.783048511 0.001265167 0.554965258
0.008096008 0.139278993 0.526501894
0.000379548 0.146616012 0.524731219
0.056799628 0.148513734 0.512713492
0.205312997 0.143706635 0.510436416
0.298924476 0.144971281 0.495003104
0.412017703 0.133333281 0.488551468
0.587602794 0.115496524 0.531056225
0.787223101 0.078937456 0.562428653
0.001138644 0.210120201 0.497659624
0.001518192 0.209993914 0.494244039
0.055155087 0.206324935 0.488804609
0.184946090 0.204047933 0.475901395
0.284629732 0.202529922 0.472865462
0.389247179 0.200632200 0.470208734
0.568753839 0.201011837 0.515622795
0.776217341 0.203162447 0.551296473
0.002024260 0.283111751 0.478810728
0.005186648 0.279190570 0.479063809
0.027071632 0.278557837 0.466666549
0.170777902 0.279316723 0.462365806
0.277419657 0.278178364 0.464263380
0.394939750 0.281593740 0.470588356
0.576597154 0.303984880 0.515875697
0.781530440 0.333712786 0.563187718
0.002024260 0.359392673 0.461986274
0.002024260 0.353826463 0.462618619
0.000759100 0.359519362 0.462745368
0.152308732 0.366856545 0.467425525
0.278304905 0.374066710 0.467172712
0.410752624 0.379253805 0.485389173
0.582669318 0.411764473 0.521442354
0.786970317 0.452119112 0.569639027
0.002024260 0.454016447 0.461859435
0.000000000 0.457938462 0.455914199
0.000000001 0.460215449 0.459582359
0.108665355 0.472865373 0.476027489
0.290575624 0.489184469 0.498418719
0.428589702 0.497027457 0.493232459
0.603288829 0.527767181 0.519418180
0.805819154 0.556356609 0.559266269
0.000758999 0.634408355 0.511321962
0.000758999 0.631372392 0.508285999
0.003921710 0.630487084 0.510309815
0.053889990 0.647818029 0.522960186
0.294244170 0.645540833 0.517014921
0.458317727 0.646679282 0.513978422
0.645161390 0.663883567 0.524984062
0.848450243 0.698166013 0.562808394
0.004427752 0.829980671 0.572801948
0.002024167 0.827324271 0.571663260
0.002024263 0.827450633 0.574826181
0.048576921 0.833016872 0.561290443
0.294370741 0.837318420 0.548134208
0.509677351 0.839342177 0.542188168
0.709677279 0.844149232 0.531435728
0.887286365 0.845161378 0.529032230
0.000000000 0.133965999 0.708665252
0.000000000 0.133965999 0.708665252
0.000000009 0.133965999 0.708665252
0.198988289 0.131182641 0.709171176
0.348134249 0.117646806 0.693611801
0.486780256 0.085895017 0.684503078
0.627577841 0.015433725 0.672738850
0.792536139 0.001265167 0.679063678
0.000379548 0.173434734 0.712207258
0.003668553 0.171916544 0.706135094
0.002277199 0.172042638 0.706767797
0.195319638 0.170018896 0.698545575
0.354205906 0.159645990 0.689310253
0.493990988 0.138393253 0.680708051
0.630866528 0.092473075 0.675648570
0.808475554 0.080455370 0.690575361
0.000000000 0.245161101 0.686021447
0.001897740 0.240354285 0.687792301
0.003036004 0.241872087 0.684250236
0.181657016 0.237318203 0.683238328
0.344339371 0.230993286 0.673371434
0.483997315 0.216192380 0.667931676
0.615559638 0.194307387 0.658317804
0.791018486 0.207716823 0.674762905
0.001138644 0.335863262 0.675648570
0.003921710 0.329158604 0.670588195
0.002024260 0.329538167 0.667552054
0.169386625 0.328652561 0.666666925
0.330297381 0.326375574 0.658696949
0.470082223 0.314231455 0.655154765
0.616318882 0.310056984 0.653257191
0.804933548 0.341049910 0.683238268
0.002403808 0.425553352 0.659202874
0.000000000 0.430107623 0.656420052
0.002403808 0.428842545 0.655281484
0.129664555 0.430613369 0.656166613
0.309297651 0.424035549 0.649841845
0.462365657 0.418722183 0.647691071
0.617204070 0.424035370 0.651359558
0.795066178 0.464769363 0.686780334
0.003794996 0.527387500 0.638709843
0.002277191 0.525490284 0.636812091
0.000000001 0.528526187 0.638709843
0.058697265 0.527893722 0.640227795
0.300442725 0.536622286 0.647564530
0.453004748 0.534598470 0.643896103
0.620872974 0.549652457 0.656925917
0.804174542 0.592156708 0.698797941
0.002277288 0.652751565 0.643263876
0.000758999 0.655534565 0.637444496
0.004680709 0.655914068 0.643390298
0.043263830 0.655534506 0.637571216
0.324351460 0.663124561 0.649082780
0.510436475 0.686653495 0.680328846
0.650095105 0.693611860 0.691334546
0.838709414 0.726628542 0.715116858
0.001644712 0.832131565 0.687539339
0.002277285 0.829222023 0.692472875
0.000759103 0.831119478 0.695129693
0.191018105 0.833143413 0.706767738
0.406957507 0.837824166 0.714484632
0.542441666 0.837064922 0.709297597
0.698544860 0.845540762 0.707526803
0.869449437 0.849968135 0.719923913
0.000000000 0.185831800 0.880328596
0.003036284 0.180898279 0.878051877
0.003922002 0.179253653 0.877672434
0.188994065 0.180771440 0.875142455
0.387349367 0.165717751 0.867046356
0.549525499 0.137887299 0.866540313
0.718279302 0.066919327 0.866540313
0.878051579 0.000000000 0.855534434
0.002024167 0.226312369 0.880455613
0.000000000 0.227956787 0.879443288
0.000000006 0.224667788 0.875901103
0.196837366 0.214674190 0.881973267
0.389120877 0.212776542 0.878937304
0.558254063 0.190638617 0.866287291
0.719291449 0.153194040 0.869829118
0.888171852 0.062491894 0.860467851
0.000000000 0.301834136 0.863377452
0.000758999 0.302719474 0.865401626
0.003162912 0.296773970 0.872232795
0.200379416 0.294497102 0.863757014
0.391398013 0.287286878 0.862871468
0.554965019 0.280328900 0.860594451
0.711321712 0.256799579 0.853636742
0.875395358 0.216445237 0.852371812
0.001265167 0.407590210 0.872106314
0.002277285 0.410373151 0.867552042
0.002277294 0.404048026 0.865275085
0.215559855 0.407084227 0.860088587
0.402023822 0.401770979 0.860088587
0.560531259 0.392789423 0.855913579
0.711827874 0.382416219 0.852371991
0.874889255 0.361290395 0.846679211
0.000000000 0.523592591 0.857305586
0.000000000 0.521189153 0.853257418
0.008855364 0.519544423 0.852877617
0.201264858 0.516887963 0.851612926
0.396837294 0.513599157 0.847691417
0.553699791 0.508032858 0.847185433
0.708032608 0.495256335 0.841745853
0.865401506 0.482859015 0.841239393
0.000759092 0.624415100 0.848197281
0.002783159 0.620493412 0.843263507
0.002783166 0.621252477 0.840227723
0.202529758 0.620493352 0.836179614
0.388235003 0.625426710 0.832890451
0.543327034 0.619354725 0.841745675
0.702087343 0.613029599 0.840986848
0.852371693 0.611385405 0.836938620
0.002277288 0.747248292 0.841872394
0.003036280 0.739405394 0.842125118
0.001518202 0.741176486 0.842251778
0.194307536 0.742061615 0.844908178
0.405819058 0.742820680 0.838456750
0.566856086 0.745603979 0.836938739
0.701454341 0.739784896 0.837950587
0.858950257 0.752055645 0.854395926
0.000000000 0.858190596 0.825553417
0.002530012 0.858950317 0.834914684
0.001517998 0.856166840 0.827071428
0.153447002 0.854648709 0.817077756
0.407716572 0.849841893 0.829727769
0.589753330 0.853004396 0.835420609
0.735231102 0.861606300 0.850853801
0.877925396 0.875268519 0.869955540
