Assets/EldamarStudio/100 Retro LUTs Pack/LUTs/cube/Frank LUT.cube
LUT_3D_SIZE 5
DOMAIN_MIN 0.000000 0.000000 0.000000
DOMAIN_MAX 0.903226 0.903226 0.903226
0.000000000 0.043136999 0.066666998
0.155724391 0.040481009 0.104237713
0.434281796 0.003922000 0.097406581
0.728779137 0.000000000 0.112840123
0.969006777 0.000000000 0.172675818
0.006198711 0.201771110 0.083618008
0.178874120 0.194560692 0.081341289
0.432637483 0.206325114 0.082732283
0.711827993 0.219734564 0.120303407
0.954964936 0.217077568 0.178874105
0.039341979 0.429095775 0.123592407
0.227324516 0.418595821 0.124604687
0.450601220 0.422517806 0.124857575
0.687666118 0.429348677 0.138013989
0.931688368 0.445920140 0.189626992
0.017457006 0.674889266 0.178620994
0.218595847 0.669702828 0.161543414
0.450474411 0.676913381 0.170777828
0.667932153 0.670967996 0.175585121
0.894117475 0.687666118 0.188994154
0.064895548 0.890575767 0.288171589
0.217077643 0.887665927 0.286021769
0.413915396 0.889943242 0.290575802
0.627450943 0.891587615 0.308918625
0.838329971 0.893231928 0.322074592
0.003288997 0.066666998 0.180138692
0.150790676 0.051992703 0.178494409
0.397976100 0.082100123 0.200758979
0.688931108 0.098418869 0.240354538
0.949146032 0.102972865 0.275268823
0.003288997 0.185705408 0.184060708
0.158001110 0.182795703 0.188994408
0.388488382 0.211891398 0.206957281
0.680835247 0.236053392 0.236685812
0.944212615 0.245540693 0.280834854
0.104997113 0.411384821 0.233143687
0.241998404 0.409108102 0.228209987
0.440480500 0.410752773 0.229854271
0.671980143 0.428083509 0.243263826
0.927260756 0.454522401 0.281973392
0.125489995 0.675901532 0.267678708
0.258317798 0.667425513 0.261227131
0.452498645 0.670967996 0.259709239
0.664389670 0.670967996 0.263250947
0.896521151 0.685262442 0.278178275
0.195066288 0.894876659 0.361543477
0.273750484 0.888298512 0.356230527
0.450980514 0.890954912 0.359266162
0.639215708 0.892473042 0.371030629
0.840227783 0.891966760 0.384819776
0.000000000 0.068057984 0.362934411
0.181150988 0.080455415 0.343327224
0.387855381 0.096773997 0.336115956
0.671980143 0.116128705 0.377356410
0.920682907 0.198355213 0.428968817
0.074003816 0.209614113 0.324351400
0.198861390 0.214168534 0.324351817
0.389500082 0.218722701 0.338393509
0.655660927 0.250474542 0.377735674
0.917773664 0.292346805 0.432637662
0.161036953 0.396331787 0.351802796
0.265528381 0.392409801 0.356356382
0.434281766 0.400252789 0.365591407
0.659202874 0.425426960 0.387855798
0.912207365 0.459076643 0.426312655
0.246552989 0.655913830 0.414547414
0.318785280 0.653637111 0.408095986
0.479317188 0.656293392 0.406451523
0.664009929 0.662112415 0.412270546
0.880076230 0.681088090 0.430360377
0.318659216 0.889310658 0.468817234
0.367109597 0.881087899 0.481467634
0.502339959 0.886021316 0.482100040
0.662365854 0.887665927 0.490575612
0.857432008 0.887286365 0.495761961
0.106261991 0.122580871 0.555344284
0.259709239 0.128526121 0.550284386
0.460847944 0.127513990 0.536369681
0.684756279 0.126502126 0.532701135
0.917773485 0.214673787 0.566982806
0.165212110 0.256420255 0.531055808
0.273118079 0.255408138 0.525110662
0.454269290 0.249841824 0.518659234
0.671980143 0.256672680 0.532953858
0.905629218 0.327134609 0.569260120
0.215939403 0.417963386 0.506008923
0.303858548 0.415053546 0.511195362
0.482100189 0.431372523 0.522200942
0.675901532 0.453510702 0.542820990
0.883112073 0.499050945 0.591144860
0.297280133 0.654269338 0.554206133
0.365971118 0.649715424 0.534978032
0.521948397 0.646426141 0.556230545
0.681720078 0.650348127 0.565971136
0.882732630 0.663504124 0.589500308
0.441492796 0.876280785 0.613788903
0.485641927 0.873751044 0.616951048
0.591524363 0.876280785 0.634155512
0.703984976 0.877292931 0.624668241
0.872106433 0.882732809 0.634535015
0.291840643 0.197596803 0.790006459
0.384313673 0.194939971 0.783680916
0.566350639 0.193674803 0.778874159
0.772042930 0.184566632 0.758001208
0.957368612 0.213408947 0.732320786
0.337634355 0.319164813 0.770651639
0.414168358 0.321821392 0.767995059
0.573307931 0.315243542 0.759139359
0.765211761 0.309045106 0.756229877
0.951169848 0.326122671 0.736622334
0.334218383 0.489183962 0.755976796
0.423908770 0.490448982 0.755344808
0.589247227 0.506261826 0.738899589
0.748513758 0.493485063 0.737001777
0.920050383 0.510183632 0.729790807
0.271726668 0.696141958 0.728779078
0.369512796 0.689689934 0.725995958
0.540543616 0.677545846 0.731815159
0.736369073 0.677545965 0.733712792
0.898797929 0.698039234 0.743453622
0.435546935 0.889310658 0.715369940
0.492472917 0.886401057 0.734345317
0.615433335 0.880834997 0.737002075
0.768374383 0.876280785 0.759266078
0.909044743 0.882858634 0.780897915
