Assets/EldamarStudio/100 Retro LUTs Pack/LUTs/cube/Frank LUT.cube
DOMAIN_MIN 0 0 0
DOMAIN_MAX 1 1 1
LUT_3D_SIZE 32
0.000000000 0.043136999 0.066666998
0.000000000 0.046173386 0.075774617
0.000000000 0.042757999 0.076280773
0.005059999 0.040480837 0.074510001
0.020999093 0.043516546 0.076407544
0.063503869 0.046552934 0.091587931
0.108538955 0.047059000 0.101707675
0.155724391 0.040481009 0.104237713
0.202024087 0.029095905 0.100443006
0.241492510 0.019987511 0.094370998
0.278051734 0.010879130 0.094117999
0.312460244 0.005819260 0.094117999
0.349272251 0.003922000 0.094117999
0.391777068 0.003922000 0.094370969
0.434281796 0.003922000 0.097406581
0.476786584 0.003922000 0.098039001
0.517773569 0.002403808 0.099557191
0.559140086 0.000000000 0.101961002
0.607717037 0.000000000 0.101961002
0.645161748 0.000000000 0.101961002
0.687286735 0.000000000 0.105755992
0.728779137 0.000000000 0.112840123
0.762428463 0.000000000 0.121569000
0.801897705 0.000000000 0.121569000
0.836812317 0.000000000 0.130676985
0.871600330 0.000000000 0.141429663
0.907527089 0.000000000 0.151043996
0.940923393 0.000000000 0.163187996
0.969006777 0.000000000 0.172675818
0.989247143 0.000000000 0.180012971
0.999114394 0.000000000 0.186970368
0.996078014 0.000000000 0.196078002
0.009108387 0.040101387 0.069702610
0.003036387 0.046173386 0.069702618
0.000885613 0.047059000 0.072359003
0.007589999 0.046552841 0.077798776
0.027071092 0.049588550 0.087033547
0.069575869 0.052624933 0.091587931
0.117140636 0.058190998 0.096647680
0.158254012 0.057558712 0.101454705
0.200505897 0.051107194 0.100443006
0.244528905 0.044275515 0.094371006
0.281088114 0.043895997 0.099936999
0.319544613 0.039215647 0.096142001
0.356103659 0.035041388 0.091840997
0.395066410 0.030740386 0.088551998
0.440353811 0.025174389 0.094370969
0.482858598 0.025174389 0.097406581
0.526881576 0.023656195 0.098039001
0.568121552 0.020619810 0.099557191
0.604680598 0.018215997 0.101960994
0.653257370 0.015433353 0.099177644
0.686907053 0.011385391 0.102719605
0.725743294 0.008096259 0.108791612
0.765464902 0.005819007 0.115875728
0.804933310 0.000000000 0.124604613
0.844402432 0.000000000 0.133712605
0.876534045 0.000000000 0.144465283
0.906515062 0.000000000 0.153067619
0.934851408 0.000000000 0.160151601
0.965591609 0.000000000 0.169639423
0.986211121 0.001771217 0.180518568
0.996963620 0.005692760 0.190891832
0.996078014 0.012143999 0.202150777
0.007464000 0.058570772 0.081340775
0.003542226 0.060341775 0.074889004
0.001771226 0.059961997 0.074889004
0.007589999 0.062491998 0.078684166
0.029980639 0.066413321 0.090575546
0.077798635 0.069449708 0.093611933
0.118911639 0.070714772 0.103099450
0.164199397 0.073497772 0.099557072
0.201644182 0.071727000 0.099810228
0.243010715 0.068437584 0.096521229
0.284123957 0.068184547 0.095635995
0.322580993 0.068184547 0.093612000
0.362049401 0.065275133 0.089816995
0.400000066 0.060721003 0.086274996
0.443643153 0.058444005 0.088551991
0.486780375 0.057179000 0.092220187
0.527766943 0.057179000 0.096773997
0.572042942 0.054775357 0.097406588
0.611511767 0.051739350 0.097406976
0.650221527 0.050853901 0.105629414
0.693105519 0.045920551 0.102593035
0.724225283 0.039848547 0.107905999
0.762175977 0.035673808 0.114231013
0.803668678 0.031625543 0.125363678
0.838836074 0.032258321 0.132447764
0.878304839 0.032258321 0.144591764
0.909677446 0.032258321 0.154964998
0.940291226 0.032258321 0.164325997
0.965970874 0.032258321 0.170904592
0.985705197 0.034029085 0.183554500
0.996963620 0.037950762 0.196078211
0.998228788 0.045793548 0.208223000
0.002656839 0.087159999 0.087665997
0.000885613 0.087159999 0.084882781
0.001265161 0.085009545 0.082226165
0.012650320 0.084503159 0.087286159
0.033143416 0.089057162 0.092599452
0.080328956 0.089436933 0.088551611
0.124351479 0.093738161 0.099178001
0.164199397 0.095003322 0.104870297
0.206704184 0.095003322 0.097280100
0.244148985 0.095003322 0.096774161
0.285135895 0.093738161 0.092599869
0.325616598 0.093738161 0.090070002
0.367362767 0.094876803 0.086274996
0.407084197 0.092346482 0.086274996
0.448576808 0.092346482 0.086274996
0.487286419 0.092346482 0.087413348
0.532068133 0.091081321 0.090701997
0.571536660 0.091713898 0.096773997
0.615812957 0.089943290 0.095635824
0.653004706 0.089690320 0.105250008
0.692599893 0.087160163 0.109171420
0.732068300 0.081088156 0.110183284
0.763441026 0.075269155 0.116508313
0.803668797 0.073371410 0.126375809
0.840607464 0.072359286 0.135230839
0.875521600 0.074003994 0.144086152
0.912460089 0.075015999 0.155724108
0.943580151 0.076533996 0.167108983
0.975331962 0.074003994 0.175205499
0.987475932 0.079570249 0.187856048
0.996963620 0.081720479 0.203035682
1.000000000 0.087033480 0.215559840
0.000000000 0.117140643 0.081973456
0.000379548 0.117899641 0.088045545
0.001771226 0.116128862 0.090575546
0.016066158 0.114863932 0.094117545
0.046047091 0.117520094 0.104364000
0.082479857 0.111448094 0.083111614
0.124604866 0.116887867 0.088172093
0.166856244 0.121948257 0.094244294
0.206704184 0.124225549 0.096141554
0.249208987 0.124225549 0.093105927
0.289184064 0.122454226 0.087919451
0.328652769 0.121442094 0.085136451
0.370018929 0.122201189 0.085515901
0.414548039 0.125237510 0.085515901
0.453763396 0.125363991 0.085515901
0.490322351 0.125363991 0.086274996
0.529411376 0.123845905 0.087792799
0.576849699 0.122074574 0.091081545
0.616318941 0.125110969 0.097153567
0.653763711 0.125743538 0.106388360
0.693232477 0.124225356 0.110562995
0.734345555 0.120936088 0.113978572
0.773687422 0.114990577 0.122833960
0.810120225 0.114737540 0.128653005
0.846552968 0.112839803 0.136622250
0.882226467 0.110815637 0.146742329
0.917393565 0.111068636 0.158380941
0.941682279 0.117140636 0.167488530
0.978494287 0.113345653 0.176976368
0.996457577 0.116381958 0.190638855
0.996963620 0.125743538 0.206451908
1.000000000 0.125743538 0.221631542
0.000000000 0.144465804 0.078937069
0.003036387 0.150537804 0.085009836
0.001265161 0.151296809 0.091081940
0.015686385 0.149525702 0.093611933
0.052119091 0.147880867 0.095256388
0.100695863 0.147880882 0.092220001
0.132068634 0.146868870 0.088677935
0.169892639 0.146742642 0.087413073
0.209361032 0.145477936 0.084377006
0.249208987 0.145477936 0.083997548
0.291713744 0.151296929 0.083871067
0.331688821 0.151802868 0.078811072
0.372296184 0.151802868 0.077166416
0.414548039 0.152561903 0.079443134
0.447944373 0.155597523 0.079443134
0.494370610 0.155724004 0.084250741
0.532827139 0.154206201 0.087792799
0.571283698 0.152435288 0.090828575
0.616318941 0.155470967 0.094117954
0.658570766 0.158507362 0.105755948
0.696268439 0.159139931 0.113598995
0.733712971 0.158633873 0.120682999
0.770651042 0.157495365 0.131941572
0.807083845 0.154458970 0.134977967
0.843516588 0.154205933 0.140797004
0.877166331 0.152308553 0.148766607
0.908538997 0.150284797 0.158380941
0.938645899 0.150537804 0.167488530
0.970904529 0.151296809 0.179253653
0.992915869 0.150284797 0.190891907
0.999493957 0.154079929 0.201391667
1.000000000 0.159139931 0.206451938
0.005059999 0.169259995 0.086021319
0.000506065 0.167742312 0.084503770
0.003542452 0.173814312 0.079823226
0.018975478 0.174573317 0.082732521
0.058191091 0.172802091 0.083997361
0.106767863 0.170651317 0.083111748
0.142694324 0.168121636 0.087666318
0.173055083 0.168121636 0.086021610
0.207590193 0.168248311 0.082353003
0.241745830 0.171790317 0.082352996
0.281593740 0.172549322 0.072232999
0.320050508 0.174573317 0.074256741
0.359013319 0.175711676 0.073118322
0.399873465 0.177102998 0.076154292
0.437824368 0.177861899 0.078431003
0.476027757 0.180898130 0.085641801
0.518153071 0.181024641 0.091840677
0.554459095 0.179633319 0.095888577
0.598102629 0.180771694 0.098924972
0.640860438 0.186337680 0.102719687
0.681467354 0.189374059 0.111068673
0.719544709 0.190006644 0.119164929
0.757621825 0.189880133 0.131056309
0.796457827 0.186843738 0.136495903
0.828336537 0.186084643 0.139531702
0.867046297 0.186084643 0.149525329
0.901961029 0.184693322 0.160910740
0.932320952 0.184693322 0.170018852
0.962808192 0.182163000 0.179253653
0.989120901 0.180392236 0.187855974
1.000000000 0.181404307 0.199367598
1.000000000 0.187476322 0.208982006
0.006198711 0.201771110 0.083618008
0.001771000 0.198735073 0.080581978
0.010373057 0.198861688 0.079823226
0.028589763 0.201138526 0.073244840
0.068058245 0.200379521 0.075901002
0.112839855 0.197343454 0.078431003
0.147122040 0.195952013 0.080202229
0.178874120 0.194560692 0.081341289
0.210752711 0.194560692 0.079822905
0.242884278 0.198861688 0.080708288
0.275395572 0.197469980 0.074004002
0.314484507 0.199114695 0.071979739
0.352055639 0.199114695 0.075015642
0.391777068 0.202150434 0.078304999
0.432637483 0.206325114 0.082732283
0.468817472 0.205439508 0.087286510
0.511321843 0.209993690 0.096394509
0.548134089 0.210246697 0.102592982
0.588615000 0.210246697 0.106641263
0.632764041 0.214168400 0.111322060
0.673371434 0.216698438 0.116255403
0.711827993 0.219734564 0.120303407
0.750537932 0.220366985 0.129664987
0.788488209 0.218848795 0.135737002
0.826059520 0.218089700 0.142821118
0.856420279 0.216698378 0.145856738
0.896395087 0.216951340 0.159519002
0.927893698 0.218089700 0.169765726
0.954964936 0.217077568 0.178874105
0.983301461 0.212396935 0.186211258
0.999240875 0.212017685 0.194939882
1.000000000 0.218089700 0.210120291
0.003162904 0.238204092 0.076028004
0.000885615 0.235926792 0.072232716
0.013662097 0.233523190 0.073497675
0.041492485 0.233776018 0.074762844
0.080961548 0.231119186 0.072106004
0.120429926 0.228463024 0.077418998
0.152308643 0.228716195 0.078431003
0.183428302 0.227957085 0.075268716
0.215307087 0.227198184 0.075268902
0.251739115 0.227198184 0.078304522
0.280961514 0.224288315 0.077039875
0.314105213 0.224541351 0.078810841
0.352055639 0.225679994 0.081846736
0.391271055 0.226186052 0.084883064
0.432763815 0.234788507 0.090448990
0.471094400 0.237318277 0.094117805
0.508286119 0.237318084 0.099430896
0.554459214 0.243390083 0.107273512
0.591398060 0.243643090 0.113219008
0.633143485 0.246426448 0.119291715
0.675648212 0.246805996 0.124604896
0.713346183 0.247818053 0.130170897
0.750158429 0.250727206 0.130550399
0.788488209 0.250727206 0.137254998
0.824920774 0.250727206 0.144086286
0.860974312 0.250853866 0.151929319
0.891841054 0.247818127 0.155977055
0.925237417 0.250347733 0.167868078
0.953700185 0.251486301 0.178873911
0.977482200 0.250221223 0.186970159
0.995445609 0.246173173 0.191903695
0.998481989 0.252245188 0.207084104
0.000126516 0.265528530 0.082100011
0.000126523 0.265528530 0.076028019
0.015053783 0.261101007 0.076533720
0.045034815 0.259076834 0.078304529
0.087033562 0.261480004 0.078178011
0.126501933 0.261480004 0.078178018
0.158380643 0.263883829 0.078431010
0.190385699 0.263504297 0.073497728
0.224414706 0.260594606 0.069196910
0.260847509 0.257559001 0.078304529
0.294370353 0.254649132 0.081340879
0.325489998 0.253637016 0.086148009
0.357368648 0.252624869 0.090955131
0.391271055 0.250474066 0.093991451
0.427703798 0.256546855 0.097027056
0.471600384 0.265148699 0.100189805
0.512080967 0.269196510 0.104744002
0.551422834 0.270714521 0.110309906
0.600000501 0.276786506 0.113345526
0.634155929 0.279822886 0.119291723
0.673750937 0.279063761 0.123466261
0.713093102 0.278178155 0.127640501
0.747122049 0.281087995 0.133586019
0.792663276 0.281087995 0.142694429
0.826438963 0.281087995 0.147122279
0.858570516 0.282479674 0.153194308
0.891841054 0.284250945 0.162049055
0.925237417 0.281214565 0.171157435
0.961290598 0.283744812 0.185705289
0.986590922 0.286654234 0.197090685
0.998102486 0.288424999 0.203415975
0.992410004 0.288677990 0.204048485
0.000000000 0.292852879 0.093990996
0.014547867 0.292852879 0.099556990
0.031751867 0.295003116 0.091334768
0.062618315 0.292473167 0.090069741
0.104364090 0.291840732 0.090828739
0.141302794 0.291840732 0.095888741
0.173181504 0.294370413 0.090828739
0.203542262 0.294117719 0.091714032
0.235673830 0.291840732 0.089942999
0.269955844 0.290955365 0.092599392
0.303478718 0.293737978 0.092978865
0.332827121 0.290702134 0.093990996
0.360025287 0.287539721 0.093737997
0.388614923 0.282985598 0.091208130
0.427703798 0.283744693 0.091587581
0.466540396 0.292220056 0.104237795
0.514105141 0.298292071 0.110816002
0.557494998 0.299683750 0.116887987
0.596964121 0.301201731 0.122200906
0.634408891 0.307273746 0.128019869
0.671726704 0.310436606 0.130297124
0.712207496 0.311448485 0.133332998
0.749399304 0.314484388 0.139405012
0.783807874 0.317267746 0.145730779
0.820240438 0.319544435 0.152561873
0.852624655 0.320176870 0.157621980
0.887033463 0.321188986 0.165717870
0.925237417 0.320556432 0.177229434
0.961290598 0.320176870 0.188993961
0.985325754 0.321188986 0.202150539
0.997975767 0.321315497 0.209740996
0.997976005 0.319291741 0.209740996
0.000000000 0.324225247 0.104111254
0.025300635 0.324225247 0.106135257
0.048956506 0.326375991 0.105502501
0.075774506 0.328146756 0.102719732
0.114104636 0.325869948 0.103099287
0.148893133 0.324225247 0.100949004
0.184313893 0.324731171 0.102972731
0.214674234 0.326122493 0.100189731
0.245034918 0.324225247 0.101328090
0.277166516 0.324225247 0.100063264
0.312587112 0.325110614 0.106134996
0.341935515 0.324098259 0.102086991
0.373813897 0.322200984 0.103225634
0.403036058 0.318405986 0.100569218
0.437191635 0.318405986 0.102339990
0.470588416 0.319544435 0.106261790
0.510057151 0.325616449 0.115370184
0.557115555 0.329285234 0.120936245
0.594939709 0.332068235 0.127008259
0.635420442 0.335610479 0.129032269
0.673750937 0.341682494 0.137001514
0.711195350 0.344845116 0.137380987
0.748766720 0.347880751 0.141429022
0.787855864 0.350917161 0.147501811
0.823276579 0.355977207 0.155597746
0.853889942 0.354838520 0.161669731
0.886021316 0.354079574 0.168753862
0.922454059 0.355597764 0.180898249
0.957242072 0.351549238 0.191017970
0.984819651 0.353320450 0.201391205
0.996963620 0.354459107 0.212397337
1.000000000 0.353700519 0.215812996
0.005692640 0.354206264 0.110942349
0.031499125 0.354206264 0.110942349
0.060847770 0.355218410 0.112207510
0.089437284 0.356989652 0.107273646
0.120176829 0.356610090 0.112207100
0.153573811 0.353573710 0.104617290
0.184946358 0.353067636 0.105629317
0.219228625 0.354206264 0.109297641
0.251106828 0.353447169 0.109297641
0.282226622 0.353067636 0.106641486
0.313852102 0.354206264 0.110689126
0.345351249 0.353320658 0.113092646
0.377229631 0.351422936 0.110436283
0.415939063 0.351422936 0.112966612
0.446299821 0.351422936 0.114231221
0.477798939 0.350284278 0.117267445
0.509298146 0.351802468 0.119165190
0.548134089 0.354206264 0.121569000
0.587096632 0.359266281 0.126629010
0.628209770 0.364832371 0.130550355
0.667678595 0.370904624 0.131688908
0.708159626 0.375964761 0.141808659
0.742062032 0.378873944 0.142567635
0.782542825 0.380898178 0.148640171
0.819354892 0.385072619 0.153573707
0.857305646 0.388994306 0.163566992
0.885642052 0.383934289 0.170651123
0.919038415 0.386338085 0.182795882
0.951296389 0.383681267 0.190006137
0.978747129 0.381783515 0.199114203
0.996457577 0.384819686 0.209993586
1.000000000 0.387856007 0.219607994
0.021125998 0.380519062 0.114484027
0.039342061 0.380266041 0.114737064
0.065907583 0.380013078 0.118279517
0.096521318 0.380013078 0.118532874
0.126502573 0.379633516 0.110436514
0.159898967 0.376597136 0.107400127
0.186464056 0.375838041 0.109677352
0.214674115 0.377735764 0.113598995
0.248577148 0.379000962 0.117900029
0.285009950 0.375964552 0.117900029
0.310562998 0.378747910 0.115749195
0.339152515 0.379507005 0.116255254
0.372422665 0.380013078 0.119291641
0.411132097 0.380013078 0.121821970
0.441492856 0.380013078 0.118785582
0.474256814 0.377862275 0.120809771
0.505629301 0.377356231 0.121821970
0.537002087 0.379507005 0.121569000
0.573434949 0.379507005 0.121569015
0.612650394 0.387096673 0.129411653
0.650221467 0.395951807 0.131941736
0.688425243 0.403542131 0.133459985
0.730550468 0.406578511 0.145224512
0.766856790 0.406705022 0.151170045
0.801518261 0.408981740 0.153447002
0.838330269 0.412017703 0.158506975
0.879317045 0.414801061 0.170651123
0.912713408 0.414801061 0.182795882
0.943200529 0.414295018 0.187223196
0.971536875 0.414042026 0.193801239
0.990385592 0.415433496 0.204174548
0.999494016 0.418469101 0.219354957
0.039341979 0.429095775 0.123592407
0.057558753 0.426059395 0.126628786
0.082226589 0.423656136 0.124731049
0.112713560 0.422517806 0.123592734
0.144339085 0.422138274 0.119671412
0.169007331 0.419101894 0.119544894
0.202403724 0.416065454 0.124098822
0.227324516 0.418595821 0.124604687
0.254143089 0.420999616 0.123466089
0.288045555 0.415432900 0.120936424
0.321568429 0.418216258 0.126755401
0.353067756 0.417204142 0.124857567
0.385832042 0.418216258 0.125363633
0.420240462 0.422517806 0.127893955
0.450601220 0.422517806 0.124857575
0.483365178 0.422517806 0.129031986
0.512207389 0.420367032 0.128399566
0.539658308 0.418595821 0.124225162
0.573434949 0.415938973 0.121569008
0.612650394 0.415938973 0.124351643
0.650221467 0.421631873 0.132447734
0.687666118 0.429348677 0.138013989
0.727514029 0.436938465 0.145224512
0.760910511 0.439974874 0.148260906
0.799493968 0.442378104 0.156483129
0.834914625 0.445414066 0.162301987
0.870208621 0.448450446 0.170651123
0.903604984 0.451233804 0.182795882
0.931688368 0.445920140 0.189626992
0.968500495 0.442884207 0.196837619
0.993927658 0.444023013 0.205945790
0.993421972 0.451866239 0.216318578
0.050347798 0.470461756 0.127893806
0.066160768 0.467426002 0.126122579
0.097280540 0.460088640 0.131309181
0.124098793 0.460341811 0.131562158
0.152561545 0.461480230 0.131182984
0.174826056 0.454395860 0.131182984
0.209108308 0.458570242 0.131435990
0.237571388 0.457178563 0.130929992
0.262618899 0.460974067 0.129411802
0.296015322 0.459835410 0.131309479
0.329411656 0.457684636 0.132194996
0.358760029 0.456673056 0.130171001
0.390259475 0.454775393 0.127893806
0.422391027 0.458317786 0.129411995
0.454902023 0.462618768 0.128526390
0.490069777 0.462618768 0.127893791
0.521948338 0.462618768 0.133965790
0.548640132 0.460467994 0.131435812
0.578494906 0.457431585 0.126628965
0.610246599 0.457178563 0.129158646
0.649715424 0.457178563 0.132194728
0.686654270 0.462239236 0.140291125
0.724604726 0.469829381 0.147754803
0.760277867 0.475142509 0.153067902
0.793674827 0.478178322 0.158381000
0.831499279 0.481214285 0.167362481
0.865401804 0.483744591 0.173940539
0.896900415 0.484883219 0.180392072
0.924983799 0.482352942 0.187223181
0.957621336 0.481593817 0.202150345
0.990891576 0.481593966 0.211132184
0.996963978 0.487665981 0.215685993
0.062492184 0.505376339 0.133965805
0.074636579 0.506894588 0.132447600
0.097280160 0.501075566 0.131309181
0.134978101 0.494497210 0.134851187
0.160151750 0.499430716 0.137634456
0.181404129 0.494876623 0.138772801
0.210752636 0.496900350 0.137254998
0.242125198 0.498165548 0.138519809
0.268690884 0.497406453 0.133206904
0.302087337 0.498924673 0.137001991
0.333965868 0.497659504 0.137254998
0.366350234 0.497659624 0.136242986
0.394813269 0.495762378 0.133586347
0.425174057 0.495762378 0.133965805
0.457305580 0.499304354 0.133965805
0.490069419 0.500569344 0.135483995
0.524984360 0.500569344 0.132447988
0.555344939 0.499936789 0.137887418
0.583554864 0.496900380 0.134471804
0.616698265 0.496647358 0.133712828
0.649715006 0.498165548 0.136748537
0.687160134 0.499177426 0.140797064
0.722960472 0.504617512 0.149272993
0.758001208 0.509298146 0.155345008
0.793674827 0.513092935 0.162934810
0.827071667 0.516128898 0.170398474
0.862871885 0.520177245 0.179506868
0.894243956 0.523213387 0.184566736
0.924983799 0.517520547 0.187223181
0.953067541 0.518026590 0.203668147
0.983301580 0.521948338 0.219607592
0.998481810 0.525616586 0.220240191
0.073245004 0.538267076 0.143706143
0.083618388 0.543074071 0.141176000
0.101960801 0.541176498 0.140923351
0.128905490 0.535736918 0.137254998
0.166477010 0.533459663 0.138393551
0.187982351 0.536496043 0.141935214
0.214927316 0.538899362 0.141176298
0.242884263 0.539278805 0.140164435
0.271094084 0.536875606 0.142314672
0.304490507 0.533839226 0.139279053
0.334977746 0.533712685 0.139784977
0.366729826 0.535104334 0.139152572
0.400252879 0.537634492 0.140290931
0.430613607 0.537381530 0.143326610
0.460974216 0.537002087 0.143706143
0.491334587 0.537634492 0.144212380
0.522580564 0.537634492 0.144591987
0.555977523 0.537002087 0.139784992
0.586337686 0.533965707 0.142820612
0.621631742 0.534345090 0.140923336
0.655534327 0.535610259 0.140417412
0.688298166 0.538013995 0.143200263
0.721568823 0.540923119 0.149146482
0.754459381 0.543453455 0.154712439
0.789500415 0.546489418 0.162428707
0.827704251 0.550157785 0.171536669
0.859076679 0.553194046 0.180645078
0.891966999 0.562049389 0.189753458
0.925995767 0.556483328 0.191524431
0.955850422 0.553194165 0.203794941
0.980898380 0.556483507 0.224414602
0.996078014 0.562555552 0.227450997
0.067172974 0.580771923 0.155850932
0.082353368 0.580771923 0.143706173
0.103478983 0.579127133 0.145477548
0.130044267 0.574572980 0.144465804
0.160404965 0.569892526 0.138393566
0.184692979 0.572928846 0.147501931
0.213788643 0.573434949 0.151043624
0.243896380 0.573687911 0.150284722
0.274003953 0.573434949 0.148513943
0.304490507 0.573308468 0.148387462
0.334977746 0.573181927 0.151170105
0.365338504 0.573181927 0.149905264
0.398229241 0.574573338 0.149399325
0.433649987 0.576850057 0.152435005
0.464009911 0.573814392 0.155471370
0.494370610 0.575838149 0.151043952
0.524731338 0.577103019 0.150284767
0.555977523 0.576470613 0.151929006
0.589374065 0.573434949 0.151929006
0.622517407 0.575964570 0.152181968
0.654269457 0.576849997 0.150031745
0.684882939 0.577103019 0.148513943
0.715496004 0.577355981 0.149146482
0.745856881 0.577355981 0.152182102
0.778747320 0.579886258 0.157748044
0.819354713 0.584313929 0.165464669
0.862113059 0.589626908 0.174573064
0.883365393 0.592662513 0.183681443
0.918911874 0.590891898 0.187476158
0.949778080 0.587349772 0.197343215
0.975331604 0.586590707 0.213282585
0.996078014 0.589880049 0.227450997
0.052751631 0.598229349 0.145730287
0.073498026 0.595445991 0.150284931
0.095129631 0.597596765 0.148892939
0.118152790 0.598355532 0.151802644
0.144338906 0.597216904 0.147628009
0.175838336 0.595446289 0.144718572
0.197596669 0.598482013 0.148766965
0.230486959 0.598734975 0.150158361
0.263883561 0.598734975 0.150537997
0.296268374 0.598734975 0.154586017
0.326628387 0.601518393 0.149146497
0.356989145 0.601518393 0.152182102
0.389626920 0.601518393 0.151802644
0.425300658 0.602403760 0.152688041
0.453130960 0.599367380 0.150664419
0.485894799 0.601138830 0.151297003
0.515116811 0.604174554 0.152055994
0.544844985 0.604806960 0.155091792
0.578242004 0.601771355 0.152941003
0.611638427 0.604300976 0.152941003
0.643137515 0.607337117 0.149146006
0.675521970 0.608222723 0.148260638
0.709423959 0.608222723 0.151802644
0.739784837 0.608222723 0.152182102
0.772422314 0.610499442 0.157495007
0.807210326 0.613535702 0.164958671
0.847185433 0.617204368 0.173560992
0.875269055 0.617963314 0.180392087
0.904490590 0.620999575 0.192156613
0.935357213 0.621758521 0.195572227
0.964452922 0.621631742 0.207589954
0.993295372 0.622770429 0.224667639
0.035673529 0.632384717 0.156356469
0.060721394 0.633143783 0.156736016
0.080329008 0.632511258 0.153067961
0.109677330 0.630487323 0.157368734
0.134851277 0.630613446 0.157495186
0.165212065 0.629095614 0.149904996
0.192283586 0.629222155 0.151423320
0.226692364 0.632258177 0.154459283
0.261606574 0.631752074 0.153953359
0.292726457 0.630613446 0.156609997
0.323212981 0.631625593 0.156736270
0.357368499 0.636432707 0.158633724
0.385452271 0.634155691 0.157115638
0.419102043 0.633396745 0.155597702
0.453004390 0.636938751 0.159139663
0.479443550 0.633017302 0.156609997
0.512839913 0.636053264 0.156609997
0.542188287 0.637824059 0.161290422
0.575585186 0.634788454 0.160784021
0.607084394 0.635420918 0.160530984
0.638583481 0.636559248 0.162428737
0.668944001 0.638583481 0.158380732
0.703225493 0.638709962 0.162049234
0.731815100 0.640480697 0.156736001
0.766350269 0.642757893 0.159392744
