Assets/EldamarStudio/100 Retro LUTs Pack/LUTs/cube/Frank LUT.cube
LUT_3D_SIZE 8
DOMAIN_MIN 0.000000 0.000000 0.000000
DOMAIN_MAX 0.903226 0.903226 0.903226
0.000000000 0.043136999 0.066666998
0.020999093 0.043516546 0.076407544
0.202024087 0.029095905 0.100443006
0.349272251 0.003922000 0.094117999
0.517773569 0.002403808 0.099557191
0.687286735 0.000000000 0.105755992
0.836812317 0.000000000 0.130676985
0.969006777 0.000000000 0.172675818
0.000000000 0.117140643 0.081973456
0.046047091 0.117520094 0.104364000
0.206704184 0.124225549 0.096141554
0.370018929 0.122201189 0.085515901
0.529411376 0.123845905 0.087792799
0.693232477 0.124225356 0.110562995
0.846552968 0.112839803 0.136622250
0.978494287 0.113345653 0.176976368
0.003162904 0.238204092 0.076028004
0.080961548 0.231119186 0.072106004
0.215307087 0.227198184 0.075268902
0.352055639 0.225679994 0.081846736
0.508286119 0.237318084 0.099430896
0.675648212 0.246805996 0.124604896
0.824920774 0.250727206 0.144086286
0.953700185 0.251486301 0.178873911
0.005692640 0.354206264 0.110942349
0.120176829 0.356610090 0.112207100
0.251106828 0.353447169 0.109297641
0.377229631 0.351422936 0.110436283
0.509298146 0.351802468 0.119165190
0.667678595 0.370904624 0.131688908
0.819354892 0.385072619 0.153573707
0.951296389 0.383681267 0.190006137
0.062492184 0.505376339 0.133965805
0.160151750 0.499430716 0.137634456
0.268690884 0.497406453 0.133206904
0.394813269 0.495762378 0.133586347
0.524984360 0.500569344 0.132447988
0.649715006 0.498165548 0.136748537
0.793674827 0.513092935 0.162934810
0.924983799 0.517520547 0.187223181
0.035673529 0.632384717 0.156356469
0.134851277 0.630613446 0.157495186
0.261606574 0.631752074 0.153953359
0.385452271 0.634155691 0.157115638
0.512839913 0.636053264 0.156609997
0.638583481 0.636559248 0.162428737
0.766350269 0.642757893 0.159392744
0.899177670 0.650980532 0.187222973
0.000000000 0.781910300 0.202909291
0.105502546 0.775838017 0.207337260
0.239848390 0.777862191 0.209108189
0.369259983 0.777988315 0.207463279
0.499178082 0.774826169 0.211258367
0.620620191 0.777356267 0.219481722
0.744338989 0.779633045 0.226691991
0.862998307 0.782669246 0.231245831
0.064895548 0.890575767 0.288171589
0.138393179 0.888045788 0.283618093
0.241871983 0.886653781 0.284756333
0.360531092 0.888930798 0.287792444
0.477925390 0.893231928 0.297406554
0.597343683 0.892599583 0.304364324
0.718152821 0.891966760 0.309298038
0.838329971 0.893231928 0.322074592
0.000000000 0.055281546 0.108538546
0.025300544 0.047059000 0.112460539
0.192663088 0.055661097 0.124984451
0.341176748 0.068944000 0.136748642
0.499304026 0.074509904 0.154712543
0.670588255 0.064769447 0.166097283
0.825932980 0.054901809 0.196963832
0.965971053 0.047691379 0.227324381
0.000000000 0.121062547 0.128905550
0.044529092 0.120683096 0.124604993
0.189120635 0.125743449 0.135989651
0.346236289 0.140670538 0.143832549
0.510183573 0.149778724 0.162302211
0.676913440 0.152814999 0.176596820
0.826565564 0.143453389 0.196331248
0.956230044 0.139531806 0.223908976
0.000000002 0.218975544 0.149778903
0.089184098 0.225680083 0.143832639
0.207083836 0.218595996 0.147754565
0.334851623 0.222896636 0.145350739
0.498165339 0.238963097 0.164958552
0.665148497 0.254649192 0.177988902
0.825806499 0.259708732 0.199747100
0.955976903 0.264896005 0.230234265
0.052751638 0.352308631 0.166982904
0.140290990 0.354206085 0.167362541
0.251486182 0.353447080 0.168627083
0.373307735 0.354206085 0.164958537
0.499557525 0.351802468 0.171663180
0.655407906 0.369006872 0.180645540
0.808222830 0.380645305 0.198988095
0.935989976 0.385325670 0.228589565
0.100063361 0.506514728 0.182163358
0.167741999 0.498671740 0.185831994
0.276533991 0.498544902 0.181277737
0.397596627 0.498924494 0.186084747
0.524984181 0.502466798 0.182922333
0.647944272 0.497786105 0.186211541
0.789879739 0.515116751 0.200632378
0.929790795 0.521441936 0.231625438
0.084250547 0.634282470 0.196458280
0.156863004 0.636053264 0.204680532
0.268058300 0.635673702 0.203668475
0.391777277 0.634535253 0.197343469
0.513346016 0.638077021 0.204174653
0.636306107 0.639595211 0.205692545
0.764453053 0.645034730 0.204301283
0.902213693 0.652877688 0.228589654
0.069323547 0.783554554 0.240227833
0.145857111 0.784313679 0.247438282
0.258697212 0.779886007 0.244655341
0.379127204 0.781530738 0.248830169
0.506262064 0.779632986 0.251360178
0.621631920 0.777735710 0.255281359
0.739531994 0.777229309 0.252624840
0.860974193 0.777735293 0.253131002
0.131562427 0.898039222 0.318406224
0.181404158 0.894117355 0.313852042
0.270714462 0.891587317 0.314863801
0.376470715 0.891334653 0.314864099
0.487539530 0.894750178 0.322960109
0.605186582 0.893231988 0.333080530
0.720936000 0.896774054 0.341429144
0.838709474 0.894876361 0.348766327
0.006325001 0.067425899 0.204427287
0.031878188 0.054901998 0.201391101
0.187223092 0.061100900 0.201265186
0.321441829 0.073624097 0.211512104
0.481720299 0.091713995 0.231878459
0.645920217 0.100695640 0.249209195
0.806072235 0.116761379 0.277292788
0.948133945 0.121442094 0.295003355
0.000000001 0.125364006 0.201138541
0.058190640 0.129285082 0.190385997
0.175711647 0.134724990 0.203288749
0.321062386 0.148513645 0.222137645
0.476407111 0.159519449 0.239468738
0.650727630 0.171663091 0.259835660
0.808981895 0.177103087 0.276913524
0.942188144 0.179759815 0.298039109
0.011638097 0.211511999 0.204554006
0.097406544 0.215433091 0.212776646
0.202783197 0.215433195 0.218596101
0.314737260 0.223276094 0.218975544
0.471473455 0.239722088 0.242884189
0.638330460 0.263630837 0.261226922
0.802150428 0.269576281 0.274130106
0.943453550 0.277419120 0.301328331
0.095129639 0.341682166 0.239089087
0.158254102 0.334977627 0.234282181
0.255408108 0.341682166 0.246552750
0.360784531 0.342061609 0.240607187
0.482226610 0.342441171 0.240986720
0.634155631 0.366982639 0.258570373
0.790638685 0.383427948 0.275901377
0.925110579 0.392662913 0.298418999
0.144845188 0.497533172 0.261733085
0.191018283 0.487160146 0.258190811
0.288298279 0.490322560 0.257052183
0.396331459 0.489183903 0.256293267
0.517014265 0.492726207 0.256167203
0.633776426 0.487160176 0.255913734
0.774952292 0.506894350 0.276028007
0.912586987 0.522074521 0.299557239
0.143959478 0.627830625 0.275015712
0.198608443 0.630613506 0.273750633
0.287918955 0.627704084 0.276154339
0.397343308 0.631372571 0.275395572
0.514357805 0.630993009 0.271600455
0.633522749 0.632511199 0.273118436
0.767615497 0.639974535 0.278051823
0.900316000 0.654142976 0.301960915
0.154965281 0.775711536 0.310057074
0.202403337 0.775711477 0.318026394
0.289057374 0.778747559 0.316382259
0.398861289 0.777229428 0.313345790
0.513346076 0.777356267 0.311828077
0.622138083 0.773308218 0.316002548
0.740544081 0.770272136 0.317141205
0.867046118 0.777356267 0.316761434
0.216065884 0.898418784 0.380518734
0.243263453 0.894750178 0.372422308
0.304111421 0.889310658 0.370904624
0.405819088 0.894370735 0.376723886
0.510183394 0.890575767 0.373813987
0.612650454 0.892978787 0.380645066
0.728652537 0.892473042 0.390891701
0.838709831 0.892978787 0.398481935
0.002783356 0.057685357 0.308285624
0.057305634 0.056420092 0.295383006
0.194181100 0.075648353 0.285136074
0.314484626 0.084629998 0.284756631
0.470714569 0.100315996 0.313725442
0.627704084 0.105755992 0.330550283
0.783681214 0.129538342 0.352688193
0.928652465 0.165085286 0.385578990
0.002276998 0.140164286 0.274383634
0.087539285 0.148134097 0.275268734
0.192156732 0.142947644 0.273750722
0.319923818 0.146868736 0.291840553
0.467045903 0.164199650 0.319291532
0.628969073 0.175205544 0.330929846
0.788108587 0.191145003 0.358507454
0.928272784 0.210626185 0.388868004
0.047944639 0.212650448 0.278810978
0.129918098 0.206324831 0.275268734
0.227957189 0.224414825 0.288298190
0.328905284 0.232257739 0.296142101
0.461606801 0.242757991 0.312966526
0.619987130 0.264010280 0.339278907
0.779886007 0.286021173 0.361669719
0.922200918 0.302087516 0.385072917
0.113219641 0.334598273 0.311574638
0.165212184 0.335736632 0.307147294
0.260467738 0.334218740 0.316634983
0.357621640 0.335736632 0.315496653
0.466793180 0.336875170 0.315749288
0.619734406 0.366223723 0.334218740
0.773560941 0.390132964 0.358760267
0.916635096 0.400758922 0.385199457
0.170271724 0.481340826 0.337002009
0.222011536 0.472991467 0.333713084
0.296394646 0.474636286 0.335357249
0.397469819 0.474636167 0.337761074
0.504743755 0.478558183 0.338013828
0.620493472 0.478558004 0.340164274
0.767109275 0.502593458 0.356989652
0.909677386 0.516761541 0.383301705
0.208602026 0.615939081 0.355850637
0.240480989 0.618342936 0.358380735
0.316635013 0.617204368 0.354079455
0.410499364 0.618848443 0.350537509
0.523845792 0.620366633 0.359519184
0.636938512 0.623908818 0.361163884
0.756862640 0.628842473 0.363061428
0.890069544 0.648576558 0.385705292
0.236179560 0.767868578 0.389626920
0.263504028 0.769639194 0.390385926
0.329917729 0.763061345 0.388867944
0.420366645 0.766223848 0.393548638
0.523466170 0.768121243 0.397469908
0.637571037 0.767109275 0.395192623
0.740923643 0.766223848 0.396331280
0.860468149 0.772169411 0.399873435
0.290828615 0.889437139 0.447438270
0.302972764 0.887159944 0.440100998
0.358760178 0.887286663 0.442883998
0.433396429 0.885388911 0.442251444
0.530170619 0.888045788 0.448323816
0.629728377 0.889310658 0.450727552
0.738393307 0.889690042 0.459203273
0.850600958 0.888171971 0.468943655
0.000000000 0.079064190 0.404300988
0.097659893 0.085768543 0.396331161
0.227830380 0.094749995 0.389374077
0.334724635 0.104237996 0.379127204
0.464642584 0.112839989 0.391018152
0.632764399 0.115117185 0.419734389
0.784187376 0.136875272 0.438709766
0.917646945 0.204427600 0.466793358
0.043769725 0.170019001 0.391651183
0.132195100 0.164199561 0.382289559
0.237697750 0.166476637 0.384693384
0.342694551 0.166097090 0.381150931
0.461986333 0.174446538 0.388867736
0.632005274 0.180645347 0.417204499
0.778874278 0.201265290 0.436812013
0.909804225 0.247185439 0.473624527
0.117900282 0.246047094 0.378368199
0.168753639 0.241999000 0.378241628
0.248071179 0.242884189 0.372043014
0.346869171 0.244402185 0.373687178
0.464389563 0.252119273 0.391777247
0.617204368 0.273371100 0.414294451
0.766223609 0.299178094 0.446552992
0.904237509 0.330676883 0.482099921
0.147501633 0.327134848 0.376596749
0.192536280 0.331056446 0.377735198
0.277293116 0.332574427 0.380898088
0.384566456 0.350537628 0.400758743
0.484503716 0.353699803 0.404680520
0.615180016 0.374446452 0.419607729
0.763440967 0.393169016 0.445287913
0.900063157 0.412270814 0.477039903
0.200379372 0.474636167 0.409740567
0.239974722 0.471094012 0.408855170
0.317141205 0.463630468 0.411258548
0.413156003 0.470714569 0.416698188
0.512966514 0.473118365 0.415812552
0.623908699 0.477419436 0.423909009
0.763187647 0.498292476 0.444402397
0.894370556 0.521062434 0.469070345
0.255281925 0.605313241 0.433017194
0.285009265 0.604933858 0.432131559
0.352308363 0.603036284 0.433902472
0.431625485 0.607716680 0.437571138
0.524984360 0.608475685 0.438709676
0.630613446 0.613282681 0.440606952
0.755218506 0.623149991 0.450347900
0.888045788 0.637318313 0.474256724
0.322580397 0.760657549 0.481973261
0.341935366 0.754459321 0.477419555
0.385199279 0.755218387 0.476154357
0.449589193 0.755091846 0.476533830
0.543706179 0.758380830 0.478558213
0.643896639 0.760025561 0.482226640
0.747501433 0.760025561 0.480328977
0.862618566 0.771031082 0.481340915
0.355344772 0.882858574 0.523592591
0.366476983 0.879316807 0.517899871
0.405313045 0.879443407 0.517014503
0.477039963 0.881340802 0.519418001
0.554332376 0.884250581 0.522201359
0.648703516 0.883491814 0.527260959
0.744591892 0.884250700 0.530929625
0.858570397 0.889310598 0.539531827
0.081973471 0.113472477 0.524984002
0.160278067 0.117520481 0.526881754
0.275901437 0.121441990 0.516129076
0.393548548 0.121441990 0.512080848
0.503984749 0.127514258 0.497912526
0.638203442 0.125489995 0.501328468
0.788108587 0.149905026 0.527007759
0.916761637 0.211890951 0.548766673
0.122707076 0.186843544 0.518279731
0.178874075 0.189373747 0.503225744
0.286274612 0.187223092 0.508286059
0.397469819 0.187223181 0.501707733
0.499557167 0.182163537 0.490701795
0.632005274 0.184566736 0.497026891
0.773940265 0.204301283 0.522074461
0.908286035 0.249083087 0.541556001
0.175331980 0.276660204 0.501960456
0.214168340 0.272991627 0.497785896
0.300442845 0.271094173 0.493484974
0.394687176 0.267932087 0.489563257
0.497786105 0.266287178 0.482479393
0.627704084 0.275395364 0.500569403
0.770398200 0.304237872 0.524098277
0.898291767 0.350664258 0.551043689
0.198229089 0.361037254 0.478937715
0.238583535 0.358380824 0.481720388
0.307400435 0.361543536 0.478304833
0.407716632 0.363820523 0.491587728
0.514990628 0.371284157 0.492725968
0.627830625 0.386970371 0.504617333
0.753573656 0.407969475 0.525869846
0.885135591 0.444528818 0.566223621
0.220114201 0.480834991 0.497913003
0.249588922 0.473371089 0.490449190
0.329917908 0.474763095 0.495635539
0.428083628 0.478684306 0.499177784
0.538140178 0.491081566 0.506768167
0.635294497 0.488298714 0.513472557
0.758001268 0.506388426 0.537128508
0.885136008 0.529917717 0.567868412
0.274003983 0.614800453 0.520809472
0.305376291 0.607463896 0.505502999
0.366223842 0.614041567 0.509930372
0.457432270 0.611005485 0.517014503
0.556609929 0.611005485 0.532194972
0.650348008 0.610879481 0.538646758
0.760405004 0.615306973 0.539278746
0.887286723 0.633396685 0.568247795
0.353446990 0.748513520 0.557495177
0.379380107 0.751170278 0.546236813
0.440607101 0.749652028 0.560025334
0.511574984 0.750537276 0.564452708
0.581910193 0.749272525 0.568374574
0.659709215 0.750916779 0.565844059
0.757621765 0.748640060 0.564579248
0.866793096 0.757875085 0.570904434
0.436685622 0.878051937 0.605186820
0.454016656 0.876913548 0.607337236
0.496014893 0.872738719 0.604807019
0.546742439 0.877039850 0.612144172
0.597975969 0.878304720 0.605313122
0.671347499 0.879569888 0.604174554
0.767615318 0.881088078 0.609234810
0.871094644 0.884250760 0.618089616
0.189753264 0.155850708 0.663251519
0.238583267 0.151549742 0.658064544
0.335863382 0.153447285 0.656293571
0.458064556 0.153067648 0.653636932
0.577229381 0.144086286 0.640733838
0.688804746 0.136116266 0.623655975
0.804427505 0.145730570 0.618848562
0.918406188 0.216318503 0.631625235
0.202529982 0.211764544 0.642125130
0.260973841 0.207843125 0.651486218
0.340037912 0.209234804 0.646805704
0.450727642 0.208349198 0.638836205
0.561922908 0.202150479 0.630992949
0.676660299 0.192789286 0.620746315
0.793168843 0.201265275 0.613662243
0.906009018 0.256040543 0.617330551
0.230740085 0.305503070 0.637571394
0.282606006 0.307526618 0.637191594
0.353700191 0.307020903 0.635547101
0.456166923 0.303858191 0.625933230
0.563187659 0.299304396 0.620366752
0.666919947 0.288551867 0.610246539
0.791271508 0.303858370 0.617204487
0.899304271 0.349399179 0.624667764
0.249082908 0.401897252 0.621631920
0.287666023 0.403035939 0.622011364
0.365970820 0.398988008 0.619228184
0.463124901 0.403668642 0.617204547
0.559266210 0.400126576 0.609487474
0.661353767 0.393674642 0.605186522
0.769639194 0.407589912 0.608728290
0.882732809 0.446805805 0.631499112
0.245920375 0.505250037 0.605566144
0.286148310 0.501454830 0.609993815
0.357874572 0.504364252 0.606072068
0.453636885 0.502213895 0.610625982
0.564832211 0.504364252 0.609487355
0.669449866 0.513472438 0.617077947
0.771031260 0.525616407 0.619607866
0.875268817 0.557115912 0.644275784
0.258064449 0.625553787 0.610499978
0.296268195 0.629095256 0.610499740
0.369386673 0.627704084 0.611385286
0.459582746 0.623149991 0.613156021
0.564958990 0.620746195 0.615053654
0.676913261 0.629601419 0.630107522
0.771789968 0.628715992 0.630993068
0.878431380 0.649715066 0.657052696
0.352561265 0.758380830 0.620493293
0.386590540 0.752941132 0.620113850
0.434661478 0.752814531 0.622011483
0.516255260 0.752182007 0.629980981
0.604933381 0.746742368 0.635167539
0.689183831 0.746362805 0.648323774
0.769513249 0.742694259 0.650221586
0.879064023 0.749272466 0.653384089
0.447311819 0.876280785 0.653384268
0.461353630 0.875648439 0.653763533
0.509550691 0.870082200 0.664010048
0.579253793 0.873624623 0.675901234
0.654901922 0.873750806 0.689816535
0.719165266 0.871347308 0.694117546
0.789879978 0.874889433 0.689689815
0.886021674 0.879443526 0.690069377
0.291840643 0.197596803 0.790006459
0.329284906 0.193927541 0.782036602
0.406325161 0.196204826 0.786717057
0.511195421 0.192156613 0.782289565
0.624414980 0.189753130 0.775458395
0.741935492 0.185072705 0.762807965
0.860720813 0.176723644 0.759519041
0.957368612 0.213408947 0.732320786
0.306641340 0.252118975 0.774573088
0.335483521 0.244275972 0.781909943
0.411638200 0.245920375 0.774952352
0.513725460 0.247438177 0.769766092
0.617583811 0.243643180 0.760910392
0.733712852 0.235673651 0.755723834
0.846552789 0.223908976 0.744718790
0.950411201 0.256040633 0.730170369
0.343706369 0.345477283 0.761290371
0.372043163 0.347374916 0.773055077
0.439721704 0.347375005 0.766223788
0.525996327 0.343832999 0.759392381
0.626945019 0.337507904 0.755218029
0.731309235 0.338140339 0.746362567
0.842504680 0.326628774 0.739658475
0.948639691 0.347375005 0.735610545
0.347121775 0.436306268 0.750410914
0.390512526 0.441366106 0.759012878
0.460594654 0.447185248 0.754332721
0.544592083 0.453384250 0.744591773
0.630993009 0.446046799 0.742188156
0.718912125 0.439721733 0.733965814
0.825173855 0.431372464 0.731562316
0.923465908 0.452119082 0.727008164
0.318532646 0.537760794 0.739784956
0.354838669 0.537887335 0.747501373
0.421505183 0.536622167 0.742947459
0.522833645 0.538140118 0.736242771
0.634155750 0.548260391 0.727893412
0.719165087 0.545983136 0.728146851
0.813282728 0.539279044 0.725490093
0.908665597 0.566856086 0.735989749
0.293991089 0.662998199 0.732320845
0.324098647 0.661859453 0.734471679
0.397090167 0.658823371 0.731308997
0.496141702 0.649715185 0.734345138
0.597975969 0.640733540 0.725489914
0.719417691 0.649968565 0.733206689
0.808855057 0.655408025 0.733586252
0.899050832 0.670967698 0.739405692
0.269955963 0.788361847 0.715876222
0.316002488 0.787982285 0.725616336
0.384819925 0.780518770 0.718659043
0.483111858 0.772042871 0.725869775
0.588867843 0.765338480 0.721947789
0.692219794 0.757495582 0.725490272
0.800885260 0.758127630 0.742315292
0.890575826 0.776217282 0.754711807
0.435546935 0.889310658 0.715369940
0.459835649 0.890069366 0.727134585
0.508665144 0.884630084 0.733839631
0.575838149 0.882985413 0.733965814
0.659456313 0.876027822 0.740670443
0.747627735 0.876280785 0.754711747
0.825173736 0.878558040 0.776597023
0.909044743 0.882858634 0.780897915
