Assets/EldamarStudio/100 Retro LUTs Pack/LUTs/cube/Gary LUT.cube
DOMAIN_MIN 0 0 0
DOMAIN_MAX 1 1 1
LUT_3D_SIZE 32
0.141176000 0.098039001 0.074510001
0.141176000 0.098039001 0.074510001
0.143326774 0.100189775 0.076660231
0.148893163 0.103225842 0.079696164
0.157622010 0.106640995 0.083112001
0.163694009 0.112712994 0.089184001
0.169765994 0.118785642 0.095256001
0.174193710 0.123213284 0.099683709
0.177229896 0.126249090 0.102719903
0.180265516 0.129285485 0.105755523
0.186210990 0.135230988 0.111700997
0.196331516 0.141303003 0.119797252
0.207337350 0.148513645 0.128905639
0.216191992 0.157369003 0.137254998
0.222263992 0.163441002 0.137254998
0.230739802 0.171916798 0.144465804
0.241365984 0.182542995 0.155092001
0.252245158 0.193421990 0.165970996
0.258317947 0.199494019 0.172043011
0.269955993 0.211132005 0.183681011
0.280202746 0.221378729 0.193927735
0.291334867 0.232511118 0.205060124
0.306514502 0.247691497 0.220240489
0.321694911 0.262871921 0.235420913
0.334598005 0.280328989 0.250601262
0.346742332 0.295761973 0.264389962
0.360405058 0.309424073 0.279064059
0.381657422 0.330676407 0.306388408
0.397596806 0.351928771 0.328399777
0.416319162 0.373181164 0.349652171
0.434029371 0.396204561 0.372675568
0.443136990 0.423528999 0.400000006
0.150284395 0.098039001 0.083618388
0.144212395 0.101075388 0.077545613
0.152814403 0.105376385 0.081847161
0.158507168 0.109297842 0.085768610
0.162935004 0.112713091 0.089184001
0.163694009 0.118785769 0.095256001
0.172296315 0.122327447 0.098798320
0.180518672 0.129538313 0.106008671
0.185578614 0.134598389 0.111068614
0.186337516 0.135357484 0.111827523
0.192282990 0.141302988 0.117773741
0.200379252 0.149399251 0.125869513
0.210373268 0.155344754 0.133838996
0.219228387 0.160404623 0.140290618
0.225300387 0.166476607 0.140290618
0.233776197 0.174952418 0.147501424
0.242884189 0.184060812 0.156609818
0.253510147 0.194686979 0.167235985
0.264389962 0.205566019 0.178115010
0.276028007 0.217204005 0.189753011
0.286274731 0.227450728 0.199999735
0.296394974 0.237570986 0.210119992
0.309677362 0.250853598 0.223402619
0.327766895 0.268943906 0.241492912
0.338393271 0.284124255 0.254395992
0.351170033 0.300189674 0.271600246
0.364959002 0.314990133 0.289689988
0.378621012 0.333712816 0.309424013
0.397217244 0.352308363 0.328779250
0.414547950 0.374952376 0.353194147
0.434535205 0.399240971 0.376090974
0.452245384 0.426565409 0.396963596
0.161542997 0.108791776 0.090576001
0.159771994 0.109677389 0.088804774
0.155850783 0.114863999 0.084882781
0.166729942 0.118405998 0.092220388
0.171537235 0.120556317 0.097027227
0.173308000 0.124857865 0.101328000
0.176597312 0.128399670 0.104870319
0.182416275 0.131435707 0.107906289
0.189752996 0.138772994 0.115243196
0.192535996 0.141555995 0.118026555
0.198355556 0.147375003 0.123845741
0.208475530 0.153446987 0.131941736
0.216571778 0.161290213 0.137633994
0.224414989 0.165591061 0.141682059
0.230486989 0.171663538 0.145477548
0.241113022 0.182289571 0.154838577
0.248703599 0.189879760 0.162428766
0.257811517 0.198987976 0.171536982
0.269955963 0.211132020 0.183681011
0.279949784 0.221125782 0.193674788
0.290196031 0.231372505 0.203921512
0.300316215 0.241492778 0.214041770
0.312586725 0.253763258 0.226312265
0.328778982 0.269955814 0.242504805
0.342315048 0.288045496 0.262618780
0.355597734 0.304617554 0.277545750
0.372042984 0.321062535 0.297533125
0.387475967 0.339278877 0.315749526
0.396331638 0.361796528 0.333965629
0.421631902 0.383554459 0.357495129
0.442251593 0.406957567 0.383048564
0.463503987 0.431751996 0.402529776
0.174952149 0.123972163 0.100442834
0.172422156 0.121442162 0.095382839
0.174066767 0.123213157 0.095762387
0.171031162 0.128019989 0.096521161
0.179759994 0.128778994 0.105250001
0.183681220 0.132700771 0.109171227
0.186717153 0.135736838 0.109677158
0.189753443 0.138772875 0.112713449
0.194307253 0.141809061 0.116508156
0.200885326 0.147374988 0.122580811
0.206957743 0.153446987 0.128652841
0.214547977 0.159519002 0.135483727
0.225553632 0.166729644 0.144591644
0.231752157 0.172928154 0.145477161
0.237824157 0.179000661 0.151549667
0.246173158 0.187349826 0.159898832
0.255281210 0.196458161 0.169007167
0.262618810 0.203795150 0.176344141
0.274762839 0.215939179 0.188488185
0.285389364 0.226565346 0.199114352
0.294497252 0.235673726 0.208222732
0.303605139 0.246806115 0.218343005
0.315749139 0.259456128 0.230739996
0.332067907 0.275774896 0.247059062
0.346236408 0.291967124 0.264263123
0.358634144 0.307653159 0.281594127
0.375838161 0.326881975 0.301328212
0.392536134 0.346616119 0.321821898
0.406451643 0.368880630 0.341303110
0.422897071 0.391904086 0.364832282
0.451486111 0.417963117 0.390385717
0.473118007 0.440353990 0.411638141
0.189373553 0.137634456 0.114484094
0.183680996 0.132700995 0.103858091
0.185831547 0.131309539 0.102466770
0.189247161 0.132194936 0.106388547
0.186590999 0.134851098 0.110942543
0.192662999 0.140923098 0.117014542
0.196963772 0.145224318 0.117014222
0.199620262 0.147881165 0.116887704
0.203036100 0.150537908 0.119923994
0.212144494 0.153573528 0.125995994
0.218722552 0.159898564 0.132447556
0.224794552 0.165970549 0.138519540
0.231246099 0.172422186 0.144971192
0.240354493 0.181530505 0.154079512
0.246553004 0.187729001 0.160277992
0.253384024 0.194560096 0.167109102
0.259456009 0.200632378 0.173181370
0.266413510 0.207590535 0.180139527
0.278557569 0.219734564 0.192283571
0.290702164 0.231878564 0.204427570
0.300948799 0.242884278 0.215053737
0.310436130 0.253637135 0.225173995
0.319671035 0.268691003 0.237571001
0.337381095 0.286401004 0.255787820
0.353699803 0.302719802 0.272106230
0.366729766 0.316508502 0.285894781
0.379633546 0.330676585 0.299810499
0.391777515 0.354965329 0.327134877
0.411511779 0.376217782 0.348766804
0.433143705 0.397849619 0.373940676
0.454902053 0.421379060 0.399873585
0.479190081 0.451739103 0.421126008
0.198481932 0.140670061 0.120556869
0.195445538 0.143706456 0.120556869
0.196204782 0.145224780 0.120683089
0.201011926 0.146489933 0.123719156
0.204806998 0.146995872 0.126122937
0.204807013 0.146995872 0.120050929
0.213409305 0.155597553 0.128652617
0.216571867 0.158760011 0.130802929
0.217077926 0.159266070 0.131309003
0.218216479 0.159645528 0.132067993
0.227324873 0.168500870 0.141049877
0.233902931 0.175078914 0.147627920
0.238836288 0.180012569 0.152561575
0.243390098 0.184566900 0.157115906
0.252498478 0.193674520 0.166223511
0.263503999 0.204680607 0.177229598
0.271600008 0.212776870 0.185325861
0.278304577 0.219481573 0.192030579
0.287665963 0.228842944 0.201391950
0.299809933 0.240986943 0.213535935
0.310056806 0.255028665 0.225679919
0.320176929 0.268184960 0.237317979
0.331815004 0.280835003 0.249715000
0.343959808 0.292979002 0.267931789
0.361669868 0.310689569 0.286147982
0.373813927 0.325616896 0.301074892
0.382922202 0.339784920 0.314737111
0.400885910 0.364072949 0.336242497
0.418342888 0.383048683 0.355597734
0.440607399 0.405312926 0.381404370
0.463504523 0.429980874 0.409487873
0.485262871 0.457811892 0.433270007
0.207590327 0.148766324 0.124098673
0.209613919 0.151802719 0.126628995
0.208728313 0.152688324 0.126628995
0.210119992 0.154080003 0.128020316
0.213282540 0.154459462 0.129791453
0.215433314 0.156609684 0.130170673
0.217962995 0.159140006 0.131688997
0.225427091 0.166603312 0.139152318
0.228716314 0.169892311 0.142441317
0.232258320 0.173434317 0.145983323
0.235926554 0.177103192 0.149652198
0.243010670 0.184187323 0.156736314
0.249082953 0.190259323 0.162808329
0.254016608 0.195193037 0.167742029
0.263124406 0.204301223 0.176850215
0.269829005 0.211005643 0.183554634
0.280202180 0.221379191 0.193928197
0.287286311 0.228463307 0.201012313
0.294496983 0.235673979 0.208222985
0.306387991 0.247565016 0.220114008
0.318532467 0.259708971 0.232257992
0.327261329 0.273244947 0.243390128
0.336116314 0.285515785 0.254016310
0.343453467 0.300063014 0.267425507
0.360151678 0.314484268 0.290196240
0.375585020 0.332448006 0.307526976
0.385958314 0.347881317 0.321821630
0.404174566 0.368121296 0.341049731
0.419860959 0.389626652 0.364705980
0.439848155 0.409614176 0.384693474
0.464263231 0.432257921 0.409234971
0.488804668 0.456293672 0.430234015
0.221631989 0.162808403 0.138646409
0.219734311 0.164200097 0.135104388
0.225553408 0.166729987 0.139278993
0.223023415 0.164199993 0.136748999
0.222643867 0.164579540 0.136748999
0.225679934 0.170145467 0.141049758
0.228716090 0.169892311 0.142441317
0.231751695 0.172928706 0.145477697
0.238583371 0.179759592 0.152308598
0.245540991 0.186716989 0.159265980
0.250347823 0.191524565 0.164073572
0.253763407 0.194940001 0.167488977
0.259835392 0.201011986 0.173560992
0.266161025 0.207337022 0.179886028
0.275269002 0.216445401 0.188994408
0.281973422 0.223149985 0.195698991
0.289563209 0.230740190 0.203289181
0.298038989 0.239215985 0.211764976
0.304111004 0.245288014 0.217837006
0.312460452 0.256926000 0.227830708
0.324604452 0.269070417 0.239974692
0.336748987 0.281214416 0.254142702
0.344212502 0.293485492 0.265401483
0.351802707 0.308665514 0.279063702
0.363693684 0.322200984 0.293737829
0.379126668 0.338772684 0.313851923
0.392283410 0.356989413 0.329538405
0.410499692 0.375205696 0.347754687
0.427703798 0.397722811 0.369639605
0.444781870 0.417330861 0.393801451
0.467805266 0.440354288 0.415053874
0.495129704 0.463124692 0.434028983
0.239089087 0.180265903 0.160658091
0.236053094 0.180265903 0.152308613
0.236938760 0.181657225 0.152434990
0.242758006 0.181657106 0.156483203
0.237065539 0.177103102 0.150790647
0.239342242 0.185831934 0.155724093
0.242378309 0.186337873 0.157495201
0.244655371 0.185831815 0.158380806
0.248450086 0.189627096 0.162176102
0.257558495 0.198734716 0.171283707
0.264516085 0.205692649 0.178241640
0.269323260 0.210499942 0.183048934
0.273497999 0.214674190 0.187223196
0.279317021 0.220493153 0.193042159
0.287413388 0.228589416 0.201138407
0.294876903 0.236053079 0.208602086
0.301707983 0.242884189 0.215433195
0.310815603 0.253257543 0.225173980
0.317014098 0.259709120 0.231499016
0.323845714 0.270588189 0.240354359
0.333712995 0.282732487 0.252878189
0.345098078 0.294118077 0.264769077
0.357115597 0.306388557 0.282858580
0.366223991 0.321568817 0.298038989
0.377609074 0.334472090 0.310942084
0.389753044 0.349399060 0.324477732
0.402909189 0.367615223 0.340164214
0.421125978 0.385831982 0.358381003
0.439342052 0.409361035 0.380771875
0.458317399 0.430866390 0.403036118
0.479190558 0.451739579 0.427956790
0.506514966 0.479064018 0.449209183
0.254269481 0.195445538 0.175838500
0.260341465 0.195445538 0.169765726
0.257305473 0.195445538 0.167868003
0.256926000 0.194307178 0.170651332
0.261353523 0.192283511 0.175079435
0.258317918 0.198355496 0.172043040
0.260594636 0.202024341 0.174446821
0.261985987 0.203162983 0.175711975
0.263630480 0.204807490 0.177356496
0.269702494 0.210879505 0.183428496
0.278810859 0.219987109 0.192536116
0.285768479 0.226945043 0.199494049
0.291713983 0.232890978 0.205439985
0.297533005 0.238709942 0.211258948
0.300569415 0.241745561 0.214294553
0.308665186 0.249841809 0.222390816
0.316128880 0.257305473 0.229854494
0.322960347 0.265401542 0.237317994
0.332067966 0.280581981 0.249462023
0.341049820 0.289816827 0.258570373
0.351928979 0.300948948 0.273371488
0.363061130 0.312081128 0.288298845
0.372295976 0.321568936 0.298038960
0.381404370 0.336748570 0.313219398
0.392789483 0.349652082 0.326122463
0.404933453 0.364579439 0.339658111
0.418089598 0.382795602 0.355344623
0.436306357 0.401012361 0.373561382
0.454522431 0.424541414 0.399747282
0.474509627 0.447058648 0.423276633
0.497406542 0.469955564 0.446426541
0.524730980 0.497280002 0.473497987
0.266539991 0.213535741 0.191018134
0.266793013 0.213535741 0.184946090
0.272864997 0.213535741 0.185325637
0.272358984 0.213535741 0.186084747
0.274762571 0.212903321 0.188488454
0.276786923 0.216444999 0.190512061
0.278811306 0.219987318 0.192536324
0.281847030 0.223023713 0.195572719
0.283870965 0.225047767 0.197596774
0.287792742 0.228968993 0.201517999
0.290954858 0.232131869 0.204680875
0.298039019 0.239215732 0.211764738
0.305249631 0.246426642 0.218975633
0.313345909 0.254522830 0.227071837
0.321695298 0.262871444 0.235420451
0.324731052 0.265907675 0.238456681
0.334345251 0.275521845 0.251106858
0.342568308 0.285009444 0.262744874
0.347121924 0.295635879 0.270334899
0.359012872 0.308032870 0.282479584
0.368247718 0.317267746 0.291714013
0.376343995 0.327387750 0.303858280
0.381910354 0.336748630 0.313219368
0.396584749 0.351928949 0.328399777
0.405692577 0.367109120 0.341302872
0.419987321 0.382669300 0.356230199
0.435673803 0.401391804 0.374446750
0.451486766 0.422011763 0.397469878
0.472359657 0.442884654 0.418342829
0.492599428 0.465148896 0.441619158
0.514737189 0.487286717 0.463757187
0.540037870 0.512586892 0.489057869
0.284756243 0.233776242 0.210246250
0.284756243 0.233776242 0.204174250
0.287033498 0.231751993 0.202529758
0.290575504 0.231751993 0.204300985
0.290954947 0.232131541 0.204680532
0.293990910 0.235167563 0.207716569
0.297027290 0.238203302 0.210752308
0.300063252 0.241239697 0.213788703
0.303099096 0.244276091 0.216825083
0.306135476 0.247312024 0.219861031
0.311195374 0.252372116 0.224921122
0.316255242 0.257432222 0.229981244
0.321188897 0.262365609 0.234914586
0.328526288 0.269702762 0.242251754
0.337634653 0.278810829 0.251359820
0.343959689 0.289183795 0.263757050
0.350031316 0.295256168 0.269829422
0.361037314 0.306261837 0.284629941
0.366856277 0.315370232 0.292093247
0.372169554 0.325236976 0.301707715
0.382415771 0.335483730 0.311954737
0.392536223 0.345604002 0.322074503
0.398988247 0.355850279 0.332321227
0.412270904 0.369133413 0.345603883
0.426945210 0.384313762 0.360531241
0.437444478 0.403668463 0.378241569
0.454396099 0.423150122 0.397723258
0.471094668 0.442884684 0.418975234
0.485515773 0.462112784 0.438583314
0.504996896 0.481593966 0.458064437
0.528652430 0.505249918 0.481720448
0.555218279 0.531815290 0.508286238
0.302592993 0.249336004 0.224667639
0.303731620 0.250474632 0.222011283
0.305882394 0.250600874 0.221378639
0.308791995 0.249968290 0.222517282
0.308791995 0.249968290 0.222517282
0.311068714 0.252245575 0.224794582
0.312966317 0.254142970 0.226691961
0.316002578 0.257178694 0.229727715
0.319797307 0.260974020 0.233522996
0.323213130 0.264389843 0.236938834
0.325742990 0.269197017 0.240607351
0.330676645 0.274130642 0.245540991
0.339025646 0.282479644 0.253889978
0.341809005 0.285262287 0.257178664
0.348260760 0.291714042 0.265401393
0.359519660 0.305502623 0.280455440
0.364832461 0.313851833 0.290322542
0.373307645 0.323592633 0.300063461
0.381909966 0.333206952 0.309677303
0.387729347 0.342314929 0.318785369
0.394560546 0.351422757 0.327893734
0.404680282 0.361543268 0.338014007
0.416698515 0.373813778 0.350158006
0.427830666 0.386970431 0.362302303
0.441113263 0.400253266 0.375584900
0.454901963 0.417330950 0.393801302
0.468564063 0.441113055 0.417584062
0.487413228 0.459962249 0.436432630
0.501455009 0.479316980 0.455787659
0.518279612 0.498671591 0.477419585
0.540037811 0.516887844 0.492979258
0.570398629 0.546236634 0.521569014
0.316255063 0.257432073 0.230487064
0.319038421 0.260721415 0.233523384
0.321062744 0.262745261 0.235041276
0.324857891 0.266034156 0.239089161
0.326755017 0.268438041 0.241239995
0.326755017 0.268438041 0.241239995
0.327261031 0.268944025 0.241745993
0.329158694 0.270841360 0.243137315
0.331941992 0.273624063 0.245920032
0.338014007 0.279696077 0.251992017
0.336369187 0.283364862 0.253004044
0.337381244 0.286401272 0.255028307
0.343580037 0.292600036 0.261733025
0.354965061 0.303985000 0.273118079
0.354965061 0.303985000 0.279190063
0.367868602 0.317393988 0.293864608
0.379506886 0.329032183 0.305502862
0.383681029 0.333966047 0.310436130
0.389753044 0.346110046 0.322580934
0.398355395 0.355218381 0.332194686
0.407463789 0.364326298 0.341302752
0.417078018 0.374446303 0.351170033
0.429348528 0.386717528 0.363440543
0.438709944 0.401897937 0.375711828
0.450095028 0.414801031 0.387856036
0.462492019 0.429981023 0.403921634
0.475648135 0.448197126 0.424668074
0.496900499 0.469449490 0.445920438
0.512586892 0.490448803 0.466919810
0.531815231 0.512207210 0.491714180
0.554459155 0.532574236 0.513725579
0.584819973 0.550791025 0.522834003
0.346615821 0.287792802 0.266919792
0.346615821 0.293864816 0.269955426
0.340796620 0.288551599 0.260088742
0.343073875 0.288298398 0.261353642
0.350664258 0.292599529 0.271346956
0.341935396 0.289690375 0.265527993
0.346995413 0.294750392 0.270587981
0.351802379 0.299557388 0.272105962
0.354205996 0.301960826 0.271220386
0.350158006 0.297912836 0.267172426
0.359139860 0.306893945 0.276154280
0.361669540 0.310689241 0.279317081
0.366982639 0.316002637 0.286907166
0.376217395 0.325237364 0.300442427
0.379253805 0.328272969 0.303478807
0.379253805 0.333079964 0.309550792
0.390639186 0.346236169 0.322707176
0.402656794 0.358254135 0.334724784
0.414041787 0.370398819 0.346868932
0.420113802 0.376976818 0.359012961
0.428716123 0.385578632 0.368627131
0.436812371 0.395698637 0.377735525
0.444528908 0.407969892 0.387729287
0.459709316 0.423150301 0.402909726
0.471347392 0.436053395 0.415180415
0.484883040 0.452372044 0.430107385
0.499430865 0.471979886 0.448450059
0.515117228 0.487666249 0.464136392
0.528399765 0.506261766 0.482732624
0.550031543 0.530423522 0.506894529
0.572548985 0.553826571 0.528905809
0.590892017 0.572043359 0.538013577
0.364958793 0.315749794 0.293737978
0.364958793 0.317014784 0.294370383
0.362808019 0.316635013 0.293105543
0.363061100 0.314357787 0.287792802
0.372549236 0.319291323 0.297280043
0.363440841 0.316255718 0.293231785
0.364579618 0.318405986 0.294876575
0.369006902 0.322833687 0.299303859
0.373560876 0.327387691 0.300821871
0.372422576 0.326248974 0.299683601
0.376090854 0.329917699 0.303352445
0.381151259 0.334977835 0.308412313
0.385325611 0.339152575 0.312586963
0.392409801 0.346742809 0.322959810
0.393295407 0.351929188 0.325996190
0.401138783 0.359772384 0.333839566
0.404174775 0.365844399 0.339911580
0.417330950 0.379000574 0.354332745
0.433016986 0.394686937 0.373560816
0.441998780 0.403668791 0.383301616
0.451865792 0.413535774 0.395445585
0.460467964 0.424161583 0.405059934
0.466666490 0.436179489 0.414168298
0.477292895 0.446805894 0.424794704
0.487919271 0.461986244 0.439975083
0.502719760 0.477039754 0.455028564
0.519418120 0.496774107 0.473244578
0.536496222 0.513852179 0.490322232
0.553826749 0.531688750 0.508159399
0.573055148 0.553447187 0.529917717
0.596204996 0.576597214 0.553067565
0.611384988 0.593295813 0.565211594
0.386211187 0.346110195 0.321062386
0.384693384 0.344592005 0.319544196
0.385578603 0.342441618 0.318911761
0.382542551 0.341935217 0.317140996
0.392663181 0.346995175 0.322327524
0.389247447 0.345097929 0.321568459
0.387223303 0.347122043 0.322074503
0.390259683 0.350158066 0.325110853
0.392536372 0.352435380 0.327387571
0.394813687 0.354712099 0.329664886
0.397849321 0.357748061 0.332700878
0.400885463 0.363820434 0.337254912
0.405060202 0.367995203 0.341429204
0.410879225 0.373814195 0.347248197
0.412144393 0.378621370 0.350284606
0.417836964 0.385578990 0.356609762
0.425427198 0.390133202 0.365718186
0.432131767 0.396837592 0.372422755
0.447691381 0.412396997 0.392283410
0.462112546 0.426818550 0.407210559
0.473118186 0.440860182 0.419734389
0.485262185 0.453004450 0.431878388
0.492346197 0.465148538 0.441619188
0.500063241 0.475648284 0.452118903
0.510689437 0.487792462 0.464263469
0.523972094 0.504364192 0.480835170
0.542188287 0.522580326 0.499051183
0.560405016 0.540797055 0.517267168
0.578621089 0.559013128 0.535483837
0.595825374 0.576217413 0.552688241
0.619228601 0.601391554 0.576976299
0.635673404 0.619102001 0.594054163
0.413535535 0.378241539 0.350790530
0.411132336 0.375837743 0.348386735
0.411132365 0.372801900 0.346868724
0.412270695 0.371663541 0.346868724
0.409235001 0.374699146 0.346868724
0.414547980 0.374952137 0.349652052
0.414294809 0.377482444 0.350790530
0.413915247 0.379886240 0.351802647
0.417457551 0.383428544 0.355344951
0.417457551 0.383428544 0.355344951
0.420366675 0.386337638 0.358254254
0.423402816 0.392156780 0.362681538
0.426945150 0.399494141 0.368121147
0.433017135 0.405566156 0.374193132
0.436432958 0.408981949 0.377608955
0.441872537 0.414421529 0.384313524
0.447944522 0.418722540 0.391271293
0.454016536 0.419987559 0.399747103
0.463124961 0.429095179 0.408855528
0.478684574 0.444655269 0.424414992
0.494370550 0.462871552 0.441366285
0.506514549 0.480328798 0.456799537
0.518658578 0.492473513 0.468943536
0.525743365 0.504617512 0.481087536
0.535736918 0.516129136 0.492599517
0.550664067 0.531056106 0.507527113
0.568880141 0.549272180 0.525743186
0.587096810 0.567488849 0.543959141
0.604048073 0.584440112 0.560910642
0.621758282 0.602150321 0.578621149
0.638077140 0.618975103 0.595193088
0.659329534 0.646299541 0.619481146
0.440859973 0.405565977 0.378114998
0.440859973 0.405565977 0.378114998
0.438456774 0.403162718 0.375711739
0.437191963 0.401391953 0.374193937
0.436559439 0.402024359 0.374193937
0.433523059 0.405059993 0.374193937
0.436306328 0.407843292 0.376976639
0.437191963 0.409234971 0.378114998
0.438962996 0.411005974 0.379886031
0.444782019 0.416824996 0.385705024
0.447691143 0.419734120 0.388614893
0.450727284 0.422770262 0.391650677
0.453763664 0.426312625 0.394939661
0.457305968 0.429854989 0.398481965
0.463377953 0.435926974 0.404553950
0.469196975 0.441745996 0.415179968
0.475268990 0.447817981 0.423782378
0.481341004 0.453383982 0.430107951
0.487412989 0.459455997 0.436179936
0.496521354 0.468564332 0.445287645
0.512080967 0.484123975 0.460847497
0.527766943 0.502340257 0.478810966
0.539911032 0.519797981 0.496267974
0.552055776 0.531941950 0.508411944
0.561416745 0.541809320 0.518279254
0.574952364 0.555344939 0.531815350
0.593168974 0.573560953 0.550031960
0.611384928 0.591776907 0.568247914
0.624288678 0.604680657 0.581150949
0.642252088 0.622644126 0.599114180
0.662112951 0.642504930 0.618975222
0.680581987 0.661479950 0.637697935
0.451486349 0.421758384 0.397090703
0.451486349 0.421758384 0.397090703
0.451486349 0.421758384 0.397090703
0.450348020 0.420620024 0.395952374
0.450348020 0.420620024 0.395952374
0.449715436 0.421252459 0.395952374
0.451739699 0.424288690 0.398482054
0.456420362 0.428969353 0.403162390
0.459456295 0.432005286 0.406198472
0.463504016 0.436053008 0.410246730
0.466666847 0.439215839 0.413408905
0.469702452 0.442251444 0.416445285
0.472738653 0.445287645 0.419481367
0.476027995 0.448577017 0.422770709
0.482099980 0.454649031 0.428842694
0.488171995 0.460721016 0.434914708
0.495762199 0.468311191 0.444781899
0.502466798 0.475015968 0.451486796
0.506388009 0.478937715 0.455408037
0.515243351 0.487792373 0.464263380
0.520556748 0.496900767 0.473371446
0.534345329 0.512460351 0.488931358
0.550284386 0.530676663 0.507147372
0.567742169 0.548134387 0.524604380
0.584440410 0.564832330 0.541302919
0.596457720 0.576850057 0.553320765
0.611385047 0.591777027 0.568248034
0.627324343 0.607716322 0.584187329
0.642884135 0.623276174 0.599747181
0.658696949 0.639089406 0.615559697
0.677166224 0.659329951 0.634914577
0.693485022 0.679443717 0.653131366
0.481467456 0.454016477 0.430487454
0.479569733 0.452118725 0.428589702
0.481467456 0.454016477 0.430487454
0.480202287 0.452751309 0.429222286
0.478810728 0.452118725 0.428589702
0.475774735 0.452118725 0.428589702
0.482100040 0.454649031 0.431119889
0.483491719 0.456040710 0.432511210
0.489057750 0.461606711 0.438077211
0.493231982 0.465780973 0.442251951
0.496268332 0.468817323 0.445287585
0.499304205 0.471853197 0.448323727
0.502340078 0.474889100 0.451359838
0.505629480 0.478178471 0.454649031
0.511701465 0.484250456 0.460721433
0.515875697 0.488424718 0.464895695
0.520429909 0.496014893 0.472485900
0.528146744 0.504490733 0.480961710
0.532447517 0.508791924 0.485262513
0.539152086 0.515496373 0.491967112
0.546362758 0.522707164 0.499177724
0.550411224 0.530803442 0.507273972
0.565085471 0.545477509 0.521947980
0.583301842 0.563693762 0.540164530
0.601517975 0.581910491 0.558380544
