Assets/EldamarStudio/100 Retro LUTs Pack/LUTs/cube/Gary LUT.cube
LUT_3D_SIZE 8
DOMAIN_MIN 0.000000 0.000000 0.000000
DOMAIN_MAX 0.903226 0.903226 0.903226
0.141176000 0.098039001 0.074510001
0.157622010 0.106640995 0.083112001
0.177229896 0.126249090 0.102719903
0.207337350 0.148513645 0.128905639
0.241365984 0.182542995 0.155092001
0.280202746 0.221378729 0.193927735
0.334598005 0.280328989 0.250601262
0.397596806 0.351928771 0.328399777
0.189373553 0.137634456 0.114484094
0.186590999 0.134851098 0.110942543
0.203036100 0.150537908 0.119923994
0.231246099 0.172422186 0.144971192
0.259456009 0.200632378 0.173181370
0.300948799 0.242884278 0.215053737
0.353699803 0.302719802 0.272106230
0.411511779 0.376217782 0.348766804
0.239089087 0.180265903 0.160658091
0.237065539 0.177103102 0.150790647
0.248450086 0.189627096 0.162176102
0.273497999 0.214674190 0.187223196
0.301707983 0.242884189 0.215433195
0.333712995 0.282732487 0.252878189
0.377609074 0.334472090 0.310942084
0.439342052 0.409361035 0.380771875
0.302592993 0.249336004 0.224667639
0.308791995 0.249968290 0.222517282
0.319797307 0.260974020 0.233522996
0.339025646 0.282479644 0.253889978
0.364832461 0.313851833 0.290322542
0.394560546 0.351422757 0.327893734
0.441113263 0.400253266 0.375584900
0.501455009 0.479316980 0.455787659
0.386211187 0.346110195 0.321062386
0.392663181 0.346995175 0.322327524
0.392536372 0.352435380 0.327387571
0.405060202 0.367995203 0.341429204
0.425427198 0.390133202 0.365718186
0.473118186 0.440860182 0.419734389
0.510689437 0.487792462 0.464263469
0.578621089 0.559013128 0.535483837
0.481467456 0.454016477 0.430487454
0.478810728 0.452118725 0.428589702
0.489057750 0.461606711 0.438077211
0.502340078 0.474889100 0.451359838
0.520429909 0.496014893 0.472485900
0.546362758 0.522707164 0.499177724
0.601517975 0.581910491 0.558380544
0.661859572 0.642251551 0.618722558
0.639721513 0.612270594 0.588741541
0.627324581 0.607716560 0.584187567
0.633649349 0.610752702 0.587223411
0.644149184 0.624541163 0.601011932
0.657811582 0.638203561 0.614674568
0.679822803 0.660215318 0.636685789
0.706388593 0.686780572 0.663251579
0.756356776 0.742567599 0.712966025
0.771789730 0.752181768 0.728652775
0.770145178 0.750537157 0.727007985
0.771789730 0.757495463 0.731309593
0.779632747 0.767868400 0.740417421
0.793295383 0.778494418 0.752561569
0.806704640 0.797216654 0.766476631
0.828589618 0.816824615 0.789373636
0.850221395 0.838456750 0.805692792
0.150158450 0.106261544 0.082732551
0.150537997 0.106640995 0.083112001
0.185831994 0.134850994 0.111321993
0.219101638 0.160278350 0.133586437
0.253131002 0.194307387 0.167615384
0.295888752 0.237824261 0.209993795
0.343959272 0.293738276 0.263124287
0.405060261 0.362681657 0.338772804
0.182289541 0.138393551 0.114863545
0.197975546 0.146236539 0.116002090
0.214801013 0.155977100 0.129285097
0.239848197 0.181024894 0.153573886
0.273624182 0.214800909 0.187349901
0.313472301 0.254649192 0.227957278
0.361163795 0.310183287 0.286654264
0.417077512 0.381783515 0.359645486
0.242252007 0.191271201 0.166983008
0.256799549 0.191650659 0.163820192
0.255913615 0.197090536 0.169639558
0.280961573 0.222137645 0.194686651
0.310309976 0.251486182 0.224035189
0.342441261 0.287413180 0.258823603
0.386970252 0.344592273 0.321441799
0.449968517 0.419987172 0.395192921
0.315496624 0.256672621 0.237065345
0.319038182 0.265781105 0.237824440
0.327261448 0.268437654 0.243263736
0.338266730 0.288804561 0.258949727
0.365591526 0.324857563 0.294117630
0.397343397 0.358001381 0.332574636
0.444149375 0.409614354 0.385578930
0.508285940 0.480834961 0.457305640
0.397976190 0.354838580 0.331309199
0.396078557 0.352940857 0.329411834
0.398355663 0.358254045 0.333206862
0.416066170 0.376723468 0.351296723
0.431246042 0.396710724 0.371157467
0.477419436 0.449968427 0.425679922
0.521315813 0.496141821 0.472612113
0.585705161 0.564579129 0.540670276
0.493232459 0.462745458 0.440733641
0.487160206 0.463504255 0.439974666
0.498039275 0.471347272 0.447817653
0.506767988 0.483111978 0.459582448
0.529158771 0.505502820 0.481973648
0.551802874 0.528146863 0.504617035
0.606957793 0.587349772 0.563820243
0.671220720 0.651612699 0.628083348
0.640607238 0.617204309 0.593674839
0.642884552 0.615433574 0.591903567
0.639721632 0.620113671 0.596584439
0.648070931 0.632258058 0.606831312
0.663377643 0.648323834 0.626312494
0.680328786 0.667805314 0.640733719
0.706135094 0.689816535 0.664642870
0.758633971 0.739784956 0.715875924
0.777862191 0.755724192 0.732194841
0.774319768 0.760025442 0.733839571
0.773434103 0.759140015 0.732953846
0.782036543 0.769006789 0.739025772
0.795319140 0.781024456 0.752561331
0.814547777 0.800758958 0.771157503
0.828842402 0.822643757 0.790386081
0.852877557 0.840354502 0.813283026
0.164706007 0.115243189 0.091713995
0.170524642 0.119544543 0.096015446
0.186590895 0.135610089 0.112081088
0.223023638 0.164199650 0.136748642
0.260215104 0.201391295 0.173940286
0.300442636 0.245667338 0.216192082
0.357368708 0.303099275 0.281214595
0.414041728 0.376217693 0.350031555
0.194434002 0.143453196 0.119923994
0.206578463 0.154079556 0.124225445
0.218722090 0.159898996 0.132447988
0.247691199 0.188867897 0.161416903
0.280582100 0.221758291 0.194307297
0.320935845 0.263630748 0.236938715
0.371030986 0.320809543 0.290955007
0.425300568 0.390765071 0.370778084
0.235926986 0.184946194 0.155091986
0.248070642 0.188488558 0.161037564
0.264137089 0.205313087 0.177862093
0.289184004 0.230360270 0.202909291
0.314231277 0.256926298 0.228716195
0.354585826 0.299557358 0.271727085
0.393295109 0.351676077 0.327387571
0.458696932 0.428715885 0.406451553
0.319417626 0.268437624 0.242631346
0.322960109 0.271980077 0.240607098
0.333080202 0.280582011 0.249968186
0.342947543 0.293485433 0.264389724
0.376217306 0.327514261 0.299177974
0.403162658 0.365338415 0.339911282
0.450094640 0.417077631 0.396331280
0.512966096 0.486274511 0.462745160
0.403542101 0.369766086 0.347881168
0.402656287 0.362555265 0.337508082
0.409740388 0.369639397 0.344592214
0.421884835 0.381783843 0.356736034
0.437191576 0.404933572 0.379000366
0.482099831 0.449841797 0.428716004
0.528020144 0.502087176 0.478558183
0.588615000 0.566477001 0.542946994
0.502719581 0.476786554 0.453257382
0.500822008 0.474130005 0.450600922
0.511068702 0.479569733 0.458064467
0.516888201 0.491714239 0.468184471
0.536242962 0.512586892 0.489057541
0.556356788 0.535230815 0.511701584
0.615180194 0.595572174 0.572042882
0.675901532 0.656293571 0.632764161
0.641745329 0.621884704 0.596837580
0.638962865 0.622390866 0.597343445
0.647691429 0.628083467 0.604554057
0.655913889 0.636306167 0.612776935
0.665654778 0.650853753 0.624920726
0.684630156 0.669576466 0.643769741
0.707273543 0.693991005 0.667299449
0.760278404 0.745983362 0.719797492
0.784060538 0.765970647 0.741682589
0.778367698 0.766603470 0.739152431
0.779759765 0.765464783 0.739278615
0.788614810 0.776849806 0.749398768
0.798861444 0.787096679 0.759645641
0.815306723 0.803541720 0.769765675
0.834155321 0.822390854 0.794939876
0.853510320 0.841745913 0.812776685
0.187729344 0.134471640 0.112080999
0.188868001 0.135609999 0.113219641
0.206957906 0.153700098 0.131309450
0.223023638 0.164199650 0.136748642
0.263377786 0.204554200 0.177103192
0.306767642 0.247944638 0.220493630
0.358128011 0.307273626 0.276407272
0.417077631 0.381783605 0.357368588
0.217583537 0.168121547 0.144591734
0.224162087 0.165338203 0.137887195
0.231246084 0.172422186 0.144971192
0.246047080 0.187223196 0.159772202
0.281720519 0.227703825 0.197849646
0.326755077 0.271727115 0.247944444
0.372675657 0.331056446 0.305629283
0.433522999 0.399746984 0.379380077
0.255661100 0.198355094 0.177988991
0.267678678 0.201770738 0.174319729
0.281846642 0.217457548 0.190006554
0.289563537 0.232257724 0.204047844
0.319671184 0.267931968 0.236938655
0.359645993 0.304617167 0.283111930
0.403542191 0.364199787 0.340290636
0.463630736 0.435420722 0.405186623
0.309297651 0.252751619 0.229727998
0.315876096 0.259329200 0.230739728
0.328779548 0.277798623 0.246426642
0.354712337 0.306008637 0.276913643
0.374952525 0.331815451 0.308285832
0.408222467 0.372928441 0.347754449
0.460214943 0.427197903 0.400885552
0.512966216 0.493358642 0.469829261
0.405819178 0.364959180 0.340290844
0.407337189 0.367236078 0.342947274
0.420366734 0.380265743 0.358253956
0.424541384 0.392283380 0.366350442
0.442504585 0.415053576 0.385958165
0.486400962 0.458950371 0.435420483
0.532700539 0.507147551 0.484756351
0.593421698 0.570018470 0.550284624
0.511195481 0.479949474 0.458317697
0.509424567 0.482732624 0.459203094
0.516888082 0.491714060 0.468184561
0.527387679 0.499936759 0.476407230
0.543959558 0.518785775 0.495256007
0.570651591 0.545477569 0.521948099
0.619481325 0.599873364 0.576344371
0.677545547 0.659456015 0.635167658
0.648070931 0.628462911 0.604933619
0.647185266 0.626059294 0.602529824
0.648829997 0.631498992 0.606831312
0.659329534 0.639721513 0.616192579
0.671347320 0.656293333 0.630487084
0.691334724 0.674003780 0.649335682
0.710815966 0.693484902 0.668817282
0.763061404 0.750537395 0.720935881
0.787223399 0.767615378 0.744085789
0.785325825 0.767994583 0.739531815
0.785958230 0.771663249 0.745477378
0.792536378 0.780771375 0.753320396
0.802277029 0.790512145 0.763061166
0.816824675 0.805059671 0.775078714
0.834155619 0.825806260 0.797216594
0.862112522 0.844781995 0.820113599
0.206957996 0.155976996 0.129411995
0.210878998 0.159898996 0.133332998
0.220240176 0.169259995 0.142694190
0.239848197 0.181024805 0.153573811
0.266413778 0.207590178 0.180139184
0.308159411 0.251106918 0.226059735
0.366730094 0.317267269 0.290702283
0.430360794 0.395066798 0.372422785
0.239848092 0.183302000 0.162555352
0.243263736 0.186970353 0.161922544
0.252372086 0.193548083 0.166097090
0.267678708 0.208855346 0.181404352
0.286527544 0.229980841 0.201391190
0.328399807 0.272612184 0.248450190
0.384313524 0.335610539 0.311322033
0.442884207 0.408349186 0.381277651
0.280581981 0.228083372 0.203795090
0.291967332 0.232384622 0.204933643
0.297027081 0.240607291 0.208349302
0.308412522 0.249588639 0.222137645
0.325996101 0.268691063 0.241999000
0.362302333 0.311321825 0.287792623
0.410499483 0.371916264 0.353953183
0.469955653 0.442883998 0.422770441
0.323339641 0.265275329 0.244529098
0.329158992 0.271094263 0.246299833
0.342061728 0.291081637 0.262744933
0.371157646 0.322453737 0.294117659
0.382416278 0.339278996 0.315749288
0.420366734 0.381024718 0.360404998
0.462112665 0.434661657 0.410373211
0.522327721 0.494876742 0.471347153
0.388614982 0.348513365 0.323466152
0.398861200 0.351676196 0.330044031
0.404174477 0.368880302 0.341429293
0.427704185 0.392410189 0.367236197
0.463757187 0.431499183 0.405566365
0.493485391 0.461986363 0.436432719
0.536622465 0.512207508 0.488678038
0.595571995 0.572928309 0.549399018
0.508032501 0.480581462 0.457052469
0.511322081 0.484630078 0.461100549
0.516888261 0.491714269 0.470461547
0.538393021 0.510942578 0.487412959
0.546995878 0.527387917 0.504617035
0.571283877 0.554711998 0.529664695
0.625679672 0.606072187 0.582542777
0.680202365 0.660594702 0.637065411
0.648576856 0.630487084 0.602403283
0.650094748 0.632764161 0.608096123
0.659582317 0.638203740 0.613915443
0.667552292 0.647691309 0.622643590
0.679190338 0.662618697 0.637571394
0.697153449 0.680581629 0.655534267
0.717520535 0.702466547 0.676660299
0.768374324 0.755850732 0.728779256
0.788994253 0.770904422 0.742820978
0.786843777 0.771790028 0.745983481
0.788235307 0.773940325 0.747754455
0.795319140 0.783554733 0.756103754
0.806324959 0.794560254 0.767109275
0.820999444 0.808981478 0.782036781
0.835041225 0.827830493 0.798861325
0.862365603 0.847564578 0.821631789
0.241113260 0.182289734 0.154838741
0.245414183 0.186590806 0.159139812
0.255534381 0.196711093 0.169260085
0.269576102 0.210752890 0.183301896
0.291081727 0.232257724 0.204806730
0.325110465 0.266286999 0.238835976
0.362808108 0.315622985 0.292093575
0.439468652 0.401644617 0.383301795
0.262112767 0.210373253 0.187223285
0.269955724 0.211132348 0.183681354
0.278178304 0.219354898 0.191903904
0.293864906 0.235041097 0.207590088
0.308285713 0.249462634 0.222011626
0.337761015 0.286780477 0.259456009
0.376976371 0.330550283 0.307020783
0.448450506 0.409108013 0.395319372
0.311448336 0.260467827 0.230613813
0.319797277 0.260974199 0.233523175
0.318912089 0.262365580 0.233775914
0.333080292 0.278051913 0.248703539
0.347121984 0.296141982 0.266287178
0.371536970 0.324351490 0.300822198
0.409361124 0.370777935 0.344971657
0.477040082 0.454902053 0.428842515
0.345097721 0.299683720 0.273877442
0.364073455 0.313092828 0.285515636
0.378241748 0.331056446 0.303478748
0.391397625 0.348766387 0.319164842
0.401771277 0.362681985 0.337128520
0.422264278 0.386970282 0.361796260
0.462492198 0.433523208 0.406704724
0.535230756 0.507779777 0.484250784
0.413662374 0.372801960 0.350790560
0.416065991 0.375964373 0.350917190
0.427071273 0.393295288 0.368121177
0.448576748 0.416318744 0.390385836
0.480202198 0.452751160 0.424415171
0.498544902 0.471093923 0.447564960
0.543326914 0.519670963 0.496141911
0.596458018 0.576849997 0.553321004
0.493358493 0.462112457 0.440480709
0.498924673 0.467425644 0.445920020
0.507906616 0.480455637 0.456925809
0.527893603 0.500442564 0.476913333
0.560784221 0.533333242 0.509804189
0.591397405 0.575585425 0.550158143
0.632131457 0.612523556 0.588994503
0.683364809 0.663757324 0.640227795
0.654016554 0.627324581 0.603794992
0.646932364 0.630360365 0.608349562
0.663630247 0.640733838 0.617204309
0.669702649 0.650094688 0.626565456
0.688172042 0.669323027 0.645414531
0.702972710 0.687412798 0.661859512
0.725237429 0.709677517 0.684123814
0.773561120 0.759645581 0.733459830
0.792662621 0.773054600 0.749525607
0.787982404 0.775837839 0.744591892
0.793421686 0.779126644 0.752940834
0.802403271 0.790638864 0.763187885
0.813915312 0.806704521 0.777735353
0.827197731 0.815433502 0.784187078
0.844781697 0.833016872 0.805565894
0.864515781 0.852751434 0.821505427
0.288171977 0.229348570 0.201897576
0.287919015 0.229095533 0.201644540
0.298418790 0.239595175 0.212144181
0.311068982 0.256799281 0.227071568
0.332194805 0.277925372 0.248197466
0.351549715 0.301075250 0.275142431
0.380645275 0.337508291 0.313978285
0.430360794 0.395066798 0.370904803
0.300822109 0.253636986 0.226818576
0.315622985 0.253763586 0.225933030
0.318153203 0.260088384 0.232257828
0.330676883 0.276407361 0.246679187
0.347881287 0.293611258 0.270208985
0.367868632 0.317646831 0.294117719
0.400379300 0.353953302 0.330423355
0.440986603 0.413535625 0.390006065
0.344844997 0.298418999 0.274889201
0.352561563 0.299051195 0.276407301
0.358760357 0.309297770 0.282479346
0.365591556 0.319164932 0.295635641
0.379127264 0.335989892 0.312460274
0.395192921 0.356609613 0.330802917
0.428462982 0.391397566 0.367868364
0.472991556 0.445540547 0.422011346
0.399620265 0.363314271 0.336369634
0.405060083 0.368754059 0.344085783
0.413662285 0.377356261 0.352688193
0.418722332 0.385704935 0.359392554
0.434282124 0.401265115 0.380518436
0.450727642 0.422517627 0.399367362
0.479316980 0.451865971 0.428336561
0.528273344 0.503099203 0.479569703
0.437065244 0.404807270 0.380392432
0.440227449 0.407969475 0.386843652
0.457305431 0.429854453 0.406325281
0.493105650 0.465654641 0.442125201
0.510689437 0.483238488 0.459709257
0.520809412 0.499683440 0.476154447
0.545857012 0.524731338 0.501201510
0.597596288 0.577988625 0.555218339
0.530044436 0.500695705 0.482858539
0.530677021 0.507021010 0.483491451
0.539405465 0.515369952 0.492979020
0.555850804 0.532195032 0.508665442
0.580518663 0.557621658 0.534092247
0.619354963 0.596458018 0.572928429
0.636053503 0.616445482 0.592915595
0.687286615 0.667678833 0.644149303
0.633902550 0.611005545 0.587476611
0.628969312 0.609361231 0.585831821
0.637571394 0.617963374 0.594433725
0.652498603 0.632890522 0.609361291
0.675142288 0.655534267 0.632005215
0.698798299 0.682985246 0.657558501
0.737128556 0.722074509 0.696268260
0.773940504 0.762175620 0.734724700
0.789753139 0.774952471 0.743326843
0.788362026 0.772802055 0.746489286
0.792662621 0.780897915 0.748892903
0.799367249 0.791018605 0.757874668
0.812017739 0.807084024 0.772801757
0.834281921 0.822517633 0.790512502
0.848703325 0.838077247 0.810246766
0.874256670 0.862491965 0.830486953
0.354585618 0.301074922 0.270967782
0.357495099 0.303984523 0.273877323
0.365718067 0.312207550 0.282099903
0.372422814 0.326754808 0.300695777
0.392789513 0.347121775 0.323592782
0.411132067 0.373308063 0.350916892
0.438835800 0.408095777 0.386211097
0.481467634 0.451486588 0.429221749
0.362555057 0.324731052 0.299303889
0.371916354 0.321695268 0.298165381
0.375584811 0.329917789 0.306388199
0.388108701 0.342441678 0.318911910
0.404933333 0.364579320 0.339152157
0.425806642 0.390512437 0.363820404
0.453637093 0.418343067 0.391651094
0.486401260 0.464263350 0.440733343
0.403288960 0.365464628 0.347121775
0.409487426 0.367868304 0.347628385
0.411891043 0.374067038 0.349398911
0.424035579 0.388741195 0.369133621
0.436432779 0.402656823 0.382289886
0.461227059 0.431246042 0.408981919
0.482099801 0.453636795 0.431372613
0.521189034 0.496773928 0.475521803
0.458064646 0.430613637 0.404554248
0.464389443 0.434408426 0.409614235
0.469449699 0.441998690 0.418469191
0.479949236 0.452498257 0.428969234
0.493611872 0.466160893 0.442630976
0.510562956 0.485388964 0.461859643
0.533333182 0.508159101 0.484630048
0.564452648 0.544844627 0.521315634
0.503099203 0.477925450 0.454395771
0.511954308 0.489816606 0.466286957
0.533206820 0.505755782 0.482226431
0.554079771 0.526628733 0.503099203
0.558254182 0.536369145 0.512840152
0.576470435 0.554332674 0.530803323
0.594813287 0.575205564 0.551676273
0.622517288 0.602909625 0.579380274
0.570145547 0.548007548 0.524478316
0.571410716 0.549272716 0.525743186
0.578494608 0.556356847 0.532827377
0.596457660 0.572801650 0.549272656
0.635673702 0.612017632 0.588488281
0.657178938 0.637571454 0.614041686
0.673245013 0.657432020 0.632005155
0.695888758 0.682605684 0.655913770
0.674636364 0.655028343 0.631498814
0.676533639 0.659455955 0.634661674
0.682479382 0.662871659 0.639342368
0.691081583 0.671473861 0.647944331
0.704870284 0.685262382 0.661733150
0.725742936 0.713219464 0.686147988
0.762175620 0.749651968 0.722580433
0.783428252 0.769133210 0.742947042
0.773181438 0.761416733 0.733965755
0.777608633 0.765844524 0.738393545
0.777735472 0.765970707 0.738519728
0.787223399 0.772928417 0.746742189
0.799367249 0.787602961 0.760151923
0.822517574 0.808222592 0.782036781
0.839848280 0.836053073 0.805945277
0.880202413 0.876407564 0.846299767
