Assets/EldamarStudio/100 Retro LUTs Pack/LUTs/cube/Gary LUT.cube
LUT_3D_SIZE 5
DOMAIN_MIN 0.000000 0.000000 0.000000
DOMAIN_MAX 0.903226 0.903226 0.903226
0.141176000 0.098039001 0.074510001
0.174193710 0.123213284 0.099683709
0.222263992 0.163441002 0.137254998
0.291334867 0.232511118 0.205060124
0.397596806 0.351928771 0.328399777
0.221631989 0.162808403 0.138646409
0.231751695 0.172928706 0.145477697
0.275269002 0.216445401 0.188994408
0.336748987 0.281214416 0.254142702
0.427703798 0.397722811 0.369639605
0.346615821 0.287792802 0.266919792
0.351802379 0.299557388 0.272105962
0.379253805 0.328272969 0.303478807
0.436812371 0.395698637 0.377735525
0.528399765 0.506261766 0.482732624
0.521948278 0.494497240 0.470968008
0.521948278 0.494497240 0.470968008
0.546110272 0.520683289 0.497153819
0.581783354 0.562176108 0.538646340
0.686401129 0.666793108 0.643263817
0.771789730 0.752181768 0.728652775
0.772801876 0.756483316 0.731309593
0.782922149 0.771157146 0.743706167
0.812017918 0.800252914 0.772801876
0.850221395 0.838456750 0.805692792
0.164706007 0.113724999 0.090195999
0.177482709 0.126502290 0.102972701
0.236685410 0.177862406 0.150411412
0.314864129 0.256040126 0.228589118
0.408728808 0.370904803 0.346742630
0.217710406 0.166729987 0.135357410
0.242884696 0.184060708 0.156609684
0.284756273 0.225933120 0.198482126
0.351802409 0.296268255 0.267172694
0.442757785 0.412776798 0.390512407
0.353447109 0.305755675 0.282226533
0.355977088 0.310310096 0.287413090
0.384819686 0.340417475 0.316888094
0.442125231 0.410120249 0.384313673
0.547754526 0.523592472 0.500063241
0.537634671 0.508159399 0.485641956
0.531055808 0.510183692 0.486653805
0.551043510 0.531435549 0.507906556
0.591271639 0.571663618 0.548133850
0.696141958 0.676533937 0.653004348
0.786084771 0.764958858 0.738393426
0.777988434 0.761669695 0.736495733
0.791650772 0.777355731 0.751169860
0.818849027 0.807084024 0.776344001
0.852498412 0.840733767 0.813282669
0.199367419 0.147122413 0.124224991
0.209487721 0.157242283 0.134345293
0.244528994 0.185704991 0.158253998
0.324984401 0.272738844 0.244022995
0.424415231 0.386590362 0.366983056
0.256926417 0.201391414 0.175585106
0.270335257 0.211511686 0.184060693
0.294876397 0.236053407 0.208602399
0.361543268 0.312586993 0.287792414
0.457811356 0.429095358 0.406198621
0.350537807 0.299556971 0.274762809
0.360278428 0.312586993 0.287792385
0.401517808 0.358380795 0.334850937
0.457811803 0.429095775 0.406198382
0.553953230 0.533080339 0.516128957
0.551928878 0.523212850 0.500316262
0.551296651 0.530423880 0.506894410
0.570904255 0.550031304 0.526502311
0.606577992 0.588994503 0.564452887
0.700442672 0.687413216 0.660594821
0.790765166 0.773814023 0.742315054
0.785199285 0.772169292 0.745350838
0.797217071 0.785452187 0.758001149
0.827703774 0.813915372 0.781151056
0.854016542 0.848956406 0.819481194
0.248197123 0.189374119 0.161923125
0.262871981 0.204047993 0.176596999
0.285768420 0.226944834 0.199493840
0.341303021 0.282479256 0.255028278
0.435926497 0.398102462 0.377735615
0.305376410 0.247817829 0.219734401
0.311575145 0.256040275 0.226944819
0.331182718 0.283238560 0.250853688
0.374319732 0.326628715 0.303099543
0.467678607 0.441492647 0.415433347
0.376976699 0.332574099 0.307779938
0.395319521 0.354206353 0.329664826
0.438203782 0.401644766 0.376850218
0.470841229 0.437571228 0.416951120
0.564073503 0.543200552 0.519671082
0.529791296 0.496521235 0.475901097
0.537254691 0.511827946 0.488298565
0.570904434 0.545477688 0.521947801
0.627830267 0.614041984 0.587603092
0.706641197 0.687033653 0.663503945
0.792662621 0.773054600 0.749525607
0.793928087 0.778620899 0.750411093
0.808348775 0.796584487 0.765844464
0.832510948 0.820746601 0.785452187
0.866540015 0.854775429 0.824035406
0.354585618 0.301074922 0.270967782
0.363693774 0.310183764 0.280075938
0.380012393 0.334345192 0.309551030
0.417709947 0.382415950 0.362807930
0.481467634 0.451486588 0.429221749
0.394686848 0.352308512 0.330423772
0.402530104 0.360151470 0.334977806
0.418595791 0.380771756 0.357874602
0.454901814 0.424920499 0.402656674
0.509550750 0.487412810 0.463883758
0.492599368 0.465148330 0.441619158
0.503984630 0.476533890 0.453004479
0.520682752 0.493231773 0.469702780
0.546109796 0.523971915 0.500442803
0.593927681 0.574319720 0.550790668
0.598987818 0.576850057 0.553320765
0.600758910 0.581150889 0.557621896
0.623655677 0.604048371 0.580518544
0.683491230 0.663883626 0.640354276
0.717141092 0.705376089 0.677925050
0.773181438 0.761416733 0.733965755
0.775711417 0.763946712 0.736495733
0.793927789 0.780897796 0.754079342
0.828842640 0.814547896 0.788361728
0.880202413 0.876407564 0.846299767
