Assets/EldamarStudio/100 Retro LUTs Pack/LUTs/cube/George LUT.cube
LUT_3D_SIZE 5
DOMAIN_MIN 0.000000 0.000000 0.000000
DOMAIN_MAX 0.903226 0.903226 0.903226
0.184313998 0.113724999 0.105881996
0.257558405 0.129411995 0.121569000
0.387729377 0.140543580 0.139910996
0.577735364 0.180518985 0.171663120
0.816192567 0.268184811 0.252498806
0.240227699 0.188614696 0.137254998
0.272612393 0.193168700 0.139911413
0.401138663 0.218722701 0.156230420
0.589879811 0.266160846 0.202656582
0.818216383 0.343706697 0.280075788
0.311827570 0.358380824 0.183048993
0.356356829 0.366856426 0.190259412
0.449841797 0.381909966 0.211890981
0.618596017 0.425047398 0.255028397
0.825933039 0.499051392 0.353953212
0.417836994 0.604301274 0.316002250
0.459076256 0.611131966 0.332574517
0.545097709 0.618342698 0.350031227
0.679696143 0.627830267 0.379759371
0.856926084 0.686653793 0.484629959
0.643769741 0.851486564 0.596710742
0.659708679 0.863250911 0.596837521
0.714864075 0.866540194 0.609107971
0.805313110 0.871094584 0.639215589
0.908918619 0.884123802 0.676407635
0.205566287 0.129411995 0.161163703
0.255281717 0.134977713 0.157874703
0.375964373 0.157874703 0.188614696
0.561037421 0.209234580 0.238710001
0.801138580 0.291081816 0.323466092
0.249082983 0.186969995 0.164073005
0.290575713 0.196457699 0.185325712
0.391650826 0.224288404 0.206957266
0.568247974 0.272359669 0.253383696
0.804048002 0.356483221 0.340796798
0.319671392 0.351802796 0.243895978
0.354965419 0.359012961 0.246552378
0.440986693 0.377356231 0.259582400
0.603542209 0.429348528 0.304111242
0.817077756 0.503604949 0.397090375
0.425933123 0.600632548 0.365591258
0.459455937 0.605945528 0.370271832
0.545350850 0.612776875 0.390512407
0.673877537 0.625806272 0.420240134
0.846805871 0.684503376 0.512333989
0.645287871 0.855028450 0.605565846
0.660594761 0.855913997 0.614674270
0.713472366 0.861859620 0.626059175
0.803035796 0.867425621 0.650221229
0.916508496 0.883491695 0.693484545
0.234028995 0.136622414 0.288425386
0.286021262 0.146742716 0.286780685
0.383174986 0.164073423 0.288425386
0.559772253 0.215180412 0.348640382
0.788109004 0.312713802 0.433016777
0.273877412 0.209867403 0.284124106
0.309551120 0.218722686 0.286780685
0.400126398 0.232763991 0.307020694
0.565717816 0.288045704 0.365591258
0.787096500 0.380392075 0.451359808
0.334092408 0.355723977 0.338140368
0.370398283 0.373055100 0.354079723
0.461606801 0.408095807 0.383934200
0.608475566 0.441745698 0.417204410
0.805692613 0.520682812 0.498418808
0.444655240 0.594180942 0.461480111
0.473750710 0.604301274 0.473750681
0.557115793 0.609487712 0.483364820
0.671853125 0.627451122 0.509803951
0.841871917 0.695256233 0.586337924
0.635799766 0.846932173 0.652118981
0.661606431 0.853130877 0.656672597
0.712207198 0.854649186 0.672359467
0.801138341 0.866160512 0.695382297
0.904364169 0.883491158 0.731941998
0.274636269 0.162808001 0.507274151
0.331815541 0.172295704 0.500442982
0.445667535 0.196457714 0.510815978
0.585705101 0.234408855 0.513093114
0.796584606 0.333712757 0.575585246
0.302972704 0.255028397 0.494370848
0.348133713 0.261859715 0.495129824
0.453510255 0.275015831 0.502972782
0.591524124 0.306388527 0.514737666
0.798228920 0.402656674 0.588108659
0.365085125 0.407716542 0.519670963
0.401138544 0.421505511 0.531435788
0.494370401 0.439848095 0.538899243
0.624161720 0.461732984 0.554585636
0.808222771 0.538646460 0.622896731
0.459076256 0.606198251 0.577862144
0.491334260 0.612397134 0.583933771
0.582289517 0.632004976 0.614674270
0.692473292 0.659203291 0.638583124
0.843769491 0.704364419 0.689942777
0.650347948 0.848576725 0.743453443
0.670967817 0.854395926 0.741935492
0.711448789 0.858317435 0.753067493
0.795951605 0.867805183 0.762555242
0.909930468 0.883870721 0.789752960
0.324351668 0.235546961 0.787476420
0.385831654 0.246046796 0.782289624
0.514737189 0.283365190 0.785452187
0.689310670 0.330423772 0.782289624
0.850347638 0.401770771 0.779632747
0.349525690 0.336875200 0.779632747
0.403162688 0.343832493 0.776470542
0.530044079 0.367362499 0.780644894
0.689057648 0.402023941 0.777609050
0.851106703 0.457684696 0.786211550
0.421885192 0.508286178 0.774193764
0.469323456 0.513472319 0.780012310
0.569639206 0.525869787 0.780897796
0.702087104 0.545857072 0.782922149
0.848829627 0.578241587 0.793295205
0.532321215 0.696141779 0.801897585
0.556230128 0.695256233 0.798355341
0.625806808 0.695888817 0.805439293
0.726755142 0.703352273 0.804048061
0.865527928 0.727261066 0.824794412
0.655534387 0.860594749 0.839721620
0.673497736 0.863883734 0.851486623
0.718659222 0.867172599 0.852877736
0.808854759 0.876533747 0.865148783
0.911448598 0.902466536 0.885388911
