Assets/EldamarStudio/100 Retro LUTs Pack/LUTs/cube/George LUT.cube
DOMAIN_MIN 0 0 0
DOMAIN_MAX 1 1 1
LUT_3D_SIZE 32
0.184313998 0.113724999 0.105881996
0.184313998 0.113724999 0.105881996
0.190765232 0.118026547 0.105881996
0.201138318 0.120303839 0.107147157
0.213662550 0.118026547 0.109803997
0.228842929 0.121062934 0.109803997
0.244022667 0.126628995 0.117394321
0.257558405 0.129411995 0.121569000
0.270462096 0.129411995 0.123086996
0.285642475 0.129411995 0.129158989
0.303731978 0.132321119 0.123593003
0.321947992 0.133332998 0.125616997
0.342441261 0.134471640 0.130550355
0.366477042 0.137507960 0.133838996
0.387729377 0.140543580 0.139910996
0.411384970 0.141176000 0.143579811
0.437191576 0.145730197 0.145098001
0.464516550 0.153573588 0.146362990
0.491841018 0.156609982 0.152435020
0.516381979 0.165211648 0.161290362
0.546362698 0.172422469 0.166603252
0.577735364 0.180518985 0.171663120
0.605439961 0.192662984 0.180771500
0.641871989 0.204807013 0.189879909
0.678304553 0.214674279 0.201264992
0.713345647 0.225173980 0.210625991
0.746742189 0.237824067 0.218722120
0.780139327 0.253004432 0.236938879
0.816192567 0.268184811 0.252498806
0.849082887 0.286907166 0.272991925
0.881214201 0.308159590 0.298165560
0.917647004 0.329412013 0.325489998
0.193421617 0.113724999 0.102846384
0.181277603 0.119797774 0.102846384
0.200632378 0.119797774 0.109297618
0.213788375 0.121569000 0.113219157
0.222011164 0.121821836 0.117014542
0.231878549 0.130170539 0.124984384
0.241998941 0.130676612 0.112334065
0.257811368 0.135736614 0.114104904
0.272738814 0.136242718 0.118532419
0.285642475 0.129411995 0.129158989
0.303731978 0.135230988 0.132321119
0.323972255 0.138393134 0.132700861
0.343200386 0.139404997 0.135483995
0.363440633 0.140796676 0.136875391
0.384692997 0.146616355 0.142947391
0.410752386 0.147248775 0.146616206
0.438709378 0.150284767 0.148134395
0.465654761 0.157874808 0.149399385
0.485769004 0.165717587 0.155471414
0.518659413 0.174319968 0.161543414
0.543706357 0.181530386 0.168500990
0.573687375 0.188614741 0.173687384
0.605439961 0.198608503 0.180897981
0.641871989 0.207843408 0.192915529
0.680581808 0.217710093 0.199747190
0.716382027 0.230992943 0.211764678
0.749272525 0.246426389 0.224288061
0.780139327 0.259076416 0.239974499
0.813535750 0.274256825 0.255534410
0.854902148 0.291207939 0.277798742
0.888931096 0.311195195 0.302466571
0.914610624 0.332447618 0.325489998
0.200379550 0.126628548 0.106261998
0.196837559 0.126249000 0.110563003
0.201897547 0.123719223 0.110563003
0.217836767 0.127514377 0.115875773
0.223655775 0.129791453 0.118026547
0.238076925 0.131815061 0.123592928
0.240733549 0.139784768 0.121062681
0.258064628 0.139784768 0.117393993
0.276533872 0.143326774 0.121694766
0.290069938 0.138393492 0.131056190
0.303731978 0.141682759 0.132321119
0.323972255 0.143706769 0.133332998
0.344085991 0.146615908 0.136242867
0.362808049 0.148133770 0.137254998
0.385958165 0.154206067 0.139532000
0.412017554 0.157622010 0.143200263
0.433269948 0.159139812 0.146236643
0.461733133 0.164579377 0.149399206
0.489057958 0.172169596 0.158507243
0.516888380 0.179127127 0.164579228
0.546489716 0.186337769 0.166856229
0.573055029 0.193421900 0.174446478
0.605439961 0.202783242 0.182922244
0.641871989 0.215939134 0.193042010
0.676280856 0.225047469 0.202782795
0.715749621 0.234155431 0.211638197
0.750158131 0.249589071 0.226565123
0.780518830 0.263377756 0.243390203
0.815686524 0.278178602 0.258570582
0.849082887 0.300442934 0.273750931
0.886907160 0.321568489 0.300442725
0.909424007 0.344085783 0.325489998
0.208982006 0.139784992 0.113599159
0.207716838 0.139278919 0.115875997
0.215053990 0.136622325 0.118912160
0.224667996 0.131815150 0.118912160
0.224288538 0.140543997 0.119291611
0.236306161 0.140164211 0.122327775
0.250727326 0.143453315 0.122833841
0.256293416 0.147627994 0.123465993
0.278305084 0.148387089 0.128019989
0.293485463 0.148893163 0.133079991
0.307020813 0.149272710 0.132068157
0.323972255 0.152814835 0.134598166
0.345224649 0.155091837 0.135736525
0.363820195 0.158001006 0.138519838
0.387096792 0.162048995 0.138519838
0.412523627 0.166982979 0.142188519
0.436306030 0.170018971 0.145224184
0.454648972 0.173687145 0.149525568
0.489816815 0.179759786 0.161037177
0.517900169 0.187096998 0.166350007
0.545224547 0.193168998 0.169892162
0.574573219 0.200253129 0.172928289
0.605439961 0.209361508 0.184819981
0.641871989 0.222264424 0.195066273
0.676027834 0.234155446 0.202909291
0.709677637 0.244528666 0.214674145
0.747122049 0.253637075 0.227324232
0.776723683 0.267299443 0.244781882
0.814927399 0.285009801 0.260341823
0.849588931 0.304744154 0.276787013
0.882985413 0.329411983 0.294624031
0.908411980 0.352941006 0.324225157
0.219228446 0.146615997 0.121189453
0.217710152 0.149272844 0.119671158
0.222137764 0.150158450 0.120556772
0.229980990 0.149652377 0.121948451
0.236052990 0.146995559 0.122327998
0.233017385 0.153067559 0.125363618
0.254143327 0.154838547 0.128399774
0.270335436 0.154459000 0.130297273
0.278305084 0.154459104 0.132953539
0.293485463 0.157495499 0.132953539
0.309044689 0.155850679 0.131182879
0.326628506 0.158507109 0.133839443
0.345224649 0.163820088 0.138013899
0.366477042 0.170145050 0.141302541
0.387729377 0.170524538 0.141555548
0.411764532 0.174952596 0.146363065
0.434155196 0.179886341 0.151296809
0.457305133 0.183175087 0.155218020
0.487665951 0.189247116 0.164326414
0.515243351 0.198481902 0.167868197
0.542947292 0.205312997 0.171663284
0.571916342 0.212397128 0.176723570
0.605313480 0.221505493 0.185578957
0.641492546 0.230613902 0.196964011
0.674889266 0.241998985 0.206072003
0.709045053 0.254143000 0.214800656
0.742188573 0.266540051 0.229981065
0.769512951 0.275648415 0.245161444
0.808601975 0.294244230 0.259962261
0.846173108 0.315117180 0.277672470
0.879949152 0.335104525 0.296900660
0.913345575 0.353320539 0.321189463
0.216192052 0.158760011 0.118153065
0.225300446 0.158760011 0.127261445
0.225932926 0.159266070 0.127893925
0.229980990 0.160531238 0.127134830
0.236053005 0.162175938 0.125363603
0.242125005 0.162175938 0.128399998
0.256799698 0.168247923 0.131435618
0.271600276 0.168374211 0.129538059
0.280961275 0.165844098 0.127261087
0.293485463 0.163567498 0.129917935
0.311574996 0.169513002 0.135736927
0.331309170 0.172043189 0.138266742
0.349778652 0.174446866 0.139531702
0.366477042 0.176217824 0.138266936
0.387729377 0.185325444 0.144338936
0.413788795 0.188108742 0.149398938
0.436052918 0.193168998 0.155471057
0.457305133 0.198102519 0.161036998
0.487665951 0.201391891 0.167362019
0.515243351 0.213029876 0.170904413
0.544465482 0.218975186 0.177735671
0.574320257 0.224541128 0.185831800
0.605313480 0.233649492 0.194686577
0.638709903 0.242757916 0.197722971
0.668058217 0.254143000 0.213661984
0.701960683 0.266286969 0.222896680
0.739405215 0.278937072 0.229981065
0.772549391 0.293864429 0.245161444
0.802529871 0.305628985 0.257684976
0.838456392 0.322833478 0.277419448
0.874383211 0.340670586 0.298924893
0.910309911 0.356356919 0.318153083
0.228336319 0.173434317 0.130297318
0.229854390 0.173434317 0.131815389
0.232510999 0.173434317 0.130171001
0.236306161 0.174699485 0.130676836
0.243643329 0.177356318 0.130929545
0.249715328 0.177356318 0.133965939
0.255787313 0.179885998 0.131941676
0.272359371 0.182668999 0.136621997
0.284756422 0.183554411 0.137128189
0.298671961 0.187602803 0.141935810
0.314105302 0.185705006 0.140290990
0.332321316 0.187729001 0.142315000
0.354206264 0.191397965 0.145983323
0.374067366 0.194687322 0.147628039
0.395319700 0.201518223 0.151423320
0.418975294 0.205818832 0.152688324
0.444655389 0.210372984 0.158507317
0.466160595 0.217077568 0.164579317
0.492725968 0.223908976 0.170651332
0.520303369 0.232764333 0.181530356
0.553320467 0.241113320 0.188361734
0.581910133 0.245793641 0.196457997
0.608096182 0.253510296 0.203921318
0.646300197 0.265021890 0.209360898
0.681973279 0.274130255 0.221505269
0.710056663 0.286021292 0.232510999
0.743453145 0.298165441 0.237065315
0.774825990 0.311322063 0.250221431
0.813156545 0.323845625 0.270335317
0.845287740 0.341302812 0.287792474
0.879190266 0.362049282 0.312207550
0.912333667 0.382162988 0.335357308
0.240227699 0.188614696 0.137254998
0.240227699 0.188614696 0.140543997
0.235293999 0.191903695 0.136243001
0.241619155 0.190638855 0.133965835
0.251106977 0.191398144 0.136242539
0.257178992 0.187602997 0.136748940
0.268184692 0.195066378 0.142947376
0.272612393 0.193168700 0.139911413
0.289310604 0.194686696 0.142947227
0.306261748 0.202909485 0.145477548
0.318153143 0.203668550 0.144465417
0.338646710 0.205945402 0.145098001
0.358001351 0.207083762 0.147375003
0.381278008 0.212650344 0.153194040
0.401138663 0.218722701 0.156230420
0.423149973 0.222390890 0.158507288
0.450474381 0.228462890 0.161543280
0.475015968 0.235926390 0.168247864
0.499304026 0.246046662 0.175332010
0.523086369 0.251866072 0.185325727
0.554459155 0.259076685 0.195572451
0.589879811 0.266160846 0.202656582
0.614041686 0.273118377 0.208222508
0.648956716 0.285262406 0.215812713
0.686147988 0.293484986 0.225426987
0.719797313 0.303984672 0.239215702
0.748386800 0.317140847 0.245540991
0.779885828 0.331562608 0.259961993
0.818216383 0.343706697 0.280075788
0.849209368 0.359519154 0.301328152
0.881720424 0.381657183 0.321695179
0.912080705 0.405945390 0.346742690
0.247059003 0.204554006 0.137254998
0.250854105 0.204554006 0.143326998
0.244402319 0.208855197 0.140797004
0.245414242 0.211132169 0.138519838
0.259076536 0.208476007 0.143073544
0.264768988 0.200506166 0.142314941
0.276154429 0.204554096 0.146616101
0.286274612 0.209867105 0.151296720
0.292346984 0.205313087 0.150537997
0.313598603 0.211385086 0.144465223
0.325489849 0.215306878 0.144971088
0.343200505 0.220367000 0.146995351
0.364832640 0.225300550 0.150410995
0.386337996 0.228589192 0.155976996
0.405565977 0.234661832 0.158507317
0.426185787 0.239089280 0.161543295
0.449715286 0.245161280 0.166856185
0.480076045 0.253637075 0.173560590
0.504617155 0.265528083 0.182668969
0.527640462 0.270082355 0.191018447
0.554965079 0.276533991 0.198608637
0.586844027 0.282859027 0.205692962
0.620240450 0.292093903 0.209108084
0.651233852 0.304238111 0.218848899
0.684629977 0.311828077 0.227957278
0.720556378 0.321442157 0.239974976
0.750917077 0.333586186 0.252119005
0.784060419 0.351296902 0.269828975
0.821252406 0.364959091 0.290701807
0.855660975 0.379127026 0.311954141
0.880961180 0.398355186 0.333839178
0.911321998 0.422643989 0.352055997
0.247059017 0.222770005 0.137255013
0.262239397 0.222770005 0.143326998
0.259582728 0.227071553 0.140797004
0.260594636 0.229348809 0.138519853
0.274256915 0.226692006 0.143073544
0.277292550 0.226692006 0.158253938
0.282985628 0.221252501 0.152435318
0.291081756 0.222517490 0.149146482
0.301454604 0.226565495 0.150537997
0.316635013 0.226565495 0.156610012
0.334977478 0.232637495 0.159266099
0.352814496 0.238583013 0.162175760
0.370145649 0.243516654 0.165211841
0.386337996 0.246805981 0.168120995
0.410625994 0.252877980 0.168120995
0.432257801 0.258949995 0.170651317
0.453510195 0.266413689 0.176723674
0.477039635 0.274889469 0.185705379
0.507400513 0.280961514 0.194813013
0.534724832 0.287286490 0.201138720
0.561796248 0.297026992 0.205439746
0.589373648 0.306894004 0.208728656
0.617204070 0.313345522 0.212144479
0.650601268 0.325490326 0.224288493
0.681594014 0.333080471 0.234029278
0.716381967 0.343327135 0.247311965
0.753953457 0.357874960 0.264262974
0.784313440 0.370018959 0.276406974
0.817457438 0.385072798 0.296773791
0.854649127 0.398355424 0.318026155
0.889943063 0.413409054 0.340164185
0.917393982 0.434787989 0.364199996
0.261606872 0.240986735 0.154712006
0.265148520 0.246805742 0.152055874
0.271726906 0.244654953 0.153826877
0.269449860 0.248450443 0.150537699
0.277545989 0.249968633 0.149525419
0.298291951 0.244907990 0.149525806
0.296268195 0.247438326 0.159645557
0.304490983 0.249082848 0.157748133
0.314104855 0.252118856 0.157748133
0.322833478 0.247817874 0.159519121
0.338013858 0.250727743 0.162681997
0.356229872 0.256799728 0.165717602
0.374446422 0.262871742 0.166476786
0.391904026 0.267931879 0.166223869
0.413535863 0.274003893 0.171536863
0.437823862 0.277672678 0.181150854
0.459582180 0.284756541 0.187222987
0.481467128 0.293864548 0.194307283
0.507274032 0.302213848 0.201138780
0.532068014 0.308285862 0.201897740
0.561163604 0.318152875 0.207717001
0.589500129 0.327261001 0.212776870
0.617204010 0.331688732 0.218089983
0.653383851 0.343832791 0.230233997
0.682226419 0.353700280 0.237823993
0.714737296 0.363187850 0.247691453
0.751676202 0.376343966 0.264389932
0.784439981 0.388487965 0.288551718
0.820113599 0.400632650 0.300695717
0.853763223 0.413788825 0.324731022
0.885641754 0.429475069 0.346489429
0.908918142 0.452751756 0.364706010
0.274762988 0.263250977 0.160784006
0.271726876 0.271347255 0.159772128
0.276786804 0.270967990 0.158886746
0.282353163 0.267931610 0.156356752
0.285389245 0.270967990 0.154459000
0.299810261 0.268184632 0.159645677
0.309424043 0.269702822 0.162681937
0.312966436 0.272738785 0.168500975
0.324730992 0.276154339 0.168121412
0.333333015 0.271347493 0.166856259
0.346110106 0.274003863 0.167741865
0.361290514 0.277040243 0.168753996
0.379506528 0.283112258 0.172928259
0.397723019 0.289184272 0.173055023
0.417204112 0.295256227 0.177356243
0.440860242 0.302973062 0.180139244
0.463630468 0.307527244 0.192283258
0.484882802 0.315496504 0.198102266
0.507780015 0.323213220 0.201391697
0.534092247 0.331562489 0.207969993
0.558380723 0.337634504 0.211764991
0.589500368 0.348513365 0.217836991
0.619228244 0.353826493 0.224161983
0.655661047 0.364073247 0.236306012
0.681214571 0.375964284 0.249968246
0.712713242 0.386464298 0.258823246
0.749145865 0.398102432 0.271979868
0.784060419 0.408728242 0.294750422
0.814041317 0.420872897 0.312839985
0.846932054 0.433017194 0.328526378
0.880961180 0.446932226 0.354206204
0.907906234 0.468943715 0.372801989
0.288045645 0.292093277 0.165338293
0.284250647 0.297786027 0.165338293
0.286780626 0.302846402 0.165338293
0.292979151 0.300949097 0.166223645
0.301707983 0.297912717 0.160910636
0.307779998 0.297153652 0.170018643
0.315243304 0.299683958 0.173434317
0.325489998 0.300442904 0.176470712
0.336116195 0.303478718 0.178747997
0.348639637 0.301202118 0.176091149
0.359645724 0.305123389 0.178241640
0.373814255 0.305882245 0.177102998
0.390132993 0.310057282 0.178241640
0.408096015 0.315876245 0.183807641
0.425426602 0.321062624 0.185958415
0.448450208 0.328399777 0.190006644
0.471220821 0.337128609 0.193801641
0.492473185 0.342568219 0.204048067
0.513725638 0.348134309 0.204554006
0.540544033 0.356989354 0.215180352
0.568248153 0.365338653 0.222390980
0.593548775 0.372422785 0.229475111
0.626565635 0.381530404 0.235800147
0.660974145 0.390638560 0.246932298
0.690575898 0.399746925 0.261353552
0.715370238 0.410752296 0.274003595
0.750790298 0.422897130 0.287159771
0.785957873 0.432637483 0.305376530
0.818975091 0.444402277 0.324731261
0.849209011 0.459962219 0.345224380
0.877798855 0.473877251 0.366097569
0.913219631 0.492093265 0.390638620
0.302719980 0.328020066 0.176976994
0.302719980 0.328020066 0.177735955
0.307527006 0.333712816 0.177735955
0.312839985 0.339278996 0.179000869
0.320177048 0.338899493 0.181403995
0.326249033 0.335863113 0.181403995
0.332068056 0.337887317 0.180645034
0.340923399 0.338393390 0.183048710
0.353320986 0.336369097 0.185325995
0.368500590 0.339405507 0.185325995
0.378114909 0.344845027 0.191145003
0.391271293 0.345350832 0.191397771
0.407590032 0.345730305 0.190638676
0.425553054 0.351549983 0.193674996
0.440733433 0.354585588 0.193674996
0.462618560 0.360025018 0.200885803
0.485642195 0.367362231 0.208475992
0.507147491 0.375458598 0.214168459
0.528399944 0.378495008 0.217204079
0.555471420 0.386843711 0.229854405
0.584187448 0.395698786 0.239848033
0.613283098 0.404554158 0.246679127
0.640733957 0.413789004 0.255913973
0.671094000 0.423023134 0.265148878
0.703984797 0.430360585 0.279064268
0.734851599 0.438077360 0.291967362
0.762176037 0.447438151 0.302340090
0.792536020 0.459582925 0.320556849
0.830107450 0.471727014 0.341176778
0.866793156 0.488678187 0.364452928
0.898545206 0.509045005 0.389373630
0.922833979 0.527261019 0.416698068
0.311827570 0.358380824 0.183048993
0.311827570 0.358380824 0.192156613
0.320430130 0.358380824 0.192915559
0.324984252 0.361543238 0.194180727
0.326881528 0.363187551 0.196457863
0.347501397 0.360151887 0.193547994
0.351043701 0.362175494 0.185958311
0.356356829 0.366856426 0.190259412
0.364453107 0.368754148 0.197469994
0.374573350 0.366729885 0.197469994
0.386843830 0.366856396 0.203289002
0.400379658 0.370145649 0.205312997
0.416698396 0.373055220 0.205819055
0.434661418 0.378874362 0.208855376
0.449841797 0.381909966 0.211890981
0.467425376 0.387349397 0.219101787
0.489942968 0.393421769 0.226691976
0.513598979 0.400126785 0.232763976
0.537507594 0.405819386 0.238456443
0.567109287 0.411638409 0.235926762
0.593042493 0.418342799 0.246173412
0.618596017 0.425047398 0.255028397
0.643769562 0.432004958 0.261985958
0.674130440 0.444148988 0.274129987
0.709044993 0.455660969 0.290196151
0.742061973 0.466540366 0.306388646
0.770777643 0.477545887 0.320303768
0.795572400 0.486907303 0.335736454
0.825933039 0.499051392 0.353953212
0.865275323 0.512966573 0.378115147
0.904111385 0.530297339 0.403921604
0.938013554 0.548513412 0.428842843
0.320935786 0.388741583 0.196331799
0.323339611 0.391144782 0.205439404
0.325489819 0.388994545 0.203794792
0.335610330 0.392536432 0.207083970
0.337887347 0.396331161 0.211258799
0.346995741 0.389247507 0.206198663
0.365085304 0.393675089 0.207716301
0.366476983 0.395066410 0.203541979
0.371790111 0.398861706 0.209613994
0.380898505 0.399114311 0.209613994
0.397722989 0.398987800 0.213029802
0.411891252 0.401012063 0.219101787
0.425933003 0.402909786 0.218722150
0.441872030 0.406198740 0.219228223
0.461353391 0.409234345 0.222264379
0.478937596 0.409866780 0.222896799
0.495635390 0.414420962 0.230486989
0.517899930 0.421505541 0.238456562
0.543959677 0.432890773 0.249841809
0.569006741 0.438962787 0.254775345
0.595572472 0.445034772 0.257431984
0.622897148 0.452118933 0.267552137
0.651486278 0.459709108 0.275268793
0.679569840 0.469576389 0.287412792
0.709930599 0.481720388 0.304111362
0.744718611 0.491081774 0.318153083
0.776090920 0.501201808 0.331815332
0.804174662 0.512207389 0.348893106
0.828968823 0.523971975 0.359518856
0.857558310 0.541429162 0.388361543
0.894244194 0.557874560 0.415812582
0.929158807 0.574572802 0.438583195
0.334598392 0.422137976 0.206957996
0.337634385 0.423655778 0.216065601
0.336116403 0.420872748 0.215939179
0.341682315 0.420367151 0.214927182
0.350411177 0.429348409 0.223782539
0.354585916 0.428210109 0.223403186
0.367235988 0.425680190 0.221884862
0.377103180 0.426945001 0.223276183
0.380898267 0.427704096 0.223276183
0.391524673 0.430739909 0.223276183
0.404806972 0.429348201 0.224667862
0.424035251 0.434408456 0.229727998
0.438077301 0.435167819 0.234661639
0.450727403 0.435041338 0.232637376
0.470714569 0.438076943 0.234408602
0.488045603 0.440227568 0.236558989
0.504744172 0.441745371 0.238077179
0.522453904 0.446046770 0.244149178
0.549778998 0.459456176 0.256672978
0.574320078 0.466287196 0.263503999
0.600126266 0.473877370 0.274130166
0.626439095 0.478937268 0.282226175
0.658950031 0.486907005 0.291840494
0.684883058 0.494623721 0.302593201
0.714484334 0.506009161 0.319291353
0.746236801 0.515370190 0.333333433
0.778621197 0.523466229 0.343453258
0.807969868 0.537634134 0.360657871
0.833016992 0.549778581 0.376976550
0.860594332 0.564199388 0.397469521
0.889689803 0.584566414 0.431245744
0.923086822 0.600379407 0.453763187
0.350284994 0.455407560 0.217457548
0.355218172 0.457305133 0.225932747
0.353700131 0.454901695 0.227703899
0.352055699 0.451992273 0.225932971
0.360784560 0.454649121 0.231625527
0.366856575 0.465781152 0.240227923
0.377355963 0.464642525 0.240480810
0.386464238 0.460847408 0.238456562
0.390639067 0.458696634 0.239089131
0.405819446 0.461733013 0.239089131
0.415812701 0.459582239 0.238456562
0.431751817 0.462744802 0.242504567
0.450221270 0.469196618 0.248070627
0.462619007 0.466666996 0.250853986
0.480455548 0.469702691 0.250853986
0.496900797 0.472106338 0.253889740
0.513346136 0.474509925 0.256293148
0.529158950 0.476913124 0.258696973
0.556483448 0.486021519 0.264768958
0.581024647 0.492346555 0.272106141
0.605945349 0.500316322 0.282605708
0.634281874 0.508032978 0.297406554
0.664642572 0.511448145 0.309424073
0.689943254 0.518532097 0.318532467
0.717520595 0.527261078 0.333206564
0.748640001 0.538520098 0.347880632
0.781025052 0.545604110 0.359519124
0.808349431 0.563567102 0.375078976
0.833649576 0.575205624 0.395572364
0.861479938 0.589753270 0.419734299
0.890828609 0.603921175 0.444528550
0.924225032 0.622137964 0.471852988
0.356357008 0.476660043 0.244782016
0.368501008 0.485768408 0.250854015
0.373434782 0.489816755 0.255028725
0.374446988 0.490828961 0.253763646
0.375964999 0.491082013 0.249841571
0.382036984 0.491082013 0.252877951
0.390638679 0.494623691 0.256420344
0.401644439 0.495256037 0.255661249
0.411512017 0.495002985 0.254396081
0.417963505 0.495129526 0.257305950
0.430234045 0.495256037 0.254396111
0.444149256 0.495002985 0.257685006
0.459835649 0.498039037 0.263756990
0.474763066 0.503099084 0.269070029
0.489943445 0.506135464 0.269070029
0.507780015 0.506767988 0.273877025
0.527261198 0.507021010 0.276659995
0.547374964 0.507274032 0.276913017
0.565591097 0.507273972 0.276913047
0.590132833 0.513599038 0.288551748
0.612523794 0.521568775 0.298292220
0.637318254 0.529664993 0.309930176
0.667678952 0.535736978 0.324604511
0.698038995 0.547881007 0.333712906
0.723339617 0.552688241 0.345098019
0.750917256 0.562049687 0.357747972
0.781025052 0.575964987 0.371663183
0.808349431 0.588109016 0.395951927
0.835673809 0.595445991 0.416824818
0.864516318 0.609108031 0.439848393
0.893105924 0.624414623 0.461733341
0.918152988 0.634282053 0.477925032
0.384692997 0.539658487 0.280455738
0.385704994 0.540417492 0.280961722
0.391397774 0.540923297 0.282732725
0.394434184 0.540164530 0.283871353
0.396711379 0.538646758 0.280835062
0.402783394 0.538646758 0.276660651
0.411385059 0.541176379 0.282226712
0.422137797 0.542567730 0.285515636
0.434282362 0.542567730 0.285515368
0.444402367 0.542567730 0.286527485
0.453510731 0.545351148 0.292093515
0.467678964 0.543326855 0.289057672
0.482859075 0.543706417 0.292852730
0.497786105 0.547628105 0.298165709
0.510436773 0.548134208 0.295635372
0.530424178 0.551169991 0.302846164
0.549019754 0.551549375 0.306261748
0.567741930 0.551549375 0.307526737
0.583807707 0.551549375 0.311827749
0.602023780 0.554332733 0.314611107
0.632005215 0.558507502 0.319165379
0.656799912 0.564832687 0.326628715
0.681720853 0.571031153 0.340037853
0.709424734 0.580518365 0.354459286
0.739784718 0.590385675 0.368121654
0.763693631 0.597217023 0.384946376
0.788867772 0.608602464 0.402783155
0.813915431 0.618469715 0.424794614
0.841239810 0.633269846 0.443769693
0.870335340 0.646805763 0.464895517
0.900695920 0.663251042 0.493485183
0.928779006 0.674256742 0.525743127
0.403668463 0.577988744 0.299810261
0.403668463 0.577988744 0.299810261
0.407716483 0.581530750 0.299810261
0.408222556 0.578494310 0.301075429
0.410373271 0.576976538 0.303225994
0.416445255 0.581530690 0.306261986
0.432637423 0.576470435 0.304617733
0.436811745 0.582795441 0.312334001
0.449462444 0.582795560 0.313598722
0.463883728 0.581657171 0.311321735
0.471220851 0.582669318 0.315243483
0.486274511 0.585452199 0.317141026
0.500316501 0.582416117 0.316382110
0.514737487 0.583934426 0.321695000
0.528526127 0.585578740 0.323592305
0.545983791 0.586084664 0.328273267
0.567236185 0.589120626 0.334345281
0.585831702 0.589500189 0.335989714
0.602276981 0.589500189 0.342061728
0.624035478 0.592283070 0.343453318
0.642251492 0.593421757 0.348387003
0.670588553 0.597469985 0.349399120
0.691082001 0.603542030 0.359139711
0.716635108 0.610879302 0.376090884
0.744338989 0.618089736 0.391271263
