Assets/EldamarStudio/100 Retro LUTs Pack/LUTs/cube/George LUT.cube
LUT_3D_SIZE 8
DOMAIN_MIN 0.000000 0.000000 0.000000
DOMAIN_MAX 0.903226 0.903226 0.903226
0.184313998 0.113724999 0.105881996
0.213662550 0.118026547 0.109803997
0.270462096 0.129411995 0.123086996
0.342441261 0.134471640 0.130550355
0.437191576 0.145730197 0.145098001
0.546362698 0.172422469 0.166603252
0.678304553 0.214674279 0.201264992
0.816192567 0.268184811 0.252498806
0.219228446 0.146615997 0.121189453
0.236052990 0.146995559 0.122327998
0.278305084 0.154459104 0.132953539
0.345224649 0.163820088 0.138013899
0.434155196 0.179886341 0.151296809
0.542947292 0.205312997 0.171663284
0.674889266 0.241998985 0.206072003
0.808601975 0.294244230 0.259962261
0.247059003 0.204554006 0.137254998
0.259076536 0.208476007 0.143073544
0.292346984 0.205313087 0.150537997
0.364832640 0.225300550 0.150410995
0.449715286 0.245161280 0.166856185
0.554965079 0.276533991 0.198608637
0.684629977 0.311828077 0.227957278
0.821252406 0.364959091 0.290701807
0.288045645 0.292093277 0.165338293
0.301707983 0.297912717 0.160910636
0.336116195 0.303478718 0.178747997
0.390132993 0.310057282 0.178241640
0.471220821 0.337128609 0.193801641
0.568248153 0.365338653 0.222390980
0.690575898 0.399746925 0.261353552
0.818975091 0.444402277 0.324731261
0.334598392 0.422137976 0.206957996
0.350411177 0.429348409 0.223782539
0.380898267 0.427704096 0.223276183
0.438077301 0.435167819 0.234661639
0.504744172 0.441745371 0.238077179
0.600126266 0.473877370 0.274130166
0.714484334 0.506009161 0.319291353
0.833016992 0.549778581 0.376976550
0.403668463 0.577988744 0.299810261
0.410373271 0.576976538 0.303225994
0.449462444 0.582795560 0.313598722
0.500316501 0.582416117 0.316382110
0.567236185 0.589120626 0.334345281
0.642251492 0.593421757 0.348387003
0.744338989 0.618089736 0.391271263
0.851106763 0.659835577 0.468437672
0.492725998 0.713598967 0.415559560
0.505755544 0.717520535 0.416192532
0.538013577 0.721441984 0.430360377
0.581910253 0.720809519 0.441872209
0.635294437 0.720683098 0.450853556
0.699683547 0.725363553 0.463883728
0.776344001 0.735483825 0.492346257
0.862491965 0.760910809 0.540796638
0.643769741 0.851486564 0.596710742
0.647817910 0.859709024 0.595951617
0.666540027 0.863756895 0.601897597
0.700695813 0.861859620 0.606957197
0.738772929 0.868437767 0.614927411
0.790891767 0.872359455 0.636685491
0.848576605 0.878558040 0.650853813
0.908918619 0.884123802 0.676407635
0.196078002 0.122707449 0.130171001
0.216824546 0.118405998 0.130171001
0.273244649 0.138393447 0.143832639
0.330677003 0.146995649 0.159519449
0.424288541 0.161416799 0.175585181
0.532700479 0.187223285 0.195572361
0.660594702 0.223276287 0.229222015
0.806704283 0.274509519 0.282858789
0.212903470 0.154079556 0.133712545
0.229727998 0.158001453 0.142694101
0.271221071 0.159899011 0.147754550
0.338519990 0.171283633 0.162302196
0.418343186 0.190132558 0.179506794
0.530803204 0.213915110 0.203415737
0.656925976 0.246679097 0.232131720
0.792662621 0.295635521 0.282099783
0.253636658 0.199873090 0.163440555
0.265781075 0.210878998 0.171410441
0.295129567 0.209235102 0.163061097
0.358128071 0.221758187 0.173181176
0.441113204 0.244022638 0.187223271
0.543326855 0.275775105 0.213029891
0.671979725 0.314104885 0.248197183
0.808728635 0.365591139 0.311574966
0.280455291 0.294497281 0.183681443
0.302972615 0.294497281 0.189627007
0.334598154 0.293231815 0.191524550
0.381909847 0.305376142 0.194560543
0.463757187 0.329664350 0.216065988
0.564326167 0.357874572 0.238836184
0.681467414 0.395825624 0.280708343
0.807463408 0.441619366 0.338899255
0.333080173 0.411132365 0.230613530
0.350284398 0.415180206 0.239342541
0.382542908 0.421379179 0.244528890
0.432257712 0.428463101 0.249968201
0.496142000 0.436685711 0.259203196
0.589879632 0.465275198 0.288931102
0.705123484 0.500569463 0.329664469
0.827956855 0.545224190 0.392789245
0.400505990 0.569513142 0.314864010
0.405819088 0.568247914 0.315117002
0.446932644 0.571789980 0.324098468
0.494623721 0.577609241 0.332321227
0.566729724 0.580518484 0.347628266
0.636432767 0.588994265 0.359645724
0.737634242 0.614927292 0.402276993
0.846426189 0.660341561 0.473877162
0.486527532 0.700062811 0.417584091
0.504364312 0.709803998 0.425300092
0.532320917 0.708918273 0.430107534
0.572802126 0.710056961 0.443769753
0.631752014 0.716761470 0.461859554
0.697659731 0.721821606 0.475774527
0.770145297 0.731309295 0.493611813
0.852751434 0.756609857 0.546742380
0.622896791 0.854775608 0.590132594
0.645034790 0.861606300 0.595698893
0.664263248 0.857305527 0.598482072
0.697786212 0.860594749 0.611638188
0.737760544 0.862492144 0.619734287
0.788361967 0.869702637 0.637950599
0.847058773 0.872738898 0.656293392
0.910689175 0.887412608 0.675142169
0.210120097 0.130170897 0.174826086
0.227324188 0.133712545 0.169639558
0.271221012 0.139532089 0.170778006
0.331436098 0.153320551 0.191650733
0.419228286 0.170145184 0.207590193
0.527640820 0.199873477 0.238963082
0.653257549 0.238076985 0.280455112
0.794307530 0.296647549 0.336622179
0.229728088 0.154838547 0.162681550
0.246173099 0.158381000 0.170019105
0.279443562 0.163440555 0.180645436
0.340543717 0.174826086 0.194686636
0.421632081 0.192789093 0.219101638
0.521695197 0.222896725 0.249968097
0.645794034 0.257685006 0.280455112
0.783681095 0.314484537 0.332700759
0.261986077 0.202150181 0.178494275
0.276028007 0.212776646 0.185325652
0.308032990 0.213915199 0.198228985
0.362049192 0.227957174 0.217457548
0.435673386 0.255408108 0.234282270
0.536369741 0.284756750 0.264010102
0.662618577 0.323466182 0.302213877
0.800758958 0.374193758 0.359013021
0.306515008 0.291334361 0.226312369
0.315117091 0.294497192 0.223150179
0.340923280 0.300316632 0.233775839
0.387855977 0.308159530 0.238836184
0.462618858 0.332068264 0.257937849
0.554459333 0.362175703 0.288172275
0.672106266 0.402150720 0.326122701
0.806325018 0.450094640 0.382795542
0.349651992 0.407969564 0.270841300
0.354965210 0.419607759 0.278052002
0.386464179 0.423023373 0.285895079
0.432637185 0.427324563 0.292599648
0.495256066 0.434788376 0.300822169
0.589120448 0.465781003 0.328020155
0.701960444 0.497406453 0.372802079
0.814041793 0.551296711 0.432258278
0.407716721 0.565464497 0.356735826
0.418216258 0.566350281 0.359772027
0.448324084 0.569006801 0.361416727
0.496268004 0.570651591 0.370777845
0.560910583 0.578874350 0.381277442
0.634661496 0.587349474 0.396963954
0.732953906 0.614041746 0.439595103
0.841998577 0.657178998 0.502213836
0.497406453 0.698039114 0.450221390
0.511068821 0.705376089 0.457685113
0.538899601 0.704237700 0.464389563
0.577988565 0.710563183 0.474130303
0.633649588 0.712840080 0.486780375
0.697280109 0.719924152 0.501454830
0.771663487 0.730929852 0.523086667
0.856546223 0.759013414 0.573434174
0.640227497 0.852245450 0.608601928
0.646299720 0.855661094 0.614547610
0.664136708 0.856166661 0.624288440
0.696394682 0.858190954 0.629348397
0.740923405 0.859456122 0.632131457
0.788867533 0.864895523 0.650980294
0.846932232 0.872232914 0.668437779
0.917267561 0.880961359 0.696774065
0.224667639 0.130550355 0.233775914
0.249715552 0.138013899 0.237318173
0.286907107 0.146236643 0.244149536
0.345730275 0.158001363 0.242125288
0.427450836 0.174067184 0.271094173
0.529158831 0.201011837 0.305882514
0.654648900 0.243896335 0.346362978
0.788867831 0.313978642 0.400632620
0.245413989 0.163440645 0.238330096
0.260721445 0.166224003 0.226312175
0.295509100 0.171663180 0.235041082
0.347627640 0.183048636 0.249968290
0.425427198 0.202277094 0.272232801
0.528020144 0.226312280 0.305503070
0.645920098 0.270588458 0.350031376
0.781910241 0.332447618 0.402403623
0.264516443 0.220619738 0.246805996
0.286527544 0.222137645 0.254269540
0.324604988 0.226059541 0.262112647
0.368374199 0.239342555 0.267931998
0.443896532 0.262492090 0.294117749
0.535483837 0.290575266 0.326502353
0.661606550 0.336875290 0.371030629
0.795951724 0.394307524 0.428715914
0.306515008 0.298798651 0.282479644
0.321821660 0.303478628 0.281088084
0.357748568 0.319164842 0.298671633
0.407463282 0.335230976 0.310562640
0.467678398 0.349272460 0.320936173
0.561163723 0.375205368 0.353953183
0.674383521 0.412650287 0.393674850
0.792156935 0.467425674 0.447944075
0.350031525 0.421758533 0.335484117
0.364832520 0.426945001 0.337128639
0.399367601 0.435293853 0.351802379
0.442758083 0.435926735 0.356862605
0.503478825 0.447691649 0.362681985
0.592409968 0.472359180 0.391650975
0.697659791 0.509171247 0.431119621
0.812397122 0.560025275 0.488298804
0.415812761 0.566856623 0.415180355
0.432637393 0.569513142 0.419481635
0.461480260 0.569133520 0.421758533
0.507273614 0.575837970 0.429727733
0.566856503 0.583301961 0.439974815
0.639721751 0.589500189 0.453130722
0.733712733 0.617710292 0.493738115
0.840607226 0.665781379 0.553573608
0.512966275 0.701201499 0.509677231
0.525110841 0.706388712 0.507020891
0.545983434 0.706261933 0.509804070
0.582415879 0.710183680 0.519164979
0.636179566 0.714104950 0.529158890
0.696141660 0.721947908 0.541555941
0.773560941 0.727640808 0.561796188
0.857431948 0.763440788 0.608981729
0.636052907 0.852624953 0.634787738
0.648576736 0.854648590 0.641872466
0.666793108 0.853257537 0.645540774
0.699557185 0.856420159 0.651992440
0.740670443 0.859456122 0.662365437
0.788867712 0.865401685 0.675268829
0.846046567 0.871853411 0.693864226
0.911574781 0.884123743 0.714357734
0.246172994 0.141176000 0.342188179
0.267805457 0.144212380 0.338772744
0.312839985 0.150411099 0.339911282
0.364705622 0.164326459 0.338267177
0.434155166 0.181910187 0.346995175
0.536242962 0.208728731 0.383428127
0.654016495 0.252245575 0.420620173
0.790259421 0.320935965 0.475142360
0.267805457 0.177102983 0.331561923
0.282605827 0.185831994 0.333586216
0.315369725 0.187349990 0.328020364
0.370651275 0.194686726 0.333586305
0.435293823 0.206072181 0.345351189
0.528399944 0.240860343 0.381024927
0.649335802 0.279570013 0.421758503
0.784693360 0.340417653 0.476913363
0.296268195 0.237444982 0.339784980
0.302972525 0.244781643 0.345604002
0.337760925 0.249968097 0.341429263
0.385579020 0.253383845 0.350917190
0.447438389 0.268691063 0.363441050
0.542061985 0.298039347 0.398735076
0.661100388 0.343833089 0.442504644
0.786843836 0.405945808 0.494117647
0.322960109 0.319923848 0.360151380
0.337128103 0.322707266 0.370145530
0.371916443 0.334345281 0.374320269
0.419228286 0.346110284 0.384440184
0.479063630 0.360657603 0.396205187
0.564705551 0.390385836 0.423908800
0.672106564 0.427197933 0.462745249
0.789500117 0.481087893 0.513599217
0.359898984 0.423656166 0.398861200
0.376723528 0.431245953 0.409993827
0.409867287 0.444149196 0.415939271
0.462745011 0.463377744 0.442251801
0.525869370 0.477925360 0.454395950
0.606071949 0.493105829 0.468058109
0.700442493 0.522454262 0.502846241
0.811638355 0.567868352 0.560531020
0.431372553 0.569513202 0.485262722
0.445540845 0.569513142 0.483491302
0.477166474 0.575331926 0.493485212
0.522580564 0.584819794 0.501328170
0.576976895 0.589500248 0.504870653
0.646046877 0.599241018 0.520936131
0.733712852 0.627450943 0.554459393
0.835167646 0.674383223 0.600758970
0.529664278 0.698798180 0.561669827
0.531056285 0.707906663 0.567109168
0.553953171 0.710563183 0.566982567
0.589500129 0.712460637 0.568247914
0.644781768 0.715243280 0.580392301
0.701201737 0.724730968 0.592535973
0.765464544 0.735483825 0.604554415
0.859202862 0.767994881 0.654522419
0.635673821 0.849968374 0.680075824
0.649335802 0.852118790 0.676533937
0.665781140 0.853130639 0.681720376
0.695509255 0.855154932 0.686401010
0.738267004 0.862112582 0.697786093
0.784566700 0.867299139 0.706894159
0.845667064 0.872359455 0.721821606
0.911954641 0.882858574 0.743959546
0.264516264 0.158760265 0.467805207
0.287286550 0.160658002 0.465528011
0.335357100 0.167235836 0.465528190
0.395319521 0.181783900 0.471853197
0.467552394 0.199367538 0.468184650
0.546236694 0.223276466 0.471600175
0.663757265 0.258317262 0.504617274
0.797849476 0.332194775 0.552055538
0.283870995 0.193927541 0.450094461
0.305502772 0.193801537 0.448070705
0.337002099 0.203288838 0.456925809
0.402024060 0.211891443 0.460468262
0.466919452 0.222391173 0.462871462
0.542062223 0.244402081 0.469955444
0.656420290 0.281847060 0.503225923
0.785325706 0.345477670 0.548766434
0.308538646 0.264642447 0.467805207
0.320050538 0.270588547 0.459076911
0.357748359 0.274004072 0.463504463
0.414927453 0.276407182 0.467805088
0.481467634 0.294117719 0.475015849
0.555344582 0.308159411 0.480328828
0.667299390 0.349651903 0.518659055
0.796204746 0.412523597 0.567615509
0.337254733 0.349525630 0.472865462
0.353953451 0.356609643 0.478304446
0.386717558 0.358254015 0.481467396
0.432890534 0.367995262 0.478684187
0.496521175 0.379759461 0.492599368
0.573561132 0.393422008 0.504996598
0.680581748 0.424288303 0.534218788
0.794054449 0.489310354 0.582542360
0.376850188 0.449082702 0.498165637
0.383554637 0.461227268 0.496394664
0.420366734 0.460847706 0.512207329
0.473244995 0.478937656 0.523339391
0.540923417 0.489563376 0.530676961
0.613788903 0.505502939 0.548387170
0.706261754 0.534597993 0.576470554
0.810120046 0.577861786 0.619607627
0.438836008 0.575837970 0.546489716
0.450727552 0.575711489 0.551802695
0.482479393 0.582795560 0.560404718
0.535990000 0.593801439 0.569386363
0.598987758 0.608349144 0.589120626
0.660088718 0.620746255 0.599114418
0.739531517 0.639215529 0.621505260
0.838203609 0.674003839 0.662112594
0.516255677 0.702972710 0.616318762
0.541682780 0.703731775 0.620999455
0.564453006 0.710436463 0.624541163
0.602403581 0.713219523 0.640227854
0.648323655 0.720683098 0.649588704
0.706261992 0.726628721 0.649082482
0.770145237 0.740670025 0.667299271
0.863630712 0.777356088 0.712966204
0.648070872 0.848070860 0.726501882
0.659582496 0.846426368 0.725995958
0.671726704 0.848323643 0.733586192
0.697912395 0.858443737 0.735736787
0.726122618 0.859835684 0.735357285
0.781024516 0.863250911 0.750410974
0.841113210 0.872612298 0.762049496
0.907653451 0.883617699 0.776090682
0.294749975 0.185578987 0.626312256
0.317394286 0.187223285 0.622137785
0.365970999 0.195951894 0.624794483
0.434408933 0.207969636 0.618975163
0.512207508 0.227957085 0.617710352
0.599746704 0.248197466 0.620620012
0.696268320 0.280328989 0.619481564
0.800126195 0.341555774 0.640987098
0.297027111 0.220746279 0.601012111
0.322960019 0.226438999 0.611132026
0.366097182 0.232637286 0.611638427
0.437697947 0.242884189 0.609740853
0.512966454 0.259203196 0.612270594
0.598102629 0.280328989 0.613915265
0.685641944 0.301454991 0.614674270
0.790132761 0.355724156 0.641745687
0.322201192 0.299177885 0.610752583
0.340923190 0.302972794 0.609108448
0.384060800 0.306894362 0.609108448
0.444149196 0.316255569 0.611385345
0.521695197 0.331309199 0.615433455
0.607084215 0.346869171 0.618975222
0.693864465 0.369513303 0.622390866
0.802150607 0.422011346 0.652624786
0.353699923 0.392536193 0.612270594
0.372928292 0.394180924 0.614927053
0.407337248 0.404807270 0.616445065
0.466919571 0.407589912 0.613409162
0.535357177 0.418975234 0.618216336
0.616065860 0.426691979 0.620619953
0.700189531 0.447438210 0.629728198
0.800885260 0.494876623 0.656166732
0.393169194 0.493991166 0.625553370
0.414168656 0.499304116 0.627451122
0.448830098 0.506008983 0.630360544
0.500316620 0.509171247 0.634788036
0.564832211 0.513093054 0.635294259
0.640480757 0.525616765 0.643769801
0.718279243 0.541935205 0.651612878
0.816445351 0.585199237 0.687792361
0.465401292 0.610499740 0.660215318
0.479190558 0.612650454 0.667046189
0.505250037 0.614927351 0.660341382
0.555597544 0.617710292 0.669449687
0.609866917 0.627450943 0.675268710
0.673118234 0.637318254 0.682732761
0.748134017 0.653004766 0.700189531
0.836938679 0.687539279 0.729917526
0.526375294 0.711954236 0.694623530
0.539278865 0.708032846 0.683364987
0.563946724 0.711322308 0.689184189
0.603162587 0.720303655 0.700695932
0.651739597 0.728526413 0.713598967
0.722453952 0.747880995 0.731436014
0.788108528 0.760657549 0.737128556
0.869196415 0.786211371 0.769133210
0.654269159 0.845287859 0.776090682
0.660721064 0.848829746 0.779759765
0.675901532 0.849335909 0.777356088
0.704490840 0.852624953 0.787729442
0.741682529 0.859456122 0.793801069
0.783428192 0.867678821 0.800252736
0.842378080 0.876913488 0.813662231
0.910689175 0.884503305 0.821758330
0.324351668 0.235546961 0.787476420
0.340543538 0.240733802 0.780897915
0.402024001 0.250094801 0.785578668
0.473497629 0.266793162 0.787602961
0.563946664 0.289816588 0.784819603
0.663504422 0.320809543 0.785325706
0.756609857 0.357115805 0.782289624
0.850347638 0.401770771 0.779632747
0.339911163 0.274383247 0.780518472
0.353952974 0.281847268 0.774699330
0.402656645 0.282479614 0.778114855
0.475901425 0.301707506 0.774952412
0.566223681 0.318026572 0.779253304
0.659456015 0.346616030 0.780138910
0.752688110 0.379000485 0.773434162
0.844528913 0.418216467 0.779253304
0.354838639 0.357115746 0.774319589
0.383807451 0.358633727 0.780138910
0.421125919 0.368374348 0.776976585
0.491208255 0.379253715 0.776090920
0.578368187 0.391777098 0.774825931
0.670588434 0.413156033 0.780139029
0.758507192 0.439595193 0.782036722
0.849335670 0.470840871 0.786717355
0.396837413 0.454396099 0.764452934
0.416698456 0.457305253 0.775458515
0.456546515 0.463630468 0.776344061
0.518785417 0.471473813 0.773940206
0.595698714 0.479569823 0.778874040
0.674256563 0.492726058 0.779253602
0.755471170 0.507400274 0.776344001
0.844655395 0.534598172 0.783428192
0.448323995 0.557621837 0.775584936
0.468184710 0.560025394 0.786590815
0.496521175 0.560277998 0.780518651
0.547248542 0.567362309 0.779759586
0.613282681 0.572928309 0.784946442
0.683997512 0.581404090 0.787476420
0.769133687 0.595192850 0.791524291
0.859708786 0.612397313 0.796710849
0.520936072 0.669576585 0.798608482
0.531688809 0.670461535 0.799873233
0.550411046 0.668437898 0.794813514
0.592030466 0.670335412 0.798987627
0.643137455 0.670082092 0.799367189
0.702972949 0.677545547 0.801011860
0.782163143 0.688171983 0.806324840
0.863756835 0.704996467 0.819228470
0.572801769 0.762555063 0.815686047
0.586463869 0.768121362 0.813282967
0.605819046 0.766097546 0.812903523
0.639595091 0.772295952 0.813915312
0.681973696 0.772422314 0.817457259
0.739911020 0.777735531 0.825047374
0.803288937 0.786211371 0.833270073
0.881340563 0.801391542 0.848703325
0.655534387 0.860594749 0.839721620
0.664769232 0.864009976 0.853130996
0.681087852 0.866666853 0.848197520
0.706135213 0.868437767 0.850221455
0.742314756 0.868437767 0.849968374
0.796204805 0.874256670 0.862618506
0.849209666 0.884123802 0.877799034
0.911448598 0.902466536 0.885388911
