Assets/EldamarStudio/100 Retro LUTs Pack/LUTs/cube/Gerald LUT.cube
DOMAIN_MIN 0 0 0
DOMAIN_MAX 1 1 1
LUT_3D_SIZE 32
0.109803997 0.090195999 0.074510001
0.128019989 0.090195999 0.080582000
0.152687773 0.092346773 0.080202229
0.180012479 0.091587998 0.078431003
0.207717001 0.086274996 0.079190098
0.238077000 0.086274996 0.085262865
0.270967960 0.088804677 0.086274996
0.299430996 0.090195999 0.084630288
0.324478120 0.089437097 0.082353003
0.351802528 0.086401477 0.082353003
0.376217753 0.089184128 0.079443134
0.408602506 0.092220254 0.084503256
0.445034981 0.094117999 0.090195999
0.480961055 0.094117999 0.089943029
0.511321843 0.094117999 0.086907417
0.546489596 0.094117999 0.088678189
0.584440172 0.095635802 0.090195999
0.623276114 0.098671578 0.089563586
0.659708977 0.101707965 0.086527973
0.690575719 0.099177644 0.089057647
0.724731445 0.099936739 0.088298738
0.760152102 0.102972873 0.086274996
0.793421984 0.105881996 0.086274996
0.823782802 0.105881996 0.086274996
0.854142964 0.105881996 0.088551708
0.884503305 0.107273668 0.087413013
0.914864123 0.110309929 0.082353003
0.945224881 0.113345541 0.082353003
0.980897963 0.113724999 0.087665990
0.997849226 0.117267430 0.090195999
0.997343421 0.121569000 0.089310616
0.988234997 0.121569000 0.086274996
0.115875997 0.111448385 0.083618388
0.134091988 0.108411998 0.074510001
0.156609535 0.110562772 0.076281004
0.183048546 0.112333998 0.081720553
0.209614173 0.110183448 0.090575777
0.232005000 0.107526615 0.091334864
0.262365609 0.110056937 0.082226358
0.295256317 0.113093093 0.086780638
0.324478120 0.113725677 0.089943394
0.351802528 0.110689476 0.085389383
0.382036746 0.110562995 0.085389383
0.410626501 0.111448385 0.082479514
0.442757994 0.112333998 0.085262641
0.475395054 0.112587027 0.087413356
0.511321843 0.115370385 0.089943029
0.544085801 0.112966582 0.086907417
0.576849997 0.112333998 0.087160386
0.611764550 0.114484377 0.087792799
0.650600612 0.119923964 0.089563578
0.692599416 0.120176993 0.086527966
0.722074389 0.117394127 0.087160386
0.757115483 0.118153259 0.088298991
0.796457648 0.121062383 0.091967493
0.826818466 0.121062383 0.083238617
0.859455943 0.123339668 0.087792613
0.890575290 0.124098770 0.090195999
0.920936108 0.124984384 0.087919071
0.951296866 0.125490308 0.085389383
0.981656969 0.125869766 0.090702370
0.997849226 0.129411757 0.087919191
1.000000000 0.133712992 0.085894987
0.997343361 0.133712992 0.089310609
0.117647000 0.132700771 0.079823226
0.138013780 0.133965939 0.079316847
0.160531312 0.130929545 0.085262775
0.184819773 0.132700771 0.082732774
0.211638093 0.132700771 0.089816995
0.238203704 0.131435618 0.089816995
0.264895648 0.129158318 0.083997361
0.291966975 0.132194713 0.080075711
0.322327524 0.133712903 0.088425323
0.349652290 0.130676523 0.086527996
0.382036746 0.132700771 0.086274996
0.412397504 0.132700771 0.086274996
0.442757994 0.132700771 0.085642129
0.472865045 0.132447749 0.087919228
0.503605068 0.131688640 0.085262582
0.544085801 0.134218976 0.089943036
0.575964391 0.132700771 0.086907424
0.608855128 0.132700771 0.085642420
0.649841785 0.135736778 0.085642032
0.687792540 0.136242777 0.089563578
0.722706795 0.136242777 0.088425227
0.751296282 0.134471998 0.087413356
0.788994014 0.136369288 0.089816995
0.823402822 0.138393551 0.086780861
0.851739287 0.140670285 0.084756769
0.885135651 0.140923679 0.086654097
0.916255355 0.140164778 0.085895002
0.946616054 0.140164778 0.084503680
0.976976693 0.144465774 0.085136212
0.996710658 0.144465774 0.087666228
0.998229027 0.149778768 0.084123991
0.995698988 0.152308777 0.090195999
0.120177001 0.156483158 0.079569995
0.140164554 0.158254385 0.080075935
0.158507377 0.156989545 0.079443224
0.185326159 0.156483158 0.091587998
0.209993705 0.156103700 0.085515901
0.239468873 0.155218318 0.083744675
0.269829333 0.155218005 0.085009515
0.295508981 0.152941033 0.082605712
0.320556283 0.154459223 0.083365008
0.347881496 0.151422828 0.084883317
0.379759699 0.154206187 0.085009836
0.412397504 0.155218318 0.087539837
0.443896651 0.155218318 0.086401485
0.474130183 0.154965281 0.088678129
0.501454592 0.151928902 0.083618008
0.539531589 0.152434975 0.087159999
0.577229559 0.156483158 0.086147875
0.608222723 0.156483158 0.085009828
0.648829997 0.156483158 0.083871201
0.685768723 0.157748312 0.087919004
0.718406022 0.155218318 0.087665997
0.751802385 0.156230181 0.088678122
0.782669127 0.156483158 0.086401477
0.814547658 0.158380896 0.087539837
0.844149113 0.158887029 0.085009836
0.872991621 0.160404846 0.087413326
0.905882120 0.157875165 0.084377073
0.936242819 0.157875165 0.083618164
0.967868507 0.161922991 0.083618164
0.991397977 0.165718168 0.082353003
0.997343421 0.166603550 0.084123991
0.990891814 0.172296003 0.090195999
0.126628548 0.183428094 0.089816548
0.143327221 0.184187084 0.087919384
0.158381015 0.181657314 0.078431450
0.176976785 0.181151375 0.075648323
0.206957996 0.183428079 0.085515901
0.234282389 0.180392474 0.079443134
0.266666770 0.182795763 0.086021319
0.295129538 0.182163253 0.090195999
0.319797188 0.179506987 0.088678002
0.347122401 0.176470593 0.082606003
0.378114998 0.178874403 0.083112001
0.409740657 0.179506987 0.086021550
0.443137646 0.179506987 0.088678099
0.476534039 0.179506987 0.086401448
0.504111409 0.176597118 0.083744586
0.540290773 0.176723540 0.086780548
0.577103019 0.178621083 0.086780354
0.610879540 0.183807537 0.079696156
0.644276023 0.183807537 0.085768938
0.679696739 0.186211348 0.088298649
0.713092983 0.183934540 0.086401008
0.744971275 0.180139408 0.082985580
0.784060895 0.183048546 0.085895449
0.808854997 0.183048546 0.088678099
0.836179256 0.181530833 0.086401001
0.864515841 0.179506987 0.084376991
0.894117594 0.179886535 0.089310519
0.924478292 0.179886535 0.086274907
0.957874775 0.181783706 0.085515901
0.984566629 0.184819758 0.084503785
0.998481989 0.187096924 0.082985446
0.989373565 0.190132543 0.089057453
0.135736927 0.207716867 0.086780936
0.141808927 0.213788852 0.092852935
0.160657823 0.210246861 0.084503457
0.180392161 0.208475769 0.079949319
0.203921601 0.210752487 0.085515901
0.231245995 0.207716882 0.079443134
0.263630360 0.212270916 0.086021319
0.292093486 0.211258873 0.090195999
0.316381931 0.207210928 0.088678002
0.341049612 0.206831381 0.082606010
0.377102852 0.206704870 0.088171996
0.406451255 0.205186665 0.087160259
0.437065035 0.203795001 0.085642293
0.470462024 0.203795001 0.083365068
0.503858447 0.203795001 0.089437060
0.536242783 0.208095908 0.086780809
0.572169363 0.208602130 0.088298738
0.608096182 0.208349288 0.088045515
0.644276023 0.211131930 0.085768923
0.674889743 0.211131930 0.083491646
0.710057020 0.209740743 0.083365001
0.742441118 0.206198812 0.082353003
0.771916091 0.204300940 0.082859069
0.802276969 0.204300940 0.082859069
0.833902240 0.206578225 0.087918997
0.863503993 0.205819249 0.086401016
0.890828907 0.204301059 0.083365001
0.915369928 0.207210928 0.083238527
0.951043665 0.204554111 0.080202237
0.979885936 0.206072152 0.081214353
0.997469664 0.207337335 0.081467398
0.998481929 0.205312937 0.079949066
0.142315000 0.239595324 0.091334999
0.153447002 0.243137628 0.092346996
0.170271769 0.244908631 0.094117999
0.190259323 0.243390471 0.088551641
0.211005867 0.245667174 0.090955451
0.238330260 0.242631570 0.087033451
0.263124317 0.244655311 0.083491638
0.294876397 0.247438312 0.087666318
0.322454184 0.244655311 0.088425219
0.350284666 0.244655311 0.087666005
0.378621042 0.239595324 0.088172004
0.417077541 0.241619572 0.092220254
0.447564602 0.240733951 0.090196356
0.479823053 0.240986913 0.087160029
0.515496731 0.243263632 0.086401314
0.553700089 0.243263632 0.087666318
0.587349534 0.246046633 0.083238617
0.623402715 0.244655311 0.082605682
0.661733329 0.245793670 0.081467323
0.695129752 0.246046633 0.080961324
0.727387726 0.246046633 0.083618157
0.761163592 0.242631316 0.084883317
0.790132642 0.238203645 0.085009798
0.820493460 0.238203645 0.087412998
0.850853622 0.238203645 0.087412998
0.882605612 0.239595324 0.088804677
0.911575139 0.238203645 0.084883317
0.939911604 0.239215776 0.084883317
0.967235923 0.239468813 0.079696171
0.985958338 0.238203645 0.080202222
0.998608351 0.239595324 0.083238609
1.000000000 0.238203645 0.083491646
0.143453285 0.268058419 0.090829000
0.157242000 0.272739083 0.094117999
0.179126769 0.271979988 0.094117999
0.192789167 0.273245156 0.085262842
0.210626394 0.275901407 0.084503844
0.239215940 0.274130613 0.089057773
0.272232711 0.272865385 0.087666318
0.296521097 0.275901407 0.084630288
0.326122820 0.275901407 0.086148284
0.355598003 0.275901407 0.090069517
0.386337876 0.273371398 0.088551708
0.416824937 0.271726966 0.088931255
0.452877700 0.273624688 0.089690357
0.484503388 0.273877650 0.087160036
0.525110781 0.276913255 0.086907417
0.559013426 0.277545691 0.086274996
0.596963704 0.279063880 0.084756806
0.631751716 0.279190391 0.081340700
0.671220958 0.279190391 0.083364703
0.703478694 0.279190391 0.078431003
0.735230744 0.279190391 0.082226478
0.768627107 0.279190391 0.083238870
0.799493790 0.274509907 0.081214786
0.828336835 0.272991687 0.081214398
0.858696997 0.272991687 0.083618008
0.890448689 0.272991687 0.086401001
0.920556486 0.272485763 0.085136354
0.949778855 0.271347404 0.086274996
0.979127049 0.271347404 0.085895039
0.995698988 0.272991687 0.078557514
1.000000000 0.272991687 0.083364896
1.000000000 0.272991687 0.087919287
0.142694190 0.294624090 0.084756806
0.159392580 0.299178094 0.090069905
0.179379880 0.300316304 0.093358904
0.201138258 0.299051166 0.088298842
0.206072092 0.302466989 0.070082545
0.234914765 0.303225994 0.083744928
0.271347404 0.299936771 0.087033898
0.301834226 0.299430698 0.084630288
0.328400105 0.301707983 0.083871000
0.355724514 0.301707983 0.089942999
0.390385866 0.302467078 0.088804863
0.421758503 0.302467078 0.087033898
0.452119172 0.302467078 0.086654350
0.482479185 0.302467078 0.083618030
0.525490105 0.304996759 0.085642412
0.561290562 0.307147175 0.086274996
0.593168974 0.307906270 0.086274803
0.630866110 0.310310096 0.081973433
0.670461893 0.310310096 0.087412894
0.701581120 0.310310096 0.082605734
0.731941581 0.308792114 0.080708288
0.762555122 0.308792114 0.083238870
0.795825005 0.308792114 0.074636482
0.823782623 0.306388289 0.072865091
0.852624953 0.304870099 0.072865285
0.883617759 0.304870099 0.075015895
0.917014182 0.305376172 0.081087902
0.944845200 0.302846521 0.084377259
0.975584924 0.300949097 0.085895151
0.993548214 0.301960945 0.086400993
1.000000000 0.304870069 0.081087604
1.000000000 0.304870069 0.090195999
0.148766965 0.328020513 0.078684032
0.170019343 0.328020513 0.081720419
0.184566975 0.330423743 0.087033518
0.201138645 0.331941485 0.087792516
0.221252486 0.332827032 0.082226552
0.239468500 0.338899046 0.085262932
0.270841479 0.334598005 0.088804670
0.297912747 0.331941485 0.086780518
0.322327316 0.332068026 0.083871000
0.355724514 0.332068026 0.089942992
0.394686848 0.334977895 0.093105860
0.427830517 0.335863531 0.091840737
0.458191276 0.335863531 0.090069510
0.488551974 0.335863531 0.089690022
0.518911898 0.335863531 0.086654410
0.557115853 0.340797007 0.086274989
0.591650963 0.343579978 0.087792791
0.624794126 0.343706489 0.088045426
0.667299032 0.343706489 0.078937031
0.698545277 0.343706489 0.081593871
0.728905916 0.339911520 0.080328740
0.759266436 0.336116523 0.077672154
0.789753020 0.336116523 0.074636474
0.820113838 0.336116523 0.077672094
0.848070800 0.333712697 0.075901285
0.876913309 0.332194507 0.073118322
0.907906592 0.332700580 0.071979515
0.941302896 0.335736960 0.078051515
0.974446297 0.330550551 0.076027870
0.993548214 0.328273535 0.080329195
1.000000000 0.329285383 0.086907350
1.000000000 0.332194477 0.090195991
0.157748133 0.361416876 0.078431003
0.167362511 0.361416876 0.078557521
0.180012897 0.367868662 0.081593908
0.196457982 0.368627608 0.083111838
0.220872760 0.365718067 0.079822682
0.251739740 0.369259745 0.082859069
0.275015742 0.367742091 0.083365135
0.305629522 0.365338624 0.082732290
0.332194865 0.366097510 0.079443134
0.361290485 0.368247718 0.081214130
0.391777724 0.368247718 0.084376998
0.427198112 0.371284127 0.085389130
0.458444268 0.372169733 0.084377006
0.488804996 0.371916711 0.083871007
0.519164979 0.369259864 0.078178547
0.551928759 0.371663690 0.079949319
0.588867605 0.374193728 0.080455258
0.622643709 0.372928739 0.081467129
0.658317864 0.368374735 0.079190023
0.689689875 0.371157348 0.072864994
0.721947849 0.369386613 0.073624134
0.753320515 0.366350740 0.071600132
0.783554494 0.366224229 0.068691000
0.811131954 0.363440871 0.068943970
0.839215398 0.361163586 0.069702871
0.867931426 0.359518886 0.071473993
0.899810195 0.359518886 0.073497869
0.938013554 0.360151440 0.074762866
0.963440776 0.355217993 0.070208885
0.988994181 0.358001173 0.075774968
1.000000000 0.358760267 0.082479529
1.000000000 0.353699863 0.081467129
0.162808269 0.394813240 0.076407261
0.180012643 0.392789513 0.074383005
0.193169013 0.399240762 0.078557521
0.202277079 0.403289139 0.077798747
0.222770095 0.399114698 0.074762553
0.251233518 0.402150303 0.077798940
0.281088263 0.402150303 0.082353003
0.305376261 0.399114698 0.079064004
0.334218860 0.399494171 0.076407261
0.361543268 0.402529746 0.076407269
0.395825475 0.402656227 0.081340872
0.426186234 0.402656227 0.080328748
0.458444268 0.405692637 0.078051746
0.488804996 0.406578243 0.076533780
0.519164979 0.405313075 0.075775005
0.551928759 0.403035790 0.074889451
0.586843371 0.403036177 0.074889071
0.622011125 0.403162658 0.074383005
0.654016674 0.401264995 0.074382998
0.686654031 0.399494141 0.070841253
0.715116739 0.398734778 0.068564259
0.746236145 0.394686997 0.068564259
0.775837719 0.392663002 0.066666998
0.808854878 0.391524345 0.066666998
0.838203549 0.390512198 0.068690740
0.862744927 0.387476176 0.067299418
0.891208172 0.386843771 0.070967935
0.926122665 0.386843771 0.072485745
0.956356347 0.385578752 0.069197014
0.982415855 0.381277531 0.068437763
0.997975767 0.386717260 0.076280750
0.997975767 0.381024510 0.074383005
0.168121651 0.440733552 0.066540360
0.188235387 0.438836306 0.066919617
0.204048127 0.442125142 0.068058006
0.220114127 0.448450089 0.071347006
0.231498823 0.445414364 0.065654457
0.256546497 0.446931988 0.067172654
0.283617973 0.446299553 0.070461720
0.314105272 0.445793629 0.072232723
0.340670377 0.443516910 0.069196910
0.368753791 0.446173072 0.069956012
0.404807001 0.444022566 0.073498003
0.437191486 0.444022566 0.074636400
0.468690902 0.444022566 0.069323011
0.499051630 0.446805924 0.063757010
0.529411614 0.446805924 0.065907776
0.563314021 0.444402099 0.067678720
0.597090006 0.441366106 0.066160820
0.632257760 0.437697768 0.064389423
0.662618637 0.439215302 0.064895354
0.694623709 0.437823981 0.064389706
0.724225044 0.435926527 0.066666998
0.751549423 0.432890415 0.066666998
0.778747320 0.426944911 0.066414006
0.811132073 0.424920917 0.064390004
0.845287561 0.423782289 0.066666707
0.874889314 0.423529297 0.069196679
0.897659779 0.420999616 0.067172930
0.928020477 0.420999616 0.070208542
0.958380580 0.420999616 0.070208848
0.977861762 0.418090045 0.071853407
0.996331036 0.416824877 0.075774632
0.996078014 0.417077929 0.076280639
0.176723957 0.503479004 0.046805967
0.194181010 0.503984988 0.051106937
0.208601996 0.505629301 0.053890001
0.224035278 0.508412242 0.054648966
0.242884502 0.511448503 0.054522451
0.270208895 0.508412123 0.051486067
0.294750005 0.505629361 0.049715035
0.324478090 0.504238009 0.050980002
0.356863081 0.504238009 0.051233161
0.390259504 0.504238009 0.057305936
0.426059663 0.498925030 0.057811935
0.458949983 0.496648014 0.057811935
0.490195870 0.496648014 0.054902360
0.523593009 0.496648014 0.046553001
0.553952992 0.496648014 0.046553001
0.589120567 0.494244248 0.047944192
0.623782218 0.491208196 0.047944132
0.656799138 0.487792939 0.046173416
0.687160015 0.481720150 0.049209036
0.717267752 0.480708003 0.052498326
0.745983779 0.480708003 0.059329703
0.773561120 0.479696155 0.066160999
0.801138520 0.476534039 0.066160999
0.825806797 0.470462024 0.060341999
0.858444035 0.466666728 0.061353739
0.892093301 0.465022027 0.064136669
0.922454119 0.465022027 0.066666931
0.952814817 0.465022027 0.069702543
0.983174980 0.465022027 0.072738834
0.997849226 0.461986065 0.078557983
0.998861432 0.458064616 0.084123991
0.995825052 0.461101025 0.090195999
0.179759577 0.521694958 0.043769583
0.188867971 0.527766943 0.028589197
0.206324995 0.526122749 0.037191734
0.227071151 0.525616825 0.045540851
0.251739115 0.527008414 0.051612586
0.273244500 0.532700837 0.051486067
0.295508891 0.532194793 0.038330328
0.327261120 0.531562388 0.042757720
0.360911071 0.531562388 0.048703101
0.384187520 0.531562388 0.042125568
0.414673984 0.531562388 0.045287725
0.450347662 0.528273106 0.045667171
0.483238280 0.527007997 0.044528820
0.514484644 0.527007997 0.040481009
0.547881007 0.527007997 0.040481009
0.583048582 0.524604797 0.033270210
0.616445363 0.521568596 0.029727828
0.648070991 0.518532574 0.027956758
0.681088030 0.515117288 0.030993056
0.708665371 0.509044468 0.036812022
0.738520026 0.508032382 0.044149332
0.768247962 0.507020533 0.053257722
0.798102140 0.503858387 0.060089007
0.831499279 0.497786403 0.060089007
0.858444273 0.493991107 0.063377991
0.889057338 0.492346406 0.066034414
0.919417739 0.492346406 0.066160932
0.949778438 0.492346406 0.063630544
0.980139196 0.492346406 0.066666834
0.996331394 0.492346406 0.078557946
0.998229027 0.490195990 0.088930994
0.992789388 0.488425404 0.090195999
0.180391997 0.554332554 0.043136999
0.194307387 0.550790608 0.023149617
0.201264992 0.561163604 0.018722005
0.220999330 0.563187718 0.027324401
0.248323902 0.563946784 0.033775762
0.279696554 0.557874739 0.031752020
0.298545122 0.563693762 0.033522718
0.323086500 0.562049448 0.024921104
0.357242405 0.561290562 0.032510921
0.383428514 0.561290562 0.029980883
0.413408995 0.561290562 0.030107334
0.441745758 0.559266329 0.027071208
0.475901425 0.556229949 0.026312210
0.508033097 0.554964781 0.024541434
0.543580234 0.554964781 0.022391209
0.579379737 0.554964781 0.022391208
0.612776577 0.550410926 0.016318817
0.643137336 0.547121763 0.014547586
0.674763024 0.545856953 0.017583979
0.702593386 0.542441726 0.018596020
0.735610485 0.538266659 0.024668012
0.765971124 0.536748707 0.032258209
0.794939816 0.533713043 0.039974906
0.826059699 0.529917777 0.046806205
0.854902267 0.523845792 0.051360197
0.883617938 0.522074580 0.056040525
0.914484203 0.522580504 0.059076525
0.946742654 0.524477780 0.065528356
0.974699616 0.519670784 0.065401830
0.992662728 0.521441996 0.077292942
0.998481810 0.520303607 0.085768409
0.996963978 0.515749753 0.078178205
0.184946194 0.587729394 0.027957015
0.195572391 0.584693372 0.018848617
0.211891189 0.582416356 0.012650003
0.223023191 0.594560385 0.012650003
0.246805891 0.599999845 0.017457005
0.278684676 0.591271162 0.015559746
0.302972794 0.591271162 0.017583875
0.327640682 0.592409909 0.020366520
0.353447080 0.590133190 0.016571810
0.381530821 0.590133190 0.017330520
0.410373002 0.588614941 0.015939202
0.443263561 0.586591125 0.016445007
0.471727073 0.584693372 0.011511649
0.504744053 0.582289577 0.011132197
0.539911628 0.582289577 0.009361425
0.573308170 0.582289577 0.007210811
0.606704175 0.582289577 0.007210811
0.637697518 0.577482581 0.004807003
0.668944001 0.577482581 0.006957779
0.696521342 0.573181331 0.007210811
0.728020251 0.568627417 0.007969810
0.762429059 0.566603184 0.013029942
0.790385962 0.564073503 0.018975474
0.820746422 0.561037421 0.030866524
0.848830283 0.557242155 0.034661621
0.876154661 0.551170170 0.040733963
0.905882239 0.551423192 0.044908136
0.937255144 0.554459155 0.056040511
0.968374610 0.551043391 0.059076812
0.991144955 0.544212222 0.069702759
0.997596204 0.548133969 0.084376797
1.000000000 0.544591963 0.073624000
0.193421990 0.616192579 0.003922000
0.199493989 0.618089974 0.005692622
0.214421198 0.614421546 0.007210584
0.233143598 0.614041984 0.007210585
0.252877593 0.624667943 0.006831037
0.277672291 0.621884584 0.006578009
0.301960588 0.621378541 0.009108331
0.328905404 0.619734287 0.010879306
0.358254105 0.617457569 0.012903010
0.379506499 0.617457569 0.006831008
0.407210469 0.615812659 0.004301296
0.439342111 0.613409221 0.004680749
0.474130273 0.610879540 0.006072070
0.504490972 0.610879540 0.003289424
0.537507832 0.610879540 0.003289424
0.569133580 0.610246956 0.001518196
0.598861575 0.609614551 0.000000000
0.630486727 0.608981967 0.000000001
0.663883924 0.608981967 0.000000001
0.692346752 0.604680419 0.000000001
0.722201109 0.599240720 0.000000001
0.753953278 0.594560146 0.001012127
0.784313977 0.594307125 0.003795487
0.814674020 0.590765417 0.015939128
0.842757702 0.587729275 0.019734027
0.871980071 0.583301544 0.023782201
0.898292482 0.578241527 0.028842861
0.925363839 0.581151366 0.037570987
0.958633780 0.578241706 0.042631276
0.983681202 0.574193478 0.051992409
1.000000000 0.567615092 0.067299031
1.000000000 0.573687136 0.073371045
0.199494019 0.637445092 0.003921997
0.205566019 0.646552622 0.000885612
0.215939015 0.646299839 0.002656772
0.228842378 0.645540833 0.004174965
0.243769988 0.648956060 0.003795420
0.274129987 0.648956060 0.000759033
0.298924685 0.648703039 0.003036322
0.324857682 0.647058785 0.002783291
0.352435112 0.644782066 0.001011999
0.379506528 0.644782066 0.000759003
0.409487754 0.647691190 0.000506003
0.439595520 0.648196995 0.000253035
0.471600622 0.646805704 0.000506003
0.504490972 0.644276023 0.000253035
0.534850955 0.644276023 0.000253032
0.567868412 0.641872168 0.000253032
0.597976148 0.639089286 0.000000000
0.627451062 0.636306465 0.000000001
0.663883924 0.633270085 0.000000003
0.694497049 0.633270085 0.000000003
0.722706795 0.630866766 0.000000003
0.750537395 0.627577782 0.001012130
0.778241992 0.624668002 0.003795484
0.808601975 0.618596017 0.000759096
0.836685240 0.615053773 0.001517998
0.868184328 0.610626042 0.007083977
0.901328087 0.605566025 0.016698062
0.922580481 0.605566025 0.016698077
0.957621634 0.600506067 0.025426878
0.981404185 0.600000262 0.032258045
0.994433939 0.600253344 0.040227670
1.000000000 0.597976029 0.049083050
0.208349362 0.706008792 0.001138643
0.219987363 0.706767678 0.000885612
0.230360374 0.707273841 0.000000000
0.245034695 0.706767917 0.002403804
0.261353940 0.708665073 0.003542452
0.284503698 0.703858078 0.000506065
0.312334061 0.706388414 0.002530322
0.338520080 0.704996765 0.002277292
0.366603553 0.701960862 0.000759096
0.395952225 0.699937105 0.002783357
0.426185727 0.694496870 0.002783357
0.454522252 0.693485022 0.002783357
0.484123945 0.692726076 0.002783357
0.515623033 0.691587746 0.002530325
0.545983672 0.691587746 0.000000001
0.578747511 0.691587746 0.000000000
0.609108150 0.688930929 0.000000000
0.638330102 0.685894966 0.000000001
0.674762964 0.682859123 0.000000003
0.705629766 0.682606101 0.002783357
0.735989690 0.678811133 0.002783357
0.766223729 0.673877776 0.001771229
0.796837866 0.669197083 0.001138643
0.819228709 0.668438137 0.000759095
0.851866007 0.662365556 0.000000000
0.880202353 0.657431722 0.004174662
0.911448479 0.651865840 0.015433416
0.939532161 0.649589062 0.026818719
0.971410453 0.649589062 0.048070665
0.990006387 0.645540893 0.059582338
0.997722983 0.644782007 0.072105959
1.000000000 0.641746104 0.088804387
0.209867269 0.735230744 0.000000000
0.222011253 0.733332992 0.001897740
0.234155744 0.738772750 0.001897740
0.247564897 0.738267183 0.000632579
0.265908003 0.740923464 0.002024260
0.288678199 0.737887502 0.000506065
0.314990580 0.741303027 0.000632582
0.340670675 0.742694736 0.002024260
0.368501008 0.738393366 0.000000000
0.398861527 0.733080447 0.001897744
0.427324742 0.729032040 0.002024260
0.457558244 0.726881266 0.002024260
0.486021280 0.724983990 0.002024260
0.516888082 0.724731028 0.002277292
0.550537825 0.723086715 0.002530324
0.581404030 0.723086715 0.000000000
0.611764848 0.723086715 0.000000000
0.640986681 0.721062481 0.000632576
0.677419245 0.719291687 0.001897742
0.710183740 0.715243757 0.002783357
0.738646746 0.713346004 0.002024260
0.769006729 0.709298015 0.002024260
0.801391542 0.705249965 0.000000000
0.827957153 0.705249965 0.000000000
0.856420279 0.700695932 0.000000000
