Assets/EldamarStudio/100 Retro LUTs Pack/LUTs/cube/Gerald LUT.cube
LUT_3D_SIZE 5
DOMAIN_MIN 0.000000 0.000000 0.000000
DOMAIN_MAX 0.903226 0.903226 0.903226
0.109803997 0.090195999 0.074510001
0.299430996 0.090195999 0.084630288
0.511321843 0.094117999 0.086907417
0.760152102 0.102972873 0.086274996
0.980897963 0.113724999 0.087665990
0.143453285 0.268058419 0.090829000
0.296521097 0.275901407 0.084630288
0.525110781 0.276913255 0.086907417
0.768627107 0.279190391 0.083238870
0.979127049 0.271347404 0.085895039
0.179759577 0.521694958 0.043769583
0.327261120 0.531562388 0.042757720
0.547881007 0.527007997 0.040481009
0.768247962 0.507020533 0.053257722
0.980139196 0.492346406 0.066666834
0.212903127 0.745350957 0.000000000
0.339658290 0.762934983 0.000000000
0.547248840 0.748007655 0.002277288
0.765971065 0.735610247 0.001012128
0.975458622 0.717267454 0.039595261
0.266793132 0.948007762 0.101074934
0.364705980 0.958506942 0.131056041
0.544592261 0.948640168 0.121821798
0.748640120 0.941809118 0.112333938
0.965085447 0.932320774 0.140290618
0.123213284 0.090195999 0.248450413
0.285388708 0.098039001 0.250094712
0.505755723 0.100316294 0.246806115
0.761416972 0.069576301 0.239595279
0.972675502 0.081973299 0.235673532
0.151296720 0.270335674 0.247438699
0.295508981 0.268058419 0.244528979
0.519165397 0.264768988 0.242884278
0.754838943 0.262491703 0.232384264
0.970904648 0.256293386 0.229854524
0.143074006 0.508918285 0.225174129
0.312207252 0.518153071 0.227830276
0.540037811 0.512587011 0.226185992
0.757115841 0.494623691 0.228463128
0.967109203 0.483871222 0.233143523
0.189500004 0.737507999 0.211131990
0.324983835 0.744718373 0.214800537
0.533839107 0.738140285 0.214800701
0.756483257 0.725363731 0.211511701
0.964073062 0.708412528 0.220367000
0.246806115 0.940923631 0.243010521
0.353953302 0.948386908 0.252118707
0.532574058 0.946363032 0.251233369
0.743706167 0.933585882 0.244275689
0.957241774 0.929411709 0.252245516
0.140543580 0.094750419 0.471473366
0.287033409 0.098039001 0.469196677
0.503478825 0.075775005 0.471473366
0.749651968 0.015306715 0.471473813
0.962555468 0.000632584 0.447944373
0.124478295 0.253383696 0.474383116
0.281087995 0.248450413 0.470461667
0.519164920 0.242884278 0.472738832
0.748007298 0.233396828 0.457684964
0.958886504 0.238330111 0.445287406
0.090070017 0.500822008 0.469449818
0.274889290 0.502466679 0.474383503
0.527640402 0.493611425 0.472105980
0.740164399 0.486148119 0.460341394
0.955976903 0.478684783 0.452498645
0.139911413 0.729664981 0.451106817
0.300063431 0.736875415 0.456040680
0.527261198 0.727387726 0.452751249
0.743706048 0.721821249 0.443263799
0.957242250 0.702593565 0.445034504
0.216445401 0.939532101 0.459709227
0.336369693 0.944718838 0.456293404
0.521062553 0.940164804 0.462365389
0.736242831 0.933712780 0.455407947
0.963820636 0.930423379 0.463757217
0.146110132 0.093105868 0.698292255
0.284756690 0.084630124 0.699051380
0.506767392 0.051865719 0.699431121
0.736622095 0.002909872 0.697407126
0.957621634 0.001644704 0.677799106
0.110183135 0.239215568 0.698924839
0.274889261 0.240607396 0.702973008
0.508665442 0.229474828 0.703858554
0.745730519 0.208222702 0.698671758
0.959898651 0.216824785 0.678431571
0.037191901 0.476281106 0.701201677
0.259835273 0.478937238 0.706767976
0.505123079 0.471726537 0.703226149
0.743074119 0.466160387 0.692093730
0.950411022 0.472106218 0.675901532
0.121189006 0.719038367 0.702214003
0.289183706 0.729285538 0.704111278
0.511195540 0.721821249 0.697280109
0.736496150 0.712080956 0.685515106
0.949778616 0.700569272 0.691208065
0.235673860 0.939784825 0.677925289
0.353573740 0.937254786 0.688172162
0.517773807 0.937887490 0.691461146
0.725489974 0.928525925 0.677925229
0.955597639 0.925869584 0.679696143
0.137254998 0.078431003 0.916761637
0.273624688 0.061986011 0.905250072
0.493611574 0.010247032 0.904869974
0.711574972 0.001644704 0.901707649
0.952055633 0.000000000 0.902339816
0.066413783 0.220240578 0.906894386
0.257558554 0.218342826 0.911448598
0.480455399 0.207210407 0.907906234
0.714610994 0.178747550 0.902972817
0.947754502 0.146995589 0.899304092
0.000000000 0.437318265 0.908791959
0.185578495 0.439089119 0.916508436
0.459582567 0.436053395 0.912207365
0.707779706 0.426565707 0.905629218
0.950663924 0.421758413 0.899809897
0.002909872 0.682605803 0.903352439
0.189247370 0.689437330 0.909930527
0.450347811 0.683870852 0.904996753
0.697533309 0.676407158 0.904870331
0.946868777 0.681340992 0.906388581
0.108412012 0.931055963 0.907526970
0.277545691 0.935989678 0.911574781
0.489690363 0.934345245 0.906894386
0.716255307 0.927387714 0.910436511
0.925742984 0.924604595 0.904996634
