Assets/EldamarStudio/100 Retro LUTs Pack/LUTs/cube/Gerald LUT.cube
LUT_3D_SIZE 8
DOMAIN_MIN 0.000000 0.000000 0.000000
DOMAIN_MAX 0.903226 0.903226 0.903226
0.109803997 0.090195999 0.074510001
0.207717001 0.086274996 0.079190098
0.324478120 0.089437097 0.082353003
0.445034981 0.094117999 0.090195999
0.584440172 0.095635802 0.090195999
0.724731445 0.099936739 0.088298738
0.854142964 0.105881996 0.088551708
0.980897963 0.113724999 0.087665990
0.126628548 0.183428094 0.089816548
0.206957996 0.183428079 0.085515901
0.319797188 0.179506987 0.088678002
0.443137646 0.179506987 0.088678099
0.577103019 0.178621083 0.086780354
0.713092983 0.183934540 0.086401008
0.836179256 0.181530833 0.086401001
0.957874775 0.181783706 0.085515901
0.142694190 0.294624090 0.084756806
0.206072092 0.302466989 0.070082545
0.328400105 0.301707983 0.083871000
0.452119172 0.302467078 0.086654350
0.593168974 0.307906270 0.086274803
0.731941581 0.308792114 0.080708288
0.852624953 0.304870099 0.072865285
0.975584924 0.300949097 0.085895151
0.168121651 0.440733552 0.066540360
0.231498823 0.445414364 0.065654457
0.340670377 0.443516910 0.069196910
0.468690902 0.444022566 0.069323011
0.597090006 0.441366106 0.066160820
0.724225044 0.435926527 0.066666998
0.845287561 0.423782289 0.066666707
0.958380580 0.420999616 0.070208848
0.184946194 0.587729394 0.027957015
0.246805891 0.599999845 0.017457005
0.353447080 0.590133190 0.016571810
0.471727073 0.584693372 0.011511649
0.606704175 0.582289577 0.007210811
0.728020251 0.568627417 0.007969810
0.848830283 0.557242155 0.034661621
0.968374610 0.551043391 0.059076812
0.209867269 0.735230744 0.000000000
0.265908003 0.740923464 0.002024260
0.368501008 0.738393366 0.000000000
0.486021280 0.724983990 0.002024260
0.611764848 0.723086715 0.000000000
0.738646746 0.713346004 0.002024260
0.856420279 0.700695932 0.000000000
0.978241742 0.685642004 0.046932213
0.227450997 0.830613554 0.000000000
0.274636298 0.836432755 0.000000000
0.364326119 0.836938381 0.003036191
0.475775003 0.832258284 0.001138644
0.596331418 0.826818466 0.002277288
0.718405724 0.819861233 0.000379548
0.840101302 0.810373008 0.002277288
0.954585612 0.798229098 0.011385280
0.266793132 0.948007762 0.101074934
0.312586844 0.959139645 0.126375630
0.386970252 0.954711735 0.125236884
0.489942789 0.955850780 0.124604605
0.604680538 0.948007762 0.124604605
0.719544470 0.944844842 0.115369812
0.840986609 0.938899636 0.118279509
0.965085447 0.932320774 0.140290618
0.110183448 0.093738452 0.164579093
0.206578553 0.090195999 0.171663091
0.318153203 0.098418549 0.165717646
0.439974636 0.106261641 0.165717542
0.573940575 0.103984646 0.165085554
0.718153000 0.101581454 0.160784096
0.839974582 0.101202004 0.160531104
0.961416662 0.104743548 0.145350635
0.137634456 0.183807537 0.167362556
0.214421555 0.186970532 0.156356558
0.309930533 0.183807537 0.170904085
0.432511181 0.181910098 0.169765547
0.566097617 0.177229702 0.161922753
0.694244027 0.179127529 0.155977085
0.811764538 0.175205544 0.146615803
0.931941748 0.169006839 0.141555846
0.155724451 0.298165649 0.162302107
0.211258560 0.298165649 0.161543101
0.325996220 0.291840643 0.156736091
0.445414633 0.298924655 0.160658002
0.581404388 0.304111183 0.161922559
0.713093102 0.298545301 0.158507288
0.837950885 0.292726368 0.150917456
0.965717733 0.291081816 0.153320566
0.166224003 0.424288362 0.151296809
0.223655820 0.429474890 0.150917351
0.330929756 0.429854333 0.146109730
0.450600922 0.429474801 0.145350635
0.583428442 0.430740267 0.140670434
0.703352392 0.420999557 0.145350739
0.821252286 0.413282722 0.143327087
0.938519776 0.402276814 0.132827550
0.176850453 0.567362189 0.131688893
0.240354359 0.575964272 0.130423918
0.338140547 0.577988565 0.125743553
0.460847318 0.574066937 0.126628548
0.590132952 0.566223860 0.119671263
0.713093221 0.557242334 0.118406095
0.830866456 0.544465601 0.127893910
0.952687800 0.536116362 0.139405355
0.193168551 0.719671190 0.112334102
0.261859983 0.721821487 0.117267355
0.359392643 0.720177174 0.115622640
0.472991765 0.715875745 0.115496442
0.604301035 0.710436583 0.111322097
0.727640688 0.704111695 0.113345839
0.845414281 0.688804448 0.106894545
0.969259739 0.677798867 0.129791170
0.203415737 0.811258554 0.080961615
0.256040335 0.822011292 0.104111098
0.353573918 0.822011292 0.099557102
0.464262933 0.818089843 0.097027376
0.583807349 0.815686524 0.096521288
0.707021058 0.805945694 0.089310803
0.825300276 0.801264822 0.087792516
0.948893070 0.790132880 0.098165445
0.247311965 0.947881103 0.151169896
0.305123240 0.950663984 0.167235762
0.383554637 0.949778378 0.181910202
0.481720448 0.948387206 0.173814178
0.593674839 0.945603967 0.170904517
0.715875983 0.939658582 0.172928452
0.838203549 0.930549920 0.174952626
0.961543381 0.933333218 0.184566870
0.126249090 0.090955094 0.273498118
0.195572540 0.090954997 0.273498118
0.313472182 0.098039001 0.277419120
0.442758083 0.104364000 0.278178096
0.585199237 0.088804714 0.281340897
0.721695065 0.052372165 0.264895797
0.845414162 0.053510521 0.260974199
0.970398486 0.064010061 0.256419927
0.143453091 0.175205544 0.269955665
0.210120112 0.174826086 0.263251096
0.316255540 0.175205544 0.273498118
0.438077182 0.173687443 0.273498029
0.568880379 0.167868093 0.270462006
0.699430823 0.158001453 0.257052392
0.819987118 0.154838547 0.251992375
0.940417349 0.147501722 0.240101129
0.150537997 0.292346984 0.267173082
0.219987452 0.290322632 0.275901198
0.321315199 0.293864995 0.270335197
0.447817624 0.296647638 0.274257004
0.580645323 0.293106079 0.269576073
0.720682859 0.290069729 0.268817186
0.836179495 0.286021203 0.255407900
0.963061512 0.281341106 0.253890097
0.132321268 0.425933152 0.256419837
0.203415558 0.425174177 0.260847300
0.321948171 0.433902264 0.263251096
0.448703378 0.426818371 0.254142821
0.579506576 0.425300390 0.255281299
0.701328099 0.416318834 0.258064628
0.822896898 0.406957626 0.249335915
0.944086075 0.399873435 0.244402379
0.142821088 0.563441038 0.238962799
0.209740654 0.572802067 0.249209106
0.329158992 0.575332224 0.246046901
0.456419915 0.567868531 0.242884278
0.588614941 0.561163962 0.236685887
0.711575091 0.552940905 0.243010893
0.829981208 0.540038168 0.243010893
0.949905097 0.537002087 0.246679261
0.178114906 0.713725746 0.253636837
0.238709539 0.716761649 0.251233548
0.340164095 0.715116739 0.248703450
0.468311369 0.710816026 0.252877831
0.598355472 0.704617321 0.244908467
0.723845601 0.696774125 0.240607187
0.846426427 0.684630036 0.240986645
0.964579523 0.677039862 0.251486301
0.182289913 0.813535511 0.222770095
0.242757842 0.816571832 0.243896291
0.338646322 0.820620120 0.234281912
0.455534279 0.812650263 0.233270258
0.579380095 0.807969332 0.230233997
0.704491079 0.804048002 0.226059541
0.825174153 0.797723174 0.221758381
0.951802731 0.791777134 0.230613440
0.237950832 0.939152479 0.267046094
0.292220265 0.946236670 0.272738814
0.371663302 0.947375059 0.277672261
0.477798820 0.942062080 0.278178185
0.588614821 0.940670609 0.273118347
0.707780004 0.936116278 0.266540021
0.836179376 0.928272963 0.272738725
0.959266067 0.927893519 0.279569983
0.131688997 0.098039001 0.404680640
0.203415543 0.098418646 0.401138365
0.313851744 0.094497450 0.400379390
0.442757994 0.087919004 0.407463282
0.585705042 0.068058357 0.409361005
0.721315801 0.036053367 0.403162509
0.849588990 0.011132294 0.394560367
0.968121469 0.023529181 0.385072649
0.152308911 0.168121442 0.395825207
0.214927182 0.168500900 0.396837741
0.317899644 0.167362556 0.398102164
0.441998988 0.162681639 0.397976100
0.571916521 0.156863004 0.396458089
0.706135333 0.142694086 0.389120698
0.826818466 0.130170897 0.384440362
0.945224583 0.124730900 0.377482742
0.134344906 0.288045466 0.397976190
0.201138452 0.284882754 0.398355722
0.324984550 0.287665993 0.401897281
0.449842095 0.284503102 0.406704366
0.590133071 0.282985300 0.405945390
0.716255307 0.275901198 0.393421888
0.842378497 0.274762839 0.387856007
0.964326203 0.279443562 0.387096792
0.126502007 0.424415290 0.401391625
0.205945447 0.429981261 0.410499364
0.317394197 0.433902264 0.405692309
0.453510284 0.426059276 0.400253266
0.584060788 0.422264457 0.393548638
0.707526982 0.415559947 0.384693295
0.825047553 0.405312926 0.378368288
0.945097983 0.397469878 0.374699444
0.075774558 0.570651352 0.388361722
0.177988797 0.572169185 0.386717528
0.311574668 0.575332105 0.386717647
0.455408007 0.565844357 0.384819895
0.593674839 0.564326167 0.379759640
0.716761768 0.548640132 0.380139202
0.830866277 0.540923297 0.382542998
0.949019313 0.536116362 0.378873914
0.152055368 0.713472486 0.393927753
0.222770095 0.713219464 0.391144902
0.339152455 0.715243638 0.392662972
0.465528190 0.708159685 0.391018361
0.600126624 0.702973008 0.386464059
0.726248860 0.700316370 0.384566545
0.847312033 0.683744609 0.376596928
0.963187635 0.673497677 0.392662913
0.143327370 0.814800918 0.366476655
0.233143911 0.820620060 0.374699295
0.326122820 0.818975329 0.372296095
0.448323995 0.813662231 0.372675359
0.574193478 0.810373247 0.363567203
0.700695753 0.806451261 0.363314539
0.832258046 0.799746931 0.363187909
0.950411201 0.793042541 0.361416817
0.228083178 0.938772798 0.391650796
0.286274821 0.945856929 0.396837443
0.366476923 0.947628081 0.401264995
0.471600145 0.942820966 0.396457970
0.582795501 0.940038025 0.400252789
0.709677756 0.933459759 0.396078616
0.833523095 0.929791093 0.393674910
0.960278153 0.931055963 0.394686788
0.145730197 0.092599809 0.537381172
0.208855346 0.092979357 0.542188168
0.319671094 0.089437097 0.541429281
0.442757994 0.076154001 0.536749005
0.584440172 0.049715620 0.545224547
0.722833693 0.005566196 0.541429162
0.844655275 0.000759096 0.524225116
0.967868388 0.000000000 0.519671023
0.141682461 0.168500900 0.534472167
0.216572002 0.163820088 0.539152145
0.313472182 0.165085554 0.532068253
0.438836277 0.156483561 0.531182468
0.574699640 0.142441541 0.534724832
0.703605413 0.126249090 0.524225295
0.827071548 0.114863642 0.513346195
0.945603609 0.109677091 0.503479004
0.115496814 0.275016099 0.549525321
0.190006435 0.279443562 0.549399137
0.318279177 0.276660234 0.550158083
0.446299613 0.276660204 0.544971704
0.592536390 0.268817186 0.544718266
0.717014432 0.270462126 0.530802906
0.840860128 0.267172903 0.519417882
0.963946521 0.271980107 0.515243351
0.089943357 0.420240521 0.544339180
0.176343977 0.424288630 0.545983434
0.297659993 0.417836845 0.537760854
0.445414543 0.409993708 0.543326974
0.582795382 0.409614265 0.527008355
0.708918393 0.408855200 0.521188915
0.828210235 0.401771188 0.507147610
0.946362913 0.397723079 0.507527292
0.052498192 0.571410179 0.527387559
0.177988902 0.570904613 0.543453515
0.306388289 0.571410179 0.542188168
0.449841976 0.567868590 0.537634373
0.589500368 0.557242334 0.528273165
0.710056961 0.552940905 0.525489926
0.829981208 0.542441189 0.518912196
0.949525595 0.538773000 0.516129017
0.151549816 0.711195111 0.532827437
0.225553542 0.714105129 0.541302741
0.339784741 0.711701274 0.535610557
0.466160655 0.706514955 0.536243021
0.593801677 0.704237759 0.531815648
0.723845661 0.696394742 0.523086607
0.838962674 0.681846976 0.520303369
0.960657537 0.677040160 0.530170679
0.165970713 0.817457259 0.514990151
0.240227625 0.820620060 0.521694720
0.333333224 0.820620120 0.520556450
0.442631453 0.815559745 0.513092875
0.570651233 0.815180182 0.509424269
0.699936807 0.807336986 0.501960635
0.830740094 0.802403271 0.495382994
0.958127737 0.794180930 0.500189781
0.215812817 0.941555798 0.518912196
0.271347016 0.945350945 0.521062374
0.356230259 0.948260546 0.532068193
0.461733103 0.942441821 0.524730742
0.583554745 0.940038025 0.521947980
0.703099370 0.934218526 0.516382039
0.832131326 0.928273022 0.517393827
0.953320742 0.932574153 0.526502192
0.145098001 0.094117999 0.665907443
0.216824740 0.090195999 0.669955432
0.314610839 0.090702266 0.665907443
0.443263531 0.070335262 0.664769113
0.573940635 0.035167363 0.666793466
0.699177742 0.001897740 0.664010167
0.832510769 0.001897740 0.656925917
0.955850661 0.003922000 0.642378449
0.135357261 0.161037356 0.654396057
0.203795180 0.159898996 0.661480010
0.311574847 0.152814910 0.655281603
0.432890534 0.147375003 0.653763533
0.560530901 0.131435737 0.649335444
0.695003152 0.108285815 0.648323715
0.812776864 0.086780548 0.634281993
0.932953596 0.069196731 0.623529792
0.101581015 0.270335197 0.671094060
0.185831800 0.264769286 0.667552292
0.297659993 0.269196838 0.662745357
0.438329935 0.264136910 0.667805016
0.570777833 0.255787551 0.665148556
0.710309803 0.245667353 0.659203172
0.834535003 0.246805996 0.646426439
0.955850363 0.252245367 0.641492546
0.059203159 0.395319372 0.653890193
0.157874644 0.401644260 0.661353707
0.283365101 0.395825624 0.662112832
0.424162030 0.393801361 0.656673014
0.563820481 0.390385747 0.655028105
0.698039174 0.382922292 0.646046877
0.819228470 0.382795542 0.630992889
0.937887311 0.381910264 0.628842354
0.027450999 0.548513353 0.669070482
0.161796555 0.548387170 0.667172790
0.289436847 0.552055776 0.663504422
0.434914470 0.546110034 0.664010108
0.571536958 0.536622405 0.651866078
0.706514955 0.537887633 0.650727570
0.821125746 0.533712983 0.641366243
0.944339156 0.533206940 0.644655764
0.129284993 0.697785974 0.671853244
0.210373551 0.707273722 0.678937733
0.326881707 0.705249965 0.675015807
0.453763396 0.698292136 0.670714617
0.581151128 0.691967189 0.656673253
0.709171474 0.681720495 0.654142976
0.828589737 0.678937614 0.651739180
0.950031698 0.669955432 0.653510392
0.139532194 0.807969272 0.646932662
0.220872894 0.811638474 0.649968624
0.318532526 0.813662112 0.646046937
0.440986454 0.808222651 0.644781649
0.563567162 0.806577981 0.642504752
0.690701663 0.804807246 0.634535491
0.820113778 0.800632298 0.630233943
0.945983112 0.792030513 0.637950897
0.235673636 0.940037787 0.651865780
0.291208148 0.939531803 0.656546593
0.367236167 0.940544069 0.659076571
0.466793567 0.941555798 0.655914068
0.564705670 0.934092343 0.649715304
0.693864763 0.932574153 0.648323715
0.821632028 0.928779244 0.645034671
0.959898651 0.924098492 0.646299481
0.143453285 0.091840714 0.788108587
0.207337543 0.082099974 0.787855983
0.312713116 0.077039912 0.789120853
0.437697649 0.053131070 0.787349641
0.562049150 0.014421202 0.784566283
0.692852437 0.000000000 0.783681095
0.822138011 0.000000000 0.777356267
0.948133945 0.000000000 0.767235994
0.136748716 0.149778813 0.769513249
0.199367717 0.147501528 0.779632807
0.301960915 0.143200547 0.779886246
0.425553381 0.136116356 0.776976645
0.550917208 0.117014617 0.772169709
0.680708528 0.088931009 0.770778000
0.809866965 0.029601820 0.762555420
0.928525925 0.011511645 0.753700137
0.076660335 0.257052392 0.782163262
0.175332338 0.255913943 0.788614929
0.291714013 0.254016221 0.787476540
0.419987261 0.250094920 0.780771673
0.556483269 0.243896291 0.782795429
0.686527431 0.232890904 0.779886246
0.821884573 0.220240191 0.771789968
0.946868956 0.226186022 0.767994881
0.003289004 0.375078976 0.776344299
0.114610896 0.380012274 0.786969900
0.267172813 0.381530374 0.781910300
0.409108281 0.374446273 0.778621256
0.548133910 0.373307943 0.774699509
0.682985485 0.362302363 0.770651639
0.819481254 0.354838580 0.766856313
0.935483456 0.353320748 0.751676023
0.003036191 0.519797206 0.782289565
0.095762268 0.523845792 0.783554375
0.255661100 0.524984241 0.783554554
0.399747074 0.520809531 0.780897856
0.544845223 0.515623033 0.778115153
0.682226479 0.511448443 0.773055017
0.815812588 0.508665323 0.770272017
0.939531565 0.512966454 0.757242322
0.041366268 0.677166462 0.787729084
0.161543354 0.680961430 0.788867652
0.287539572 0.678684175 0.791524529
0.421125889 0.676281095 0.788361728
0.556483150 0.668058217 0.785578787
0.689057410 0.663503706 0.781910300
0.824415267 0.662998199 0.773054779
0.944212615 0.666666389 0.772675276
0.000000000 0.802529991 0.785831809
0.146742567 0.797975838 0.775458515
0.279063821 0.806325138 0.774952471
0.415812612 0.802023888 0.775205612
0.548007250 0.800885260 0.771916449
0.680075943 0.795066535 0.771030962
0.816192508 0.792030573 0.768500566
0.939025760 0.788488150 0.772043288
0.216698349 0.930803180 0.773434281
0.264642775 0.930929482 0.777608812
0.346615702 0.934724927 0.777229428
0.455534697 0.930170357 0.775585055
0.577229500 0.932953715 0.779000640
0.694497049 0.927514076 0.784819841
0.817078054 0.925869823 0.781530738
0.943833053 0.923592508 0.779886127
0.137254998 0.078431003 0.916761637
0.205945551 0.071347475 0.913978636
0.303731918 0.059962023 0.905755877
0.425553471 0.031752214 0.907779992
0.558886707 0.001265167 0.911701620
0.677166581 0.001897740 0.903225899
0.812523484 0.000379544 0.894876361
0.952055633 0.000000000 0.902339816
0.109803900 0.137508020 0.891587496
0.188108698 0.136875257 0.900695503
0.295635998 0.130297095 0.903478563
0.418089807 0.115496635 0.901960373
0.546742558 0.097532921 0.896014988
0.675015926 0.053890128 0.888172150
0.805566013 0.005566106 0.888804495
0.937761128 0.002277285 0.889057755
0.037318114 0.245288000 0.903098881
0.144339100 0.249462396 0.906767905
0.279823124 0.245920271 0.911954701
0.410373151 0.237571195 0.908539057
0.542694449 0.230107456 0.901327968
0.679696560 0.218216211 0.902719617
0.809487522 0.201012120 0.900189698
0.946742654 0.187982365 0.897026777
0.001518189 0.361037254 0.896268368
0.042125244 0.359645993 0.904111326
0.244022831 0.364452899 0.901960433
0.387982309 0.362302452 0.901960611
0.531056225 0.356609613 0.902719736
0.665148675 0.343327105 0.894749999
0.800885379 0.335736752 0.893484831
0.935863197 0.328905582 0.891840577
0.002403808 0.497786403 0.902087152
0.001138644 0.506008983 0.903605223
0.204048216 0.502087474 0.904237866
0.366983086 0.499304175 0.903478444
0.520556331 0.493358344 0.900442421
0.658317447 0.489690393 0.900695741
0.804048240 0.481467396 0.896520913
0.944212615 0.483364850 0.894876599
0.005186845 0.652245581 0.914231777
0.038583260 0.658064783 0.913345933
0.233270153 0.656040549 0.907906532
0.380898476 0.652118921 0.911827743
0.522833347 0.646553099 0.907020807
0.665907621 0.643516779 0.908918619
0.807210386 0.638709784 0.904111326
0.950663924 0.641619384 0.906388581
0.002277288 0.789373755 0.907021105
0.030360810 0.790512621 0.896774292
0.225680068 0.791144907 0.906767905
0.375458479 0.789500237 0.902466655
0.520176828 0.787982404 0.906135261
0.657558262 0.783175111 0.900189340
0.797722936 0.779253483 0.905250072
0.939025939 0.784060776 0.905502915
0.108412012 0.931055963 0.907526970
0.199367732 0.940290630 0.910942793
0.306894362 0.937507749 0.912081063
0.429854631 0.935231030 0.910183787
0.551296711 0.930676758 0.904996634
0.684882879 0.927893579 0.908412337
0.807842970 0.917393744 0.902719378
0.925742984 0.924604595 0.904996634
