Assets/EldamarStudio/100 Retro LUTs Pack/LUTs/cube/Glenn LUT.cube
LUT_3D_SIZE 8
DOMAIN_MIN 0.000000 0.000000 0.000000
DOMAIN_MAX 0.903226 0.903226 0.903226
0.007843000 0.000000000 0.003922000
0.143327087 0.035673548 0.047817998
0.302467078 0.038456902 0.055661093
0.436052918 0.035926998 0.065021999
0.575079381 0.095382988 0.101707801
0.730676711 0.162428737 0.156609997
0.862618566 0.227071270 0.217583984
0.983427942 0.299683630 0.286653757
0.108159088 0.113978542 0.040354453
0.175964549 0.113219544 0.047059000
0.300948977 0.132827446 0.065908000
0.434914380 0.143706635 0.073624097
0.567995191 0.177735373 0.112713374
0.713852167 0.221631989 0.162049189
0.851866245 0.268311262 0.215812832
0.974825919 0.324098647 0.284883261
0.177102998 0.227198184 0.079190105
0.219355106 0.227577642 0.071979992
0.302467078 0.224794179 0.075142190
0.430613726 0.258444101 0.101328447
0.567995071 0.292979211 0.149651989
0.710942686 0.329411745 0.184819892
0.852498472 0.365211904 0.235673368
0.979126751 0.408348888 0.305629224
0.256166995 0.360025287 0.140164286
0.283111811 0.364073336 0.134598285
0.347754359 0.364452899 0.132953987
0.432763934 0.368374646 0.138519987
0.565211833 0.406071931 0.165971085
0.700316310 0.435167521 0.211385369
0.840227962 0.464769185 0.255154997
0.967362463 0.499177814 0.329791278
0.321315169 0.513219357 0.196711197
0.351928979 0.515116751 0.192789093
0.403542280 0.520303309 0.200506091
0.477166176 0.514737189 0.199620172
0.575079381 0.518659174 0.212397188
0.706641257 0.547248662 0.238076985
0.843896329 0.576597393 0.298292071
0.972548902 0.603289127 0.366729766
0.397975743 0.675901771 0.280328751
0.425173730 0.677798986 0.286021471
0.470968008 0.674636364 0.282606065
0.549778700 0.675774693 0.289816469
0.633523107 0.675774693 0.293611467
0.730676711 0.673750460 0.301454991
0.852118790 0.692219734 0.348260254
0.969639361 0.719164908 0.422517598
0.496647567 0.800253272 0.379632980
0.511321843 0.808981717 0.386337817
0.549905062 0.810246468 0.396078467
0.612017572 0.811005533 0.400379658
0.682606041 0.803794980 0.398355544
0.770398259 0.805186689 0.400885284
0.858696997 0.805439234 0.412270546
0.959898651 0.815306962 0.474636555
0.622770429 0.933712780 0.544212639
0.636053264 0.935610533 0.556230009
0.662239194 0.939531744 0.558127642
0.705629587 0.936495841 0.558760583
0.761416614 0.938772857 0.566982746
0.827830732 0.935230732 0.568500876
0.906262040 0.933712780 0.579759598
0.986084759 0.932320774 0.592662573
0.087413445 0.043516546 0.100695543
0.144591644 0.039974999 0.092473000
0.264896005 0.076028004 0.117520183
0.381150842 0.110436186 0.147248283
0.524478018 0.156609997 0.185578898
0.681087911 0.207083836 0.232764274
0.829854548 0.257685006 0.269576102
0.961543381 0.324604809 0.328779042
0.120683096 0.101075090 0.088172443
0.168121547 0.113219537 0.102213539
0.251865745 0.130044088 0.122960098
0.383554727 0.159013107 0.153194457
0.516255438 0.200126752 0.184819892
0.667046189 0.247944340 0.226059541
0.820999265 0.290069550 0.270841092
0.959139645 0.346995652 0.329284906
0.195952088 0.203288749 0.137128085
0.228083193 0.210373551 0.133965984
0.282100022 0.208728641 0.143832639
0.394054264 0.249083102 0.161290184
0.530044019 0.287413180 0.200126633
0.676913440 0.330929637 0.236179531
0.830866754 0.366982818 0.283112049
0.963314056 0.417330742 0.347375214
0.265148729 0.337381274 0.177609280
0.290322661 0.341808826 0.176976189
0.335231096 0.343706369 0.178494275
0.410878927 0.344465375 0.179632828
0.540037870 0.391903818 0.213662386
0.679063559 0.427704304 0.250601083
0.826059163 0.466034293 0.300569266
0.952561498 0.501328468 0.363820344
0.334218711 0.485262543 0.235041082
0.346363187 0.491967171 0.231245711
0.398481727 0.492346734 0.238962904
0.469702721 0.496647358 0.243643075
0.554332793 0.499430686 0.244402185
0.689057469 0.535863280 0.282352835
0.827451169 0.571157157 0.330044091
0.955091417 0.605186760 0.394180894
0.404680520 0.654648900 0.312081009
0.427071273 0.658823490 0.314231515
0.470461845 0.656420290 0.313978463
0.539405644 0.659203172 0.320682913
0.622897089 0.660341680 0.320556730
0.720809460 0.658444047 0.321315706
0.836812317 0.681594193 0.374067247
0.963820219 0.713725269 0.449209332
0.496141821 0.791777134 0.409740388
0.508412302 0.790891886 0.404554278
0.545603812 0.794433832 0.406198561
0.604427934 0.796710610 0.416065991
0.678431273 0.796837509 0.417330652
0.764705539 0.795951545 0.422643751
0.856420279 0.805059850 0.445414275
0.954965234 0.819987059 0.499177635
0.619734168 0.926249266 0.547880650
0.639089048 0.932447612 0.569259644
0.660341620 0.933712780 0.568247914
0.704364121 0.931308985 0.568247795
0.757115781 0.931308985 0.576090813
0.823276281 0.928652585 0.582542539
0.899810076 0.934345365 0.591145039
0.983681023 0.931435525 0.610878944
0.118279189 0.053257097 0.201265186
0.184946090 0.068184994 0.194307089
0.261733115 0.077546000 0.189627096
0.382036716 0.114231184 0.207463294
0.502214015 0.184060797 0.257811278
0.639974594 0.242757991 0.299683839
0.792030334 0.299177706 0.349399000
0.943073690 0.368500918 0.412650138
0.164958641 0.135989547 0.167615190
0.197090641 0.133206993 0.173940092
0.254649103 0.145350635 0.174699187
0.360405087 0.176217273 0.215053752
0.487413198 0.226818636 0.257811278
0.628589869 0.274509847 0.297659874
0.790891707 0.328146368 0.349651903
0.937254667 0.387223184 0.406830996
0.215560094 0.207590193 0.181657180
0.253131092 0.218975648 0.217963085
0.295382977 0.224794179 0.209108189
0.378494352 0.249083102 0.229095638
0.496015191 0.293738097 0.275775015
0.633523047 0.341555983 0.313346118
0.798355341 0.385452271 0.366603196
0.940417528 0.441492826 0.421758324
0.280455202 0.322959930 0.243896633
0.300822198 0.319418192 0.239595175
0.342315197 0.331688732 0.251865625
0.396331251 0.337887734 0.250980735
0.507906616 0.378620923 0.285768270
0.649209440 0.426438838 0.324477911
0.799873531 0.471094131 0.373940647
0.937508106 0.520050287 0.437191725
0.353573799 0.463757366 0.298545092
0.359266520 0.466413736 0.302087367
0.402783155 0.474763095 0.299177885
0.453637093 0.479063809 0.301581293
0.535990119 0.480202287 0.310309887
0.663883865 0.524857581 0.345351249
0.806198359 0.569513083 0.396964103
0.938772857 0.614927351 0.465148628
0.420366734 0.644402206 0.373560846
0.440607131 0.640354216 0.374320269
0.478052080 0.642757714 0.372802168
0.538266897 0.642378449 0.377102911
0.617836773 0.646805882 0.382922173
0.702466846 0.645540595 0.383807600
0.821884751 0.678811014 0.433017164
0.946109831 0.717646897 0.504996657
0.507526994 0.782669365 0.457938075
0.523972273 0.784187496 0.456672907
0.556989193 0.785199285 0.459582359
0.608728588 0.784946263 0.463377655
0.678431392 0.788108587 0.469702452
0.756356716 0.791271508 0.476913452
0.849335730 0.797596276 0.493991166
0.949019492 0.815559804 0.551929176
0.635799944 0.923212945 0.598608553
0.653510451 0.923339784 0.604680419
0.671473682 0.926501870 0.608095884
0.714737415 0.927387595 0.611384988
0.765338242 0.925869823 0.614167929
0.826312542 0.928146780 0.615053773
0.897912383 0.928399384 0.623402894
0.971536756 0.934471905 0.637570977
0.167615294 0.082985289 0.324604630
0.217330843 0.095888637 0.314105093
0.301707983 0.104111187 0.299683720
0.374952614 0.128399998 0.285894990
0.511701167 0.194181189 0.336748987
0.634661615 0.253763378 0.372548729
0.776849926 0.320176989 0.428209931
0.908159137 0.419734418 0.492219985
0.207969725 0.166097105 0.271727085
0.232637286 0.168374181 0.274130195
0.291840732 0.171916634 0.276534081
0.366223723 0.183681548 0.279190630
0.489310563 0.235041082 0.324604630
0.618595779 0.284629852 0.373687297
0.762302279 0.355597466 0.429222167
0.905882120 0.432637632 0.494244248
0.249588728 0.237065554 0.283618093
0.281341076 0.244781733 0.278811097
0.328020453 0.261733115 0.290575385
0.389120638 0.272991747 0.305503070
0.484629810 0.318532526 0.343579829
0.609867156 0.361164004 0.391650915
0.760404825 0.420619965 0.442504466
0.903352201 0.483238548 0.499683440
0.299304277 0.328525931 0.308285624
0.324730933 0.337508291 0.316002727
0.376091093 0.365085185 0.339911371
0.414800644 0.363820642 0.338013619
0.502466619 0.392030656 0.360910654
0.624288380 0.432764024 0.399873644
0.765717864 0.489943206 0.455787569
0.909424543 0.546236396 0.519038439
0.365085393 0.463503927 0.375331998
0.383554816 0.465275258 0.372928381
0.417330831 0.469702810 0.377735287
0.459962279 0.470461816 0.381530374
0.526122808 0.480581820 0.381151021
0.648703277 0.527261317 0.423402727
0.785578728 0.574193418 0.476281106
0.917014599 0.632005334 0.542061985
0.439215660 0.624541461 0.445287645
0.461226940 0.624035537 0.446932644
0.492979109 0.626692176 0.451107174
0.541808724 0.631499052 0.450727642
0.607210517 0.633396745 0.455914170
0.687539756 0.637318134 0.460215092
0.809361339 0.677672267 0.509424686
0.923718989 0.727008343 0.572549045
0.533712924 0.770145297 0.534851313
0.548892915 0.774193466 0.534977436
0.572675288 0.774826050 0.533333182
0.616571546 0.779126942 0.534851253
0.680835009 0.781024635 0.537507832
0.750157893 0.783807814 0.545857012
0.835167527 0.791524231 0.558380544
0.940543950 0.818342805 0.616571784
0.655281782 0.916888177 0.651992440
0.668310940 0.920682907 0.653763592
0.687412858 0.922201157 0.655534446
0.724351585 0.924857616 0.659961998
0.765717983 0.919797301 0.665022254
0.825047374 0.924983740 0.665907681
0.895129561 0.927008152 0.676027834
0.973307908 0.932447612 0.692725956
0.229601383 0.143326998 0.449588984
0.274257004 0.149145737 0.442631394
0.340923160 0.165212095 0.435547292
0.422264189 0.180897996 0.423402816
0.501454949 0.206704184 0.419101983
0.643896282 0.263124257 0.464136630
0.781151175 0.327387571 0.504490972
0.911827803 0.430486917 0.566223681
0.262365282 0.213029981 0.411132157
0.296647727 0.213409543 0.412017554
0.342820823 0.221632197 0.402909726
0.410246730 0.231119379 0.398735076
0.479316980 0.241619542 0.400885344
0.618469000 0.296015173 0.451233387
0.767362237 0.361796200 0.501201749
0.893105328 0.451486498 0.570145309
0.304870278 0.291460991 0.393295258
0.326881975 0.299683630 0.395698994
0.359645993 0.300822169 0.398608357
0.413789064 0.304743975 0.394054174
0.491334260 0.321948200 0.404174477
0.619354784 0.370145649 0.462239176
0.756862462 0.433902562 0.513725221
0.888045788 0.512586892 0.581024587
0.332574606 0.364959091 0.390385747
0.357748538 0.367236197 0.402276933
0.394054264 0.385325402 0.412776470
0.456293643 0.405692458 0.434282035
0.522074640 0.422138095 0.447185457
0.625806570 0.460088730 0.485136002
0.749019504 0.512333930 0.534471810
0.888171732 0.580265403 0.604174793
0.383175164 0.468564183 0.439595401
0.404300958 0.475522190 0.440354407
0.442757905 0.488931090 0.458317369
0.501075625 0.506514668 0.475522190
0.558760226 0.512333989 0.479443192
0.651107192 0.538899183 0.505629420
0.771789968 0.587476194 0.554585516
0.897153616 0.646299720 0.621884644
0.474130481 0.619734466 0.518785298
0.492472738 0.624415159 0.525363743
0.522707105 0.625553608 0.530297279
0.561416745 0.625174165 0.531941533
0.610752761 0.627577484 0.537001967
0.684376717 0.639595211 0.538013518
0.797723293 0.684630215 0.590132952
0.917141080 0.733206630 0.650221229
0.567741811 0.764705658 0.603162348
0.575711370 0.763693750 0.606198430
0.594687223 0.765464723 0.603289306
0.628336549 0.769765973 0.605439484
0.685642123 0.778115153 0.613409400
0.749778450 0.779886067 0.613282621
0.828209996 0.784946263 0.626565516
0.930044115 0.823150098 0.684503496
0.669069946 0.910056949 0.709803760
0.678684175 0.912081122 0.712080836
0.695888758 0.916381955 0.716128945
0.730549991 0.917520404 0.719671130
0.772169590 0.919544637 0.716002405
0.828969121 0.919417739 0.725363731
0.890828431 0.922960222 0.729411721
0.965464592 0.929917574 0.747248530
0.287918717 0.205565736 0.589500189
0.319291532 0.213788792 0.589500189
0.388615012 0.223909080 0.579380453
0.467678487 0.238709465 0.573434472
0.551929116 0.254522473 0.560404897
0.636432707 0.274130464 0.544338942
0.780265570 0.341303259 0.588741004
0.910815895 0.437064767 0.637065411
0.314864188 0.266666710 0.558886886
0.341302723 0.262998283 0.552688003
0.390132874 0.275648355 0.553193867
0.462998182 0.283870935 0.548640013
0.536749005 0.290449083 0.541176260
0.633269846 0.305502772 0.544085920
0.766476810 0.374320269 0.582669497
0.901454568 0.459835678 0.639215767
0.345856726 0.354332834 0.537128389
0.363187760 0.352308542 0.524730980
0.404048204 0.357115477 0.535863042
0.468817025 0.355471283 0.535230875
0.536242843 0.358633459 0.526249349
0.623908818 0.380645186 0.536495447
0.763187647 0.440480828 0.591018021
0.889816523 0.524225116 0.655913711
0.374319971 0.422264218 0.523719251
0.398735166 0.429854542 0.525237322
0.439468563 0.437317908 0.526881576
0.484377116 0.436558992 0.523339748
0.544718623 0.444402099 0.530929685
0.634408355 0.466666371 0.549652338
0.752435029 0.521821916 0.602530062
0.883364856 0.597090364 0.671220660
0.415559709 0.502339900 0.526755214
0.432764024 0.512207329 0.539152026
0.469576001 0.515370131 0.539658248
0.528905571 0.537760735 0.562681675
0.600506127 0.557748199 0.585452139
0.666287124 0.574573159 0.599241138
0.764958799 0.617709994 0.640227735
0.877545893 0.682732522 0.699051261
0.481973469 0.620872736 0.577735722
0.501707911 0.624288261 0.584313452
0.538393497 0.632511199 0.592283368
0.587349653 0.644781470 0.611638010
0.641365945 0.659203112 0.626818478
0.697280467 0.659962177 0.628463209
0.790892065 0.695130050 0.669196725
0.906894386 0.745350659 0.723719478
0.584819734 0.756357014 0.662239313
0.592410028 0.763440967 0.661733449
0.620746076 0.761796236 0.672865450
0.656040609 0.767362237 0.684123695
0.697659910 0.770145297 0.686527431
0.752435327 0.773940325 0.689563751
0.817457318 0.786464274 0.698165715
0.925110698 0.830993116 0.749778509
0.704490840 0.905629516 0.767488778
0.721568644 0.905502796 0.784187436
0.731056154 0.902466595 0.776344299
0.745857000 0.907653451 0.776596785
0.774826229 0.911574781 0.776976347
0.827324450 0.914737701 0.778494537
0.892852783 0.921315491 0.787223220
0.959139526 0.931815326 0.802023709
0.346363008 0.288804561 0.744971573
0.376091093 0.290575266 0.739531815
0.440354079 0.301454991 0.739658296
0.521315634 0.313472629 0.733712912
0.616318643 0.325616360 0.722201109
0.710816026 0.342947572 0.713346064
0.802150249 0.365591288 0.702466547
0.916761637 0.457178950 0.730170667
0.369892716 0.335989773 0.723465860
0.388867527 0.337761015 0.726881742
0.447691351 0.344465375 0.726502120
0.526755035 0.351423174 0.716255546
0.610752642 0.362934828 0.715369821
0.708159328 0.376217604 0.702466547
0.794686794 0.392915547 0.692852855
0.903984547 0.475901604 0.727513909
0.402530193 0.420619786 0.707020521
0.424541593 0.421252370 0.711322069
0.468311369 0.426692158 0.702593446
0.534851313 0.428969264 0.700442910
0.615686238 0.433776259 0.697786450
0.697912633 0.437191844 0.692093611
0.793421745 0.458697140 0.695382655
0.897532821 0.538646340 0.727514207
0.448070914 0.511321962 0.691840887
0.463883609 0.509045005 0.685135841
0.503099024 0.508918166 0.689057231
0.552182198 0.510183632 0.683997154
0.620366693 0.516761661 0.683617592
0.692852557 0.517520547 0.683617711
0.784819841 0.543833196 0.692979276
0.891840637 0.609234691 0.742694378
0.479063839 0.582542658 0.679569721
0.495888442 0.588235259 0.689563632
0.532574356 0.592156649 0.686653614
0.583681345 0.595319331 0.690069556
0.635294318 0.598481894 0.689943254
0.701454759 0.603415966 0.691081762
0.784187555 0.630487502 0.709550858
0.887412727 0.689689815 0.759645879
0.520050585 0.672738492 0.697407007
0.537381291 0.674762905 0.693991065
0.565970719 0.671220601 0.689563632
0.607463658 0.679949284 0.698671639
0.673244953 0.693991423 0.716002524
0.730297446 0.707906783 0.730044246
0.809487581 0.730170548 0.752814770
0.895509183 0.774319708 0.797469616
0.592662573 0.766223848 0.727640867
0.603541970 0.766856313 0.731182814
0.626565278 0.769259632 0.733080447
0.668690920 0.773560941 0.742061973
0.718405962 0.780265570 0.756609619
0.774193585 0.799494028 0.773308277
0.825047314 0.807084024 0.778621256
0.920303524 0.844528675 0.825047314
0.715369940 0.904364347 0.813788533
0.722833335 0.901834071 0.827577353
0.734978020 0.904490829 0.821884811
0.770777822 0.903225660 0.832131267
0.808349371 0.908918619 0.838835955
0.844528496 0.913472593 0.841239929
0.890069366 0.919417739 0.851865768
0.958254218 0.930423796 0.863251209
0.438329935 0.401770771 0.891966760
0.461100340 0.402150303 0.885388911
0.515370071 0.412397116 0.880961359
0.590132773 0.426438808 0.884756207
0.681467116 0.445161402 0.875142455
0.774193406 0.461732924 0.867804885
0.873371482 0.483112037 0.863630474
0.957368612 0.512966394 0.858064413
0.461606473 0.445161611 0.884756446
0.479316890 0.442251325 0.875015616
0.526881456 0.452371716 0.878178537
0.599493980 0.460088432 0.873877048
0.683491528 0.476533592 0.872738719
0.776723564 0.493738204 0.874383330
0.867679000 0.507147491 0.857305169
0.960784078 0.527514040 0.863377333
0.513725340 0.522201002 0.870208502
0.528272867 0.523213148 0.871980071
0.562554896 0.531941772 0.861479878
0.620366633 0.533839047 0.867678702
0.694117725 0.541176438 0.863503933
0.775585055 0.551043689 0.864263177
0.861100376 0.562428713 0.857052326
0.948260427 0.580139160 0.853889585
0.562428951 0.609361291 0.855787396
0.571157396 0.613409162 0.854142725
0.601138771 0.615812898 0.856166661
0.652625084 0.616065621 0.856799603
0.705629170 0.622517228 0.857684851
0.778241694 0.624288261 0.850980282
0.855913877 0.628336251 0.850980222
0.938140452 0.647944212 0.853889823
0.583807826 0.683997452 0.852751434
0.596331477 0.685642064 0.847311616
0.629601657 0.689183950 0.852245510
0.672738433 0.693105638 0.851865888
0.721441984 0.694243968 0.849082768
0.782416523 0.697786212 0.853004396
0.849462152 0.697786391 0.846679568
0.922706962 0.720809937 0.850221395
0.619860828 0.762049437 0.850980282
0.630487025 0.762428880 0.855281353
0.655028224 0.764073133 0.857937932
0.690954924 0.763567388 0.858190954
0.738266766 0.765717924 0.851233423
0.790765226 0.771157265 0.855660856
0.852371633 0.773054540 0.853636861
0.925363541 0.791903555 0.865780950
0.652118623 0.836179793 0.858317316
0.660467982 0.837824047 0.864136398
0.678557992 0.834155560 0.857052326
0.717520237 0.836179793 0.860467970
0.759139538 0.834534943 0.861226857
0.813029706 0.839468777 0.861985862
0.858697236 0.849209487 0.872865558
0.933460057 0.871979654 0.891714036
0.719544590 0.920809746 0.865780950
0.723719180 0.922074616 0.886780620
0.748260617 0.921315491 0.877672434
0.771283805 0.918406010 0.886780620
0.808854997 0.918152928 0.892093539
0.857178867 0.922580719 0.900948644
0.904743850 0.928146541 0.914863586
0.954585612 0.937634468 0.929917574
