Assets/EldamarStudio/100 Retro LUTs Pack/LUTs/cube/Glenn LUT.cube
LUT_3D_SIZE 5
DOMAIN_MIN 0.000000 0.000000 0.000000
DOMAIN_MAX 0.903226 0.903226 0.903226
0.007843000 0.000000000 0.003922000
0.266793400 0.041492712 0.057179291
0.502846420 0.063504398 0.080455415
0.764073133 0.177609116 0.169766128
0.983427942 0.299683630 0.286653757
0.161163703 0.201391399 0.071600288
0.273624688 0.197469980 0.063757285
0.500569105 0.249841824 0.120050684
0.756230533 0.314231277 0.191651002
0.982416093 0.387855798 0.303604960
0.298165828 0.441998810 0.170018986
0.356356412 0.448956490 0.176597401
0.507399976 0.451866210 0.177229404
0.743832946 0.499936670 0.237697706
0.973054767 0.558506966 0.351423025
0.410120249 0.704237998 0.292473257
0.479316831 0.703984678 0.310436547
0.595066369 0.707906544 0.313345820
0.763061285 0.708159268 0.325743258
0.968374491 0.747754335 0.437950939
0.622770429 0.933712780 0.544212639
0.655913830 0.935989678 0.557115853
0.727134645 0.936369658 0.563314140
0.848070979 0.936242759 0.572548628
0.986084759 0.932320774 0.592662573
0.113724999 0.055534583 0.173940405
0.234408692 0.069955997 0.163820699
0.438456655 0.148513407 0.212903529
0.689816892 0.256672680 0.292346388
0.951422751 0.359392524 0.391144812
0.193548411 0.179506689 0.161163688
0.261227131 0.197469980 0.179506704
0.443390399 0.254395992 0.237697691
0.693485260 0.330929369 0.304743826
0.949778438 0.420493394 0.395445675
0.311195403 0.400506109 0.255281270
0.365212113 0.407716662 0.265528411
0.475648135 0.415938944 0.266793430
0.707526803 0.490448982 0.327640414
0.950790763 0.570651531 0.438962787
0.432511151 0.677799106 0.366982847
0.485894978 0.685009599 0.386970103
0.592156947 0.684377134 0.384187132
0.746742249 0.687286258 0.391144991
0.948386908 0.745730102 0.498671681
0.636812031 0.926249027 0.587476373
0.661859632 0.928525925 0.595951557
0.732700884 0.930423379 0.602530003
0.845793962 0.930170596 0.609234452
0.977102935 0.931688786 0.632510781
0.197469994 0.110562563 0.390385389
0.302087426 0.131815106 0.366603523
0.432890773 0.164831981 0.346615821
0.664515853 0.272738993 0.421631932
0.904996634 0.419355035 0.527260959
0.270714819 0.248197109 0.338520080
0.321062416 0.251486510 0.332574069
0.430233985 0.272359103 0.349525660
0.645414293 0.356736124 0.431878686
0.893232167 0.486653954 0.545477211
0.347880960 0.397596776 0.369513243
0.393928111 0.418216497 0.396963775
0.480582207 0.439468801 0.404807240
0.666034102 0.494750261 0.466666520
0.904996753 0.596457779 0.574952185
0.476407111 0.649082959 0.500695944
0.510056973 0.656925976 0.500063360
0.591144681 0.662112355 0.507147074
0.720936120 0.670967996 0.522960544
0.926628768 0.755597949 0.619481146
0.663883328 0.916761637 0.678810775
0.683744669 0.913852036 0.683870852
0.741555810 0.918026805 0.688804150
0.841619074 0.923339784 0.689437211
0.973687172 0.930550218 0.716887772
0.303099126 0.223782241 0.626945138
0.380265683 0.239089534 0.624921143
0.526122510 0.264263421 0.608349264
0.676913261 0.293358862 0.582795203
0.911574781 0.441619068 0.658317804
0.354965001 0.344971538 0.593548119
0.406072229 0.350790679 0.591271281
0.522833645 0.358127534 0.579127133
0.672991693 0.377355844 0.578241706
0.895888746 0.511574626 0.673624098
0.409234822 0.487539679 0.562428892
0.459708989 0.493485361 0.572928250
0.555218339 0.505882144 0.580771685
0.678431511 0.534977615 0.603288949
0.886400938 0.640354216 0.699810207
0.504238009 0.654269397 0.617204428
0.552814722 0.664642692 0.619607687
0.632637620 0.683997393 0.649335802
0.732701123 0.699431121 0.670967996
0.912207782 0.770398378 0.749525607
0.707273960 0.905376434 0.778874218
0.730297089 0.903478682 0.795066535
0.766729653 0.907653451 0.797216773
0.838709950 0.916508615 0.793421626
0.954079747 0.932827532 0.814168036
0.438329935 0.401770771 0.891966760
0.495888621 0.409613758 0.882479489
0.631119192 0.431878597 0.875015736
0.800758958 0.467551887 0.866540015
0.957368612 0.512966394 0.858064413
0.502087474 0.500442743 0.874003768
0.541302502 0.508412302 0.866792917
0.651739478 0.519418180 0.870082498
0.795572281 0.538140059 0.865528166
0.949272275 0.565211773 0.855407655
0.573687196 0.651486576 0.858064592
0.610626101 0.653510571 0.859708846
0.688045621 0.658064604 0.856799603
0.796584189 0.664895475 0.848829806
0.928652585 0.682858765 0.856799603
0.630992830 0.781530738 0.852498412
0.656293452 0.779253781 0.850854039
0.717773438 0.785452068 0.859455764
0.809234798 0.788108587 0.858696580
0.922327638 0.816192210 0.871094048
0.719544590 0.920809746 0.865780950
0.743959308 0.916508496 0.882985592
0.790006638 0.918152928 0.891334355
0.868817091 0.925616443 0.901454449
0.954585612 0.937634468 0.929917574
