Assets/EldamarStudio/100 Retro LUTs Pack/LUTs/cube/Glenn LUT.cube
DOMAIN_MIN 0 0 0
DOMAIN_MAX 1 1 1
LUT_3D_SIZE 32
0.007843000 0.000000000 0.003922000
0.035167385 0.006072000 0.009994000
0.062491775 0.016445000 0.018216226
0.097406477 0.027324161 0.031119321
0.143327087 0.035673548 0.047817998
0.191903859 0.038709935 0.053889997
0.230360642 0.041745678 0.057432320
0.266793400 0.041492712 0.057179291
0.302467078 0.038456902 0.055661093
0.335863531 0.035420511 0.058697484
0.377988726 0.029475000 0.058823999
0.408348978 0.029475257 0.060847737
0.436052918 0.035926998 0.065021999
0.469450027 0.048324030 0.071347035
0.502846420 0.063504398 0.080455415
0.538646579 0.078684792 0.089563802
0.575079381 0.095382988 0.101707801
0.612777114 0.113598973 0.116255142
0.655282021 0.131815016 0.128399938
0.695003390 0.147248372 0.143327370
0.730676711 0.162428737 0.156609997
0.764073133 0.177609116 0.169766128
0.797343016 0.192915976 0.184946492
0.827703834 0.211132005 0.200126916
0.862618566 0.227071270 0.217583984
0.899051309 0.242251649 0.234408647
0.932954073 0.257937998 0.249082997
0.954206407 0.276153982 0.261226982
0.983427942 0.299683630 0.286653757
0.997849226 0.320429921 0.310436159
1.000000000 0.340417176 0.331688583
1.000000000 0.364706010 0.352941006
0.032131776 0.018215999 0.009994000
0.041239388 0.027324388 0.019101612
0.081467316 0.031246163 0.025174163
0.116634935 0.040733773 0.032131776
0.152814537 0.051612932 0.041745998
0.182795465 0.059962317 0.047817998
0.226312250 0.065528385 0.051359676
0.267046005 0.065781064 0.057684932
0.304743797 0.062745094 0.057938002
0.335863531 0.059709288 0.049589101
0.369259864 0.062491901 0.055534612
0.405312836 0.062871642 0.057811867
0.436052918 0.067046389 0.063124739
0.469702989 0.074889392 0.071347035
0.505882025 0.081720397 0.080455415
0.539279044 0.099303983 0.091966994
0.573561192 0.115116805 0.104743801
0.609108150 0.131182551 0.118658960
0.649209201 0.146995410 0.128399953
0.694497287 0.159645393 0.148893371
0.728779435 0.174572736 0.162681982
0.762049377 0.187729120 0.172801986
0.797596037 0.199114487 0.182163090
0.833775818 0.220240399 0.203162536
0.866413832 0.236179665 0.213788897
0.899304330 0.252751350 0.231119648
0.930929661 0.269576073 0.249082997
0.957242072 0.285262376 0.261226982
0.986464262 0.303478360 0.283997625
0.999114394 0.325236768 0.307400554
0.998229027 0.345603585 0.329538345
0.993928015 0.367741615 0.352941006
0.062871777 0.047185320 0.022517774
0.063377388 0.051992159 0.020872613
0.081087545 0.054648772 0.034281772
0.122833543 0.058950000 0.040354226
0.157495096 0.068943545 0.045287777
0.190132707 0.078051932 0.046046998
0.223655641 0.086780772 0.051739451
0.262871414 0.086274773 0.051486067
0.301328212 0.083491549 0.057052322
0.331689030 0.081847258 0.051866002
0.367109656 0.086780675 0.057179000
0.400506020 0.089816280 0.059202999
0.435041040 0.093990996 0.065528221
0.469450027 0.100316025 0.075648032
0.503984690 0.108285762 0.084756412
0.535863400 0.119670756 0.091966994
0.572296202 0.136368960 0.105629191
0.607590139 0.150284350 0.119544566
0.645540774 0.162428752 0.128652975
0.684124112 0.176976562 0.144592375
0.723972023 0.187223285 0.160152003
0.755850792 0.200885534 0.174319997
0.791271269 0.211511746 0.185578480
0.829727829 0.230739906 0.206830904
0.861733079 0.245288044 0.216824502
0.893738151 0.261859745 0.228715867
0.924604416 0.278557867 0.247944355
0.955218196 0.290449202 0.263377756
0.987349629 0.310436517 0.283997625
1.000000000 0.330423713 0.308285922
0.997343421 0.353447109 0.329917818
0.990006208 0.377229542 0.352941006
0.089942999 0.080582157 0.033902999
0.091966935 0.081087768 0.030360550
0.101075098 0.081973158 0.034281772
0.127387479 0.083238319 0.044402160
0.162302256 0.089310318 0.051233161
0.195193037 0.097533092 0.052624933
0.230360314 0.106641479 0.053384159
0.264136583 0.110057160 0.058317609
0.299051166 0.106262058 0.054522321
0.329411834 0.106767997 0.056040648
0.363061577 0.110056996 0.059456158
0.400000095 0.114105061 0.065274999
0.433396757 0.119417965 0.068690643
0.468944013 0.125363454 0.080202162
0.500316441 0.132447571 0.088298410
0.533839583 0.143959150 0.097532995
0.568754196 0.156356514 0.106894352
0.606957555 0.170904309 0.121442147
0.642757833 0.180645138 0.131182969
0.680455744 0.192789525 0.144592211
0.715623140 0.205439731 0.159139991
0.753067255 0.214548126 0.171284005
0.786970377 0.226565644 0.188867494
0.824162066 0.243643314 0.207842901
0.855534554 0.256040424 0.218975157
0.889690101 0.268438131 0.231751814
0.919038296 0.286148131 0.246932238
0.950158358 0.296774268 0.264389902
0.982289612 0.315243810 0.285262793
0.998734832 0.336496174 0.307021081
0.996963859 0.357748598 0.331309110
0.988234997 0.384314001 0.352941006
0.108159088 0.113978542 0.040354453
0.117267378 0.110942252 0.040734001
0.126375765 0.109677091 0.042504773
0.144465700 0.110183157 0.045920160
0.175964549 0.113219544 0.047059000
0.200253323 0.119291544 0.059202995
0.234281987 0.127893865 0.060594771
0.267931551 0.132068545 0.062112994
0.300948977 0.132827446 0.065908000
0.331309021 0.135863066 0.059835996
0.362808287 0.136369094 0.059962451
0.397722781 0.138393253 0.064895734
0.434914380 0.143706635 0.073624097
0.468058527 0.153067991 0.082985520
0.495509386 0.156483129 0.089310542
0.530044496 0.165970638 0.100568987
0.567995191 0.177735373 0.112713374
0.606578112 0.189500526 0.124857984
0.639974594 0.201644570 0.137002021
0.678558111 0.211764902 0.149146020
0.713852167 0.221631989 0.162049189
0.748893082 0.233143672 0.176217541
0.788108468 0.242252022 0.188488036
0.821505606 0.256926358 0.203668460
0.851866245 0.268311262 0.215812832
0.883617997 0.278431326 0.230107650
0.921695113 0.291461498 0.250348061
0.945983887 0.306641072 0.265528440
0.974825919 0.324098647 0.284883261
0.992156565 0.342947602 0.306135625
0.995445609 0.364200026 0.328273505
0.989373565 0.385452449 0.352561563
0.126375869 0.147374928 0.049462065
0.135483488 0.144339323 0.052498449
0.144591779 0.141303033 0.052877996
0.160025313 0.138772711 0.055913929
0.185072929 0.137507543 0.059202995
0.203288928 0.140543923 0.047059000
0.235167369 0.149146244 0.059202999
0.264136404 0.153320938 0.063883767
0.292220175 0.154079840 0.066666998
0.325237036 0.157115459 0.065908000
0.364326626 0.160151809 0.068564132
0.394181192 0.162681594 0.069070064
0.425806552 0.167994633 0.072865002
0.458950132 0.177355990 0.079949133
0.489310890 0.189499989 0.092093892
0.523971975 0.195319533 0.105629116
0.561922729 0.203921601 0.118785381
0.600759149 0.213535562 0.130929977
0.636938989 0.222896948 0.143074021
0.673118651 0.237824306 0.155218020
0.706261992 0.244402185 0.163566992
0.739152312 0.251992255 0.173181310
0.775964439 0.263504416 0.185452431
0.809360921 0.272612035 0.200632855
0.847311914 0.287286311 0.220367208
0.880581915 0.298671573 0.238203898
0.912966251 0.309803993 0.256420076
0.945983887 0.327893436 0.271600425
0.970271945 0.343073756 0.284123987
0.990259171 0.356988966 0.303099245
0.999493957 0.373307645 0.325237274
0.998481929 0.394560069 0.349525928
0.144592002 0.175711319 0.061100643
0.153700262 0.172675699 0.056546707
0.167109415 0.173940539 0.059582546
0.179506794 0.174193487 0.062491998
0.198861778 0.172928408 0.067046002
0.214926988 0.167362258 0.059202999
0.240733951 0.170398638 0.054649319
0.270841330 0.176217601 0.065148607
0.297533303 0.178620994 0.069196679
0.329158515 0.183427840 0.069196679
0.363314629 0.191524193 0.072106451
0.394687265 0.196584314 0.079190575
0.426565647 0.201264635 0.085262634
0.462998062 0.209234372 0.094623640
0.497912824 0.221378952 0.106767826
0.535483718 0.231119141 0.118911989
0.570524931 0.238836184 0.133965507
0.607969820 0.247311622 0.145224586
0.646299958 0.254522294 0.151676342
0.682732701 0.261606365 0.161290005
0.719165444 0.276786715 0.173434466
0.751802742 0.283364624 0.183807760
0.786337793 0.292346507 0.197343796
0.814927220 0.301454753 0.207716584
0.852877557 0.312839627 0.227450952
0.889563620 0.326375633 0.244529009
0.920556664 0.337128639 0.260468304
0.949905276 0.351296633 0.277672440
0.977862239 0.366856456 0.300315976
0.991524279 0.380265594 0.316002399
1.000000000 0.395066231 0.338266879
1.000000000 0.416318655 0.364199996
0.161163703 0.201391399 0.071600288
0.173561096 0.198355362 0.063883997
0.182036772 0.204554334 0.064263225
0.194687158 0.202529952 0.064769156
0.210246995 0.204048157 0.069702707
0.229221761 0.199999765 0.068690710
0.249588951 0.196078300 0.070082314
0.273624688 0.197469980 0.063757285
0.303225994 0.202782884 0.071347095
0.335357040 0.210626110 0.072232708
0.366982907 0.219607577 0.078431569
0.397976249 0.225047410 0.083871253
0.425300628 0.233396396 0.092979349
0.462745041 0.240480393 0.105123349
0.500569105 0.249841824 0.120050684
0.536116481 0.259582609 0.132194683
0.575584888 0.268690586 0.141302690
0.610499799 0.277166396 0.155470982
0.649968266 0.283238411 0.161543265
0.681720734 0.292599410 0.168501064
0.719797730 0.301075131 0.179506466
0.756230533 0.314231277 0.191651002
0.790259480 0.321188718 0.206072271
0.820619881 0.331815302 0.216698095
0.855407953 0.338266701 0.231625274
0.890701652 0.349019349 0.250094652
0.923339725 0.360910982 0.263504416
0.951802671 0.373054981 0.281720698
0.982416093 0.387855798 0.303604960
0.994054258 0.404554367 0.324351400
0.999240875 0.418469399 0.343453586
1.000000000 0.438962698 0.369260013
0.177102998 0.227198184 0.079190105
0.190765381 0.224920884 0.073118478
0.198735088 0.230360538 0.071094327
0.210626259 0.235168025 0.072359160
0.219355106 0.227577642 0.071979992
0.241366088 0.230613247 0.079569988
0.261353642 0.226059183 0.081087999
0.280455589 0.224794179 0.080455489
0.302467078 0.224794179 0.075142190
0.338899106 0.236938968 0.078178585
0.368753731 0.246932223 0.085515775
0.399873406 0.252751470 0.093358994
0.430613726 0.258444101 0.101328447
0.458444118 0.269829124 0.110183090
0.496900469 0.275395185 0.126375720
0.531562328 0.283870786 0.138266891
0.567995071 0.292979211 0.149651989
0.606831014 0.302087575 0.158254132
0.646173000 0.308286101 0.170651197
0.677546084 0.319165200 0.177229702
0.710942686 0.329411745 0.184819892
0.747881234 0.338520080 0.196964085
0.784313917 0.347374707 0.209234595
0.818342865 0.357621908 0.222011194
0.852498472 0.365211904 0.235673368
0.886906922 0.371789724 0.251612663
0.917773187 0.380898148 0.268311143
0.948386967 0.392789185 0.287033886
0.979126751 0.408348888 0.305629224
0.996837080 0.423023403 0.329664499
0.996963620 0.440481067 0.345730692
1.000000000 0.458697081 0.366983116
0.195319012 0.257559001 0.082226500
0.204427391 0.257559001 0.085262872
0.209487796 0.259582698 0.083491720
0.222770661 0.260468185 0.081973501
0.246679485 0.257938445 0.084124006
0.252751499 0.260974050 0.102339998
0.272232831 0.256420016 0.094750009
0.291713983 0.256926000 0.088298723
0.311574727 0.261226982 0.087286979
0.335863501 0.261226952 0.093358971
0.363567352 0.273370981 0.096394621
0.395066231 0.281341016 0.103731781
0.428336442 0.288425356 0.113852002
0.461480528 0.297153533 0.125363484
0.494876862 0.300189942 0.131435484
0.528526247 0.308159202 0.138013527
0.564958692 0.317267209 0.148892716
0.603794634 0.326375604 0.164326131
0.640227497 0.335483998 0.182542950
0.679570138 0.344465882 0.189373970
0.714737713 0.353700250 0.193548262
0.747375250 0.362808168 0.199999779
0.778241992 0.371663511 0.212270990
0.814674020 0.374699920 0.227451399
0.846426070 0.384946495 0.240227953
0.878431141 0.396710962 0.255281448
0.911701202 0.408222556 0.274383157
0.945098341 0.417330950 0.298671901
0.970398426 0.434534937 0.312080979
0.989753187 0.447311670 0.338772833
0.999873459 0.458570570 0.366477102
1.000000000 0.473877490 0.376091510
0.219354734 0.285009861 0.108538866
0.213915259 0.287918985 0.094117515
0.225173876 0.292219996 0.101454899
0.233017161 0.293485045 0.100189865
0.250095010 0.291208327 0.097280324
0.271346986 0.294243932 0.102845997
0.282479614 0.292220175 0.108412318
0.302593589 0.291461021 0.108032867
0.322833836 0.295508981 0.108033001
0.344971865 0.297659725 0.105502993
0.366350740 0.294749886 0.105756000
0.397723109 0.304870129 0.110815868
0.428842515 0.312966645 0.119038641
0.458697170 0.322074711 0.129158825
0.492093503 0.330423415 0.137887001
0.520682931 0.338266790 0.148766607
0.557621539 0.345856726 0.158886731
0.597849131 0.354206026 0.170777857
0.634281993 0.365591705 0.179886073
0.665148735 0.371916741 0.189753488
0.702340603 0.379000872 0.199746996
0.739785254 0.387096882 0.208854869
0.777736008 0.396078736 0.220872626
0.808601975 0.401897788 0.230487034
0.842757821 0.409487575 0.241113409
0.875142515 0.419607639 0.255407989
0.908538938 0.430233866 0.273624122
0.941935420 0.441745430 0.293105870
0.972675800 0.448197663 0.314737797
0.986843824 0.463630468 0.338266790
0.995951951 0.476786554 0.364452749
1.000000000 0.491966993 0.373561144
0.237571254 0.316382229 0.125742987
0.237570971 0.321442097 0.108538866
0.240354508 0.326628506 0.112586766
0.251233339 0.327640504 0.117899984
0.261100531 0.324604809 0.114104986
0.280455261 0.327640831 0.115496315
0.300695628 0.329664558 0.118532568
0.312839955 0.324984223 0.116635256
0.332194895 0.326881588 0.120430157
0.352182508 0.329917997 0.118152991
0.375458598 0.327134609 0.117899984
0.396710992 0.328146756 0.119924247
0.427830368 0.338393509 0.127134606
0.455660820 0.348134279 0.136495784
0.489057660 0.355471075 0.147375092
0.525743067 0.366603047 0.150790602
0.556103468 0.374193251 0.161416799
0.594560146 0.380897820 0.173054874
0.628210008 0.391650915 0.181910276
0.663124740 0.400253266 0.192789346
0.699177682 0.404427499 0.201897740
0.734724820 0.411385119 0.212903127
0.773814023 0.420366973 0.224035010
0.806072295 0.426438987 0.235041171
0.838709593 0.436812460 0.246173292
0.873498082 0.444528729 0.262239307
0.907021046 0.452498496 0.281214476
0.938899159 0.461606503 0.297912627
0.967615664 0.474509925 0.316761822
0.990891993 0.484124213 0.339784920
0.996204972 0.497280121 0.366982579
1.000000000 0.510183513 0.380644977
0.256166995 0.360025287 0.140164286
0.260341525 0.361543268 0.125363633
0.265528172 0.365338266 0.125237286
0.274004102 0.369765908 0.134598285
0.283111811 0.364073336 0.134598285
0.296774209 0.365591556 0.134598285
0.312460303 0.367488950 0.135989964
0.333333284 0.369006902 0.137507990
0.347754359 0.364452899 0.132953987
0.366350621 0.367109776 0.135610148
0.385831624 0.364326417 0.134598285
0.410372883 0.365338534 0.137760893
0.432763934 0.368374646 0.138519987
0.460341305 0.380012661 0.146868646
0.492852569 0.386084646 0.155471191
0.528779447 0.395825267 0.163693994
0.565211833 0.406071931 0.165971085
0.599240780 0.412143916 0.175078690
0.630613685 0.420746237 0.186717302
0.666540384 0.428716004 0.196584657
0.700316310 0.435167521 0.211385369
0.739784718 0.440227419 0.221505642
0.773434103 0.449209273 0.230992779
0.806831062 0.455281258 0.244149446
0.840227962 0.464769185 0.255154997
0.872738659 0.474130630 0.269449651
0.907147467 0.480202645 0.291714340
0.936242640 0.486274660 0.306261510
0.967362463 0.499177814 0.329791278
0.987096965 0.512587249 0.349272549
0.999114394 0.524731278 0.375331819
0.998861372 0.534092665 0.397343278
0.279949069 0.417710066 0.157875001
0.284503788 0.412397027 0.149272606
0.291334957 0.410373062 0.147754773
0.299937010 0.411638170 0.153067991
0.311954528 0.414421499 0.157369003
0.321062922 0.411385119 0.157369003
0.330423683 0.410879046 0.158128038
0.346742362 0.412523746 0.160025343
0.369766086 0.414042026 0.161796063
0.391018450 0.414042026 0.161796063
0.404807001 0.411638170 0.159645915
0.426565260 0.412397265 0.161670029
0.452498227 0.415180385 0.164073363
0.477040023 0.418469101 0.162049040
0.507399976 0.424541086 0.162049040
0.540164411 0.432763845 0.173560828
0.573308170 0.441872180 0.182669148
0.607337117 0.450854063 0.186970443
0.643769979 0.456926078 0.196078092
0.680455744 0.462745011 0.203162715
0.711448729 0.468564063 0.217457697
0.742315173 0.475648135 0.235421002
0.781530499 0.484756500 0.247817978
0.814926982 0.490954995 0.263124883
0.848576844 0.498798311 0.274256736
0.880834937 0.507021010 0.286400646
0.910436094 0.513346076 0.301328003
0.934724867 0.519418061 0.313472003
0.969386578 0.530550003 0.343453467
0.991397977 0.542188466 0.367741942
0.999114394 0.554839015 0.389753193
0.996078014 0.566983044 0.420114011
0.298165828 0.441998810 0.170018986
0.286021829 0.445034415 0.166982591
0.297027230 0.441872150 0.158380762
0.309044898 0.441998661 0.163187996
0.321189404 0.445034504 0.175078988
0.333206922 0.447817862 0.163441002
0.344844997 0.447311789 0.171031311
0.356356412 0.448956490 0.176597401
0.371789664 0.448956698 0.179000825
0.387982100 0.441366404 0.173940822
0.415053457 0.444275528 0.179759815
0.435167253 0.444022387 0.175838411
0.457684606 0.444654971 0.172296122
0.480075598 0.445793480 0.168121025
0.507399976 0.451866210 0.177229404
0.540164411 0.457938224 0.184440210
0.572043002 0.466160595 0.191777214
0.604300678 0.475901127 0.196078151
0.640733540 0.487286836 0.205186471
0.679949701 0.490575463 0.219860777
0.713092983 0.494244128 0.227450982
0.743832946 0.499936670 0.237697706
0.778494895 0.509044468 0.247817978
0.811891317 0.518152833 0.266034007
0.847564936 0.522074640 0.281340837
0.881973624 0.530550361 0.296647370
0.913725436 0.540923476 0.313725054
0.940796852 0.549778819 0.328652382
0.973054767 0.558506966 0.351423025
0.992915809 0.566476822 0.372296154
0.999114394 0.577356339 0.393421978
0.996078014 0.594307423 0.426185995
0.309171200 0.478304774 0.184566796
0.311448783 0.476534009 0.188741207
0.312207788 0.477419406 0.172801822
0.325363606 0.477166444 0.171536997
0.336748987 0.480202138 0.184060544
0.344844997 0.483238518 0.173940793
0.356988996 0.483744591 0.186717302
0.372422397 0.485388905 0.187602982
0.387602597 0.486147970 0.188361898
0.404427290 0.478684276 0.183934197
0.424035460 0.476407528 0.182289988
0.445287585 0.479443133 0.186337739
0.467299074 0.479822606 0.187096834
0.489816636 0.479822606 0.187855601
0.512840033 0.481593817 0.190512210
0.540164411 0.485262781 0.197216794
0.569006979 0.492852569 0.204806983
0.599493682 0.501960337 0.208728373
0.637697756 0.512333930 0.214294776
0.672106326 0.516129196 0.221758366
0.709677696 0.522959888 0.235040992
0.743074059 0.530044198 0.246173248
0.777862489 0.540164411 0.259582788
0.811258912 0.542441547 0.273244798
0.842378557 0.549272656 0.289184064
0.878557920 0.555218458 0.305755764
0.912966371 0.565338612 0.323465854
0.944086254 0.572549224 0.338646203
0.974319756 0.579253733 0.359392613
0.993548214 0.591903746 0.385452151
1.000000000 0.602530360 0.404048175
0.998481810 0.619228601 0.429854810
0.321315169 0.513219357 0.196711197
0.325869769 0.513219416 0.204300985
0.334977984 0.510816157 0.203162596
0.341049999 0.512081027 0.183175042
0.351928979 0.515116751 0.192789093
0.358000994 0.518153131 0.191651121
0.370651186 0.518659174 0.194686994
0.386084616 0.518785655 0.205818996
0.403542280 0.520303309 0.200506091
0.420999378 0.514990211 0.197469890
0.436179727 0.513345897 0.195952058
0.458950162 0.512839913 0.199999914
0.477166176 0.514737189 0.199620172
0.500442863 0.514737189 0.205819026
0.521695197 0.514737189 0.204554200
0.547754586 0.517140985 0.207842991
0.575079381 0.518659174 0.212397188
0.600632370 0.527766943 0.219101757
0.637444735 0.536875367 0.223909169
0.671347618 0.541935563 0.229728207
0.706641257 0.547248662 0.238076985
0.742062151 0.556356549 0.252245247
0.777862489 0.567868650 0.270335495
0.811258912 0.572043002 0.283871204
0.843896329 0.576597393 0.298292071
0.872865438 0.579886377 0.314864129
0.907400012 0.589121163 0.331562251
0.938772917 0.597217143 0.344718605
0.972548902 0.603289127 0.366729766
0.993548214 0.611638367 0.388488144
1.000000000 0.625933170 0.416698188
1.000000000 0.640480995 0.437444985
0.335863143 0.543580115 0.208981976
0.341429353 0.547880769 0.218089744
0.348386973 0.546615899 0.219101772
0.359898567 0.545477569 0.218342796
0.365591079 0.548892736 0.202023670
0.371410161 0.552182078 0.212903440
0.385072470 0.551423132 0.213662237
0.399999797 0.552688122 0.214927137
0.418722510 0.552561641 0.219354644
0.433902889 0.549525261 0.216319039
0.446805954 0.548766136 0.215559989
0.467805237 0.548766136 0.219734311
0.493611544 0.548766136 0.225679547
0.512333632 0.548766136 0.220113546
0.533965528 0.548766136 0.217457399
0.556862354 0.551169932 0.218595743
0.584186971 0.552688122 0.221631736
0.611511946 0.553320527 0.224667966
0.641872048 0.562428951 0.233776376
0.673751116 0.568121552 0.240733996
0.708412588 0.573561132 0.248070806
0.743832767 0.580012679 0.259582222
0.777103424 0.589120984 0.277419478
0.809993923 0.598228633 0.291587889
0.843390286 0.605060101 0.306767851
0.874636233 0.610879540 0.323339313
0.902466595 0.611385465 0.341555983
0.929917395 0.623149931 0.351043850
0.963313997 0.629981101 0.372801930
0.989247143 0.637824178 0.397216707
1.000000000 0.647185564 0.419228166
1.000000000 0.659329534 0.449588984
0.348008007 0.573940992 0.233270049
0.363187611 0.583048642 0.242378429
0.366603047 0.583048761 0.234282196
0.373940200 0.581277966 0.229475036
0.386843532 0.582289934 0.232384518
0.389879912 0.588361919 0.229348913
0.403289288 0.584060967 0.232637674
0.415180236 0.585072994 0.235167712
0.428083152 0.589120984 0.237697959
0.449082553 0.588994503 0.237571478
0.464262933 0.585958123 0.234535143
0.483238280 0.585198998 0.233776048
0.507273674 0.585198998 0.236812010
0.533586025 0.585198998 0.241365999
0.557874799 0.585198998 0.241365999
0.572295964 0.587602794 0.241113037
0.593295217 0.589120984 0.242884189
0.620619655 0.589753389 0.245920420
0.647944093 0.592789054 0.248956025
0.675522089 0.596331477 0.258064419
0.707147717 0.599620819 0.265022010
0.740797102 0.603922009 0.274383128
0.774066985 0.610373497 0.289563537
0.804427862 0.619481146 0.298671931
0.837318301 0.626312613 0.312840283
0.869323313 0.635168016 0.329411924
0.899430990 0.644781947 0.347627997
0.929790914 0.647817552 0.365844011
0.957241774 0.654269755 0.385957867
0.983554363 0.662112772 0.412776381
1.000000000 0.671220660 0.439721584
1.000000000 0.680582047 0.461733043
0.382416010 0.634915113 0.265907377
0.389247715 0.638456702 0.266666412
0.395825326 0.638962865 0.269323021
0.398987740 0.637192130 0.263630390
0.409234494 0.636812568 0.265527934
0.419481665 0.635673702 0.262492329
0.427577406 0.636685729 0.259456068
0.440607429 0.634408712 0.258697093
0.455408156 0.637444854 0.260215372
0.480708569 0.639469147 0.264263362
0.493358612 0.636559248 0.266919523
0.512586951 0.635547101 0.265907377
0.531562328 0.634408474 0.264769018
0.551802754 0.632763743 0.265401721
0.573561192 0.632763743 0.265401721
0.597849369 0.635167539 0.267804921
0.617583752 0.635167539 0.269702584
0.642378330 0.633902371 0.272106379
0.665401757 0.634787798 0.272991776
0.692726076 0.635040760 0.276028067
0.721948445 0.639974892 0.283238709
0.755471408 0.643896639 0.291334718
0.790259063 0.648197412 0.304617345
0.815306842 0.654648840 0.316381902
0.845667541 0.661479712 0.330044270
0.878557980 0.667552352 0.346615970
0.909298003 0.675901771 0.364832133
0.935103953 0.681214690 0.383048713
0.965464592 0.689563274 0.411891341
0.984060287 0.699304461 0.429980785
0.998102248 0.709424496 0.457052171
1.000000000 0.718532383 0.487792373
0.397975743 0.675901771 0.280328751
0.413535774 0.673245132 0.291713744
0.417457700 0.679569721 0.293611467
0.420493305 0.677798986 0.288551480
0.425173730 0.677798986 0.286021471
0.431246132 0.676280737 0.284503639
0.452245414 0.671979725 0.287160158
0.458064437 0.673624456 0.284123778
0.470968008 0.674636364 0.282606065
0.494876742 0.677672446 0.287539750
0.511448741 0.676786840 0.288804591
0.529664993 0.675774693 0.289816469
0.549778700 0.675774693 0.289816469
0.565718055 0.673497498 0.288045704
0.583681405 0.671853185 0.289689988
0.609234691 0.674256504 0.292093664
0.633523107 0.675774693 0.293611467
0.657811701 0.673750460 0.295635730
0.680328965 0.673750460 0.295635730
0.701454580 0.671853185 0.292726368
0.730676711 0.673750460 0.301454991
0.761037529 0.678811133 0.309550971
0.795192719 0.681973457 0.321695000
0.819481075 0.688045442 0.333839476
0.852118790 0.692219734 0.348260254
