Assets/EldamarStudio/100 Retro LUTs Pack/LUTs/cube/Gregory LUT.cube
LUT_3D_SIZE 8
DOMAIN_MIN 0.000000 0.000000 0.000000
DOMAIN_MAX 0.903226 0.903226 0.903226
0.066666998 0.023529001 0.039216001
0.112460546 0.019608000 0.050980002
0.205313101 0.004680904 0.052498192
0.301581293 0.044908639 0.041998647
0.407337368 0.097786188 0.016318802
0.522959769 0.139025733 0.025426740
0.670461535 0.165337995 0.043769997
0.830613434 0.176470995 0.070714816
0.049082551 0.109677091 0.038077451
0.111701548 0.110056639 0.034155451
0.208476007 0.126122996 0.037318453
0.303352088 0.147627741 0.035800360
0.406198710 0.170398548 0.022264352
0.527640760 0.194686547 0.039595451
0.686401010 0.218342543 0.057305709
0.835420489 0.223276079 0.077798821
0.018975005 0.224035278 0.034408998
0.096141547 0.222011641 0.033270452
0.188109100 0.227957085 0.036053095
0.286021292 0.248703644 0.034408998
0.393928081 0.265528202 0.034408804
0.524731457 0.281973213 0.049588833
0.672738850 0.303985089 0.063377991
0.832890511 0.308032990 0.077419177
0.000000000 0.353067636 0.054901998
0.006198998 0.351422936 0.050854091
0.152055994 0.354965150 0.056926358
0.269576281 0.364832640 0.064389996
0.388235658 0.373813987 0.064642549
0.526755214 0.388614893 0.069702901
0.679949582 0.403542280 0.084629998
0.846046805 0.411764830 0.104237996
0.002403808 0.475522190 0.081467383
0.002403808 0.472359180 0.084250644
0.107400194 0.476281106 0.086148098
0.259203076 0.477039993 0.087665997
0.388361573 0.480961382 0.084503382
0.526122689 0.497026920 0.091208257
0.688425303 0.513852000 0.097153805
0.846679568 0.523719192 0.115875989
0.001897740 0.606831431 0.103731737
0.000000000 0.603162467 0.101961002
0.018975280 0.607463777 0.099683732
0.245793894 0.609361470 0.106767632
0.401138633 0.615939260 0.105755992
0.544212461 0.620872736 0.101707987
0.694243968 0.633017182 0.106514998
0.854901850 0.643137336 0.127514079
0.004933716 0.764579535 0.131688699
0.000000000 0.764579535 0.121821545
0.004807016 0.762934804 0.120050617
0.250727624 0.763946831 0.116002284
0.417330742 0.767615557 0.123845704
0.570145249 0.768880069 0.122580543
0.722074509 0.772422552 0.125489995
0.868311167 0.773181498 0.131561965
0.002530012 0.902466595 0.154458806
0.000000000 0.902972758 0.141808987
0.000759109 0.902086854 0.145730704
0.245034978 0.903225422 0.149272636
0.432764351 0.902466595 0.151170000
0.590512335 0.906388581 0.153699920
0.750537694 0.907273889 0.161543131
0.893358767 0.907653451 0.157115638
0.053004451 0.035294000 0.116761096
0.119164996 0.022390550 0.120303541
0.204174548 0.035673548 0.132068440
0.295383006 0.066919640 0.126881987
0.404174477 0.104617447 0.133965895
0.528020382 0.140923470 0.144971088
0.675268829 0.163061291 0.154079840
0.836812019 0.177988604 0.167235926
0.035673548 0.117140643 0.121821545
0.114484094 0.117899641 0.124605000
0.187982082 0.128905535 0.129664630
0.298545182 0.147248179 0.133966088
0.403542191 0.174319923 0.137507632
0.531182647 0.198229000 0.148893088
0.673118293 0.210753009 0.154712245
0.839975059 0.218342543 0.168753535
0.006325001 0.234282091 0.132447988
0.077672102 0.233902633 0.132827550
0.170019105 0.236559093 0.130423635
0.276913524 0.247944638 0.132321090
0.402276725 0.264389664 0.148893088
0.526755095 0.284376979 0.146868736
0.675395072 0.300442606 0.156356841
0.840354443 0.308033079 0.165591344
0.000379548 0.354585618 0.137887090
0.000379548 0.353826702 0.146616101
0.148134083 0.360910743 0.144591644
0.268311620 0.359645993 0.142568097
0.388994634 0.374952525 0.152435347
0.523592770 0.387096971 0.156356543
0.680961192 0.403921545 0.163314462
0.840100944 0.410120219 0.172422186
0.005566002 0.481087983 0.164579093
0.000000000 0.475522190 0.156736195
0.096774459 0.476660550 0.156862542
0.261226922 0.482605994 0.158507526
0.392410159 0.489310533 0.165971175
0.531688571 0.497406453 0.169259906
0.690702200 0.516761541 0.174699470
0.850600839 0.523845732 0.186970249
0.000000000 0.606451869 0.175458461
0.002024260 0.608475626 0.169259802
0.017457379 0.612650216 0.169639543
0.248830080 0.614927232 0.177862182
0.403668612 0.616445243 0.175458267
0.540164411 0.621884406 0.172042638
0.700695872 0.634535372 0.173055083
0.856799603 0.646679103 0.188741371
0.005819256 0.759013295 0.192409828
0.001644712 0.766476810 0.182416543
0.005060464 0.764706016 0.185325548
0.242883921 0.768880188 0.177103177
0.425806522 0.769259632 0.191397890
0.575205922 0.768500566 0.183681428
0.723592758 0.772042990 0.181404248
0.868184984 0.770018637 0.188867971
0.000000000 0.908285737 0.206578255
0.003542452 0.906009018 0.201518208
0.001518010 0.900948286 0.200126737
0.249589086 0.900063097 0.203415349
0.430107832 0.907526910 0.200000018
0.590132654 0.910309613 0.215180248
0.744591653 0.908032894 0.208096251
0.892852545 0.908539057 0.214800805
0.006325001 0.038456902 0.234155178
0.102213643 0.020366903 0.236179635
0.194307193 0.033649907 0.235041186
0.296142101 0.062239353 0.251613110
0.401138306 0.097912900 0.254649192
0.518152833 0.135230735 0.259076446
0.664895833 0.157621711 0.264010400
0.834028721 0.167868093 0.279316843
0.022137908 0.126502544 0.231498733
0.094497457 0.125743538 0.231878266
0.188488543 0.129664630 0.245667547
0.287918627 0.146109834 0.245920181
0.395192832 0.170398548 0.252751559
0.528399944 0.194434002 0.258570194
0.675142288 0.209740654 0.269955665
0.833396316 0.218469262 0.274636567
0.002277094 0.237444997 0.235800087
0.060594808 0.237824544 0.234661639
0.163694099 0.235800087 0.236559182
0.271094263 0.249083191 0.248703644
0.387729377 0.264010191 0.255408078
0.519670784 0.281214118 0.263251096
0.669449866 0.294623911 0.266287059
0.834534764 0.302846342 0.276660204
0.001518095 0.354965150 0.251233548
0.000759096 0.354965180 0.243263647
0.133206993 0.358507633 0.257431746
0.260594547 0.360025555 0.253131002
0.381530285 0.373813987 0.261353731
0.519165277 0.385072738 0.264895976
0.676660299 0.399620295 0.271094263
0.842378438 0.407843113 0.280708194
0.000000000 0.479570091 0.262492180
0.000379548 0.473118365 0.260467917
0.080708109 0.477039993 0.260088384
0.244276077 0.479822725 0.259329468
0.378115356 0.485768378 0.260088354
0.530170560 0.496647567 0.271221012
0.689184010 0.512334168 0.274257004
0.848703384 0.523339391 0.279823005
0.000000001 0.612144172 0.270714730
0.001138547 0.608602285 0.266160637
0.009867094 0.611764550 0.267805070
0.237570927 0.615306675 0.269196630
0.396964192 0.616445243 0.271853268
0.542188168 0.623908818 0.273877352
0.698924899 0.635294497 0.276534021
0.860720634 0.648703456 0.286780477
0.000000000 0.765970647 0.277925193
0.002024260 0.766603291 0.275521845
0.003036007 0.767615318 0.279570103
0.239342362 0.767994881 0.278557628
0.420619786 0.767615378 0.278937101
0.571284115 0.770524800 0.280455112
0.722833574 0.768627405 0.277419120
0.868690729 0.772928476 0.289942980
0.000759096 0.907526731 0.289184123
0.000000000 0.904870331 0.292726368
0.000000010 0.900063097 0.290701985
0.245161101 0.902846158 0.290828705
0.430360526 0.909803808 0.295888931
0.593168795 0.907906532 0.298292249
0.745350897 0.907020867 0.298671722
0.898797929 0.908918619 0.301075250
0.002783356 0.011765000 0.362049282
0.090575449 0.016318996 0.355344623
0.186843634 0.048197355 0.358507544
0.280202627 0.076787002 0.354206264
0.391651005 0.106135346 0.360784441
0.516634822 0.135104254 0.372296005
0.666034222 0.151802644 0.380012572
0.828968704 0.156863004 0.392915636
0.002656643 0.133586541 0.353320271
0.055281546 0.138646096 0.347754270
0.177103102 0.137381524 0.358887106
0.269323200 0.151170194 0.349778622
0.390512645 0.174319729 0.362302631
0.522959769 0.191524446 0.374193549
0.672612250 0.206957802 0.385072619
0.836812139 0.206072092 0.387729377
0.006325001 0.240860537 0.356483281
0.006704549 0.241240099 0.349399179
0.143327087 0.247185454 0.343833208
0.265148640 0.255787551 0.348513365
0.380138934 0.269955635 0.362682074
0.514737785 0.279316664 0.372548610
0.667552054 0.291208357 0.379506767
0.833649099 0.298545271 0.390512437
0.002783356 0.348640263 0.355850995
0.000759096 0.357369095 0.358507633
0.111701459 0.359646082 0.360910624
0.253383636 0.365464628 0.365970999
0.379127204 0.375332087 0.367489070
0.514610946 0.385452300 0.370651364
0.678937554 0.396331280 0.382289559
0.844402373 0.401138484 0.393295467
0.000000000 0.477799207 0.369007081
0.000379548 0.478304774 0.362808198
0.041366193 0.479443192 0.361543536
0.246553078 0.477419645 0.376343906
0.375711560 0.486021638 0.363820434
0.527767479 0.497912824 0.377735406
0.687159777 0.510056913 0.383302003
0.850600839 0.518532336 0.393674642
0.002783356 0.608855128 0.376091272
0.001518192 0.605945766 0.368248165
0.008349369 0.607716560 0.369007200
0.229474917 0.616065800 0.371030629
0.388614833 0.617204487 0.375964373
0.544339001 0.620999455 0.372802198
0.700822294 0.633776367 0.385072649
0.858317375 0.641239822 0.387729377
0.005566292 0.760657847 0.391271353
0.003036094 0.763946831 0.382922381
0.001518104 0.765338421 0.385199636
0.219228268 0.767994940 0.382289559
0.411891162 0.769386470 0.382669121
0.570145547 0.770145297 0.382416070
0.720430255 0.769639194 0.382289559
0.866160810 0.773687720 0.390133023
0.002530012 0.907779574 0.403795242
0.003035990 0.906767845 0.399494082
0.001518009 0.904490829 0.401391327
0.233523056 0.903984785 0.405313104
0.422390729 0.906514645 0.397976071
0.587729335 0.906514764 0.406451464
0.741176367 0.907653451 0.408475697
0.902593374 0.905376196 0.406324923
0.001518192 0.036812194 0.466793180
0.044781905 0.048829831 0.467678577
0.173307911 0.068817183 0.475648284
0.283870637 0.096774444 0.469450176
0.388361573 0.115875989 0.466160387
0.516887963 0.140164375 0.480329186
0.672738850 0.150538012 0.485768199
0.835926473 0.155597836 0.504996836
0.000000000 0.147754446 0.470588624
0.014674360 0.145730287 0.468943745
0.164579213 0.155850902 0.473624647
0.278178215 0.167235747 0.465780914
0.391271561 0.179000720 0.475268751
0.523718834 0.197469994 0.483870745
0.673371494 0.205060363 0.490448892
0.842631161 0.203036100 0.505882144
0.002403808 0.255281389 0.469323277
0.000758999 0.259329379 0.462998301
0.132321283 0.260847479 0.466160566
0.259582639 0.268058211 0.461859822
0.374320269 0.271853179 0.464642584
0.516381919 0.280834645 0.474256933
0.671726704 0.292347014 0.488678068
0.840480685 0.297027081 0.504870534
0.003162807 0.365591437 0.469070554
0.004807003 0.363946825 0.461480170
0.084629998 0.368248045 0.467805177
0.247691631 0.375332087 0.474509835
0.377988636 0.376470745 0.469829619
0.523592770 0.387476534 0.481088012
0.686021447 0.391777277 0.492346615
0.845793784 0.400253087 0.505250156
0.000000000 0.479443192 0.468564183
0.005186551 0.477545857 0.464642584
0.016065998 0.477799088 0.461480290
0.232004821 0.489690006 0.472486198
0.387476176 0.495129585 0.476407200
0.537128270 0.497026920 0.479570150
0.694623768 0.506135464 0.491334468
0.854142725 0.516761541 0.502719820
0.001518192 0.611005485 0.472991645
0.000000000 0.609740913 0.479949653
0.002656650 0.609740794 0.477419436
0.212903082 0.614041448 0.485515654
0.385199368 0.614800453 0.477419436
0.541808605 0.623022974 0.485641956
0.703478813 0.633396804 0.496521384
0.863503933 0.640860260 0.504490972
0.000759096 0.763820469 0.502719760
0.002783356 0.762555242 0.499304205
0.001518003 0.763820410 0.502213895
0.192789361 0.765338302 0.500189900
0.400885642 0.767741680 0.498165548
0.564579368 0.767868519 0.497785985
0.719797254 0.769133568 0.495888650
0.875268817 0.774067283 0.508285880
0.001265167 0.903984785 0.523339510
0.001265167 0.905123115 0.516129196
0.002024273 0.907147527 0.510942340
0.222390860 0.906008780 0.516634941
0.424415171 0.904996634 0.516129136
0.589626729 0.906768024 0.518026590
0.742947340 0.910815895 0.523466229
0.897153556 0.908918619 0.521821201
0.000000000 0.076280735 0.597343683
0.002783259 0.078684546 0.598481953
0.159519359 0.096774355 0.606325388
0.287918746 0.111701258 0.596078336
0.411132365 0.129411995 0.599367440
0.538519740 0.148766473 0.595319450
0.680202305 0.158760265 0.607590020
0.839089334 0.158760265 0.619734585
0.000000000 0.166097283 0.599114478
0.000000000 0.170145288 0.598608255
0.137761086 0.167615280 0.600505829
0.282352626 0.180518627 0.601011992
0.407210380 0.190765545 0.597723126
0.536116004 0.198229000 0.597343743
0.675648451 0.203036100 0.605566204
0.837571144 0.206199005 0.617836833
0.002276998 0.274636447 0.611005723
0.004554189 0.276913553 0.590764999
0.096268199 0.280075729 0.601518273
0.263124287 0.282099992 0.593801439
0.399367452 0.284756541 0.596584558
0.528526425 0.287666112 0.599620700
0.682099700 0.293232173 0.608981907
0.841113389 0.297786176 0.623023272
0.001138644 0.386211395 0.597596526
0.000000000 0.385452300 0.594560444
0.015559833 0.384060979 0.592283368
0.248197362 0.388235629 0.594560325
0.394560397 0.383554727 0.593674660
0.527514279 0.388614893 0.594939709
0.682858825 0.392409891 0.605819106
0.843769848 0.401391536 0.619607568
0.000000000 0.503225744 0.595698893
0.000000000 0.498165578 0.596457720
0.001897751 0.501455188 0.604933500
0.233016834 0.502719820 0.600126505
0.394560367 0.504743934 0.595571995
0.539910972 0.501328349 0.598481953
0.697786450 0.510056913 0.610373199
0.853257239 0.518658876 0.622770309
0.000000000 0.616824746 0.593421698
0.000000000 0.615306854 0.590891898
0.002277001 0.619228184 0.602656722
0.195192933 0.623908818 0.602656603
0.387855619 0.627830684 0.606072426
0.550158203 0.632511199 0.609108210
0.711954236 0.635294497 0.615812540
0.865148664 0.643137336 0.633396685
0.001897740 0.766097307 0.620872736
0.003035997 0.766223848 0.622770429
0.001518006 0.770145297 0.620240688
0.215559646 0.764705896 0.622643650
0.409740806 0.770145297 0.624667764
0.568374455 0.766603291 0.625047207
0.718153000 0.768500566 0.622770488
0.873118103 0.773813665 0.630866706
0.000000000 0.902593136 0.643896401
0.001518192 0.903352201 0.643896282
0.039089076 0.903858006 0.646552861
0.293105543 0.903605223 0.654522598
0.437318146 0.906388581 0.646679342
0.592662454 0.908412337 0.645034611
0.743200541 0.906388581 0.647564828
0.894749761 0.903858006 0.653636694
0.000000000 0.110435992 0.741682529
0.005439708 0.111195087 0.752182007
0.115876190 0.122833565 0.746362567
0.286021650 0.136748642 0.746109903
0.426818460 0.147248372 0.749019504
0.564958990 0.157242447 0.741049528
0.708665252 0.152941003 0.743326843
0.848577023 0.157242462 0.744085968
0.001897740 0.187982097 0.746868849
0.000000000 0.187729537 0.741176546
0.099810012 0.188741088 0.749272585
0.280581921 0.198228911 0.745224416
0.425933272 0.201770931 0.744844615
0.567488909 0.206199005 0.742694378
0.708285868 0.202656552 0.739152253
0.843896151 0.205060259 0.741429210
0.004933716 0.288172394 0.742694259
0.000759096 0.292220294 0.743453383
0.039089292 0.292220294 0.749019444
0.259708971 0.296142101 0.739784896
0.420493275 0.297027290 0.745098114
0.561416566 0.293738127 0.744844556
0.707906365 0.293106109 0.743326783
0.849588811 0.295003355 0.738899052
0.003289004 0.397976011 0.747121871
0.000000000 0.399114609 0.744971275
0.005692825 0.402276903 0.741935432
0.246679276 0.399114668 0.741682529
0.414294660 0.403035939 0.743453503
0.564199686 0.398861200 0.740290701
0.707020819 0.396837354 0.737760842
0.850221395 0.399494082 0.743579865
0.000000000 0.519418061 0.736242771
0.004427649 0.520303249 0.739405572
0.002277102 0.518532515 0.747375190
0.218848631 0.520177364 0.744844913
0.404680550 0.512334168 0.741049767
0.558760166 0.515496254 0.741049588
0.710309565 0.513852000 0.740923285
0.855154634 0.519670963 0.746109784
0.000379548 0.642757893 0.741555572
0.000379548 0.649082899 0.746109843
0.000000002 0.643137455 0.746109962
0.196837366 0.640860498 0.747754633
0.400506109 0.641872168 0.743832767
0.561542988 0.640860140 0.746995747
0.710309505 0.645034671 0.745477557
0.867425919 0.652371645 0.756609559
0.003922000 0.770145297 0.753447533
0.003794996 0.773940265 0.745730579
0.002277288 0.770018756 0.747121692
0.191018552 0.769639194 0.751676202
0.413156182 0.773308218 0.744212210
0.572422504 0.772422552 0.750157773
0.727640808 0.772422552 0.752182007
0.874383450 0.778367817 0.760278046
0.004553996 0.902213454 0.760531247
0.000379548 0.904490888 0.757242084
0.064895317 0.904111326 0.757495344
0.305376232 0.905249953 0.767235994
0.466413647 0.904743850 0.765085161
0.611511827 0.906641304 0.771031141
0.751296639 0.906009018 0.770777881
0.891713977 0.902719378 0.770524800
0.002656833 0.157115638 0.894623578
0.004933537 0.158633545 0.892599761
0.061733410 0.163566977 0.888424933
0.287792444 0.171410650 0.885388911
0.441492736 0.179506615 0.886780620
0.588235438 0.182416081 0.890828609
0.731056094 0.180518821 0.888045788
0.878937602 0.170018986 0.888045788
0.000000000 0.221378818 0.884503305
0.000000000 0.219734535 0.883491814
0.029981287 0.222517088 0.881720364
0.282099813 0.221252531 0.889184058
0.438330203 0.229474977 0.885768831
0.582669199 0.230613708 0.886527598
0.727261245 0.225300342 0.882479131
0.872485578 0.216698244 0.882858574
0.000759096 0.309424192 0.880202591
0.000379548 0.315622807 0.890702069
0.017204452 0.312839925 0.886274338
0.268563986 0.317267358 0.888298333
0.433523118 0.313345999 0.888045788
0.583048761 0.316381902 0.886527538
0.731182694 0.311701298 0.883997202
0.885009527 0.304744095 0.881973505
0.000000000 0.421758622 0.888677955
0.000000000 0.423655987 0.879316926
0.007843116 0.417963445 0.890196085
0.252498448 0.424794614 0.884123743
0.427451372 0.424288630 0.882732391
0.577862322 0.422517538 0.883111954
0.726375759 0.416824788 0.880455434
0.878684580 0.410246640 0.883491397
0.000000000 0.535483837 0.881720245
0.002783356 0.538899183 0.885515451
0.002024274 0.536874950 0.889943063
0.238077193 0.540164590 0.883744299
0.420999348 0.539279044 0.880202472
0.579759777 0.538140416 0.886401057
0.731562495 0.533333242 0.883112192
0.880075991 0.531815171 0.881340802
0.003415731 0.663377464 0.886653602
0.001138640 0.662365854 0.888298571
0.003289117 0.662239134 0.890069544
0.236179888 0.662365794 0.888677835
0.425047547 0.666540444 0.887918890
0.584693313 0.662998199 0.888677835
0.737760603 0.663124859 0.888677835
0.881593764 0.660847664 0.889943004
0.000000000 0.790132761 0.885768473
0.002277288 0.790385783 0.885389030
0.002277303 0.786970258 0.888804674
0.254395902 0.786844015 0.889057636
0.441492766 0.785705447 0.887412906
0.597723007 0.788867533 0.886907220
0.740417421 0.786211431 0.889310658
0.885135889 0.788488150 0.888551652
0.002656833 0.919417739 0.889310598
0.006198704 0.915876210 0.886780620
0.028083362 0.913345933 0.882858813
0.298545241 0.911448300 0.886907160
0.458443999 0.911195576 0.887665927
0.616192460 0.910309613 0.887286723
0.758886516 0.907653451 0.891081512
0.890701950 0.910309613 0.894623578
