Assets/EldamarStudio/100 Retro LUTs Pack/LUTs/cube/Gregory LUT.cube
LUT_3D_SIZE 5
DOMAIN_MIN 0.000000 0.000000 0.000000
DOMAIN_MAX 0.903226 0.903226 0.903226
0.066666998 0.023529001 0.039216001
0.181783408 0.008476003 0.053257290
0.352435380 0.071979985 0.029348589
0.553320289 0.147121996 0.031498995
0.830613434 0.176470995 0.070714816
0.030360296 0.197469980 0.031373002
0.168374702 0.196837395 0.033017289
0.337760687 0.237065107 0.030739997
0.558886707 0.262239248 0.052624710
0.831625342 0.282479584 0.079443127
0.006577994 0.408728391 0.064769410
0.091840707 0.409740508 0.069702692
0.319164991 0.420493394 0.068690576
0.558886707 0.444022804 0.082100123
0.845667124 0.461606801 0.103984565
0.004933870 0.651360273 0.112840123
0.000000000 0.648197293 0.107526705
0.331815213 0.653636932 0.111069001
0.588741243 0.657305241 0.111827999
0.853889763 0.676533937 0.129285112
0.002530012 0.902466595 0.154458806
0.000000000 0.901581049 0.141176507
0.347501367 0.900442362 0.150537804
0.630487084 0.907400489 0.156736106
0.893358767 0.907653451 0.157115638
0.005566289 0.041492712 0.200758979
0.172295704 0.026818417 0.204680398
0.339405388 0.080455415 0.219734401
0.548766255 0.143832996 0.231498823
0.830992818 0.170904279 0.248450562
0.009108006 0.199494392 0.202403679
0.150031716 0.202403679 0.204680398
0.330550104 0.228589267 0.223023400
0.544212282 0.262491703 0.235420823
0.835799932 0.279823005 0.251106828
0.003288997 0.414294690 0.229221687
0.054901998 0.413282394 0.225933120
0.314611226 0.418848693 0.229222104
0.558001041 0.443010688 0.241998821
0.845034599 0.465275109 0.256040275
0.006831295 0.649083018 0.249462277
0.000000000 0.645161569 0.247817993
0.329791248 0.654649258 0.249841973
0.586717248 0.660847545 0.249082834
0.866287053 0.677040100 0.259202838
0.000000000 0.906767726 0.261859715
0.003542137 0.903351903 0.265148699
0.343580186 0.907653153 0.267172933
0.630866587 0.908665478 0.272991687
0.895003080 0.906388581 0.274762630
0.006577994 0.018342994 0.417203963
0.151043400 0.052371990 0.414927095
0.336875379 0.095508993 0.409360975
0.553320289 0.147754833 0.427704215
0.837824166 0.156230420 0.447944373
0.000000000 0.223023400 0.406072378
0.108159289 0.226944998 0.408981711
0.320809692 0.239974812 0.412649959
0.551676095 0.262871414 0.426059693
0.836812079 0.269323587 0.443263829
0.000000000 0.415938973 0.415306360
0.018722275 0.416824698 0.409993827
0.311321825 0.432258248 0.414547831
0.558380783 0.441366404 0.427071810
0.848324001 0.458444208 0.450601220
0.000000000 0.652625263 0.427957267
0.002530005 0.646173656 0.429475397
0.313978404 0.654269338 0.425680220
0.588108659 0.665022194 0.431246102
0.867299139 0.675142527 0.446299672
0.005312988 0.900442362 0.457179219
0.001265006 0.905376315 0.455155045
0.331815183 0.907020986 0.462492228
0.627957046 0.907653451 0.458444208
0.901328564 0.908286035 0.465022236
0.002023998 0.083365127 0.634788096
0.102340110 0.091208287 0.635926545
0.349905223 0.124604538 0.637318134
0.576976240 0.155850872 0.633776248
0.843137562 0.159519166 0.647818089
0.006831130 0.244275540 0.630486846
0.024161980 0.256293416 0.635926545
0.338772923 0.259962112 0.631119251
0.570778012 0.264136404 0.634029090
0.845414281 0.272991866 0.652624965
0.001644712 0.443390399 0.635040879
0.001012128 0.442125231 0.625427008
0.319544524 0.444402546 0.631752253
0.577608824 0.448576808 0.633396447
0.852877736 0.459076643 0.654016256
0.001012128 0.657305241 0.628842354
0.002277127 0.657937825 0.635041237
0.295129806 0.663124263 0.641872108
0.592663229 0.670968056 0.644529104
0.867172599 0.676533937 0.664768934
0.001012128 0.899557054 0.675269127
0.017330991 0.902846098 0.672612548
0.383554608 0.904111028 0.686148167
0.632890582 0.906388640 0.679190099
0.895761907 0.902087092 0.682479084
0.002656833 0.157115638 0.894623578
0.015686419 0.163566977 0.885135889
0.364326388 0.177988812 0.890701771
0.620367110 0.182163104 0.885515451
0.878937602 0.170018986 0.888045788
0.003289158 0.285135984 0.887033641
0.000000000 0.288804680 0.894117713
0.355218232 0.293991089 0.892726004
0.622011542 0.291334540 0.883744478
0.882985473 0.278937697 0.885768533
0.001265006 0.481340796 0.883365214
0.002023991 0.480708361 0.886401057
0.336875379 0.481973380 0.884123743
0.619734347 0.478684634 0.887412786
0.883617997 0.478810787 0.887413204
0.002909872 0.695508897 0.890701950
0.001265167 0.691840708 0.892093539
0.342061758 0.694876969 0.885768473
0.625679970 0.694876790 0.888677955
0.879316747 0.690955102 0.886400938
0.002656833 0.919417739 0.889310598
0.004301121 0.912839949 0.879569650
0.375711590 0.916129172 0.887286305
0.653384089 0.910309613 0.887033641
0.890701950 0.910309613 0.894623578
