Assets/EldamarStudio/100 Retro LUTs Pack/LUTs/cube/Gregory LUT.cube
DOMAIN_MIN 0 0 0
DOMAIN_MAX 1 1 1
LUT_3D_SIZE 32
0.066666998 0.023529001 0.039216001
0.075774617 0.020493388 0.039216001
0.076280773 0.023908999 0.041366227
0.085895158 0.024921000 0.045667000
0.112460546 0.019608000 0.050980002
0.133712932 0.019608000 0.050980002
0.157494992 0.014548002 0.053510323
0.181783408 0.008476003 0.053257290
0.205313101 0.004680904 0.052498192
0.226565495 0.007716522 0.058570962
0.247817874 0.016571870 0.053004261
0.273118258 0.029728249 0.046932004
0.301581293 0.044908639 0.041998647
0.331183046 0.059835996 0.038456969
0.352435380 0.071979985 0.029348589
0.378494769 0.084123991 0.017837010
0.407337368 0.097786188 0.016318802
0.437065542 0.111701570 0.024161575
0.464389980 0.120809980 0.027197964
0.494497031 0.129917651 0.024667643
0.522959769 0.139025733 0.025426740
0.553320289 0.147121996 0.031498995
0.590005994 0.153193995 0.043010518
0.632510781 0.159266010 0.039974902
0.670461535 0.165337995 0.043769997
0.708285570 0.170018673 0.051233660
0.748260140 0.173055053 0.059329934
0.790764868 0.176091447 0.062365543
0.830613434 0.176470995 0.070714816
0.870082080 0.176470995 0.074510001
0.908665180 0.176470995 0.078051984
0.945097983 0.176470995 0.090195999
0.069702610 0.023529001 0.039216001
0.069702618 0.020493388 0.045288000
0.076660007 0.026059775 0.040987000
0.090195931 0.030487388 0.041366223
0.118152991 0.027957290 0.046046544
0.136748552 0.022643613 0.054016385
0.155471265 0.032764256 0.051486064
0.182036787 0.033017389 0.050221324
0.206831306 0.033523288 0.049462382
0.223529115 0.041112907 0.055534575
0.259329349 0.047059126 0.052877743
0.279190511 0.056040511 0.042884007
0.300063372 0.069196641 0.037064999
0.323339671 0.083871029 0.035673615
0.358507395 0.093232371 0.029348589
0.379759789 0.100569382 0.020240201
0.404300988 0.111448377 0.017836610
0.432890326 0.123212993 0.024161577
0.467425585 0.129917592 0.027197974
0.494749993 0.141809329 0.033017002
0.528652489 0.149272770 0.034535129
0.561416507 0.155218259 0.037571255
0.595951498 0.159392506 0.043389991
0.635547221 0.168374389 0.049082518
0.675774634 0.172169670 0.050600901
0.714357913 0.176091090 0.054522671
0.753826857 0.179127052 0.059329934
0.793801248 0.182163447 0.062365543
0.830992997 0.182542995 0.068057984
0.868311346 0.184313759 0.076786816
0.908285916 0.184693232 0.084123984
0.951169968 0.182542995 0.096267998
0.061985999 0.047185320 0.039216001
0.070588000 0.041998930 0.040987000
0.083491549 0.043263771 0.049209226
0.094623543 0.049842156 0.043137226
0.120303549 0.050348222 0.043136999
0.140290767 0.046046674 0.046932157
0.156356648 0.053004418 0.052371677
0.181151405 0.058570772 0.049335711
0.209235102 0.060847867 0.047817901
0.227198094 0.069955841 0.052498221
0.254142731 0.078304738 0.043390129
0.282479495 0.084376991 0.038330004
0.305502981 0.092219770 0.029854357
0.328020036 0.103858024 0.028842226
0.354965031 0.112966411 0.026565231
0.383681029 0.123971999 0.024541201
0.411005795 0.128526181 0.023023386
0.436559081 0.138140351 0.027197974
0.465401739 0.145730555 0.027197974
0.497786164 0.150916949 0.033017006
0.530803263 0.161163971 0.035294000
0.565211773 0.166477129 0.039089225
0.597848952 0.169639543 0.043389991
0.639341950 0.176723674 0.049462002
0.674510062 0.183428288 0.053257287
0.713978350 0.186464325 0.056293670
0.753953338 0.189500064 0.059835996
0.795066416 0.192536458 0.064516321
0.831878603 0.195066780 0.065907754
0.870082080 0.198608756 0.079063714
0.909551024 0.197596341 0.088424988
0.955091774 0.190765232 0.098039001
0.053636838 0.079316996 0.039216001
0.063251160 0.074510157 0.039216001
0.080961548 0.073624544 0.043137226
0.099177994 0.076660156 0.045920003
0.118152998 0.079316996 0.040986549
0.140290767 0.077166222 0.041872162
0.157748327 0.082985319 0.046932161
0.181151405 0.089690320 0.046805713
0.209235102 0.091208316 0.043011002
0.230487496 0.099810645 0.044528674
0.252118975 0.105123445 0.038077164
0.280202329 0.113472149 0.035041165
0.299936831 0.120682798 0.027830519
0.330043882 0.126628354 0.023782162
0.356356382 0.133712724 0.019734163
0.381150931 0.142694309 0.022264162
0.408981413 0.151549354 0.024035063
0.442378372 0.155218154 0.030740250
0.466160834 0.163693964 0.030234037
0.497280389 0.168500811 0.034282167
0.528779328 0.174066737 0.036559161
0.567236125 0.181151122 0.037571032
0.599114120 0.184566975 0.043643016
0.641618967 0.192915991 0.051992323
0.681087852 0.196457997 0.053257287
0.716002762 0.199873477 0.057558507
0.754965246 0.202403158 0.061100837
0.795952022 0.204680458 0.067172833
0.833143413 0.208981663 0.071727000
0.872612059 0.211258814 0.076028101
0.914737105 0.215559840 0.091587536
0.960657835 0.204933167 0.098039001
0.049082551 0.109677091 0.038077451
0.058191225 0.107020929 0.038836453
0.073498219 0.105756000 0.039848227
0.093485445 0.107020937 0.040986549
0.111701548 0.110056639 0.034155451
0.135989547 0.110056639 0.037191838
0.156356648 0.114737093 0.042757999
0.180012852 0.120429963 0.042631455
0.208476007 0.126122996 0.037318453
0.229728401 0.132194981 0.031246454
0.248450458 0.133586541 0.030993454
0.277166247 0.138519824 0.033902902
0.303352088 0.147627741 0.035800360
0.316761106 0.156230062 0.027197968
0.352814347 0.159266412 0.015433464
0.379633039 0.164705992 0.017330995
0.406198710 0.170398548 0.022264352
0.434408545 0.176470533 0.025047118
0.467804998 0.182542562 0.034155522
0.498418748 0.188994095 0.038456809
0.527640760 0.194686547 0.039595451
0.559645832 0.200126231 0.040986869
0.602024078 0.203162581 0.044022508
0.644275784 0.214547545 0.055408262
0.686401010 0.218342543 0.057305709
0.726502299 0.218342543 0.057684988
0.762935102 0.218342543 0.063756995
0.799367845 0.218342543 0.069828995
0.835420489 0.223276079 0.077798821
0.876153886 0.225806087 0.084124215
0.919670701 0.226185545 0.089690372
0.968247533 0.226185545 0.098797999
0.033902939 0.140037864 0.028969064
0.064262941 0.140037864 0.035041064
0.075521842 0.137381166 0.031499065
0.090449065 0.137381151 0.033270162
0.108665153 0.140417412 0.037191838
0.126881927 0.143453807 0.025047066
0.153700262 0.145983487 0.030613778
0.176217705 0.149525583 0.031752296
0.199747071 0.153067842 0.028969064
0.223655626 0.156482995 0.028210064
0.244907990 0.165464863 0.027957065
0.275774568 0.166982919 0.025932809
0.304870278 0.171916515 0.026691774
0.322833896 0.180518836 0.027197968
0.350158274 0.183554441 0.024161585
0.376596898 0.188993990 0.024414867
0.405439645 0.193548188 0.029474996
0.437191874 0.197722927 0.033143520
0.467804998 0.203794956 0.031119917
0.498418748 0.212650299 0.040227585
0.530676723 0.217457116 0.042631064
0.565085351 0.222011194 0.044655062
0.605060458 0.227451354 0.050094511
0.644528866 0.230486959 0.053130902
0.684503257 0.237317935 0.059962057
0.724478006 0.239594936 0.061732996
0.762935102 0.239594936 0.063756995
0.799367845 0.239594936 0.069828995
0.833143771 0.242251769 0.073244832
0.875901222 0.244022876 0.080835193
0.921695113 0.244908258 0.090702362
0.965211928 0.247437924 0.104869999
0.033902679 0.170398638 0.029981323
0.051613003 0.162808314 0.025932681
0.075521775 0.167109311 0.029854454
0.091208160 0.166476637 0.028716162
0.109171316 0.167868316 0.033776455
0.118785553 0.168753937 0.028083453
0.147122324 0.169259995 0.028589645
0.171157703 0.173940316 0.031373002
0.192410097 0.179380089 0.031499319
0.214927346 0.185958162 0.035041317
0.246426195 0.184692875 0.027450999
0.269702822 0.191777512 0.027450999
0.297280312 0.196204990 0.026059322
0.316002667 0.205059990 0.027450999
0.341049761 0.210372895 0.026691906
0.375584960 0.215812922 0.028463127
0.400379390 0.218848959 0.033017319
0.430107802 0.221505627 0.039089311
0.460468352 0.227577657 0.041745968
0.488298744 0.233902693 0.042251974
0.524351776 0.237318322 0.047564577
0.561037123 0.239721507 0.051233128
0.600252867 0.244275689 0.058443837
0.634914935 0.249715731 0.056673225
0.676660597 0.252751350 0.059709027
0.714990258 0.255787313 0.062744997
0.753826499 0.256293386 0.064769000
0.794307232 0.258317649 0.074888997
0.835673451 0.260973841 0.078304835
0.872612298 0.262239009 0.083111979
0.915370226 0.264009982 0.092346661
0.954586029 0.268690318 0.105881996
0.030360296 0.197469980 0.031373002
0.042251684 0.196584299 0.026944935
0.065022066 0.194939688 0.030613480
0.086274453 0.194686860 0.029854706
0.107147388 0.194686860 0.032891002
0.118279703 0.198481694 0.036179766
0.139658645 0.196837395 0.029981323
0.168374702 0.196837395 0.033017289
0.188109100 0.204427391 0.033017289
0.207590505 0.214421183 0.037318289
0.237191871 0.215180248 0.033776127
0.267805070 0.214927211 0.029095709
0.292093843 0.219861060 0.029095709
0.312081009 0.228209749 0.029348675
0.337760687 0.237065107 0.030739997
0.365085334 0.238203600 0.029854804
0.403035909 0.244275987 0.032890804
0.429854542 0.245161563 0.038203869
0.461227238 0.250221699 0.043264005
0.487160355 0.254648983 0.045414291
0.520430446 0.260214984 0.050600965
0.558886707 0.262239248 0.052624710
0.597595990 0.266034096 0.059582513
0.632510960 0.272106498 0.059582900
0.671094537 0.277546108 0.062745415
0.712207615 0.279190391 0.064389706
0.749398828 0.279190391 0.064895637
0.790764868 0.281088144 0.073623993
0.831625342 0.282479584 0.079443127
0.872358859 0.285388708 0.089183979
0.912713468 0.283617705 0.092599615
0.950664282 0.286653697 0.100948714
0.018975005 0.224035278 0.034408998
0.027324295 0.229348183 0.031372610
0.048576772 0.231119186 0.035420772
0.073371157 0.230360344 0.038962904
0.096141547 0.222011641 0.033270452
0.116255768 0.229601249 0.043517001
0.135484233 0.228589505 0.037697908
0.160784513 0.228716195 0.033776388
0.188109100 0.227957085 0.036053095
0.203289509 0.240101099 0.036053095
0.228589877 0.245034963 0.036053095
0.257179081 0.247565091 0.035547163
0.286021292 0.248703644 0.034408998
0.310310006 0.251739264 0.034408998
0.337128282 0.262365848 0.036938667
0.366603494 0.263251305 0.034408811
0.393928081 0.265528202 0.034408804
0.432131618 0.271600187 0.038709566
0.465528101 0.274763077 0.041998968
0.493611634 0.277039826 0.045793742
0.524731457 0.281973213 0.049588833
0.559645951 0.286527276 0.054901998
0.596204460 0.292473525 0.055154990
0.633269906 0.297913074 0.058823809
0.672738850 0.303985089 0.063377991
0.714484692 0.308032990 0.068943903
0.753447175 0.308539063 0.068943903
0.792662621 0.308792114 0.071726538
0.832890511 0.308032990 0.077419177
0.873118103 0.308285952 0.088045277
0.913472176 0.310183197 0.099430516
0.955976963 0.304111183 0.096394897
0.000759000 0.257432461 0.046553001
0.006830996 0.260468096 0.043516617
0.025933051 0.261480004 0.044781774
0.049083143 0.262745142 0.045540839
0.071853533 0.264516443 0.042378061
0.105249912 0.261480063 0.039342459
0.122833826 0.258950323 0.036938686
0.146489486 0.260847986 0.036812231
0.175964311 0.264389902 0.039089493
0.203289509 0.261353493 0.039089486
0.224288866 0.270588398 0.039089486
0.249842256 0.277419508 0.041113224
0.277293116 0.282100171 0.043896157
0.304237992 0.285136431 0.046552997
0.328525960 0.288172066 0.046552993
0.367362082 0.289184034 0.041872490
0.398481727 0.293611705 0.040480811
0.423023224 0.301961005 0.044781569
0.456420481 0.308032990 0.053889971
0.492599547 0.308412492 0.059962001
0.526628733 0.312334001 0.060215227
0.559139967 0.316381991 0.057685360
0.590132535 0.316761553 0.055154998
0.629601777 0.319797933 0.061227005
0.671221077 0.325237483 0.064895809
0.716382265 0.329917818 0.070841312
0.762555599 0.332827061 0.078051522
0.798988342 0.335863471 0.078051522
0.840860546 0.333459675 0.083491668
0.883238375 0.330550253 0.093105935
0.925616205 0.328653008 0.102719866
0.968120992 0.328400016 0.105502509
0.000000000 0.290828884 0.047059000
0.000253002 0.299683452 0.049841613
0.004174775 0.294117630 0.046805773
0.029475288 0.288045585 0.044529002
0.061353676 0.285641998 0.041366324
0.089690059 0.295255959 0.048450064
0.118026443 0.294749856 0.047944129
0.144591823 0.297026992 0.046932001
0.173181191 0.301580995 0.047185224
0.194054589 0.300695360 0.045034997
0.221378997 0.297659725 0.039216001
0.248703629 0.304743886 0.041239738
0.278052002 0.308538884 0.041998647
0.306894183 0.309804022 0.040986970
0.331182837 0.312840313 0.038330130
0.362681627 0.313472748 0.047944121
0.394560367 0.318026543 0.046426322
0.419734418 0.325869560 0.047311865
0.453131109 0.329664886 0.054142971
0.492093533 0.332953513 0.057685357
0.524857461 0.336875468 0.061733123
0.559266269 0.340923756 0.063757129
0.595698476 0.341176748 0.066792987
0.635167778 0.346995771 0.072865002
0.676913559 0.347754866 0.072106294
0.719418287 0.351170182 0.076660663
0.763947129 0.355217934 0.083744675
0.805186868 0.363061309 0.081340872
0.846932590 0.360784054 0.091966845
0.885894895 0.359518886 0.095003128
0.923465788 0.356736004 0.099051133
0.959898829 0.352688015 0.100062996
0.000000000 0.324225247 0.051106997
0.000000000 0.323213100 0.050094616
0.000126518 0.329538018 0.046805520
0.003162905 0.322960079 0.046299905
0.035041310 0.315749228 0.044022992
0.075521678 0.318026245 0.051486321
0.104870319 0.326122493 0.057052251
0.133839414 0.326122493 0.055407964
0.165338367 0.330676585 0.053510323
0.187349975 0.331941754 0.049209226
0.216318607 0.331056386 0.049335990
0.245667234 0.334092498 0.053384244
0.274889380 0.336748868 0.050727218
0.304364055 0.335863262 0.045287736
0.332194805 0.337128401 0.044022575
0.361670047 0.343833238 0.050980240
0.393548250 0.343833238 0.055534448
0.420746446 0.350157917 0.053763669
0.454143286 0.353193969 0.058444001
0.491081417 0.358254403 0.061733350
0.526755214 0.361290008 0.064769253
0.561290503 0.367235959 0.067805126
0.601770997 0.369386494 0.072865248
0.641239703 0.373561263 0.078937262
0.678937554 0.375079244 0.080202289
0.722833574 0.376470566 0.081340984
0.765970826 0.379506320 0.089816801
0.808475554 0.385578692 0.092852809
0.844908595 0.388108939 0.095003232
0.889184058 0.388614535 0.103605233
0.926375449 0.388867497 0.107653238
0.960910976 0.385072500 0.112207241
0.000000000 0.353067636 0.054901998
0.001138644 0.350411296 0.054142904
0.000000000 0.350664258 0.051233288
0.001265161 0.354079753 0.047817800
0.006198998 0.351422936 0.050854091
0.049462296 0.346868902 0.056166995
0.090195999 0.347754300 0.057684999
0.119418114 0.354206264 0.057685070
0.152055994 0.354965150 0.056926358
0.180898502 0.358001471 0.052371681
0.209993646 0.358127981 0.057305511
0.238076866 0.359898984 0.056419969
0.269576281 0.364832640 0.064389996
0.296647638 0.362302244 0.053763289
0.325237185 0.363187641 0.055534288
0.357874960 0.369259775 0.060467798
0.388235658 0.373813987 0.064642549
0.420493186 0.373813987 0.062239353
0.454902321 0.376343668 0.064769037
0.488804698 0.383301705 0.067805357
0.526755214 0.388614893 0.069702901
0.561163962 0.390638620 0.073750645
0.603289187 0.396457642 0.076787002
0.642757952 0.400505900 0.080835007
0.679949582 0.403542280 0.084629998
0.719418228 0.402656585 0.085135989
0.764452755 0.406198263 0.090702064
0.806957483 0.409867078 0.098545440
0.846046805 0.411764830 0.104237996
0.883112073 0.413662404 0.105502978
0.925996184 0.416698247 0.111574985
0.962428987 0.416951269 0.123213001
0.000505999 0.375332028 0.055661030
0.003036387 0.378368437 0.058444384
0.001771226 0.379001021 0.058823999
0.001012129 0.379760057 0.058823999
0.004427967 0.379507005 0.058950484
0.022643967 0.379507005 0.061986096
0.066160604 0.374446422 0.058696996
0.104743727 0.374699473 0.053384032
0.134598240 0.379253954 0.049082998
0.174067423 0.382289559 0.055155005
0.202403829 0.383175015 0.063630871
0.228210017 0.382922053 0.059835520
0.255913883 0.384060651 0.054775290
0.288805008 0.387097031 0.059582964
0.313093007 0.390132636 0.065654963
0.346742570 0.394813031 0.069576189
0.380392402 0.398355097 0.071093999
0.412144512 0.398861080 0.071347028
0.451612979 0.398861080 0.071347035
0.483238757 0.406704366 0.073624328
0.520430446 0.413662046 0.075015999
0.561163962 0.418216079 0.076787032
0.597722471 0.418216079 0.082732514
0.637191713 0.424035072 0.082859002
0.674636543 0.429854602 0.087160029
0.714105248 0.432258338 0.090701997
0.756863058 0.430487067 0.091461033
0.799367785 0.436559051 0.094497412
0.843769729 0.437318057 0.104490943
0.883491337 0.437318057 0.110056967
0.920936167 0.438709617 0.112080984
0.957368970 0.441745996 0.118152998
0.006577994 0.408728391 0.064769410
0.003542381 0.411764771 0.064769410
0.001771226 0.410499603 0.061100990
0.000000000 0.413156122 0.058823999
0.000632584 0.418848842 0.058823999
0.001391601 0.415938973 0.058950488
0.044908240 0.410878986 0.067046098
0.091840707 0.409740508 0.069702692
0.130550519 0.411132395 0.067805305
0.164959058 0.406578332 0.061226994
0.198608458 0.415432930 0.064389862
0.228716090 0.414547652 0.068690740
0.258950055 0.414421171 0.070841044
0.291840583 0.417456985 0.077798948
0.319164991 0.420493394 0.068690576
0.350663781 0.418722004 0.074762575
0.384693146 0.422137767 0.077165999
0.417457521 0.426945210 0.077798575
0.451613009 0.432258219 0.080455408
0.488298744 0.435040861 0.077672057
0.521568716 0.439342141 0.079696320
0.558886707 0.444022804 0.082100123
0.597722471 0.448576808 0.085768893
0.637191713 0.448576808 0.088804513
0.676660299 0.452119082 0.091208279
0.718279541 0.455787718 0.094876736
0.763188064 0.457558483 0.097785994
0.808475375 0.460847795 0.103605017
0.845667124 0.461606801 0.103984565
0.880455375 0.461606801 0.110056564
0.917394161 0.464263171 0.115749180
0.963441014 0.472105950 0.124224991
0.005439809 0.442125410 0.073877186
0.002403583 0.442757994 0.073877186
0.001518196 0.441492826 0.073877186
0.001265161 0.439721584 0.072106346
0.002403804 0.443896264 0.072485991
0.002403804 0.440859854 0.068437994
0.018848853 0.444908410 0.071220674
0.074003600 0.442125410 0.077039704
0.120303683 0.444402516 0.079316996
0.153700516 0.443263769 0.075142317
0.199114680 0.444528729 0.077672660
0.228463054 0.445540875 0.076660536
0.257305652 0.443643600 0.078937441
0.288172036 0.445667416 0.085009776
0.319797397 0.450854003 0.084503382
0.351928800 0.449082792 0.075394996
0.383807391 0.447564602 0.079949193
0.416951299 0.452498555 0.080834806
0.452118993 0.460341781 0.082099974
0.485894948 0.463630408 0.084377252
0.526122689 0.466666520 0.085135870
0.563061357 0.470714778 0.087159999
0.602656603 0.476660281 0.088804699
0.644402504 0.478937596 0.091840900
0.683871090 0.483491570 0.097153798
0.723339379 0.486654103 0.100316308
0.765844405 0.489183813 0.103352062
0.807590187 0.490322441 0.107526794
0.845161378 0.493105799 0.108285800
0.886906862 0.493105799 0.113599002
0.923972189 0.494876802 0.120303594
0.969512999 0.502466619 0.127893806
0.002403808 0.475522190 0.081467383
0.000885613 0.475522190 0.081467383
0.001518192 0.471853614 0.084503382
0.000253031 0.471347213 0.081973381
0.002403808 0.472359180 0.084250644
0.002403808 0.472738445 0.081593998
0.009994005 0.471220642 0.077039681
0.052751590 0.474004000 0.084629901
0.107400194 0.476281106 0.086148098
0.141556099 0.480834901 0.085388996
0.191018537 0.477925390 0.085262865
0.228463054 0.478937268 0.087286733
0.259203076 0.477039993 0.087665997
0.288425058 0.477039993 0.090575829
0.323086560 0.480581999 0.091081768
0.351928800 0.480961382 0.090575382
0.388361573 0.480961382 0.084503382
0.419354707 0.481593788 0.087539606
0.454901963 0.488930941 0.088425003
0.488551378 0.492473006 0.089690156
0.526122689 0.497026920 0.091208257
0.568627477 0.500063300 0.094244130
0.608602524 0.505629361 0.094750188
0.649715602 0.510057092 0.096394904
0.688425303 0.513852000 0.097153805
0.729285300 0.518532634 0.104617476
0.769892216 0.521568418 0.107906118
0.811385095 0.522580564 0.110942245
0.846679568 0.523719192 0.115875989
0.886907279 0.524984360 0.119671002
0.929791152 0.526755333 0.128779396
0.971030831 0.532827377 0.135483995
0.000000000 0.508285940 0.088804975
0.000632576 0.508918524 0.089437395
0.002150773 0.506515145 0.091208413
0.002656839 0.501707971 0.092220418
0.000379548 0.505502641 0.087666415
0.000632577 0.511827707 0.090955049
0.001897746 0.509044707 0.085768238
0.032131970 0.505629122 0.083744422
0.097280562 0.506008625 0.095888890
0.133712590 0.515117049 0.092852503
0.181530625 0.509677529 0.088551857
0.222264245 0.511574864 0.090196304
0.256799281 0.513472140 0.093105577
0.292726070 0.513472140 0.098671578
0.328399807 0.513472140 0.096015409
0.359013110 0.513472140 0.096521191
0.388993979 0.514357746 0.097786188
0.428463101 0.517394125 0.094750412
0.461859584 0.520429730 0.097786032
0.495255977 0.523465931 0.098039001
0.531815231 0.527134538 0.098039001
0.571031272 0.532827079 0.099683546
0.613662481 0.535863459 0.102593414
0.654142916 0.541429520 0.102593414
0.691334546 0.545856833 0.101581283
0.729917705 0.549525201 0.102213666
0.772928596 0.551549613 0.110815994
0.818468988 0.554332972 0.113978118
0.854648829 0.554712534 0.120429829
0.892726302 0.555344939 0.129031971
0.931562543 0.555850923 0.135989591
0.967994571 0.561922967 0.145098001
0.000000000 0.538646102 0.100948997
0.003036387 0.541682422 0.103984602
0.003668966 0.544465780 0.100316025
0.002656837 0.541682839 0.095256038
0.000379548 0.535863519 0.090702042
0.003415938 0.544971883 0.096774042
0.001138647 0.546236873 0.097532995
0.019987414 0.544086218 0.091840684
0.068564296 0.542061985 0.090575904
0.142820969 0.542441547 0.104996525
0.179253682 0.537002027 0.096141882
0.218975216 0.543074071 0.097659998
0.256799281 0.549905002 0.101201966
0.292726070 0.549905002 0.101707980
0.323086828 0.549905002 0.101707980
0.363567591 0.549905002 0.099051207
0.398481935 0.549905002 0.099557199
0.431498736 0.550790608 0.100822419
0.470967978 0.553826988 0.097786024
0.504364371 0.556862593 0.098038994
0.539658487 0.558001041 0.098039001
0.576344311 0.560531020 0.100063004
0.613662481 0.566223621 0.105629027
0.659202933 0.569260001 0.105629019
0.697406590 0.574826062 0.107906312
0.735230625 0.580645025 0.109044969
0.775964200 0.584946096 0.110816002
0.821505308 0.581910431 0.116887994
0.861732721 0.582037032 0.117393978
0.900695622 0.583807826 0.125236958
0.936875582 0.585705101 0.135989606
0.964958966 0.586211085 0.145098016
0.000000000 0.566224098 0.099177644
0.003036387 0.563693762 0.099430613
0.001771226 0.568880379 0.100315996
0.001138643 0.571284056 0.099304162
0.000758999 0.567488968 0.098545365
0.006198582 0.566983283 0.099810362
0.001644648 0.568501353 0.090702355
0.000000000 0.571790338 0.091334634
0.035673536 0.572169662 0.094370738
0.119670756 0.570145369 0.113598876
0.168880716 0.572675705 0.102719881
0.209361479 0.570651710 0.097659752
0.253004611 0.575205743 0.102593288
0.295509368 0.575205743 0.107273974
0.325869441 0.575205743 0.104743645
0.358634025 0.577608943 0.102340460
0.395446181 0.581024349 0.099304169
0.428968877 0.583554387 0.099177644
0.468437582 0.584439993 0.098292023
0.505123377 0.587476432 0.095256351
0.540417492 0.588614762 0.099051349
0.575838149 0.589626908 0.101834230
0.610752583 0.593928099 0.105755515
0.653636932 0.599620700 0.103099354
0.694623232 0.602656484 0.107653350
0.735736549 0.606831014 0.111195318
0.777482450 0.610499740 0.113092713
0.816192269 0.609740794 0.116887994
0.859076619 0.612017512 0.125616819
0.896900713 0.613915265 0.125996351
0.934471965 0.616951346 0.136748940
0.967488647 0.618849099 0.153447360
0.001897740 0.606831431 0.103731737
0.001138647 0.601897776 0.099936739
0.005566223 0.601518214 0.111321725
0.001264997 0.603795052 0.103731729
0.000000000 0.603162467 0.101961002
0.003036003 0.601644635 0.101961002
0.002783001 0.604933739 0.101328246
0.000000000 0.601644754 0.097406954
0.018975280 0.607463777 0.099683732
0.102466494 0.608981729 0.112966485
0.160278469 0.606072307 0.109803997
0.206704751 0.607084453 0.107526734
0.245793894 0.609361470 0.106767632
0.290322602 0.611132443 0.113092996
0.328905702 0.612776697 0.108412318
0.369259626 0.611385405 0.107273802
0.401138633 0.615939260 0.105755992
0.432258129 0.621378601 0.103731737
0.465401769 0.622643471 0.103731729
0.507779717 0.621631861 0.102846339
0.544212461 0.620872736 0.101707987
0.580645263 0.620872736 0.105755992
0.615053713 0.623276472 0.107779734
0.654016554 0.631119728 0.106514893
0.694243968 0.633017182 0.106514998
