Assets/EldamarStudio/100 Retro LUTs Pack/LUTs/cube/James LUT.cube
LUT_3D_SIZE 5
DOMAIN_MIN 0.000000 0.000000 0.000000
DOMAIN_MAX 0.903226 0.903226 0.903226
0.121569000 0.062744997 0.035294000
0.136621997 0.076786712 0.043136999
0.167361990 0.096773997 0.057558831
0.226565123 0.140291125 0.095129870
0.328399777 0.226438791 0.175458789
0.165717706 0.091208287 0.063757285
0.179126993 0.108538993 0.069322996
0.211511701 0.129791275 0.087919287
0.265148878 0.171031117 0.123972118
0.371283889 0.264769346 0.211511612
0.287033409 0.183048993 0.139278576
0.304111391 0.201771110 0.154712111
0.336115956 0.234155819 0.183174983
0.386211127 0.284250677 0.226692110
0.513725162 0.427450985 0.345097989
0.507400393 0.421126097 0.332953364
0.535736799 0.456040651 0.363820225
0.572042942 0.489057541 0.396584630
0.624921143 0.548513412 0.451486230
0.725363612 0.669576108 0.589753211
0.832004726 0.815180421 0.783934236
0.850980580 0.838203311 0.820999086
0.861985803 0.853004575 0.834155798
0.897027075 0.889310241 0.880202413
0.947121739 0.944591701 0.951170266
0.125489995 0.068311289 0.037571292
0.141176000 0.074510001 0.043136999
0.175205410 0.101328418 0.063757285
0.240607411 0.154332593 0.103352420
0.337128103 0.230613515 0.181909800
0.171283990 0.097406998 0.059835702
0.185325712 0.106894284 0.071600288
0.215433285 0.133712694 0.090575702
0.269070148 0.177229568 0.125616565
0.368627489 0.266666532 0.213662505
0.283111989 0.182415992 0.135356992
0.294243962 0.199114278 0.145856991
0.331182688 0.225300699 0.170651406
0.382289708 0.277039677 0.216571406
0.503478885 0.414674282 0.334851295
0.498165935 0.411891103 0.322960109
0.523339689 0.439089090 0.352687836
0.555091560 0.472738802 0.381150931
0.610879302 0.534472108 0.433522940
0.716129184 0.658064842 0.578241348
0.817204416 0.801138520 0.764832437
0.834535182 0.820999622 0.795066357
0.857432008 0.842884243 0.825173795
0.885894716 0.879443467 0.867805243
0.936369240 0.939152300 0.935736835
0.137254998 0.070588000 0.039216001
0.144465417 0.077799000 0.046425998
0.182416409 0.105249576 0.069322996
0.241619274 0.155344710 0.104364283
0.337507963 0.235546961 0.177988648
0.179759994 0.107905991 0.066034414
0.187602997 0.112460412 0.075521708
0.224288404 0.139278993 0.096141994
0.273371428 0.179127142 0.127261281
0.376091242 0.272865206 0.217204392
0.289690375 0.188994408 0.132067993
0.299177676 0.198482126 0.148134112
0.327640355 0.226945400 0.176596984
0.380644947 0.278051645 0.219734401
0.497912318 0.411638021 0.328020006
0.491334647 0.404427260 0.320935994
0.509297967 0.428969085 0.335104227
0.546868861 0.467172652 0.373687267
0.605060279 0.530550063 0.432890385
0.718153179 0.656925857 0.580518842
0.814294994 0.791524589 0.765084982
0.829981029 0.810625970 0.787222922
0.849588990 0.830107152 0.810752809
0.881720185 0.874003828 0.862998247
0.944591522 0.938772976 0.930297256
0.148134127 0.079443134 0.049082998
0.163440585 0.089943290 0.059456415
0.194812998 0.116381995 0.073244996
0.259962142 0.162808001 0.116761126
0.349019676 0.247058928 0.188234925
0.193168700 0.116761699 0.080455571
0.201011717 0.122580700 0.079443708
0.232763976 0.146489412 0.100063160
0.286780298 0.190639138 0.142567992
0.389879793 0.287918776 0.231625810
0.290322393 0.196457863 0.143832996
0.309044957 0.204048410 0.159266129
0.336748391 0.234788403 0.181783408
0.392409801 0.290448964 0.227071241
0.505756021 0.419481158 0.333839357
0.503352106 0.424921125 0.330803126
0.526248991 0.443263948 0.350411117
0.552687883 0.472991675 0.378494352
0.610246241 0.533839226 0.436812341
0.710309923 0.653257132 0.573434293
0.812397420 0.793042362 0.765085340
0.821884930 0.806325257 0.781024456
0.846300006 0.825173855 0.804553866
0.882099867 0.873118222 0.859455884
0.947248578 0.944718599 0.949272335
0.177861989 0.101961002 0.060088843
0.189626992 0.111194983 0.075900987
0.223655984 0.137380987 0.088930994
0.282859117 0.191397950 0.139025956
0.391271621 0.289310604 0.230486929
0.208855286 0.132067993 0.086021699
0.223023564 0.137634113 0.099430822
0.255028397 0.160910562 0.115116984
0.322454244 0.218469247 0.168501124
0.431498915 0.330550194 0.260847658
0.296141565 0.204047993 0.146363005
0.312460423 0.209614277 0.162175581
0.345983386 0.245919973 0.187729239
0.418975532 0.315749526 0.250980109
0.538519979 0.458190739 0.367868572
0.537761271 0.462365359 0.363314241
0.557115793 0.477419376 0.384313494
0.567488968 0.491081536 0.396963954
0.612523556 0.536116540 0.440733373
0.717773676 0.663757026 0.586210966
0.841239393 0.809867382 0.785452008
0.835294127 0.823782384 0.799493909
0.859582603 0.841998816 0.823276222
0.886021256 0.881214619 0.869576395
0.956356406 0.955091536 0.957874537
