Assets/EldamarStudio/100 Retro LUTs Pack/LUTs/cube/James LUT.cube
DOMAIN_MIN 0 0 0
DOMAIN_MAX 1 1 1
LUT_3D_SIZE 32
0.121569000 0.062744997 0.035294000
0.121569000 0.062744997 0.035294000
0.123719223 0.067046002 0.035294000
0.125489995 0.070588000 0.035294000
0.125869542 0.070967548 0.035673548
0.128905937 0.074003935 0.038709935
0.131941676 0.077039681 0.041745678
0.136621997 0.076786712 0.043136999
0.141176000 0.074510001 0.043136999
0.141176000 0.074510001 0.043136995
0.144085869 0.077419132 0.040227871
0.147122264 0.080455258 0.041239738
0.152435347 0.084629998 0.045413997
0.161290005 0.090701997 0.051486064
0.167361990 0.096773997 0.057558831
0.171030805 0.100442804 0.061227188
0.178620994 0.104996994 0.064263187
0.190132573 0.111701563 0.068564408
0.199240968 0.120809972 0.077672042
0.202783361 0.124351643 0.081214361
0.213409245 0.131182730 0.088045739
0.226565123 0.140291125 0.095129870
0.235673502 0.149399474 0.098418504
0.244781911 0.158507109 0.107526906
0.256166995 0.165337995 0.116635285
0.269702643 0.176976323 0.127134979
0.285895079 0.194180995 0.139785066
0.307147413 0.206324995 0.154965430
0.328399777 0.226438791 0.175458789
0.351422936 0.249462381 0.198481917
0.378367811 0.276407570 0.223655567
0.411765009 0.309803993 0.250979990
0.130676612 0.065781385 0.035294000
0.124604613 0.068816997 0.035294000
0.131056383 0.068816997 0.037444774
0.134598389 0.070588000 0.039595224
0.134218842 0.070208549 0.040607002
0.131941557 0.067931935 0.035673548
0.137507617 0.068438001 0.038709935
0.139404997 0.072612382 0.041745674
0.141176000 0.074510001 0.043136999
0.141176000 0.074510008 0.043137003
0.146995738 0.080329001 0.048955999
0.148134395 0.081467390 0.044275619
0.152435347 0.084629998 0.045413997
0.161543041 0.090955034 0.051739033
0.170398384 0.099810384 0.060594443
0.171663389 0.101075388 0.061859611
0.177103192 0.106514804 0.067299187
0.187729359 0.114104763 0.073371418
0.199240983 0.120809980 0.077672049
0.208349362 0.129917651 0.086780362
0.215686247 0.133459732 0.090322733
0.227577254 0.141303003 0.096141994
0.238962889 0.152435124 0.101581372
0.253890276 0.161543503 0.113598906
0.262998074 0.170651674 0.122707278
0.277166337 0.180265754 0.131815314
0.293485373 0.194180995 0.142314747
0.307147413 0.206324995 0.154965430
0.328399777 0.226438791 0.170145810
0.351422936 0.249462381 0.188867941
0.378367811 0.276407570 0.215053558
0.411765009 0.309803993 0.250979990
0.133332998 0.070968002 0.041745774
0.129411772 0.069702610 0.039595000
0.127640769 0.070588000 0.039595000
0.136748835 0.071853161 0.041366227
0.139025763 0.072359227 0.041998550
0.135989830 0.069323167 0.034155775
0.138393000 0.070968002 0.035673548
0.141176000 0.070968002 0.040354222
0.141935095 0.075268902 0.043896098
0.143326774 0.076660238 0.045287777
0.149145961 0.082479775 0.051106773
0.153194487 0.086527511 0.051106520
0.155598000 0.087792642 0.048576642
0.163440779 0.092852771 0.053636774
0.170651406 0.100063413 0.060847409
0.176849991 0.106261998 0.067046002
0.179885983 0.109297998 0.070082001
0.189626783 0.116508350 0.076660231
0.203289017 0.121062949 0.078178048
0.212650359 0.129917651 0.086780362
0.219861001 0.137127995 0.093990996
0.228715897 0.140417352 0.098292224
0.239721984 0.149145991 0.104364216
0.252878129 0.160278141 0.112460226
0.263504475 0.169386506 0.122327507
0.278178394 0.181277871 0.132827207
0.296647906 0.194687068 0.143706068
0.310436219 0.208475769 0.157495111
0.328399777 0.226438791 0.170145810
0.354965359 0.249462381 0.192410141
0.381783515 0.277292937 0.216192335
0.413915247 0.311954230 0.253130764
0.137128159 0.074510001 0.043263838
0.132827371 0.071473613 0.042757776
0.133206829 0.071853161 0.044402160
0.134471998 0.070588000 0.043136999
0.141682163 0.074383385 0.043516546
0.137760937 0.074889228 0.037950937
0.142315000 0.075648323 0.038962677
0.143706322 0.077040002 0.041112997
0.144465223 0.077799097 0.046426095
0.147501484 0.080834843 0.049462486
0.150916994 0.084250741 0.050348002
0.158760101 0.090828739 0.055408064
0.162935123 0.095002994 0.055787321
0.168754131 0.097659864 0.058697160
0.173813984 0.100695997 0.062745154
0.179885983 0.106767997 0.068817154
0.185957983 0.112839997 0.072359160
0.192662567 0.119544566 0.080328725
0.206577986 0.123845972 0.083491333
0.216192365 0.128652811 0.089310363
0.224668160 0.138393164 0.095256157
0.232764155 0.144465163 0.102340028
0.242125496 0.148007497 0.108538508
0.253131181 0.159013182 0.113472164
0.265528142 0.167615280 0.121821441
0.276407629 0.178241476 0.132321149
0.296141982 0.193421900 0.143959239
0.310562700 0.208602279 0.157621592
0.329664648 0.227703959 0.173940644
0.352435023 0.249462381 0.188614979
0.382795841 0.275521964 0.216825023
0.413156003 0.311194986 0.249842003
0.145477548 0.075268999 0.036812000
0.140164554 0.072612159 0.039468840
0.140164316 0.073497772 0.043896452
0.142820716 0.074383385 0.045793839
0.145856991 0.072106093 0.044275545
0.139784992 0.081214488 0.047311932
0.145604327 0.083112001 0.049588677
0.150158450 0.083112001 0.050980002
0.150917456 0.083871096 0.051739097
0.153953075 0.086907476 0.054775480
0.154459000 0.087413445 0.050221547
0.161796093 0.093105733 0.053890251
0.171663284 0.100315996 0.061480448
0.177230000 0.105881996 0.067046449
0.180139124 0.102972873 0.067046449
0.186337546 0.107906543 0.072612539
0.192030087 0.113598995 0.075268999
0.199114129 0.119924016 0.077293016
0.208222538 0.129032418 0.092473425
0.217330918 0.130929992 0.097280197
0.226439178 0.137381539 0.099936739
0.235800445 0.147501543 0.104617417
0.247817948 0.153700024 0.113725051
0.256926328 0.162808359 0.117267452
0.270588249 0.169639543 0.124857731
0.283617795 0.178873986 0.135357529
0.296900988 0.191524059 0.147375077
0.309044987 0.206704438 0.156483456
0.328399777 0.226438791 0.174699783
0.351422936 0.249462381 0.192156971
0.377102733 0.275142521 0.209234640
0.407463551 0.305502564 0.239595458
0.148513943 0.081340998 0.048955999
0.148513943 0.081340998 0.048955999
0.147501931 0.080834940 0.049462065
0.148007870 0.081340998 0.047944065
0.148893401 0.081214488 0.044275545
0.151928991 0.084250867 0.053383932
0.153447330 0.088298611 0.051359676
0.157495290 0.089184001 0.050980002
0.160025164 0.089943096 0.051739097
0.163061455 0.092979476 0.054775488
0.166097060 0.096015126 0.057811871
0.170651510 0.100569054 0.061353929
0.177735865 0.104869999 0.066793352
0.183302000 0.105881996 0.070082061
0.183302000 0.105881996 0.070082061
0.193421930 0.114990674 0.079696663
0.200000122 0.121568739 0.083238743
0.205439851 0.125742987 0.082605988
0.217330903 0.132068038 0.089437045
0.226439282 0.141176417 0.099051431
0.235547185 0.144971728 0.101454936
0.243643060 0.150537938 0.103984997
0.250853568 0.156736419 0.110689439
0.259961963 0.165844038 0.119797841
0.273624361 0.172675624 0.127893642
0.284629941 0.182922244 0.138393387
0.294244140 0.197596073 0.150537938
0.315117002 0.212776423 0.162555456
0.329917818 0.227956802 0.171663821
0.351422936 0.249462381 0.191650927
0.376596808 0.274636567 0.214800581
0.404427916 0.302466929 0.242631063
0.156609684 0.084883317 0.056040645
0.156609684 0.084883317 0.056040645
0.158760458 0.087033547 0.058190871
0.160404846 0.088678159 0.059835479
0.161669672 0.090322770 0.057558641
0.162555054 0.093358606 0.055914253
0.165591314 0.096395001 0.059961997
0.168627709 0.099430606 0.060215026
0.172422633 0.100315996 0.061859544
0.177229807 0.101581156 0.064895481
0.177735776 0.107147127 0.067931868
0.182795629 0.108158998 0.070967741
0.188868001 0.113219284 0.076533958
0.194687039 0.116255611 0.080455609
0.196964324 0.118532315 0.078178324
0.206578314 0.123339310 0.082985319
0.215686306 0.132194668 0.091840677
0.220366985 0.136875153 0.092473000
0.228716016 0.142947644 0.094750009
0.238077357 0.146742359 0.101075038
0.247185737 0.155850738 0.110183410
0.255281657 0.161164001 0.114104994
0.261480123 0.167488977 0.120176986
0.270587891 0.179000422 0.126881570
0.288804263 0.190385893 0.140543953
0.304490656 0.201138616 0.152940974
0.315496385 0.215306386 0.165211990
0.332700729 0.226438761 0.173307985
0.356230468 0.249209449 0.195446149
0.378494799 0.275015742 0.216951221
0.407969534 0.306008875 0.245414093
0.441872329 0.339911312 0.276027948
0.165717706 0.091208287 0.063757285
0.164072990 0.094497278 0.057179291
0.169512764 0.096647926 0.064263225
0.170019150 0.095888697 0.067299157
0.172675416 0.098545447 0.068438001
0.175205410 0.104111053 0.059836000
0.176091015 0.102213606 0.064642675
0.179126993 0.108538993 0.069322996
0.182922274 0.110815704 0.072359383
0.188994274 0.110815711 0.075395226
0.189247280 0.116634697 0.075142160
0.191651002 0.117014416 0.076533742
0.197723001 0.119291410 0.080708288
0.204301000 0.125363991 0.086780995
0.211511701 0.129791275 0.087919287
0.216824993 0.133585989 0.090448998
0.228968993 0.139658377 0.098039187
0.234028995 0.145730406 0.102340125
0.238077015 0.151802942 0.101328000
0.246932358 0.155091643 0.106894001
0.256040752 0.161922723 0.114863724
0.265148878 0.171031117 0.123972118
0.272106290 0.177988678 0.130929679
0.282732517 0.190132707 0.140037701
0.297659278 0.200632572 0.148007274
0.316128641 0.214168653 0.163187653
0.331815124 0.229854405 0.178874120
0.348134130 0.242378145 0.189500406
0.371283889 0.264769346 0.211511612
0.397343427 0.291081846 0.234408602
0.427324444 0.328905851 0.262997895
0.466033995 0.370651394 0.294117987
0.175585002 0.101834096 0.072106004
0.172548801 0.105629005 0.059203099
0.177355856 0.108791672 0.063503996
0.182163164 0.111069091 0.071853161
0.180645555 0.104997002 0.075268999
0.187097102 0.112207063 0.065402001
0.186590910 0.112460092 0.069449872
0.190512478 0.112333708 0.074636094
0.193548083 0.119924091 0.079949193
0.199620083 0.119924098 0.082985580
0.201391086 0.125743091 0.082479328
0.203415364 0.127261162 0.082226098
0.206831202 0.126882002 0.083744287
0.212903202 0.132448003 0.089563966
0.224035189 0.137507990 0.095129900
0.229727909 0.141935289 0.099557191
0.235040992 0.145730376 0.104111195
0.246552572 0.152435407 0.111954577
0.246932104 0.158633918 0.109171227
0.254522353 0.162681833 0.114484191
0.262871653 0.169512749 0.120935738
0.273497969 0.177862018 0.130044118
0.282732069 0.187096924 0.139278978
0.294876695 0.199241102 0.151423007
0.307779789 0.209108189 0.159772098
0.323718846 0.221758649 0.170777649
0.339405179 0.237444982 0.185452119
0.357621878 0.255660981 0.203162879
0.381151140 0.279190630 0.226691946
0.407210350 0.307527244 0.250727147
0.435673177 0.338014036 0.273624092
0.472105980 0.386590898 0.297912896
0.187729016 0.117014490 0.078178011
0.184693396 0.113978103 0.062998399
0.188108981 0.113472007 0.065148719
0.191777498 0.116128847 0.071853168
0.192789569 0.120177396 0.075269006
0.201897949 0.114104621 0.081341006
0.198228866 0.121315323 0.084124327
0.202276945 0.124857485 0.084124267
0.211764887 0.125996098 0.082985587
0.214800477 0.129032478 0.086021967
0.220872477 0.134851485 0.091967478
0.224667743 0.138899222 0.095635712
0.227704138 0.141682178 0.098545134
0.231119975 0.144592017 0.101707980
0.237191975 0.144592017 0.104743585
0.243516982 0.149652004 0.110309519
0.247944295 0.154079691 0.114737198
0.252624571 0.158507422 0.118026584
0.261732966 0.167615056 0.121062987
0.267678499 0.173814237 0.126628965
0.273876995 0.181657240 0.130803227
0.283111662 0.189753011 0.136116132
0.297912449 0.196204543 0.145350993
0.310056478 0.208349332 0.157495007
0.319923788 0.218216196 0.167362273
0.333459824 0.231498837 0.180518448
0.351549953 0.249588996 0.197596133
0.369765937 0.267804980 0.209740892
0.393295616 0.291334629 0.232763946
0.419355094 0.322707325 0.258823127
0.447564900 0.358760417 0.285894543
0.478177994 0.395698518 0.313092500
0.208601862 0.126375869 0.084250741
0.199747249 0.123339482 0.086527377
0.205313087 0.124604642 0.079949766
0.210879162 0.126628578 0.083491579
0.212523863 0.129917681 0.086906999
0.214041919 0.126375869 0.092978999
0.218089670 0.130423740 0.091461316
0.218089581 0.135863155 0.093738288
0.224162102 0.137887090 0.094750091
0.227198258 0.140923485 0.097786479
0.230233863 0.143959865 0.095003128
0.236305878 0.150031880 0.101075120
0.240227640 0.153953105 0.104996637
0.243516997 0.156736001 0.108032972
0.249588996 0.156736001 0.111068577
0.255660981 0.161542982 0.116508603
0.261732996 0.169133186 0.121062547
0.266792864 0.175584987 0.124730989
0.273623943 0.182415918 0.130044103
0.279949725 0.188740879 0.135863125
0.287918985 0.196710870 0.143832862
0.297026843 0.203795001 0.149904862
0.310056508 0.208096221 0.156862512
0.319417864 0.217456937 0.160657883
0.331561863 0.229601696 0.172801867
0.344085634 0.242125392 0.185325652
0.360784262 0.258823872 0.202023864
0.379000843 0.277039856 0.218975008
0.402529806 0.300568819 0.241745755
0.430360496 0.330170691 0.262491792
0.459709167 0.366350561 0.286400557
0.490069747 0.404806852 0.313724995
0.221758246 0.133459985 0.100442722
0.220746636 0.136495858 0.095382862
0.218469739 0.135736763 0.092093766
0.225047350 0.136242822 0.092852995
0.228083536 0.137760550 0.095888704
0.229728252 0.138013929 0.097027004
0.234282181 0.142567992 0.101581052
0.237317786 0.146995708 0.101834439
0.240354076 0.150031418 0.104870155
0.243390486 0.153067484 0.107906215
0.246426627 0.156103864 0.109171383
0.249462247 0.159139737 0.110183500
0.255534261 0.165212020 0.116255499
0.259456038 0.169133469 0.120177217
0.263757229 0.170904249 0.123212829
0.273877263 0.175711259 0.126628593
0.279949248 0.181783244 0.132700995
0.285388827 0.189120576 0.136242837
0.290069520 0.193801269 0.140923530
0.296141684 0.199873269 0.146995515
0.300316215 0.204047993 0.151169777
0.309171140 0.212903127 0.160025120
0.320303231 0.218342751 0.167362243
0.331308901 0.229348615 0.176090896
0.344718248 0.242757812 0.187982246
0.356862575 0.254902244 0.197343230
0.372422576 0.270462036 0.210626066
0.392157137 0.290196240 0.227324232
0.415686190 0.313725203 0.250853896
0.436432660 0.341555595 0.271600187
0.468437821 0.376470566 0.296014816
0.502214015 0.415938973 0.327893257
0.239974633 0.148640275 0.118279286
0.240734026 0.151296631 0.111448377
0.242757991 0.154206276 0.107906632
0.244023114 0.155218109 0.105755992
0.246679276 0.152561277 0.111068994
0.248956576 0.154838577 0.108791701
0.252245635 0.158127636 0.111068636
0.256672919 0.162555352 0.115496345
0.260467827 0.166350633 0.119291633
0.263883770 0.169765800 0.122706801
0.269196868 0.172801867 0.124604508
0.272233009 0.175838023 0.127640888
0.276407272 0.180012271 0.131815642
0.282479286 0.186084986 0.137887627
0.286401063 0.190006211 0.141808867
0.294370621 0.195445627 0.145983443
0.303478628 0.199240625 0.149399266
0.309550613 0.205312788 0.155471265
0.313092977 0.208855256 0.159013614
0.320050657 0.215812653 0.165971011
0.324225157 0.222264379 0.171284184
0.330296904 0.228336647 0.177355915
0.339658260 0.237697288 0.186464265
0.351802289 0.249842092 0.196584284
0.366223544 0.264263242 0.208728552
0.381150961 0.279190600 0.223149911
0.394307643 0.294370770 0.231245920
0.414927393 0.317520708 0.247058719
0.442251861 0.344844878 0.273624271
0.469829023 0.374952257 0.301201850
0.494244397 0.409740448 0.323845476
0.533712924 0.449714899 0.362807930
0.271853030 0.176976994 0.130170956
0.269070417 0.174193636 0.127387598
0.270082265 0.176217765 0.128652766
0.273371190 0.178494871 0.131688893
0.276281029 0.181151032 0.134345055
0.276281029 0.181151032 0.134345055
0.276787013 0.181910068 0.135104030
0.278178334 0.183554709 0.136242747
0.281214148 0.187349990 0.139784992
0.287286937 0.193421990 0.145856991
0.296268135 0.196331158 0.146363035
0.301075250 0.199873298 0.148640260
0.306009024 0.203542039 0.152814999
0.311828017 0.209867075 0.158886999
0.317900002 0.215939060 0.164958999
0.324225038 0.221758023 0.171030983
0.330044061 0.225553066 0.175838217
0.336369008 0.226565182 0.179001018
0.342441022 0.232637987 0.185073048
0.350790381 0.241492689 0.193674713
0.356862724 0.250853807 0.201391473
0.362682015 0.260721028 0.209235027
0.374952525 0.272991538 0.221252501
0.387223065 0.285262793 0.227450997
0.401644319 0.299936712 0.235800281
0.416824698 0.315875709 0.248197645
0.433270097 0.333333164 0.264643013
0.451486081 0.363693923 0.282859027
0.482732475 0.396457821 0.314104825
0.517646968 0.431625396 0.349272400
0.554205835 0.470714599 0.384566575
0.593675017 0.516255021 0.417963028
0.287033409 0.183048993 0.139278576
0.287033409 0.183048993 0.139278576
0.286400974 0.191018417 0.140796766
0.289563417 0.193674982 0.143833160
0.294623524 0.190259412 0.146489829
0.297533393 0.190259412 0.146489829
0.302593380 0.197849736 0.154079512
0.304111391 0.201771110 0.154712111
0.303984702 0.205565989 0.154459313
0.302466542 0.211637974 0.158000991
0.311448425 0.211890981 0.161163867
0.314484417 0.218595654 0.165591404
0.320809633 0.223023400 0.171030983
0.333080351 0.225047439 0.177102983
0.336115956 0.234155819 0.183174983
0.344591767 0.237824023 0.189246982
0.350031585 0.244528607 0.195319355
0.354965240 0.250474393 0.199494392
0.363693386 0.253890336 0.200253427
0.366982758 0.262745053 0.206325427
0.376976401 0.273750871 0.216824815
0.386211127 0.284250677 0.226692110
0.396204889 0.294243872 0.236432880
0.411385298 0.309424311 0.245540500
0.425933063 0.326248974 0.254016250
0.441113442 0.346615702 0.268690616
0.458317876 0.369512856 0.289690048
0.484883219 0.397090256 0.316255361
0.513725162 0.427450985 0.345097989
0.546489537 0.461986154 0.379633158
0.579633176 0.501075327 0.414294779
0.611890972 0.546615839 0.445287406
0.309424579 0.201138794 0.150790602
0.307020783 0.203541979 0.145983607
0.309171557 0.205692753 0.156735823
0.311954588 0.214547783 0.162049308
0.317267597 0.213788778 0.165844783
0.318279713 0.213788778 0.165844783
0.316634983 0.218975306 0.168627471
0.322706968 0.221505702 0.169512793
0.324984074 0.223023504 0.167236090
0.325237095 0.227450803 0.170272127
0.331435651 0.232510790 0.175711662
0.336496055 0.234535053 0.178747535
0.339152575 0.241745800 0.184439987
0.349778801 0.244781792 0.190512046
0.354965180 0.251739383 0.196584597
0.362808406 0.260847777 0.205059782
0.370398611 0.265401602 0.211131781
0.375585169 0.273624361 0.217836753
0.384692818 0.280202746 0.223150000
0.390638947 0.286401242 0.228715986
0.399367571 0.297406584 0.234787971
0.410499722 0.308539122 0.244908109
0.419861048 0.318026572 0.254016489
0.435040891 0.335483700 0.263124704
0.445667267 0.352941364 0.276786864
0.464769274 0.373940349 0.290322542
0.484503776 0.398228914 0.311068922
0.509930372 0.423655987 0.336496025
0.535104513 0.453636587 0.361669600
0.567235708 0.489310533 0.399114311
0.599747181 0.526375949 0.437697768
0.630107582 0.567362607 0.472612381
0.330676973 0.223908991 0.170525178
0.330677003 0.226944983 0.165970996
0.331941783 0.226944759 0.167362407
0.333712995 0.231245980 0.174952343
0.339658529 0.236938536 0.181024984
0.343074203 0.238077179 0.185578987
0.342062056 0.240101188 0.186590865
0.340923369 0.245793700 0.189247370
0.346236289 0.244276077 0.185452282
0.349272490 0.247311890 0.188488483
0.353700191 0.251739204 0.192916170
0.359266222 0.257305264 0.198482111
0.363440990 0.261480272 0.202656373
0.369513005 0.267552376 0.208728373
0.375584960 0.273624361 0.214800820
0.382542968 0.280581981 0.221758366
0.391651005 0.289689958 0.230866373
0.398355573 0.296394557 0.237570941
0.407463402 0.305502951 0.246679351
0.415306896 0.313346177 0.254522204
0.425174177 0.323213190 0.260594577
0.434282333 0.336369336 0.265654445
0.442505181 0.346616179 0.273877174
0.456293494 0.362049192 0.284376889
0.469955683 0.381783575 0.296521455
0.483238369 0.400000334 0.313093156
0.507780075 0.424541444 0.332321316
0.533080161 0.449842066 0.356610090
0.557368815 0.480961293 0.383934140
0.583934307 0.509044707 0.415812522
0.619101763 0.550284684 0.456546366
0.651359975 0.588614941 0.495382994
0.350790530 0.248197153 0.194686994
0.354459375 0.251865953 0.192283183
0.356230378 0.251233369 0.193927556
0.359898537 0.252624691 0.193927705
0.360278100 0.257937700 0.191271544
0.368880481 0.260721058 0.202403560
0.370398551 0.261859536 0.205060139
0.370398551 0.263883531 0.206072286
0.371157646 0.269196630 0.209108472
0.374193251 0.272233039 0.212144092
0.377862006 0.275901258 0.215812847
0.382289559 0.280328542 0.220240563
0.388994128 0.287033260 0.226945132
0.395066142 0.293105990 0.233017132
0.401138127 0.299177974 0.239089131
0.407210588 0.305249959 0.246426120
0.414800942 0.312839925 0.254016310
0.423276126 0.321315140 0.261227131
0.432384521 0.330423534 0.270335525
0.440227896 0.340796888 0.278178215
0.451233536 0.351802528 0.286653876
0.462239116 0.364326268 0.292347014
0.465654969 0.379633099 0.295762122
0.477798969 0.392789125 0.307906151
0.492852807 0.411131978 0.321315557
0.510689497 0.430992901 0.336875528
0.529411614 0.449715614 0.355597615
0.556482971 0.476786971 0.379759878
0.580518544 0.508159339 0.408096075
0.605945647 0.537507951 0.441365898
0.634282112 0.565465093 0.477798730
0.673750579 0.611005545 0.514231563
0.378115028 0.272486031 0.206831098
0.384187043 0.278558016 0.206831098
0.383554846 0.280076057 0.215180039
0.386084884 0.283618182 0.222517207
0.393674612 0.291334987 0.224668041
0.396710992 0.291334987 0.224668041
0.397723049 0.294117689 0.228210360
0.397723049 0.295256048 0.229349002
0.398482144 0.296521127 0.230360940
0.401518494 0.299557537 0.233396560
0.407463998 0.305503041 0.239342034
0.411258757 0.309297740 0.243137330
0.416824698 0.314863682 0.248703673
0.425427020 0.323466092 0.257305980
0.431499004 0.329538077 0.263377994
0.437570989 0.335610062 0.274257004
0.445161223 0.343200266 0.284377187
0.453636974 0.351676017 0.291587979
0.459708989 0.357748032 0.291587979
0.463251382 0.372422397 0.295129657
0.472486019 0.385199040 0.304364026
0.484630048 0.397343308 0.313978374
0.496015072 0.409994006 0.320051014
0.508159041 0.428210020 0.332195044
0.524857640 0.445920587 0.348893017
0.545603991 0.464389980 0.367994726
0.568880081 0.483112127 0.388994128
0.590132415 0.504364431 0.410246491
0.611890793 0.531435847 0.434408724
0.635167480 0.561037362 0.464516163
0.660594583 0.591777623 0.499051213
0.688930988 0.626186013 0.535484076
0.447185487 0.355218142 0.277419120
0.444908112 0.352941483 0.274636477
0.448829889 0.356862724 0.276786685
0.448324144 0.357495129 0.281973124
0.452118933 0.361290276 0.283491313
0.455154687 0.363694102 0.285895109
0.455660760 0.363694102 0.285895109
0.455660760 0.364832461 0.287033737
0.457178950 0.366350472 0.288551748
0.462239593 0.371410608 0.293611646
0.468185127 0.377356112 0.299557090
0.470209122 0.379380107 0.301581115
0.473624468 0.382795483 0.304996729
0.480582058 0.390259147 0.311701387
0.484123737 0.398861498 0.312713355
0.492599547 0.407337278 0.321189165
0.499051124 0.413788795 0.328399926
0.506261706 0.420999467 0.334345728
0.512333751 0.427071482 0.338646770
0.518405795 0.441492856 0.349778742
0.532827139 0.450980484 0.360404819
0.547628045 0.461353451 0.373434454
0.559772432 0.473750770 0.383428246
0.571916521 0.491967469 0.398229122
0.584060431 0.505629480 0.410373092
0.598482132 0.522833705 0.427577436
0.616698503 0.542567790 0.448956460
0.637950897 0.568374157 0.477039576
0.664516270 0.594940186 0.503604889
0.687792361 0.622264564 0.533333361
0.710309923 0.653384030 0.571157634
0.731942058 0.688677728 0.615180492
0.482100010 0.395825475 0.309677005
0.488551348 0.396584392 0.312334120
0.482226491 0.403541952 0.319291711
0.490322560 0.406577885 0.321062475
0.493864536 0.407590002 0.321441919
0.496900558 0.410626382 0.324477911
0.497406483 0.414927453 0.326881707
0.502340138 0.416571736 0.333459705
0.503858089 0.417583793 0.333712786
0.508791924 0.422517478 0.336369485
0.512966752 0.430487216 0.342441469
0.518785715 0.432511210 0.344465464
0.519924343 0.435926557 0.346742451
0.525490403 0.442504495 0.353067487
0.531815052 0.448323876 0.358001202
0.532068253 0.457432270 0.363314241
0.544212639 0.466540277 0.370904446
0.551423192 0.472991705 0.374952704
0.557495236 0.479063720 0.381024718
0.565464437 0.489690125 0.390765488
0.575331926 0.502972722 0.402909458
0.592536092 0.510056853 0.417077720
0.603668511 0.521441936 0.429348230
0.614041746 0.537887514 0.444528639
0.628083408 0.553447425 0.459329456
