Assets/EldamarStudio/100 Retro LUTs Pack/LUTs/cube/James LUT.cube
LUT_3D_SIZE 8
DOMAIN_MIN 0.000000 0.000000 0.000000
DOMAIN_MAX 0.903226 0.903226 0.903226
0.121569000 0.062744997 0.035294000
0.125869542 0.070967548 0.035673548
0.141176000 0.074510001 0.043136999
0.152435347 0.084629998 0.045413997
0.178620994 0.104996994 0.064263187
0.213409245 0.131182730 0.088045739
0.256166995 0.165337995 0.116635285
0.328399777 0.226438791 0.175458789
0.145477548 0.075268999 0.036812000
0.145856991 0.072106093 0.044275545
0.150917456 0.083871096 0.051739097
0.171663284 0.100315996 0.061480448
0.192030087 0.113598995 0.075268999
0.226439178 0.137381539 0.099936739
0.270588249 0.169639543 0.124857731
0.328399777 0.226438791 0.174699783
0.175585002 0.101834096 0.072106004
0.180645555 0.104997002 0.075268999
0.193548083 0.119924091 0.079949193
0.206831202 0.126882002 0.083744287
0.235040992 0.145730376 0.104111195
0.262871653 0.169512749 0.120935738
0.307779789 0.209108189 0.159772098
0.381151140 0.279190630 0.226691946
0.239974633 0.148640275 0.118279286
0.246679276 0.152561277 0.111068994
0.260467827 0.166350633 0.119291633
0.276407272 0.180012271 0.131815642
0.303478628 0.199240625 0.149399266
0.324225157 0.222264379 0.171284184
0.366223544 0.264263242 0.208728552
0.442251861 0.344844878 0.273624271
0.330676973 0.223908991 0.170525178
0.339658529 0.236938536 0.181024984
0.346236289 0.244276077 0.185452282
0.363440990 0.261480272 0.202656373
0.391651005 0.289689958 0.230866373
0.425174177 0.323213190 0.260594577
0.469955683 0.381783575 0.296521455
0.557368815 0.480961293 0.383934140
0.482100010 0.395825475 0.309677005
0.493864536 0.407590002 0.321441919
0.503858089 0.417583793 0.333712786
0.519924343 0.435926557 0.346742451
0.544212639 0.466540277 0.370904446
0.575331926 0.502972722 0.402909458
0.628083408 0.553447425 0.459329456
0.699810565 0.638962448 0.552561283
0.638077259 0.571410239 0.483111858
0.658064425 0.596837103 0.511574566
0.672738850 0.602656543 0.516888022
0.680075943 0.616318882 0.529032171
0.697786450 0.634028912 0.546742618
0.717141032 0.663377583 0.589120507
0.745603561 0.693611801 0.630487084
0.788994372 0.754838645 0.709424138
0.832004726 0.815180421 0.783934236
0.846299767 0.825679839 0.804301202
0.850221395 0.838709414 0.823276401
0.856799603 0.850347579 0.830866396
0.875774622 0.859708786 0.843010545
0.891966581 0.884250402 0.875142276
0.911068738 0.909044623 0.904364109
0.947121739 0.944591701 0.951170266
0.125489995 0.067046449 0.038836453
0.125869542 0.067425996 0.039216001
0.134851098 0.075268902 0.047438450
0.160278350 0.092093550 0.054016288
0.184186995 0.110562995 0.069829196
0.224541545 0.137507543 0.090954997
0.262492299 0.168374285 0.121315278
0.322580665 0.220619962 0.168880641
0.133712545 0.074889451 0.047438454
0.145856991 0.079190098 0.047817998
0.155597553 0.084629998 0.046552546
0.172801644 0.100695640 0.062239449
0.198355198 0.119924188 0.081593908
0.228842467 0.141809002 0.098292448
0.263251275 0.168374285 0.120935827
0.320430070 0.220999509 0.166729704
0.178747997 0.107400000 0.068564452
0.180265993 0.110942543 0.077292554
0.192789093 0.113599092 0.077546090
0.207969636 0.127261534 0.084123738
0.233523190 0.146489173 0.100695647
0.262871742 0.168753743 0.121694729
0.305882543 0.200759023 0.156103536
0.373308063 0.269829065 0.213282615
0.239215627 0.143959180 0.102846637
0.241239995 0.152688086 0.109930634
0.253763288 0.158507541 0.111828081
0.270082176 0.173687384 0.125489816
0.290069640 0.193674728 0.145477369
0.317141294 0.216318831 0.161923081
0.357242078 0.255281717 0.199746832
0.425047368 0.327640891 0.258190900
0.317014515 0.219607741 0.159266546
0.331056356 0.223529637 0.173055097
0.337254733 0.236432269 0.182795629
0.353699923 0.251739532 0.192915827
0.379127204 0.277166158 0.216066182
0.408096284 0.310689479 0.247312084
0.451360017 0.364958912 0.289816618
0.542061865 0.461100429 0.369639367
0.464642286 0.372295827 0.296900749
0.476280749 0.385831565 0.304996759
0.483744442 0.400885403 0.312840164
0.506261766 0.417710453 0.331688464
0.530803263 0.448323756 0.354712218
0.564326465 0.485894978 0.389879793
0.612270772 0.537634254 0.441493005
0.691967070 0.624035358 0.539405584
0.626944602 0.549652338 0.452245355
0.639721870 0.568501055 0.482352644
0.653763473 0.580645084 0.486021399
0.666034102 0.597090542 0.504364550
0.684756398 0.617204070 0.531815529
0.702973008 0.643010855 0.564073443
0.734345138 0.679063797 0.609740376
0.775711238 0.736875355 0.687413096
0.826818585 0.805439591 0.783554673
0.838330090 0.818216145 0.794307113
0.846299767 0.827957153 0.812017381
0.851992488 0.837444246 0.817710102
0.868437886 0.852751315 0.833396852
0.882226348 0.876154363 0.864516258
0.906514883 0.901960611 0.895255983
0.944465637 0.937128305 0.931309104
0.126249090 0.071347095 0.036053099
0.125869542 0.070967548 0.035673548
0.142694190 0.076027997 0.044654995
0.161037445 0.092093542 0.061859898
0.194433898 0.116002284 0.079190098
0.229980826 0.142188638 0.097533256
0.271094292 0.174699381 0.128399700
0.332320809 0.230360791 0.179379791
0.145098001 0.078431100 0.046299901
0.149399355 0.076027997 0.047058903
0.155597538 0.087792896 0.049715545
0.176723644 0.104617350 0.066160545
0.203415543 0.124225445 0.085895449
0.236306444 0.148513556 0.105376445
0.274636358 0.179380193 0.132700741
0.333080262 0.229727805 0.180139273
0.181909993 0.105756097 0.071220994
0.186970443 0.108918190 0.071726643
0.197470084 0.117520094 0.080708094
0.214294642 0.133586541 0.090449341
0.238962993 0.149651989 0.106514804
0.268817097 0.174699366 0.127640888
0.312587023 0.208981276 0.159772292
0.378494769 0.275774896 0.221758693
0.243643194 0.155091897 0.110815734
0.244022742 0.155471444 0.111195184
0.256546646 0.162428632 0.120935634
0.271727085 0.175332204 0.127134725
0.288931251 0.195319623 0.141555980
0.323339403 0.219860882 0.168880463
0.363567322 0.261606723 0.206831113
0.428969055 0.339911431 0.268437803
0.316382110 0.220114097 0.165971190
0.326755166 0.222264290 0.169892371
0.339279085 0.237318084 0.184820086
0.355344623 0.253383756 0.194560632
0.378368199 0.276407152 0.216066182
0.411132276 0.309171259 0.246553078
0.455661178 0.367741436 0.290322363
0.544718564 0.463756889 0.370777696
0.464262724 0.369133621 0.297153741
0.471473575 0.377103388 0.302846402
0.485894859 0.391524285 0.317267835
0.503984869 0.411511540 0.334977448
0.524604559 0.442125350 0.349272698
0.557748199 0.479316711 0.382416368
0.607590258 0.532953680 0.437697798
0.688551247 0.622896910 0.538267076
0.621758223 0.547880828 0.452118546
0.632384717 0.561037362 0.470335305
0.649968326 0.576090932 0.483491391
0.662112892 0.590512216 0.496774286
0.680581808 0.612017512 0.525363624
0.704870343 0.642631531 0.567741930
0.731562316 0.676280618 0.606957555
0.776597023 0.738140523 0.692346394
0.816445410 0.798355579 0.759519219
0.829474688 0.810626268 0.780518472
0.834282041 0.818722129 0.794054270
0.845161319 0.830233812 0.809108138
0.860214889 0.845540762 0.829221964
0.875015736 0.868564427 0.851866007
0.900063217 0.894623756 0.887033165
0.936116278 0.938646495 0.934218407
0.134471640 0.067805350 0.039216001
0.138393357 0.071726643 0.040354352
0.145857096 0.079190098 0.047817901
0.166983008 0.096395001 0.057178997
0.201391384 0.119544640 0.079822995
0.232005090 0.145730376 0.100316092
0.276280940 0.178747699 0.132827356
0.339026123 0.237065151 0.183807448
0.146995649 0.079569645 0.049715545
0.153700009 0.081973456 0.046173092
0.162681550 0.092093542 0.052877646
0.179886445 0.108538538 0.068943992
0.207590088 0.126122892 0.085515901
0.238583341 0.150031641 0.100189798
0.280834943 0.187223092 0.135357082
0.341556162 0.239595160 0.184819773
0.183807641 0.107020549 0.078431003
0.184946090 0.110815734 0.079569645
0.202150181 0.127008080 0.081087746
0.218216538 0.137507632 0.094370641
0.247691184 0.155091986 0.107274093
0.276534170 0.177861989 0.132321179
0.323212892 0.218975544 0.169133276
0.388867706 0.284756303 0.226059332
0.244402289 0.155850992 0.106008634
0.247565091 0.156230539 0.120303541
0.256166965 0.167615280 0.117773637
0.272991627 0.178873926 0.131815627
0.300822169 0.198861182 0.147881076
0.328526020 0.225426883 0.176723376
0.368374646 0.269829273 0.213156208
0.438457042 0.349398732 0.273118079
0.320303291 0.222517371 0.170651376
0.333459735 0.228589371 0.173560634
0.343579739 0.241619632 0.188361630
0.357242376 0.255281389 0.201264992
0.383048564 0.281088203 0.219228178
0.415939361 0.315116942 0.252878010
0.461986452 0.374067187 0.296647489
0.551423192 0.471726596 0.378747344
0.461480111 0.374825835 0.297406465
0.475015819 0.385325462 0.303352535
0.483617842 0.398861527 0.314990520
0.502340078 0.417583793 0.330676734
0.530929685 0.446173370 0.354459256
0.562302351 0.483238220 0.388867468
0.613915384 0.540037751 0.442378312
0.692852616 0.625679851 0.542188227
0.628462911 0.554585874 0.455914199
0.640101075 0.571157277 0.474256814
0.650347888 0.577988386 0.481467098
0.662112892 0.596078157 0.504237890
0.681846917 0.618089974 0.534092247
0.707779944 0.648576915 0.572928369
0.736116230 0.682985187 0.612017512
0.783175468 0.746363044 0.703352094
0.819481254 0.803921759 0.767615557
0.824288189 0.808728755 0.776217580
0.831878304 0.817330837 0.791903615
0.844781935 0.829854548 0.810246587
0.854775250 0.845793605 0.830613256
0.873877406 0.867425799 0.852751195
0.905629218 0.900315881 0.890955031
0.941808760 0.939531803 0.935104430
0.138772801 0.072106190 0.040733807
0.142694190 0.076027803 0.044655193
0.154459000 0.079949193 0.052498192
0.172422186 0.099430993 0.067425810
0.203668192 0.122201189 0.079064190
0.237444803 0.150411189 0.099810250
0.278937280 0.184060991 0.134724900
0.344465643 0.242504627 0.186210960
0.153700009 0.084630191 0.047691189
0.156356737 0.087413445 0.053383999
0.170904189 0.096394800 0.065148897
0.186084539 0.112460546 0.074762739
0.214294553 0.132827461 0.092220448
0.246805996 0.156736091 0.107653342
0.287413061 0.190006346 0.138140440
0.343453407 0.245287701 0.190006152
0.192030281 0.115117088 0.077546000
0.196711093 0.123466447 0.076407552
0.210878998 0.123719193 0.087793000
0.227703646 0.139911547 0.096015446
0.251613021 0.157494992 0.111954384
0.276534021 0.182036817 0.133839279
0.324351370 0.220746279 0.173055083
0.395319432 0.288930863 0.229095548
0.245035082 0.152308539 0.109550990
0.254269540 0.160151750 0.113092728
0.263251185 0.169133291 0.122074284
0.277166247 0.182036832 0.131309181
0.303478628 0.201517910 0.150537625
0.333206832 0.231245816 0.180265814
0.375711560 0.273750544 0.217457280
0.443643242 0.347754627 0.279822916
0.327387571 0.229601383 0.174699381
0.337002009 0.232890636 0.182922453
0.347881198 0.245920181 0.187097177
0.364326388 0.262365401 0.203541979
0.390133202 0.282732368 0.220620185
0.421758652 0.319797635 0.253130704
0.471473664 0.377988458 0.298039258
0.554965317 0.468690634 0.381024659
0.467046082 0.382668823 0.300316334
0.475901634 0.390006274 0.304617286
0.486274362 0.400759190 0.314231634
0.504996657 0.419481277 0.332953811
0.528146923 0.449715018 0.355597913
0.564579427 0.486148059 0.391650915
0.617457151 0.542820990 0.446679264
0.692979336 0.628463149 0.544465184
0.634155869 0.560531259 0.461859673
0.645793974 0.573054910 0.477292657
0.657179177 0.584819734 0.491334558
0.670082092 0.597722948 0.505755901
0.687666178 0.620872617 0.535104573
0.709298015 0.653383791 0.576091230
0.739405274 0.689689577 0.624288797
0.793421686 0.759265959 0.716634870
0.814547539 0.796457708 0.758633375
0.826312602 0.808222353 0.782542348
0.834155560 0.815939367 0.790512264
0.845541060 0.827577353 0.803921402
0.860720634 0.843769729 0.828209519
0.878431439 0.869449437 0.859076440
0.906388342 0.897912800 0.893358469
0.940670431 0.944844723 0.943073809
0.145098001 0.078431003 0.043010995
0.145350933 0.084756806 0.047311544
0.163440645 0.090955094 0.057431832
0.181910083 0.104996897 0.065148994
0.207969725 0.126502261 0.087413251
0.242757991 0.152687997 0.107653253
0.280708551 0.187729269 0.136495724
0.346489817 0.244528800 0.189753130
0.160025194 0.092473187 0.044655096
0.169386104 0.093232185 0.064642735
0.174446538 0.103099450 0.064263090
0.193548292 0.118405998 0.080328740
0.214927524 0.132700533 0.090575546
0.250727475 0.160658002 0.115622737
0.293738186 0.189373985 0.143200576
0.350031465 0.245540828 0.192030415
0.200505987 0.123845898 0.087286741
0.206072092 0.123086810 0.088551894
0.211132348 0.131182820 0.092093639
0.226691723 0.142947540 0.099051349
0.257178992 0.159266442 0.117140830
0.283997655 0.188361824 0.140543729
0.327767015 0.225806728 0.174825832
0.395951748 0.293231934 0.236938626
0.248829871 0.162808374 0.119291633
0.254396290 0.168500900 0.117773637
0.267805278 0.170271829 0.125869468
0.283870727 0.187476531 0.139278889
0.310183257 0.208222374 0.157242268
0.335483611 0.233523101 0.180265635
0.375205755 0.274383396 0.209867105
0.443516731 0.350663900 0.278178453
0.339911193 0.230107173 0.180012271
0.336749166 0.236179560 0.182795629
0.353573710 0.248576820 0.195319548
0.364579558 0.261859834 0.203415364
0.387602478 0.285641968 0.226818383
0.417836726 0.321568459 0.257052630
0.472106457 0.377735436 0.300442457
0.546362996 0.465022087 0.366476893
0.467931718 0.385452211 0.297406465
0.475648224 0.383301467 0.299177736
0.485009730 0.401012212 0.315243572
0.505376220 0.413029462 0.330423713
0.523719430 0.441239446 0.351676017
0.559645414 0.481214464 0.385199189
0.610626101 0.535989761 0.435799986
0.681973457 0.614547312 0.527640402
0.625932813 0.558886230 0.455281556
0.638330281 0.567741811 0.477419287
0.647311628 0.579885960 0.486274749
0.659076631 0.593927741 0.499177456
0.679569840 0.617077827 0.524984002
0.705882072 0.649209261 0.571916282
0.743073821 0.691081583 0.624667823
0.797090411 0.762049198 0.718658686
0.810879171 0.791271269 0.761037111
0.826565146 0.799114406 0.765338361
0.823655844 0.807084024 0.782542527
0.834028840 0.817963183 0.794686913
0.853130817 0.833649576 0.815559387
0.872991681 0.866540194 0.848576486
0.906767845 0.900948763 0.895635605
0.946489453 0.946742475 0.947248340
0.160784006 0.086274996 0.058823999
0.165085450 0.090575546 0.063124545
0.174066991 0.099556997 0.072105996
0.190006346 0.117140926 0.071220711
0.217710271 0.134724692 0.088551708
0.250727475 0.160658002 0.114863738
0.294370264 0.195066288 0.146995574
0.355471253 0.253510356 0.197976261
0.174193546 0.097406738 0.064642735
0.175332263 0.102845997 0.069323257
0.187476203 0.112080805 0.070715003
0.201897651 0.123466350 0.083618067
0.227197900 0.137761086 0.099177644
0.261353761 0.166097194 0.119417734
0.301707715 0.203162730 0.154838562
0.354332536 0.252372086 0.200632513
0.207716912 0.122833379 0.084630102
0.213029787 0.128525987 0.092473187
0.224161789 0.137887374 0.094750181
0.237444699 0.148893282 0.104617350
0.261733085 0.169133276 0.119038284
0.292979181 0.194434017 0.142315075
0.337508082 0.235547081 0.183048457
0.402783066 0.300822109 0.234155491
0.257305324 0.164326280 0.120556280
0.260088265 0.167109340 0.117773347
0.272232622 0.176976189 0.128399998
0.288045347 0.186717629 0.140164301
0.310183257 0.209993914 0.158886984
0.342947572 0.240986556 0.186211273
0.388614923 0.286653906 0.225553617
0.447058886 0.354585886 0.284250617
0.338520199 0.235547274 0.177608892
0.344338834 0.236685619 0.188994095
0.352435201 0.250474393 0.196457982
0.363061547 0.261100531 0.207083836
0.384693354 0.287286162 0.223908991
0.423276633 0.327387750 0.255407721
0.473118365 0.381783783 0.306009173
0.547248602 0.465528429 0.374446511
0.476407290 0.388108462 0.311827719
0.484250635 0.399367481 0.317014337
0.491208136 0.404807001 0.325490266
0.505376220 0.422897011 0.334851474
0.523719430 0.441618979 0.350284755
0.556103945 0.477292418 0.382416159
0.614927292 0.534598470 0.444149464
0.678304911 0.613029599 0.521568716
0.637065113 0.558633566 0.457684845
0.638836265 0.568753839 0.475648284
0.650727332 0.579885840 0.487159938
0.664389849 0.592789173 0.500442803
0.681973577 0.615306497 0.527008116
0.707400262 0.647438586 0.568500817
0.737760544 0.692599535 0.622644067
0.790512085 0.755597353 0.708032906
0.809108317 0.786464214 0.758253932
0.816571891 0.793927670 0.765717864
0.818469286 0.802909613 0.771916449
0.833902597 0.814547598 0.789879560
0.850727439 0.831245899 0.813156366
0.871094286 0.860973835 0.843137264
0.902846217 0.898671567 0.887033343
0.949905396 0.949525833 0.941682279
0.177861989 0.101961002 0.060088843
0.182163447 0.106261544 0.069702700
0.192915902 0.114484094 0.079190098
0.206451640 0.128020331 0.084883012
0.238583356 0.152308643 0.103858359
0.272991836 0.181530654 0.129158989
0.323592722 0.226565436 0.173940718
0.391271621 0.289310604 0.230486929
0.190006450 0.115116984 0.062112533
0.190132543 0.110562995 0.075648546
0.203542262 0.121821731 0.078684248
0.222896636 0.136622444 0.093485333
0.245540738 0.156230345 0.114610821
0.279696584 0.184440345 0.137760893
0.327261269 0.225300267 0.174320281
0.398102492 0.293611497 0.237824246
0.219987363 0.137887090 0.088298745
0.226944640 0.139532089 0.088045828
0.231878653 0.150031433 0.104743972
0.251613110 0.160531089 0.117520280
0.279190451 0.183175072 0.132321283
0.318405747 0.216445431 0.165464729
0.365338534 0.263377547 0.204554006
0.441871911 0.339405596 0.270461738
0.262871653 0.172675639 0.117773637
0.269829392 0.173055097 0.130550265
0.276660383 0.183681354 0.134345353
0.297912627 0.198481634 0.148766473
0.327008039 0.225047335 0.168753922
0.359266251 0.257305443 0.198482260
0.413662106 0.312840074 0.245793819
0.485009611 0.396078408 0.314990222
0.342315167 0.248703554 0.184819907
0.348766387 0.250221342 0.191777378
0.354079485 0.249842092 0.194686949
0.366730183 0.264769197 0.205945194
0.394940197 0.297533393 0.234155178
0.436306387 0.343832999 0.271473646
0.494370610 0.412650287 0.323466033
0.571916163 0.500189781 0.404554367
0.498039365 0.415559530 0.325616539
0.508285701 0.422011197 0.335863203
0.511827826 0.427071363 0.339025617
0.517394364 0.434914529 0.346869290
0.523339868 0.440860093 0.352814734
0.566223502 0.484503388 0.393927634
0.626059294 0.552182198 0.458064288
0.691714168 0.629095435 0.545224309
0.673877537 0.610119939 0.525363505
0.677292645 0.622517049 0.535736859
0.686274350 0.622517049 0.539785206
0.697280049 0.633523285 0.550790668
0.703225553 0.644022822 0.564326108
0.717393994 0.662998140 0.586590767
0.742947400 0.697786272 0.631625354
0.801138639 0.770272017 0.732321262
0.841239393 0.809867382 0.785452008
0.838203728 0.817330360 0.802150428
0.837318420 0.830866396 0.801265180
0.854142845 0.834661603 0.816571712
0.863504231 0.847817540 0.828463197
0.878937423 0.875901103 0.861986220
0.911701381 0.901707828 0.899430335
0.956356406 0.955091536 0.957874537
