Assets/EldamarStudio/100 Retro LUTs Pack/LUTs/cube/Jane LUT.cube
LUT_3D_SIZE 5
DOMAIN_MIN 0.000000 0.000000 0.000000
DOMAIN_MAX 0.903226 0.903226 0.903226
0.000000000 0.003922000 0.000000000
0.262871414 0.002277292 0.000000000
0.526375413 0.015053578 0.007843000
0.788614988 0.076534003 0.050095126
0.989753127 0.146615803 0.127007812
0.060847409 0.266793400 0.006577994
0.286401004 0.274003416 0.006577994
0.549652040 0.280202270 0.038962696
0.803541958 0.290322423 0.088931419
0.992662728 0.304111391 0.154458806
0.186969995 0.553700387 0.083744824
0.346236706 0.570145786 0.099810109
0.588487923 0.562934399 0.111827567
0.804174244 0.541682661 0.147754580
0.992283165 0.529032230 0.215306386
0.301075131 0.787476122 0.198228985
0.405060142 0.789120853 0.216572002
0.591650844 0.784566998 0.220746115
0.807084084 0.775711119 0.238457114
0.994939983 0.757115960 0.292093515
0.459202766 0.969006777 0.386084765
0.522833467 0.977103055 0.413788497
0.641492546 0.970904350 0.424668014
0.808475792 0.965338469 0.434408605
0.987096965 0.959771752 0.467172623
0.000000000 0.006198711 0.222643703
0.256040692 0.000000000 0.232763976
0.523466051 0.032763988 0.241619110
0.783048987 0.109550714 0.251106828
0.989500046 0.171410650 0.280581802
0.060847413 0.267425418 0.241619110
0.284756690 0.271347433 0.240607396
0.539152503 0.282479405 0.252751291
0.781277418 0.292599291 0.259582400
0.989879608 0.306641400 0.282226503
0.177482709 0.538013577 0.253257722
0.333080292 0.549525678 0.265781105
0.571790040 0.550537407 0.274003804
0.784566879 0.532574236 0.288298398
0.989247203 0.526375413 0.315875977
0.299810141 0.771790147 0.313219577
0.402782857 0.783554554 0.316888124
0.582795739 0.773434401 0.322074562
0.794054151 0.763314486 0.333207130
0.986843467 0.747627676 0.368500859
0.451992810 0.964326382 0.440859944
0.514610827 0.968880653 0.460215062
0.636179805 0.962302148 0.465654790
0.804553986 0.955850780 0.472991645
0.985325634 0.952940881 0.508665442
0.020240422 0.000000000 0.456419826
0.252751708 0.002909714 0.461986095
0.521821797 0.021631572 0.476787210
0.768627524 0.085389130 0.474762797
0.980139196 0.178621233 0.470208377
0.075521700 0.252751261 0.466540128
0.276280701 0.260594696 0.477040082
0.535863101 0.266413689 0.482859075
0.766223848 0.284124106 0.474383086
0.980771780 0.325996101 0.485515654
0.158886582 0.531562388 0.489690393
0.319671005 0.538772821 0.493991077
0.564326346 0.532194734 0.495635808
0.772169232 0.531562388 0.496268392
0.973561227 0.539532065 0.510816038
0.320177138 0.758760512 0.506388247
0.414168298 0.767236114 0.514231563
0.580645382 0.764958978 0.516508400
0.787855864 0.754838705 0.516255677
0.981404185 0.752561688 0.541808963
0.456419826 0.959139347 0.566223800
0.517773390 0.961416483 0.583048463
0.629601538 0.957115650 0.580644965
0.799367487 0.953573525 0.592156947
0.975458801 0.956609368 0.613535583
0.060847998 0.005945998 0.694497287
0.269070089 0.010499578 0.696142018
0.514990687 0.038962863 0.701328099
0.761164010 0.078431010 0.708159268
0.983048439 0.177735507 0.687286437
0.090828575 0.250347823 0.695382714
0.287033409 0.257558554 0.714104831
0.527007997 0.263504416 0.708159268
0.773181498 0.270081967 0.706514716
0.983048499 0.325743139 0.692473054
0.185199127 0.507400393 0.705756128
0.335483998 0.521062851 0.714610815
0.551802397 0.523718953 0.714610815
0.770904243 0.527007997 0.702973008
0.969639599 0.545350850 0.705882549
0.324604839 0.761037230 0.710056961
0.419607997 0.763314128 0.726628721
0.584440410 0.757748365 0.719164848
0.776723266 0.752308428 0.717899978
0.974825799 0.753573537 0.730677128
0.483238637 0.956862628 0.739911079
0.538140535 0.958759904 0.750284672
0.641366005 0.956482947 0.753573954
0.791144788 0.951676130 0.743833125
0.976217628 0.952687979 0.762807906
0.094117999 0.034029156 0.915369987
0.270967722 0.038330276 0.915749550
0.500189602 0.066160560 0.912713766
0.746742427 0.112460151 0.919165075
0.987349629 0.168880641 0.919417799
0.093738139 0.249462694 0.911827922
0.276660383 0.251739413 0.911574781
0.504490733 0.256293416 0.916761637
0.749272645 0.274636388 0.915116906
0.984819591 0.310309678 0.916128814
0.133712783 0.490955234 0.922707200
0.299177706 0.494623542 0.919038653
0.526375413 0.502846420 0.921315312
0.752561450 0.512587011 0.918026805
0.987982213 0.529032230 0.922707200
0.294497162 0.742821097 0.924477994
0.384440184 0.745730519 0.914231598
0.550790668 0.740796804 0.916634798
0.758760154 0.740796804 0.918026805
0.973940432 0.752308369 0.920050621
0.460467935 0.959771752 0.914104760
0.511701703 0.964073360 0.928020120
0.634281933 0.957874358 0.925869763
0.796457767 0.953193963 0.924225092
0.965085447 0.948007762 0.933712780
