Assets/EldamarStudio/100 Retro LUTs Pack/LUTs/cube/Janet LUT.cube
DOMAIN_MIN 0 0 0
DOMAIN_MAX 1 1 1
LUT_3D_SIZE 32
0.047059000 0.058823999 0.086274996
0.047059000 0.058823999 0.086274996
0.044908226 0.060974225 0.086274996
0.048197322 0.065274999 0.087539837
0.062239543 0.070967548 0.091334544
0.089563929 0.074003935 0.100442939
0.114357993 0.074510001 0.107020997
0.143579692 0.076154292 0.109803997
0.177735180 0.077672102 0.110562898
0.214167982 0.074636482 0.113598526
0.259329617 0.077419132 0.122453868
0.302846491 0.072359264 0.129538000
0.349905282 0.064390004 0.133332998
0.403795093 0.057811935 0.133332998
0.449336231 0.045667171 0.133332998
0.497280598 0.043136999 0.138139993
0.545857370 0.052245378 0.148766190
0.593801498 0.071726970 0.163946569
0.639342010 0.096015029 0.179126978
0.682099760 0.117520370 0.194307372
0.726502180 0.144465461 0.211384982
0.767995119 0.176850259 0.231625244
0.801391482 0.213029966 0.255407989
0.834787965 0.243389994 0.267552018
0.861353576 0.276027828 0.284250557
0.888424933 0.308032930 0.302466959
0.917773128 0.339405119 0.321695149
0.942061841 0.375837862 0.345983893
0.966350615 0.409613758 0.380897909
0.987096965 0.439468592 0.415559560
0.999114394 0.471220940 0.451613158
0.996078014 0.513724983 0.494118005
0.040987000 0.058823999 0.083238617
0.044022612 0.061859611 0.086274996
0.052625161 0.059709385 0.088425227
0.059076611 0.062239386 0.088045768
0.069829158 0.068690836 0.089057833
0.086527541 0.077039547 0.103478551
0.121442251 0.077545613 0.104996607
0.146110088 0.082479313 0.106767610
0.175458476 0.086780488 0.108285606
0.214167982 0.083744869 0.113598518
0.256419748 0.083618388 0.116634868
0.305882365 0.080455258 0.119417995
0.352561623 0.074636266 0.124604642
0.400758684 0.070462003 0.130803376
0.446299821 0.063883945 0.136369392
0.489437193 0.066160768 0.138772592
0.535230815 0.075015962 0.148766190
0.582289517 0.091714360 0.163946569
0.630234420 0.111195415 0.179126978
0.675774753 0.135484114 0.194307372
0.714737475 0.160784498 0.209487736
0.756862700 0.188994512 0.226565376
0.798355162 0.219354972 0.246679097
0.831752300 0.255534768 0.267552018
0.862871349 0.288172036 0.286527276
0.890069306 0.318785608 0.306894243
0.918785155 0.348007441 0.327767134
0.948133826 0.381909877 0.352055877
0.972422600 0.410372764 0.384313762
0.987855732 0.443010569 0.423908710
0.997849226 0.474636555 0.461986154
0.999114394 0.510689378 0.500190020
0.039216001 0.069576226 0.084503770
0.046552613 0.066160612 0.085389383
0.045287773 0.071346998 0.088425227
0.059962224 0.068311386 0.090195999
0.072485544 0.071727000 0.088804774
0.087665930 0.079063840 0.096900828
0.116255634 0.082732551 0.103731774
0.149398983 0.086021550 0.103731774
0.176723510 0.093864769 0.105249770
0.216192275 0.095003478 0.111321770
0.256419748 0.097027220 0.114484094
0.304996759 0.097027220 0.123592734
0.353194267 0.091207780 0.122960128
0.397975802 0.087412998 0.127767220
0.445414215 0.085136004 0.133839220
0.490701795 0.088677987 0.139658198
0.534724832 0.096268184 0.148766190
0.579632878 0.110815972 0.164579138
0.625174165 0.129032031 0.181277767
0.670968115 0.150663942 0.200759143
0.712713420 0.178747684 0.215939507
0.749399245 0.206325129 0.229095638
0.790891767 0.233522996 0.244022489
0.822264135 0.261859804 0.265274912
0.857684970 0.293864489 0.286527276
0.888045311 0.327261209 0.309171319
0.916634917 0.355597764 0.332194835
0.946995616 0.384060413 0.358127892
0.967741847 0.414294541 0.386084765
0.986717403 0.445160896 0.415939152
0.994813144 0.478557795 0.455660999
0.997849226 0.511954248 0.493358999
0.043010838 0.083491325 0.091334999
0.047058776 0.079949327 0.088804998
0.052624937 0.078684166 0.090955228
0.055914160 0.082226157 0.093991160
0.073750705 0.080708541 0.092852615
0.088931091 0.087666154 0.092346773
0.116761476 0.092473313 0.101708002
0.148387298 0.095888831 0.105755836
0.180265307 0.102719925 0.104996935
0.219228312 0.109297998 0.109550998
0.258697033 0.111195281 0.112713128
0.304996759 0.112207159 0.118026346
0.354332626 0.113345802 0.130170822
0.396710932 0.108412288 0.128273025
0.442251772 0.109424159 0.133333161
0.487159908 0.114231154 0.141935155
0.532700419 0.123086505 0.152561352
0.578241527 0.133459881 0.167741731
0.621379018 0.151043519 0.185325950
0.667931914 0.170777678 0.202530205
0.709677517 0.195192784 0.219987571
0.749146163 0.222517446 0.237191960
0.785578966 0.249335796 0.247691140
0.815939009 0.274762958 0.267804921
0.847058713 0.303605139 0.286527276
0.880708158 0.331561983 0.305376172
0.911068976 0.362935066 0.331689000
0.941429734 0.386464149 0.361290425
0.963693798 0.417330623 0.384819627
0.981404185 0.449462146 0.417204320
0.993042350 0.481087565 0.447185338
0.996078014 0.513724983 0.486274987
0.050221004 0.097153999 0.101581454
0.047185387 0.097533546 0.097027451
0.052751679 0.095382772 0.097406775
0.063124999 0.093991093 0.098165616
0.075648546 0.093611538 0.101202004
0.090828933 0.102719933 0.092093609
0.118658997 0.108918540 0.102466770
0.150664017 0.113345832 0.110689290
0.185578987 0.117899634 0.113725096
0.222011030 0.127008021 0.110689476
0.261353612 0.128146544 0.114610672
0.305755943 0.128526092 0.117267251
0.353194177 0.129285187 0.122959994
0.398481607 0.132321507 0.134851038
0.438077211 0.135357127 0.138140410
0.480708569 0.141176090 0.148007542
0.523592710 0.150663927 0.162049189
0.569512665 0.163441107 0.176850110
0.615053952 0.178621531 0.192030534
0.663377762 0.196584553 0.205186561
0.707020700 0.217457473 0.218089744
0.745350778 0.241113663 0.234535128
0.784566879 0.262619019 0.255534500
0.815180004 0.289943457 0.273497552
0.844022870 0.318406075 0.289816260
0.872738957 0.345983326 0.306135178
0.902340114 0.370145619 0.323339581
0.932700872 0.391397953 0.359772325
0.957747936 0.422137767 0.381024510
0.978494346 0.455154687 0.411258548
0.993421912 0.486400545 0.448703617
0.996457577 0.513724983 0.485136449
0.044149000 0.121441990 0.098545067
0.041113388 0.124478377 0.104617067
0.046679229 0.122707151 0.106514834
0.057052448 0.122201085 0.101960778
0.069576547 0.123972312 0.092093609
0.084756926 0.120935932 0.095129997
0.112586990 0.124984317 0.101201609
0.144591689 0.128526226 0.106388062
0.180265322 0.133080035 0.109171093
0.222011030 0.142188415 0.116761483
0.261353612 0.148386940 0.128272995
0.300822228 0.151423201 0.130802929
0.344085991 0.152814865 0.133586004
0.389373988 0.153573900 0.140923038
0.431878716 0.156609520 0.150031418
0.478684574 0.164452732 0.158127815
0.520177364 0.176091045 0.172295928
0.560658038 0.190765500 0.188741148
0.608981967 0.205945939 0.201138929
0.657305717 0.223908931 0.219101951
0.703984737 0.240227669 0.228715926
0.743453264 0.259962261 0.239342123
0.775458515 0.283871412 0.255534500
0.808854997 0.311195850 0.270714909
0.841745853 0.333966225 0.288677901
0.872738957 0.358127803 0.309171319
0.902087092 0.382416129 0.331941932
0.926628888 0.406578362 0.356735945
0.951676011 0.430486888 0.382542700
0.972422361 0.459835351 0.412903249
0.988867939 0.488930881 0.447185576
0.999493957 0.513724983 0.476028085
0.020366682 0.153320313 0.108158998
0.027451066 0.148766398 0.104111001
0.041619450 0.151802778 0.112333775
0.056040324 0.150790647 0.113598838
0.071094222 0.151043773 0.104996547
0.086274609 0.143706381 0.103731930
0.114105314 0.148260325 0.109297998
0.141176313 0.149652004 0.111827612
0.173434287 0.153320417 0.114737093
0.214168325 0.162428796 0.127387479
0.258823305 0.166097626 0.126755312
0.304364175 0.176217631 0.138899311
0.345350921 0.180771679 0.142061964
0.387856066 0.182669058 0.147248641
0.430360794 0.187982544 0.158633739
0.477672577 0.195825145 0.170145318
0.524731159 0.209487692 0.180897996
0.566097379 0.225680202 0.195192575
0.612776995 0.240860626 0.205439642
0.661353767 0.258823663 0.225680009
0.706135452 0.277039617 0.241998732
0.745983601 0.294876456 0.251992315
0.776723802 0.317393988 0.265654504
0.814927220 0.337508231 0.280834913
0.843769550 0.362555295 0.298291981
0.873877347 0.384060651 0.319291294
0.903605044 0.407210469 0.345098048
0.933965564 0.431499213 0.375458300
0.953194320 0.458317608 0.402276635
0.972169518 0.480834812 0.431878567
0.987856030 0.508918464 0.466666877
1.000000000 0.536495924 0.497280329
0.004554003 0.181783408 0.121947698
0.015306678 0.174066707 0.117520407
0.026439071 0.177735478 0.118911766
0.046426296 0.178241536 0.121694990
0.064642392 0.177861989 0.118658699
0.081087939 0.172548771 0.116887927
0.112207644 0.171157405 0.123086698
0.135989994 0.170651406 0.127513990
0.162555099 0.172169402 0.122959793
0.200253069 0.180392176 0.131056204
0.247185156 0.186970562 0.135357156
0.294749796 0.192789689 0.140796989
0.342188209 0.202656686 0.150664002
0.383681387 0.206957400 0.155218318
0.430360794 0.215812817 0.168753982
0.474383593 0.227577597 0.175964713
0.521442175 0.236685604 0.188108712
0.568880081 0.253890276 0.200885281
0.617457271 0.269070715 0.212017700
0.659203053 0.285389006 0.228969082
0.703984737 0.306894422 0.248070717
0.745477676 0.326122552 0.263251126
0.777862489 0.347374886 0.276154220
0.814294934 0.367109507 0.291334629
0.843010545 0.388235390 0.310436398
0.873118281 0.411132067 0.328652382
0.900948763 0.432890415 0.353953063
0.932068110 0.457178861 0.387349397
0.953826666 0.480834782 0.415433198
0.975205421 0.506261885 0.443010569
0.988614857 0.526628673 0.475521952
1.000000000 0.553953290 0.508159280
0.001517999 0.208349094 0.135610089
0.009108002 0.199999794 0.133333385
0.020619772 0.199999869 0.134598404
0.032764096 0.205566123 0.134598106
0.051359646 0.202909291 0.129285097
0.069955871 0.202909291 0.129285097
0.103352442 0.200379416 0.133839220
0.132953987 0.197217092 0.140417472
0.154206187 0.192663088 0.143453106
0.187602609 0.198735088 0.134345487
0.231751740 0.204680771 0.139658317
0.278051585 0.213283092 0.147248253
0.327007830 0.219355106 0.157495096
0.372801960 0.226692125 0.164073095
0.423909009 0.240354180 0.178747401
0.469829381 0.254142880 0.186590895
0.513093114 0.267046183 0.195699081
0.560531199 0.278052151 0.205945671
0.615180135 0.293359101 0.220620066
0.655407727 0.308538973 0.235800266
0.694876373 0.327893585 0.250600994
0.736369312 0.350411117 0.268564224
0.775585413 0.371537000 0.283744574
0.808981836 0.392156988 0.298924834
0.837823987 0.412650257 0.317900300
0.864009917 0.433902651 0.338520080
0.897406995 0.454649150 0.358760089
0.925237358 0.478431165 0.391903400
0.948007762 0.499303907 0.421505451
0.969512880 0.522327483 0.450348139
0.990891576 0.545604169 0.479317039
1.000000000 0.563820183 0.509677112
0.007590000 0.241745502 0.144718498
0.001518000 0.235673502 0.144718498
0.011258769 0.229474992 0.146742776
0.026186151 0.227830663 0.147248819
0.042252023 0.230234459 0.144465506
0.063504413 0.230234474 0.144465506
0.097279988 0.227704138 0.141935170
0.130423427 0.226312488 0.144338951
0.160278186 0.226059496 0.149525881
0.190638989 0.226059496 0.152561501
0.224035352 0.223402619 0.149272889
0.262112737 0.230993047 0.150790721
0.306515127 0.240607500 0.158633649
0.357621580 0.247944534 0.173181474
0.406198323 0.269196868 0.185325474
0.454901606 0.282858968 0.197596595
0.500189364 0.295129508 0.212397486
0.545350790 0.308412194 0.227198064
0.600000441 0.326629013 0.230234459
0.646299839 0.341935873 0.244908124
0.687665701 0.359013468 0.256293237
0.727260888 0.377482504 0.268817246
0.766476989 0.395825028 0.286780953
0.799873412 0.414041847 0.301960588
0.833269775 0.432384461 0.319418103
0.862112284 0.452118635 0.339152634
0.888298571 0.472865134 0.361796468
0.921694934 0.491081893 0.392156452
0.946869195 0.509550929 0.425300449
0.967488945 0.531435907 0.458444118
0.985072613 0.554839075 0.491587549
1.000000000 0.575964928 0.524857461
0.007843000 0.260594755 0.156736001
0.001771000 0.269069850 0.159645870
0.000000000 0.262997866 0.157495096
0.012650131 0.259455860 0.159013301
0.031751901 0.261227012 0.160784423
0.063124932 0.266286999 0.168374732
0.089437321 0.261227012 0.158254102
0.126375571 0.259455860 0.159012854
0.160531193 0.257937878 0.163567126
0.190891981 0.253636867 0.164452523
0.221252739 0.253636867 0.167488873
0.254649103 0.248576745 0.168501258
0.294623762 0.255408019 0.171537101
0.342188209 0.265781045 0.179127038
0.388108790 0.281720400 0.188614860
0.439089388 0.300568998 0.203162670
0.494244218 0.316761374 0.214294791
0.546362936 0.332953721 0.228336260
0.596458077 0.351169944 0.242757976
0.639974892 0.369386733 0.248577014
0.677798688 0.386590868 0.261479855
0.716255248 0.404807121 0.272612274
0.757368624 0.422897071 0.287033975
0.790765047 0.438329816 0.304996967
0.821884692 0.454269260 0.327007860
0.854648650 0.470461518 0.347880781
0.882985234 0.488171846 0.371157318
0.906767547 0.506388009 0.403921723
0.945477545 0.527260959 0.436938524
0.965718150 0.542188466 0.465022385
0.981910229 0.562808573 0.495888829
0.997090161 0.588109016 0.531309009
0.003795004 0.288931251 0.172928512
0.001771000 0.296015114 0.175964385
0.002024256 0.296394259 0.176723480
0.009614254 0.294117421 0.172422260
0.030107349 0.294496953 0.173940539
0.065148801 0.295635253 0.183048919
0.089437321 0.295635253 0.180518612
0.121695399 0.291207969 0.176596969
0.159266353 0.290069401 0.180012405
0.190891996 0.285262227 0.178747252
0.227324471 0.282985508 0.179632857
0.257685244 0.280961245 0.182669252
0.289943278 0.276027888 0.182289988
0.331309319 0.283491492 0.183934256
0.378621221 0.295129418 0.198355407
0.422897100 0.316761494 0.202150539
0.472992092 0.334977478 0.217330933
0.529791236 0.353826523 0.228715822
0.579759538 0.373434275 0.245540947
0.628842533 0.395698965 0.258697271
0.671347201 0.410120249 0.266666502
0.706135273 0.427071393 0.279696137
0.746236444 0.444149494 0.293105721
0.779632866 0.459329605 0.311322242
0.812776268 0.474509776 0.332068503
0.844528675 0.489689797 0.356356472
0.876913369 0.505376101 0.378241330
0.901201725 0.523592472 0.405566067
0.932320893 0.540417314 0.434914500
0.957621634 0.556356490 0.466540098
0.973687708 0.572043180 0.494876891
0.990006268 0.598229289 0.531309247
0.006830994 0.332574248 0.193421990
0.011385280 0.334092259 0.195319250
0.019228403 0.337128162 0.198481634
0.028589915 0.333206415 0.197090283
0.047185365 0.335483819 0.191397727
0.079822853 0.332447648 0.197469920
0.104743958 0.330802917 0.197596312
0.128526390 0.329158336 0.197849348
0.162682086 0.327640712 0.200885534
0.195319518 0.325363427 0.198608145
0.235673502 0.320050508 0.193927646
0.269070148 0.317014664 0.198228896
0.300569266 0.316255271 0.203542277
0.330171019 0.312713653 0.196964219
0.370778143 0.316508502 0.206324965
0.415686578 0.334218591 0.216951281
0.458950341 0.353194267 0.218848839
0.508792102 0.373307824 0.233396634
0.560910702 0.395572275 0.248070985
0.611385107 0.419607729 0.265528381
0.664136469 0.439721614 0.276913524
0.703605115 0.452877760 0.288045138
0.740037858 0.467931628 0.303478479
0.775458515 0.482099921 0.322707176
0.808854938 0.496141911 0.345477909
0.841112971 0.512460589 0.368121594
0.872991979 0.528146386 0.392915696
0.899683774 0.546363115 0.415433049
0.927387595 0.561922789 0.444275707
0.951169789 0.578747630 0.471093982
0.966350257 0.591777205 0.503225803
0.984314024 0.615306973 0.539658606
0.027071062 0.390512019 0.216951028
0.038456805 0.384946018 0.217710063
0.053637061 0.386970013 0.220999047
0.072359316 0.388488024 0.223276153
0.090449512 0.383301586 0.220493481
0.111701123 0.380265981 0.217457086
0.135483637 0.376723707 0.216698050
0.157874733 0.373940349 0.218595743
0.180139124 0.371916175 0.220619932
0.207463562 0.374952555 0.223655537
0.248323768 0.367109239 0.213662028
0.282985508 0.362049311 0.214674294
0.314231604 0.361037403 0.223276600
0.347375035 0.363314062 0.231879011
0.368627369 0.354206473 0.219734237
0.407337368 0.362555265 0.229854554
0.451107293 0.375964403 0.239468962
0.495889038 0.390765578 0.243011028
0.550538003 0.418090016 0.255155057
0.599873662 0.443137050 0.274130374
0.655028462 0.465274781 0.288298696
0.707906127 0.484756142 0.300189912
0.741681993 0.499936521 0.315496027
0.781277776 0.512207091 0.336621940
0.816192269 0.524604559 0.362428844
0.848703325 0.539532006 0.388361990
0.878051996 0.557495177 0.413409114
0.902339995 0.575711846 0.440733463
0.926628649 0.591271162 0.473118424
0.949146211 0.609487236 0.501454949
0.969133615 0.629221618 0.529285192
0.984314024 0.644402027 0.565718055
0.069575801 0.417836398 0.232131407
0.072612181 0.417836398 0.241239801
0.077546157 0.416571379 0.237697810
0.092599809 0.417836398 0.235420659
0.114484519 0.416950941 0.232763991
0.129917875 0.419734329 0.232637465
0.153699800 0.411638081 0.229601726
0.174699396 0.408728391 0.232131824
0.194307506 0.407336891 0.233776316
0.216571912 0.405313313 0.226691931
0.246806145 0.405439824 0.232637405
0.281720668 0.401517957 0.228842661
0.313345999 0.399620384 0.230613768
0.344338655 0.399746805 0.234914616
0.374699354 0.393674821 0.237950996
0.398355603 0.386970401 0.233017012
0.434661776 0.392915994 0.238962576
0.477292866 0.405186951 0.247564703
0.529285610 0.427198380 0.270335406
0.581150949 0.457305402 0.274130046
0.630234122 0.478810877 0.288551301
0.681341290 0.497659832 0.305502802
0.726502419 0.515116930 0.327640802
0.769007266 0.530297279 0.345856816
0.804048300 0.544845045 0.371536672
0.838836312 0.560784340 0.397469878
0.871979952 0.578494430 0.422770530
0.896267951 0.593927860 0.452878237
0.920556605 0.609487772 0.482858747
0.943074167 0.624667943 0.512080729
0.964326560 0.641998827 0.541429162
0.984314024 0.659582376 0.577862024
0.085641801 0.457178563 0.252118796
0.098292172 0.454775393 0.251613200
0.105629563 0.456925601 0.252119035
0.112966776 0.459708899 0.252625167
0.131941795 0.460468084 0.253384054
0.149145916 0.453383714 0.247311801
0.162302598 0.458317250 0.254396111
0.188235298 0.449209303 0.244782090
0.207969889 0.446173310 0.244781896
0.225933298 0.443137258 0.242251500
0.251106918 0.443010777 0.238076985
0.285515696 0.440987051 0.252245516
0.317014635 0.435673743 0.250727773
0.346615851 0.431625575 0.249968559
0.381277591 0.427703798 0.253004402
0.409234583 0.424035609 0.248829991
0.432005167 0.420999587 0.250347793
0.464263141 0.426186204 0.255787373
0.503479183 0.436812192 0.267678976
0.555091560 0.461606830 0.279696465
0.610499442 0.491966784 0.290322542
0.661606789 0.513219357 0.309550941
0.711322188 0.532447517 0.334851503
0.753827035 0.543073893 0.350790799
0.794054508 0.562808216 0.375838071
0.827703774 0.579633296 0.405945420
0.862618566 0.597343504 0.433776051
0.892599761 0.612523437 0.462239087
0.919291615 0.625300586 0.487792730
0.940037966 0.642251730 0.521695137
0.958886802 0.658064604 0.549146175
0.977103233 0.674762785 0.577988803
0.105376370 0.498165548 0.267299175
0.116002567 0.493611753 0.268817395
0.131435767 0.491840601 0.265781194
0.141809314 0.497406512 0.266540319
0.153194368 0.502214134 0.273877650
0.166856378 0.492346704 0.267046273
0.178494439 0.493864357 0.271600306
0.195825487 0.493231893 0.273624688
0.220872998 0.485642076 0.259962291
0.236812502 0.482605696 0.259961903
0.259203166 0.480961382 0.257305384
0.290069491 0.478937268 0.259835303
0.323086619 0.475901634 0.271220803
0.350917011 0.467805356 0.266413808
0.386084586 0.463504136 0.268184543
0.416824788 0.461986154 0.267045975
0.439595371 0.457432359 0.265528202
0.462745130 0.457432359 0.270967782
0.493105799 0.459582597 0.274004191
0.533839226 0.471473724 0.279317200
0.584693193 0.493484974 0.291840732
0.641366303 0.521821260 0.310056984
0.693232238 0.543579698 0.336622298
0.737128437 0.558254123 0.354585707
0.775838077 0.573434472 0.380392253
0.813915133 0.593295157 0.407716602
0.848956108 0.612017870 0.439342141
0.885389090 0.629221737 0.465654612
0.910436630 0.640227675 0.493358433
0.933965981 0.655913949 0.524731159
0.953067601 0.674130201 0.560278356
0.969512999 0.689943194 0.584060788
0.135104552 0.535104513 0.280202538
0.141809121 0.531562507 0.285641968
0.153953150 0.528273344 0.285262376
0.170904294 0.527134717 0.283491313
0.182289958 0.535863519 0.289563984
0.188361973 0.530803502 0.287286639
0.196963817 0.529791236 0.288677990
0.211384848 0.531056106 0.291714132
0.233775750 0.525110602 0.289057851
0.251992524 0.522074223 0.279949456
0.270588428 0.518405974 0.277672559
0.298671812 0.514737487 0.279063880
0.328526229 0.512333751 0.280961156
0.356103599 0.509551108 0.281467140
0.389120370 0.504238129 0.282226145
0.421378583 0.502340555 0.282858551
0.447564781 0.499304533 0.283744156
0.467046529 0.493232518 0.285515577
0.497406602 0.493232518 0.288551956
0.529284954 0.494750172 0.288172424
0.569006801 0.504111111 0.294497430
0.616445720 0.523086250 0.309424579
0.670841455 0.547248483 0.333839059
0.716887951 0.568500876 0.356103480
0.757494986 0.585199296 0.382921964
0.794560313 0.603036106 0.412523627
0.830993116 0.621252179 0.439848065
0.873244882 0.642377973 0.464263320
0.899683774 0.653636754 0.494496942
0.922201157 0.667425513 0.527134359
0.942188621 0.685009181 0.560151577
0.963441014 0.703225970 0.593548000
0.162429065 0.562429070 0.307527006
0.171537444 0.568501055 0.310562611
0.178242013 0.569260001 0.309550822
0.190386012 0.566477001 0.305249989
0.206578061 0.563188076 0.301708072
0.212650046 0.569260061 0.307780057
0.221252382 0.561669707 0.300442696
0.233649686 0.563440740 0.300822049
0.252372086 0.567488968 0.304617107
0.279316992 0.561543524 0.304237545
0.288804859 0.555597961 0.295129925
0.311069250 0.549778998 0.292852998
0.336622626 0.546236932 0.293105990
0.359140009 0.545983970 0.293611974
0.389499962 0.545983970 0.299683958
0.424920619 0.543074191 0.302846164
0.456293195 0.538773060 0.304111004
0.482226193 0.532701015 0.303731620
0.506515026 0.526628971 0.300696015
0.534092367 0.523845613 0.298165679
0.565717697 0.525110722 0.301075071
0.602403462 0.534471929 0.311701357
0.643517017 0.553320587 0.330803484
0.692093790 0.574572921 0.358127892
0.738140225 0.591271341 0.382668972
0.780139029 0.610626340 0.410246342
0.818849087 0.633396924 0.439848095
0.855281830 0.651612878 0.467172444
0.889563799 0.664768994 0.499556810
0.918406129 0.678431153 0.530929387
0.941682577 0.693864584 0.559139609
0.957368970 0.709298074 0.581404030
0.234282106 0.617584109 0.345983386
0.243390501 0.618090153 0.349019706
0.246047109 0.619861126 0.347754329
0.249588951 0.618595958 0.345983386
0.258317292 0.614800751 0.343706369
0.261986107 0.616065800 0.344971389
0.270588428 0.612017751 0.345983386
0.281341076 0.608096123 0.340923458
0.296141744 0.609993756 0.340544105
0.317393869 0.603921771 0.336496085
0.316129267 0.608981729 0.333333254
0.335357368 0.602909744 0.328273118
0.363061309 0.595699072 0.327514023
0.390006453 0.590512395 0.327767044
0.420367032 0.587982774 0.331309348
0.445920050 0.583175123 0.334978193
0.479316562 0.582795560 0.339532077
0.507905900 0.579886198 0.340164512
0.530044019 0.571663380 0.332827330
0.554332733 0.573940754 0.329791039
0.583554864 0.565212131 0.334345132
0.614041865 0.564832687 0.339278758
0.646300018 0.575585186 0.346742511
0.684250832 0.586210907 0.363440931
0.728273511 0.609740555 0.393042564
0.769133270 0.629222035 0.421125680
0.807716429 0.651107013 0.451992214
0.848703146 0.669322968 0.483871132
0.885135889 0.682226658 0.516508520
0.913345993 0.697912693 0.548134029
0.937887609 0.714990318 0.580265641
0.956862986 0.732068062 0.611005425
0.272232741 0.648703754 0.370271713
0.281341106 0.654395998 0.377103120
0.295382738 0.654395998 0.379632950
0.294117570 0.653131127 0.376596868
0.297406256 0.649335921 0.376343906
0.306514651 0.644781709 0.377861708
0.312713295 0.649209440 0.375964463
0.323466390 0.641492724 0.379253477
0.336369544 0.641492844 0.379253715
0.353447199 0.638836503 0.377735704
0.355091602 0.636811972 0.370777845
0.360784471 0.636685789 0.362049192
0.381657124 0.631752133 0.359013110
0.407716751 0.624414742 0.358254224
0.434788048 0.619734406 0.359645873
0.464136720 0.618089855 0.362681776
0.489942938 0.613535643 0.361163974
0.521315277 0.615812898 0.365717977
0.545097768 0.611764491 0.362934738
0.574825704 0.604301095 0.363187850
0.595319450 0.605439723 0.358254224
0.623655975 0.597343683 0.364326477
0.649968266 0.601391733 0.364705950
0.679317117 0.605186582 0.376343906
0.716508865 0.616192281 0.395319551
