Assets/EldamarStudio/100 Retro LUTs Pack/LUTs/cube/Janet LUT.cube
LUT_3D_SIZE 8
DOMAIN_MIN 0.000000 0.000000 0.000000
DOMAIN_MAX 0.903226 0.903226 0.903226
0.047059000 0.058823999 0.086274996
0.062239543 0.070967548 0.091334544
0.177735180 0.077672102 0.110562898
0.349905282 0.064390004 0.133332998
0.545857370 0.052245378 0.148766190
0.726502180 0.144465461 0.211384982
0.861353576 0.276027828 0.284250557
0.966350615 0.409613758 0.380897909
0.050221004 0.097153999 0.101581454
0.075648546 0.093611538 0.101202004
0.185578987 0.117899634 0.113725096
0.353194177 0.129285187 0.122959994
0.523592710 0.150663927 0.162049189
0.707020700 0.217457473 0.218089744
0.844022870 0.318406075 0.289816260
0.957747936 0.422137767 0.381024510
0.001517999 0.208349094 0.135610089
0.051359646 0.202909291 0.129285097
0.154206187 0.192663088 0.143453106
0.327007830 0.219355106 0.157495096
0.513093114 0.267046183 0.195699081
0.694876373 0.327893585 0.250600994
0.837823987 0.412650257 0.317900300
0.948007762 0.499303907 0.421505451
0.006830994 0.332574248 0.193421990
0.047185365 0.335483819 0.191397727
0.162682086 0.327640712 0.200885534
0.300569266 0.316255271 0.203542277
0.458950341 0.353194267 0.218848839
0.664136469 0.439721614 0.276913524
0.808854938 0.496141911 0.345477909
0.927387595 0.561922789 0.444275707
0.105376370 0.498165548 0.267299175
0.153194368 0.502214134 0.273877650
0.220872998 0.485642076 0.259962291
0.323086619 0.475901634 0.271220803
0.439595371 0.457432359 0.265528202
0.584693193 0.493484974 0.291840732
0.775838077 0.573434472 0.380392253
0.910436630 0.640227675 0.493358433
0.272232741 0.648703754 0.370271713
0.297406256 0.649335921 0.376343906
0.336369544 0.641492844 0.379253715
0.381657124 0.631752133 0.359013110
0.489942938 0.613535643 0.361163974
0.595319450 0.605439723 0.358254224
0.716508865 0.616192281 0.395319551
0.880961359 0.696647644 0.527134776
0.448829532 0.757115245 0.503478825
0.469829291 0.754205823 0.506135046
0.484503269 0.749905288 0.505123556
0.507400572 0.741555929 0.498545259
0.550284684 0.734345376 0.486780554
0.648829997 0.719291270 0.492093712
0.726375282 0.711322308 0.490701973
0.829728007 0.730044246 0.526628613
0.653004408 0.839342177 0.652751446
0.667046309 0.840733826 0.654396057
0.672106326 0.841871917 0.651612759
0.678810775 0.843263805 0.650600553
0.693864405 0.834029138 0.640986741
0.734724641 0.832890809 0.638962507
0.794560254 0.828083515 0.644149303
0.861732781 0.815938950 0.651486576
0.049462002 0.074889451 0.124225549
0.085009545 0.074510001 0.127767086
0.175837725 0.083491549 0.137128085
0.308032811 0.104237996 0.171537086
0.479316980 0.150284380 0.223655730
0.670208633 0.222391084 0.287413001
0.826691985 0.316129267 0.347374827
0.942947209 0.433143467 0.435167342
0.046679452 0.102593094 0.124225542
0.088551991 0.108918086 0.126122996
0.158507541 0.126882002 0.154712543
0.296015292 0.158254102 0.187223092
0.465528011 0.193801552 0.231878385
0.651486695 0.252119273 0.281340986
0.806324959 0.334977657 0.335989773
0.924477935 0.431246310 0.418216139
0.066540092 0.196963742 0.175078645
0.112460449 0.200506195 0.178241551
0.171157554 0.196204737 0.184946090
0.308918625 0.227577642 0.209234998
0.472611994 0.273624539 0.247185633
0.656799853 0.341049820 0.297659874
0.808728516 0.418089479 0.356989294
0.932827294 0.507020593 0.461353481
0.128146470 0.325236827 0.232131630
0.140164629 0.326881796 0.233775720
0.193548620 0.319797724 0.229854628
0.294623733 0.310816288 0.228589267
0.449842036 0.348766834 0.256799281
0.636559427 0.429728270 0.312460393
0.786843896 0.492599458 0.372801811
0.901707649 0.556736469 0.468311101
0.177609086 0.488424718 0.296394736
0.207969621 0.486401081 0.293738186
0.254142910 0.479822725 0.293485433
0.336116195 0.464895725 0.295003444
0.440733820 0.453130811 0.294497192
0.579253674 0.489942998 0.320430100
0.764579356 0.572043240 0.413156122
0.896647394 0.637444496 0.514611125
0.313345820 0.641113281 0.400000036
0.327008247 0.641366184 0.404300988
0.354079813 0.635926664 0.392662793
0.399620712 0.624920905 0.378494531
0.490322232 0.609614313 0.386084467
0.592156470 0.599746943 0.382922053
0.711448550 0.617836893 0.424415082
0.871220589 0.697659791 0.540543973
0.464642823 0.739278853 0.513978839
0.486780345 0.746362805 0.525869548
0.492599845 0.743706524 0.515496552
0.515876293 0.738393188 0.510056913
0.550664067 0.727134347 0.494496793
0.639595270 0.715875804 0.498924553
0.718406022 0.705502987 0.503352582
0.817077577 0.719671249 0.526755035
0.658949673 0.840733826 0.663630486
0.669449627 0.842124760 0.662618637
0.678810894 0.837950408 0.667678654
0.687792361 0.835040867 0.656040370
0.702593207 0.834788203 0.645667195
0.744718313 0.827324510 0.647438407
0.794054329 0.824162066 0.643770039
0.867045820 0.821252584 0.662112534
0.003162904 0.084630102 0.236559182
0.093991093 0.091714002 0.238204092
0.218469188 0.091714002 0.234155178
0.306262076 0.103478998 0.233523190
0.458191246 0.137001991 0.261733085
0.644908190 0.208601832 0.325110555
0.797849476 0.327008277 0.407843083
0.908286035 0.486400783 0.515622795
0.041872449 0.148513541 0.217078105
0.112460442 0.135863557 0.220999196
0.192156732 0.148513645 0.227577627
0.288551629 0.151170090 0.233143538
0.442631274 0.193042547 0.274257004
0.620746076 0.264010280 0.337760925
0.777735710 0.370651603 0.413409293
0.898165345 0.490955234 0.514990807
0.078305095 0.218596101 0.228716180
0.129159093 0.220493644 0.242504627
0.228589296 0.236559182 0.256167203
0.326122731 0.253383756 0.276154548
0.458823472 0.306262016 0.321189076
0.626312613 0.367741823 0.373940825
0.772549152 0.452625364 0.445414364
0.900695741 0.543200791 0.542694569
0.181404278 0.345224261 0.285388827
0.219481632 0.343706369 0.282226652
0.285768390 0.350410908 0.306262195
0.328399718 0.331561923 0.296394646
0.461227357 0.374573022 0.326122642
0.622137845 0.439848483 0.379506648
0.763946772 0.508159399 0.456672907
0.881467462 0.584187448 0.539278626
0.268691063 0.497406453 0.353826463
0.302340180 0.490196168 0.362175822
0.335230976 0.492726177 0.365844309
0.363314271 0.475901544 0.354079396
0.457558274 0.460594475 0.358886898
0.584693193 0.497785807 0.387729287
0.756989181 0.582922220 0.478557974
0.879190564 0.647944331 0.565844297
0.409487456 0.641872346 0.481467724
0.419228017 0.639848053 0.477925271
0.425426811 0.636685729 0.464768887
0.454902172 0.625806749 0.452245712
0.508286059 0.608855128 0.444276005
0.596205056 0.599367440 0.443263471
0.713472724 0.621252298 0.471094131
0.868058026 0.704237700 0.585958064
0.522960365 0.741429448 0.553194225
0.531941831 0.745477378 0.564832330
0.547628224 0.741303205 0.558507204
0.558759987 0.736116052 0.551802635
0.581024647 0.721694946 0.532574177
0.645920217 0.713346064 0.534598172
0.720050275 0.705123544 0.532447636
0.818848610 0.720050514 0.561922729
0.689310491 0.833649695 0.677545726
0.697533309 0.835926533 0.691713810
0.696774125 0.839341938 0.683364749
0.711068988 0.833270311 0.677672207
0.716635168 0.831625640 0.673624218
0.744212568 0.826438785 0.666033924
0.802023768 0.820240498 0.669829249
0.861227036 0.820999563 0.678431273
0.000000000 0.126122996 0.355344623
0.091840640 0.124857537 0.353320360
0.259203196 0.132700637 0.361164093
0.397469908 0.136748642 0.363820642
0.462998182 0.157748625 0.346236467
0.606578171 0.184440345 0.375205368
0.772422552 0.282606006 0.447944283
0.898544967 0.444528788 0.538519800
0.082985282 0.187223196 0.329032183
0.131056443 0.188108906 0.327134639
0.240733728 0.188361645 0.340417624
0.377482265 0.192283645 0.351296633
0.448323935 0.200126633 0.338772744
0.581024528 0.228589371 0.368880391
0.758633435 0.325616568 0.446173519
0.890828371 0.464389443 0.538393199
0.118912183 0.258823633 0.329918087
0.169007182 0.258823633 0.318659186
0.258317381 0.275395423 0.335231185
0.378620833 0.280834645 0.363441080
0.447691619 0.289436907 0.363567293
0.598102748 0.338013947 0.408855170
0.758886635 0.442378342 0.500063002
0.880328774 0.552941144 0.583934188
0.190132976 0.375079274 0.371663630
0.230866268 0.368754148 0.364452928
0.302214175 0.375079274 0.375079274
0.418216288 0.399746925 0.412017286
0.504743874 0.426692069 0.432637602
0.621631742 0.484250546 0.486780614
0.746616006 0.546109915 0.547121882
0.868058205 0.615559697 0.618342578
0.316634834 0.531561911 0.449968606
0.350537837 0.527893424 0.444528759
0.397469819 0.530044019 0.460341692
0.468943805 0.526502252 0.468437374
0.510815978 0.514737427 0.458317369
0.627704084 0.546995342 0.501581371
0.753067315 0.605819166 0.563314259
0.873624325 0.666034222 0.625300467
0.466034383 0.660341740 0.539531708
0.489057750 0.653130710 0.543326735
0.519671023 0.651360035 0.553953290
0.550284743 0.644275963 0.550790370
0.563187480 0.626186073 0.526122808
0.626059294 0.613282740 0.523466349
0.727134466 0.638583124 0.553953230
0.871979713 0.724098682 0.647311866
0.583554566 0.753194273 0.619228244
0.600885451 0.753953159 0.620999634
0.613409162 0.749525785 0.620619893
0.621631920 0.742062032 0.614294529
0.632257998 0.732700646 0.598102689
0.668817163 0.721821606 0.589374006
0.731435895 0.710689247 0.586211324
0.830487072 0.733459413 0.613408983
0.734724641 0.832890809 0.729285419
0.745603740 0.834408581 0.724604428
0.740544081 0.839088976 0.725995898
0.747248411 0.834534824 0.720682919
0.751929045 0.829348385 0.712333977
0.762808442 0.824921012 0.697912633
0.814294815 0.823782623 0.702213824
0.870335162 0.821252584 0.706008732
0.054143172 0.189500377 0.491208196
0.167236090 0.193421990 0.495888352
0.311575085 0.200506091 0.500569344
0.462112278 0.209107995 0.521695197
0.595319569 0.219101980 0.531056404
0.632131457 0.228083432 0.489943117
0.749778330 0.260594249 0.509171426
0.876786590 0.381277561 0.560404956
0.132447734 0.244781733 0.470208824
0.195951939 0.249588743 0.466034174
0.307527274 0.251865923 0.483238280
0.444528848 0.256167173 0.504617274
0.572928548 0.264642358 0.521821499
0.614927351 0.263883352 0.484503537
0.730044246 0.293990999 0.495762169
0.859202981 0.405818939 0.564832449
0.205060080 0.318785280 0.456673056
0.244402289 0.327514201 0.455914289
0.313978285 0.325869381 0.468437493
0.431878597 0.338772833 0.493485183
0.557621360 0.359519303 0.520936310
0.607463896 0.351169914 0.491840452
0.725490272 0.385958374 0.523213089
0.857558548 0.506514668 0.596584380
0.236432463 0.412650436 0.474256605
0.268564254 0.415433109 0.469955355
0.333712965 0.411132246 0.468311250
0.427830696 0.429981083 0.493358463
0.552308381 0.460088611 0.524351835
0.619228244 0.455407828 0.519670784
0.723972142 0.497659653 0.551802814
0.853004575 0.590765297 0.628083348
0.316508204 0.546110153 0.518659174
0.335736543 0.545730591 0.525743425
0.397723198 0.545351088 0.533586323
0.482605964 0.547628343 0.545730591
0.590133190 0.574446201 0.570525229
0.667299151 0.587349653 0.590892196
0.764073253 0.632511318 0.632637382
0.865401447 0.693611443 0.696141779
0.533586204 0.679822743 0.608475924
0.545857191 0.678810954 0.615433037
0.573054850 0.676660538 0.617077708
0.615180314 0.672738969 0.616445601
0.655281365 0.665401518 0.617710412
0.679443359 0.647817731 0.609360874
0.773813963 0.680708766 0.642504632
0.877799153 0.742947519 0.712966442
0.625933051 0.772043169 0.666919529
0.641492665 0.769007325 0.674256802
0.655914009 0.772042990 0.677166224
0.677419662 0.760278106 0.675268829
0.702973127 0.752308249 0.671600163
0.711701453 0.735104501 0.650348008
0.753953218 0.725616336 0.643516958
0.851739526 0.752688050 0.683111966
0.757368565 0.839468658 0.760025144
0.763820112 0.841745675 0.762428641
0.778874040 0.839974761 0.762428641
0.792915702 0.834788144 0.765085459
0.794560373 0.834029138 0.761669815
0.794686794 0.829348385 0.741049826
0.823529303 0.823782623 0.741808653
0.868310988 0.824288607 0.730929434
0.211132467 0.266160458 0.624920726
0.272232443 0.270082474 0.632763743
0.380138934 0.280581802 0.635547042
0.509171247 0.291966975 0.648450732
0.644781649 0.315749526 0.652625203
0.744338989 0.340417475 0.658064485
0.774446547 0.333712995 0.622264445
0.868184686 0.393801361 0.631372571
0.221125647 0.306894481 0.601264715
0.277799129 0.309298187 0.610878885
0.370651633 0.317520738 0.617457390
0.490955263 0.325616360 0.625174046
0.615813017 0.348260432 0.637318134
0.727767467 0.367741734 0.647944272
0.757748306 0.358507454 0.613915205
0.854649067 0.403036267 0.622897148
0.284629822 0.392283469 0.591271460
0.313852072 0.393801361 0.595572114
0.372169703 0.391018301 0.604807377
0.484756380 0.406451464 0.618343115
0.612270772 0.430993021 0.637444735
0.719671011 0.456040829 0.644022584
0.748260379 0.442251772 0.620113850
0.845287740 0.483744442 0.642251551
0.278684199 0.454648852 0.565465212
0.310942620 0.462745190 0.576470554
0.385831535 0.468564093 0.582289815
0.469956011 0.482606083 0.594813108
0.588867724 0.507400393 0.617583811
0.696774125 0.532321274 0.642757714
0.730044246 0.513472557 0.615939260
0.828336239 0.539405406 0.640354097
0.364073277 0.566350162 0.602530003
0.389120907 0.568627477 0.604048193
0.433902919 0.571663499 0.605945706
0.497280180 0.561796308 0.600632608
0.591018081 0.580897927 0.622137964
0.698798239 0.608728528 0.653889954
0.751676202 0.599494040 0.646173477
0.845793784 0.635673761 0.678684473
0.503099203 0.677925527 0.661986470
0.519670844 0.678558171 0.658823669
0.555091798 0.677798986 0.662745237
0.597343624 0.671220779 0.662238955
0.652371883 0.669955492 0.665275335
0.724857450 0.685642004 0.681720495
0.794560552 0.708412290 0.710942447
0.879063725 0.761163712 0.765338719
0.658191025 0.779000521 0.720050514
0.674004018 0.779633105 0.726249278
0.692346394 0.783427894 0.726628780
0.721062899 0.782922089 0.734092474
0.753320694 0.774446487 0.735989749
0.779759288 0.768374681 0.735736787
0.792789280 0.750411034 0.712586701
0.875015974 0.777735710 0.759646058
0.791397572 0.851106822 0.792156637
0.798608482 0.850474119 0.796964049
0.804300785 0.846552849 0.800885618
0.814421296 0.845793724 0.799241006
0.828969121 0.839215815 0.797469735
0.841113389 0.836052954 0.789626837
0.848956406 0.826818585 0.787349641
0.880835056 0.823655963 0.782795489
0.358380854 0.373434275 0.739785016
0.391271293 0.381656826 0.741429269
0.468943357 0.386590749 0.745224535
0.563440919 0.406577915 0.750537276
0.680202484 0.432764173 0.757242203
0.780898035 0.473497540 0.768500805
0.861353576 0.491714269 0.769513249
0.895508766 0.487665981 0.748513281
0.353573740 0.394560277 0.718153000
0.383174837 0.402023852 0.721695244
0.455408096 0.411764473 0.732447624
0.557368696 0.429095566 0.738140285
0.662745357 0.454396099 0.746362925
0.770018816 0.489057541 0.754332721
0.848829925 0.498418510 0.757368684
0.880708337 0.485894799 0.729791105
0.383554339 0.475395262 0.713219345
0.409867525 0.473244995 0.717014253
0.472232372 0.483112186 0.723845601
0.560657561 0.499177843 0.729791224
0.661986351 0.516002536 0.740290642
0.765970886 0.545098007 0.755091667
0.847058833 0.562302411 0.765591502
0.877292812 0.547501564 0.738899529
0.396710902 0.530929565 0.690702319
0.428969204 0.543833196 0.693611681
0.488298327 0.549399197 0.699936748
0.553447545 0.553320646 0.709677219
0.652878165 0.566476882 0.727387786
0.741808653 0.590132654 0.743073761
0.827830613 0.608222902 0.758886635
0.859835625 0.589753270 0.734851241
0.432131767 0.604807258 0.687160254
0.444655180 0.605186820 0.691081464
0.486907095 0.602403402 0.688551545
0.553700268 0.604933560 0.697153449
0.645540476 0.620620251 0.711448550
0.735736728 0.644528747 0.736622572
0.826691985 0.667552531 0.767235994
0.857052445 0.653004408 0.745856941
0.542441428 0.699303985 0.732195020
0.554712057 0.703605294 0.737634242
0.580518484 0.698924541 0.731435955
0.612017512 0.691208124 0.725110650
0.651486635 0.684503734 0.722833514
0.730170548 0.695761979 0.736243010
0.824415267 0.730423570 0.776849866
0.869070232 0.725616276 0.768880367
0.627324581 0.776723266 0.765591264
0.636559546 0.779253602 0.766350269
0.659582555 0.779759467 0.765464783
0.688930929 0.777861893 0.768374622
0.727767408 0.775205433 0.767235994
0.780012727 0.772422731 0.771031022
0.832890332 0.776723266 0.782289565
0.888298631 0.802782834 0.813155770
0.807084024 0.846426368 0.815432906
0.809234858 0.853130937 0.824415028
0.819228232 0.847438216 0.825174034
0.841872156 0.851360202 0.833017170
0.858950198 0.853004575 0.837191582
0.872991920 0.844781816 0.836432338
0.880455554 0.842884243 0.830107510
0.892473221 0.835167527 0.823023558
0.536622584 0.536495745 0.843389928
0.553699851 0.538519621 0.842124760
0.599620581 0.544465482 0.842124760
0.654395998 0.553067744 0.843643010
0.733333111 0.575837970 0.845667243
0.809993625 0.598228693 0.851233661
0.882226706 0.622517526 0.857052803
0.946615756 0.635799944 0.855154932
0.528020501 0.542821050 0.835800052
0.544591665 0.549272478 0.832637548
0.592915773 0.556229830 0.832511246
0.653257608 0.571536839 0.838077009
0.723845422 0.580265641 0.841492593
0.800885379 0.602276981 0.844781816
0.873118520 0.624920905 0.848197401
0.934092104 0.636685312 0.852119267
0.550031662 0.590132833 0.823529601
0.572295904 0.591650903 0.828716040
0.612143993 0.602656662 0.831751943
0.669576347 0.608981669 0.832384527
0.734597981 0.620619833 0.837570965
0.806324959 0.637064993 0.842124999
0.875395417 0.663124859 0.848323882
0.928399980 0.678304732 0.846046805
0.568753779 0.634661794 0.818216205
0.596837223 0.639215708 0.815686226
0.621631622 0.639468789 0.820113897
0.665528417 0.644655228 0.824794769
0.731815338 0.653130770 0.827957034
0.796331346 0.668817282 0.830234051
0.863250971 0.689943135 0.839088857
0.920430005 0.706514597 0.847311974
0.546489596 0.673750818 0.806324840
0.572295904 0.679316878 0.809614122
0.608728826 0.678052008 0.808222592
0.666540205 0.685515404 0.815433264
0.729158759 0.692219794 0.819481373
0.791271269 0.711701632 0.832637668
0.862112582 0.733459830 0.838077009
0.918279827 0.748766780 0.844781637
0.609487653 0.746742547 0.824415028
0.628842413 0.743326902 0.820240319
0.639089465 0.740164697 0.822896838
0.661227107 0.732194781 0.813788772
0.718153179 0.732447863 0.814547718
0.795572340 0.752940953 0.832257926
0.865654528 0.770272076 0.839468658
0.919038832 0.790765464 0.853636980
0.702466905 0.805945694 0.836938620
0.706008971 0.806072056 0.835294247
0.720176935 0.799114466 0.837191701
0.743200243 0.798608482 0.835547149
0.768754005 0.795825481 0.833902478
0.790638983 0.787982047 0.826438665
0.849841833 0.800126553 0.839341998
0.913851798 0.819860935 0.853257775
0.803162396 0.855028868 0.859076619
0.803668559 0.859835625 0.859835625
0.809740782 0.860341847 0.859582722
0.826059699 0.855534792 0.859961987
0.840859890 0.849842012 0.858949840
0.866034091 0.853131056 0.856420040
0.887792826 0.848576844 0.849968791
0.915243804 0.852498829 0.858949840
