Assets/EldamarStudio/100 Retro LUTs Pack/LUTs/cube/Jane LUT.cube
LUT_3D_SIZE 8
DOMAIN_MIN 0.000000 0.000000 0.000000
DOMAIN_MAX 0.903226 0.903226 0.903226
0.000000000 0.003922000 0.000000000
0.142947540 0.000000000 0.000379548
0.299304187 0.000000000 0.000759096
0.454016626 0.008981644 0.010626356
0.604048193 0.025679994 0.015686000
0.754206181 0.064389735 0.038962994
0.888804555 0.102592997 0.079063997
0.989753127 0.146615803 0.127007812
0.027071452 0.138266638 0.004681000
0.154333100 0.153574005 0.000000000
0.299683630 0.156356648 0.003162905
0.451360077 0.157115549 0.014168098
0.591397583 0.166476741 0.024667548
0.740164518 0.177862272 0.047691092
0.867805302 0.189626798 0.083365023
0.986211061 0.207083926 0.125616819
0.077546000 0.302467078 0.017963095
0.182542980 0.303985089 0.006199000
0.325110286 0.314990193 0.018722193
0.476407290 0.315369844 0.036306448
0.622138143 0.318912178 0.059455995
0.762049198 0.323212922 0.088425092
0.888678074 0.323592454 0.117267467
0.994939983 0.333459944 0.158507138
0.144212633 0.473244905 0.051106639
0.223402739 0.472485900 0.051865734
0.357115477 0.476406932 0.068690993
0.490575910 0.474888921 0.079696283
0.639595091 0.470208704 0.090195730
0.754332364 0.460973918 0.122707278
0.869955599 0.454648912 0.146995574
0.985831439 0.453510284 0.177356064
0.205439806 0.621505141 0.095635802
0.271853060 0.635673404 0.111828186
0.385578990 0.628589272 0.118153080
0.509424269 0.623908997 0.124478191
0.648956180 0.615180373 0.139405385
0.767362237 0.605439603 0.152308539
0.882479548 0.595698893 0.185578987
0.989879608 0.590638578 0.230107442
0.293990999 0.774319708 0.196205005
0.332574278 0.772548914 0.195951998
0.422517121 0.770145714 0.202150375
0.535736620 0.763061643 0.205565736
0.656926155 0.756736040 0.206451744
0.781783700 0.752434969 0.225300729
0.893864691 0.736622453 0.245414734
0.992409945 0.724731445 0.283744812
0.342441559 0.859709263 0.252245575
0.387982100 0.867425859 0.262492120
0.452119112 0.869955599 0.270841300
0.547501326 0.863630295 0.276407570
0.649589181 0.855028510 0.283112168
0.759519458 0.851233244 0.291334569
0.877672553 0.847944260 0.305755556
0.989500046 0.834155440 0.345603824
0.459202766 0.969006777 0.386084765
0.484377265 0.977735519 0.412397087
0.531688809 0.979379773 0.417330623
0.604300976 0.972801924 0.419607610
0.685642123 0.965844274 0.423908770
0.781657219 0.964832425 0.432384670
0.885895133 0.959771752 0.445035100
0.987096965 0.959771752 0.467172623
0.000758999 0.003542452 0.118658639
0.138646096 0.003542452 0.130044088
0.299683630 0.000379548 0.133965984
0.443769813 0.019860642 0.138266727
0.594307721 0.055154838 0.146995559
0.747248769 0.087539472 0.161037549
0.866666555 0.119418025 0.168880552
0.984692812 0.155850992 0.193674520
0.023908550 0.142188549 0.126502544
0.158633649 0.146109641 0.126882091
0.295383096 0.154332995 0.137507632
0.437950283 0.158254102 0.138646185
0.583681405 0.168500900 0.148133904
0.718153000 0.176597014 0.150031537
0.850474119 0.192283541 0.167488798
0.970398486 0.208728537 0.192030221
0.072739094 0.298924655 0.133207083
0.189627096 0.296900988 0.139784619
0.317267299 0.304744095 0.140543640
0.462618619 0.309044838 0.158254191
0.609614193 0.318152994 0.166856289
0.745224237 0.319291532 0.167109430
0.862745106 0.322453737 0.184440330
0.983807445 0.329791188 0.209360912
0.138772726 0.451612443 0.154838368
0.220366731 0.453257471 0.152561277
0.341303170 0.454902172 0.154458836
0.477166086 0.459202796 0.168248177
0.616318643 0.459329605 0.172169372
0.738267124 0.450727731 0.185831919
0.864136577 0.450094998 0.204300970
0.976217628 0.449715555 0.226438895
0.197343186 0.598735034 0.171283737
0.271853060 0.604174256 0.179380074
0.377862126 0.610879004 0.186970443
0.498039603 0.606957734 0.186464176
0.628083587 0.606198728 0.197469890
0.750031471 0.591271639 0.206831083
0.867172658 0.583048582 0.226312369
0.983680964 0.583428025 0.264136523
0.284377158 0.750284493 0.230993167
0.330676794 0.757115483 0.238583535
0.419228286 0.757495046 0.245540828
0.522580564 0.752814531 0.247058913
0.647058845 0.746489644 0.254142731
0.774320185 0.740543962 0.264769107
0.881973505 0.728525996 0.277545929
0.989879608 0.717773438 0.310689270
0.338772804 0.841239870 0.270841360
0.371157378 0.849082828 0.293231815
0.438836098 0.850727558 0.291714042
0.531941652 0.849968672 0.295129567
0.635926843 0.845540762 0.302213907
0.752814531 0.842125118 0.313472539
0.870208979 0.842378557 0.324731261
0.978874087 0.831372559 0.354711920
0.453763485 0.959519386 0.411385179
0.480328977 0.975205481 0.415938884
0.528020322 0.968880594 0.427197903
0.597216964 0.967236221 0.428842604
0.681593955 0.965717971 0.434914500
0.777609050 0.959771752 0.435547084
0.874257088 0.953953087 0.450095028
0.985325754 0.953573585 0.481087595
0.000759096 0.003922000 0.251486301
0.146109641 0.000379548 0.259708732
0.299304187 0.000000000 0.261606187
0.445414543 0.007337351 0.268691003
0.598735034 0.046173189 0.279064000
0.742567718 0.080455475 0.279443383
0.871473849 0.133079991 0.287792802
0.986717045 0.174699560 0.299810082
0.026185643 0.134345531 0.255787641
0.153953552 0.141429543 0.251106650
0.300949097 0.147248179 0.264010191
0.441872180 0.156736091 0.269196630
0.588867784 0.167362466 0.275142223
0.726502240 0.182163343 0.277419120
0.857305408 0.202529833 0.280075848
0.981024325 0.222390786 0.294497192
0.078305095 0.297027081 0.273498088
0.182163537 0.299304068 0.277039677
0.321948171 0.303985089 0.269450009
0.460721254 0.311069191 0.280075759
0.610499501 0.317393988 0.289184093
0.745097756 0.319417924 0.293991208
0.863504171 0.326755375 0.297786206
0.987096786 0.335736841 0.309044927
0.132321194 0.451739371 0.267172754
0.206578195 0.454522729 0.280329168
0.344971627 0.456925929 0.286274761
0.478051811 0.456166834 0.283491284
0.613662004 0.454648912 0.287792623
0.735483766 0.453889936 0.296774209
0.856799841 0.453637064 0.307526648
0.975458622 0.453890085 0.320936084
0.201391295 0.599494159 0.281973273
0.266793340 0.603035808 0.299430996
0.369007170 0.608222365 0.297786206
0.491461009 0.605060101 0.298545301
0.626186132 0.599620283 0.298545301
0.749651849 0.591271639 0.309551001
0.862871408 0.585452259 0.325996310
0.980392098 0.586211145 0.343579918
0.296521097 0.746995449 0.334725022
0.336495638 0.750917196 0.336116284
0.417710185 0.750410736 0.335357308
0.521568775 0.747374833 0.337761015
0.641872287 0.741429329 0.337761015
0.760910571 0.733965874 0.342820942
0.874636412 0.720176995 0.355471164
0.988614798 0.717773318 0.384440243
0.338267177 0.844908297 0.347628385
0.377229720 0.846046984 0.356483191
0.443516761 0.845667541 0.363441110
0.533333480 0.845287800 0.368627429
0.638709366 0.844022870 0.373561174
0.754712284 0.840480745 0.380518436
0.871347368 0.840101063 0.394560456
0.973308206 0.835673571 0.423656166
0.452751637 0.961036921 0.450221270
0.479949534 0.966982722 0.464389741
0.525743067 0.966350615 0.472358882
0.599873662 0.962934673 0.472485602
0.675901473 0.960910439 0.478304625
0.770651579 0.955091715 0.485642135
0.875395298 0.952182174 0.498924851
0.985072553 0.951928794 0.517773628
0.017962998 0.000000000 0.392915636
0.147248283 0.000000000 0.396837652
0.300569445 0.002783356 0.397217184
0.451739609 0.008981644 0.399620295
0.609234750 0.033902545 0.419607818
0.746109962 0.077798739 0.417078018
0.871979952 0.128905639 0.415180355
0.988740981 0.187476128 0.419860780
0.023403093 0.134724990 0.393801540
0.162302211 0.141050085 0.388741195
0.300190002 0.145350724 0.398861170
0.439847916 0.147248194 0.400758922
0.599494159 0.163440749 0.411891460
0.727640808 0.176723540 0.402403563
0.854775250 0.200506091 0.401897579
0.979253531 0.238583446 0.414674014
0.078305095 0.294624090 0.405945361
0.177355841 0.295003563 0.409740388
0.322074294 0.303352058 0.415306985
0.464642286 0.306008637 0.415306985
0.614800751 0.316255540 0.422517210
0.745351076 0.319797277 0.412523627
0.867552280 0.334977716 0.419987261
0.987476170 0.349904746 0.433270007
0.135104641 0.451866269 0.413788915
0.214927539 0.459329724 0.419354916
0.335990191 0.457432240 0.417836845
0.482606292 0.453004658 0.420999616
0.611764550 0.456673056 0.422138244
0.736495554 0.456673175 0.419354916
0.859202921 0.458570629 0.420493305
0.976723552 0.465654433 0.433017254
0.187097177 0.603162587 0.414168626
0.256167084 0.606198609 0.418722540
0.366729975 0.609108150 0.426691651
0.501960814 0.603921711 0.427450836
0.629727721 0.602276742 0.428209931
0.747754335 0.592536390 0.431372732
0.862998009 0.589247167 0.442378640
0.978494585 0.590512276 0.458443969
0.303984761 0.745604098 0.457811385
0.350411177 0.748260558 0.456672728
0.426818460 0.746995389 0.456926078
0.527514398 0.741429389 0.455281377
0.643896520 0.743579865 0.459962308
0.765085399 0.735610604 0.453257620
0.878178656 0.724730790 0.465275407
0.983681142 0.724857450 0.493991107
0.354206294 0.847312033 0.467425913
0.391018271 0.854522586 0.473877549
0.453130811 0.847185373 0.470082372
0.536875248 0.847944260 0.471347660
0.639215767 0.846426487 0.471853375
0.757115662 0.842504561 0.478558004
0.871473551 0.842884243 0.488804251
0.976217508 0.837317944 0.505755484
0.457305342 0.964200139 0.527008295
0.488172263 0.964199901 0.541682482
0.534851313 0.967615426 0.549905121
0.603542149 0.959645569 0.546110153
0.681720376 0.960151613 0.543326795
0.774319887 0.955344558 0.549904943
0.877925277 0.954585612 0.564579248
0.985957980 0.950663984 0.582669258
0.028083190 0.000000000 0.531309187
0.157495096 0.000000000 0.529664397
0.299431086 0.000759096 0.530423403
0.442631185 0.011638191 0.537381172
0.601012170 0.041365996 0.543706357
0.748133898 0.070208989 0.549019396
0.869070292 0.122074470 0.540670395
0.988361418 0.189753130 0.537254632
0.048070546 0.142567888 0.517140985
0.163314447 0.144212291 0.529158711
0.297280431 0.144971281 0.530043900
0.442631394 0.152814999 0.532827377
0.584060729 0.157874733 0.535483837
0.730297267 0.170777887 0.535990000
0.854522645 0.201644838 0.530929685
0.976091027 0.232131720 0.535230935
0.087666094 0.289184123 0.543073952
0.183681443 0.299304277 0.543326735
0.318026364 0.299304187 0.549146354
0.465021849 0.301328540 0.552435160
0.616066039 0.306388080 0.554079533
0.743073940 0.315876186 0.544212520
0.863504350 0.330677003 0.535863400
0.981530726 0.357242107 0.550284684
0.140923187 0.449589103 0.553826332
0.220114082 0.452371925 0.559012949
0.345856726 0.452371836 0.556862533
0.472611904 0.449209720 0.545477629
0.611764550 0.451486707 0.551549435
0.735230684 0.458191156 0.546995699
0.849335551 0.470082164 0.547880828
0.969639242 0.477799267 0.560910344
0.191904187 0.596457958 0.559392393
0.263251185 0.611385226 0.562808394
0.377735198 0.607463300 0.563441098
0.496521622 0.607083738 0.561922967
0.622137964 0.600379348 0.554838538
0.741935611 0.597596586 0.563187718
0.858317554 0.594054163 0.562682033
0.973687589 0.599873543 0.572043002
0.328146547 0.745224535 0.575332224
0.367615193 0.745477378 0.578873754
0.439722002 0.743326902 0.574320078
0.535863400 0.744212508 0.578494132
0.642125130 0.736748993 0.578494132
0.761543453 0.734724760 0.577229500
0.871473730 0.728525996 0.581024826
0.981910110 0.727261245 0.595572293
0.385578990 0.844149113 0.572296202
0.421885014 0.849589169 0.587349772
0.468058288 0.850474596 0.585579038
0.544844866 0.848071218 0.585958540
0.642631233 0.847944260 0.583048642
0.757495224 0.842884123 0.585325539
0.873750567 0.843137503 0.592283189
0.976470411 0.836179256 0.606831253
0.453257591 0.963693798 0.613409162
0.483238339 0.965844274 0.627197981
0.533206820 0.963314235 0.638077199
0.595699012 0.962555408 0.630360365
0.681214213 0.959771752 0.631625175
0.775205374 0.955091536 0.635167480
0.875901580 0.953067422 0.638456643
0.979633152 0.954964757 0.652877808
0.052751735 0.001897740 0.658064485
0.161290094 0.003922000 0.663630605
0.300442815 0.010499643 0.658443809
0.437065274 0.023023643 0.669955432
0.585578740 0.040986735 0.667805195
0.728779435 0.066286989 0.673750460
0.859582305 0.111701570 0.661732972
0.979253769 0.177988812 0.654648721
0.063504018 0.135357276 0.650221467
0.166856289 0.141809091 0.650094450
0.299304187 0.142947450 0.651359797
0.437950373 0.148007378 0.656925797
0.580139041 0.149525478 0.664516270
0.721695006 0.164073542 0.665654898
0.852751315 0.190259278 0.649335742
0.979126930 0.228083804 0.646805644
0.098418646 0.283491194 0.668564081
0.193548277 0.293738216 0.660341740
0.314105093 0.290449083 0.669829488
0.454396248 0.291334480 0.670208871
0.598987937 0.295762450 0.671094060
0.732953668 0.302467078 0.669070363
0.860721052 0.322453827 0.661227405
0.981024563 0.350790769 0.660088539
0.146742269 0.430234015 0.666034102
0.215939179 0.436558932 0.666034162
0.331941664 0.430992901 0.670841038
0.463504285 0.438962907 0.672865450
0.600759029 0.442504466 0.669955790
0.734471679 0.442757934 0.668817103
0.849715173 0.458570540 0.661606848
0.969892383 0.474256724 0.666160703
0.209614366 0.581024647 0.672612250
0.262491912 0.585958183 0.673750699
0.368374646 0.589626729 0.673750460
0.483491272 0.587602437 0.676154256
0.619861126 0.588867605 0.675774693
0.737634182 0.593169153 0.671979725
0.852118850 0.597469687 0.675774813
0.968121469 0.610120118 0.685641885
0.317520469 0.736748993 0.693865001
0.356483281 0.739026129 0.692346752
0.432511091 0.742567718 0.698039234
0.531309426 0.733459532 0.689563453
0.635167837 0.728399873 0.689942956
0.750410736 0.722959697 0.687539697
0.858064532 0.723213196 0.686274469
0.973308027 0.721694827 0.698039353
0.373054802 0.845667541 0.686780691
0.415053755 0.839215577 0.687033474
0.467805088 0.841872156 0.688551247
0.553953171 0.842757761 0.691840231
0.646805942 0.842378557 0.694370210
0.747754455 0.843896270 0.689563513
0.861985981 0.841113329 0.692726254
0.974193633 0.839721739 0.708918273
0.480202645 0.953826547 0.716128945
0.509424508 0.954712152 0.724730849
0.547501624 0.956482887 0.729285419
0.600252986 0.954838753 0.722201228
0.669576228 0.954459131 0.717646897
0.763567388 0.951423049 0.718026698
0.868311286 0.951423049 0.728020012
0.983048797 0.952181995 0.743326604
0.075774990 0.015686000 0.793042302
0.178621277 0.017330712 0.791777134
0.301834106 0.022643805 0.788994551
0.441619337 0.033143640 0.795825660
0.582289338 0.050853897 0.793801367
0.718532264 0.074256994 0.785578787
0.858696997 0.098671995 0.793674827
0.981783330 0.168627501 0.778747320
0.073371284 0.139405370 0.779000521
0.172169551 0.142820805 0.783048987
0.298924655 0.145098090 0.783934057
0.440986633 0.150031641 0.783175111
0.574952364 0.155850992 0.780645132
0.716888011 0.169259802 0.787982106
0.854522526 0.180139095 0.786084890
0.968500555 0.222264051 0.776470482
0.094117813 0.278937101 0.791397572
0.184187084 0.281214386 0.791903853
0.312586993 0.286021382 0.788741589
0.440986663 0.289184123 0.788108766
0.582163274 0.294624090 0.788235426
0.722074687 0.297280550 0.790132821
0.860215187 0.312587023 0.796837389
0.974825978 0.343453348 0.783554733
0.131815359 0.426565647 0.790385783
0.205439731 0.424161911 0.795698881
0.323972046 0.426186025 0.794180870
0.455154985 0.428209931 0.791397870
0.595192730 0.431119651 0.790006161
0.721568525 0.439468563 0.790638685
0.862618566 0.445667565 0.789247215
0.971284091 0.465654433 0.779506803
0.205060273 0.569513083 0.790512383
0.259076536 0.572043061 0.796964288
0.357368916 0.575079381 0.793674648
0.472612262 0.574446380 0.795319557
0.603415549 0.576723635 0.793042302
0.732447743 0.577988625 0.800505757
0.860468149 0.586211145 0.794560313
0.968121409 0.596710980 0.788614929
0.300822467 0.719038725 0.806957543
0.338646084 0.722200871 0.808981717
0.412397385 0.720177054 0.804048002
0.508285642 0.718659163 0.804933548
0.618469357 0.715370178 0.799620509
0.734345198 0.714737236 0.801518261
0.858191013 0.720556438 0.800505817
0.961037219 0.728779376 0.800000012
0.365338027 0.841745555 0.803795040
0.395572543 0.842378557 0.797216773
0.456040502 0.843137443 0.795446098
0.539152265 0.842884183 0.804807246
0.642757833 0.841492772 0.807083964
0.750031233 0.836179256 0.805059791
0.863630354 0.836179256 0.804807246
0.963693798 0.835799813 0.810752809
0.481088072 0.948766649 0.809614062
0.501834035 0.953320801 0.814294696
0.537001789 0.952308357 0.813409209
0.605566204 0.950537443 0.814800739
0.685768425 0.952308357 0.822391033
0.772169709 0.954206049 0.822390795
0.865907550 0.949778378 0.828715682
0.969892561 0.949652076 0.832131386
0.094117999 0.034029156 0.915369987
0.177988708 0.035673548 0.914737642
0.307147175 0.042124987 0.918785691
0.437191278 0.055913828 0.916255653
0.577482581 0.075015984 0.916508615
0.714357793 0.101075232 0.917899787
0.852118731 0.128526106 0.916887760
0.987349629 0.168880641 0.919417799
0.079949096 0.148893088 0.920303464
0.179886550 0.148007378 0.909044743
0.300316215 0.151549831 0.912460506
0.436811835 0.154459193 0.911701798
0.573181629 0.162934989 0.914484620
0.711575031 0.177735373 0.912839949
0.849335611 0.192283437 0.910942674
0.979759514 0.222011238 0.910183787
0.092220262 0.280329078 0.908032715
0.185705572 0.281593919 0.907526791
0.308792114 0.285389096 0.914104819
0.439089298 0.289436936 0.913599253
0.574446499 0.293358922 0.912081063
0.717140973 0.303478926 0.916129053
0.854522705 0.316508383 0.914104819
0.988614798 0.338393182 0.913599014
0.113219455 0.415812463 0.912839949
0.198228911 0.419354707 0.910183311
0.318152994 0.418343097 0.914231300
0.444908470 0.426186085 0.916255593
0.578621209 0.429980934 0.913852155
0.715243459 0.434029281 0.913219690
0.850727737 0.443390280 0.913599193
0.984946132 0.455155253 0.911448240
0.184060574 0.558001399 0.918279827
0.238583058 0.564705789 0.917899966
0.339152277 0.563820481 0.917647064
0.458570451 0.566603184 0.919544578
0.590133190 0.566603184 0.915243447
0.719165027 0.572802126 0.918912053
0.852245629 0.576850176 0.912966490
0.979885757 0.587729394 0.918405950
0.279569834 0.710436642 0.918152809
0.322960198 0.708918452 0.918785810
0.387982100 0.712334096 0.919038653
0.491208166 0.708286047 0.918406129
0.604427159 0.704870462 0.916381776
0.726122618 0.708918691 0.918785691
0.854396045 0.710057259 0.920303524
0.977988601 0.720176876 0.920809567
0.363314569 0.834914446 0.917520225
0.390638530 0.839721739 0.921441853
0.449462354 0.839721739 0.918026805
0.529917896 0.839595199 0.915116787
0.629727900 0.836558938 0.925742865
0.734345198 0.836179376 0.918785691
0.849209428 0.839469016 0.920556784
0.969765723 0.841998994 0.922074735
0.460467935 0.959771752 0.914104760
0.481973499 0.966350377 0.929031789
0.521315753 0.963061571 0.928525984
0.596584380 0.959645569 0.923339784
0.673497975 0.957241774 0.920556784
0.772169590 0.951928794 0.920682967
0.868311226 0.948387265 0.928525925
0.965085447 0.948007762 0.933712780
