Assets/EldamarStudio/100 Retro LUTs Pack/LUTs/cube/Jane LUT.cube
DOMAIN_MIN 0 0 0
DOMAIN_MAX 1 1 1
LUT_3D_SIZE 32
0.000000000 0.003922000 0.000000000
0.027324386 0.003922000 0.000000000
0.058949776 0.001771226 0.000000000
0.097406477 0.000000000 0.000000000
0.142947540 0.000000000 0.000379548
0.188487932 0.000000000 0.003415935
0.226438642 0.002530322 0.001391678
0.262871414 0.002277292 0.000000000
0.299304187 0.000000000 0.000759096
0.335736990 0.000000002 0.003795482
0.375078857 0.002909871 0.001012129
0.414547741 0.005945740 0.006072253
0.454016626 0.008981644 0.010626356
0.492979020 0.012017968 0.007843000
0.526375413 0.015053578 0.007843000
0.564579368 0.018089805 0.012649995
0.604048193 0.025679994 0.015686000
0.643516719 0.037191570 0.017583568
0.682985961 0.046299975 0.026691971
0.719671011 0.052625004 0.030234357
0.754206181 0.064389735 0.038962994
0.788614988 0.076534003 0.050095126
0.825047016 0.082858987 0.059329983
0.861479819 0.095003001 0.071474001
0.888804555 0.102592997 0.079063997
0.915875971 0.111448333 0.089310654
0.945730209 0.123086937 0.103478938
0.973055303 0.132194534 0.112586536
0.989753127 0.146615803 0.127007812
0.997849226 0.160024956 0.142188177
1.000000000 0.172169209 0.156482980
1.000000000 0.184313998 0.168626994
0.000000000 0.028209999 0.000000000
0.036432773 0.028209999 0.006072000
0.063757159 0.032510996 0.006072000
0.100442544 0.035926387 0.003542000
0.145603716 0.039847936 0.000758999
0.188487932 0.042504773 0.006451548
0.223908961 0.039974451 0.001897614
0.264769077 0.041998707 0.000000000
0.303858191 0.042504773 0.000000001
0.335736990 0.042504773 0.000759099
0.375078857 0.048323769 0.006704611
0.414547741 0.049462385 0.006072000
0.451739639 0.051486418 0.009867257
0.487160057 0.054269772 0.010879387
0.523339748 0.054522738 0.010879387
0.556736112 0.059962157 0.013282578
0.596458018 0.063630581 0.014168195
0.637444556 0.070587963 0.015812948
0.676913142 0.079696357 0.029728362
0.719164968 0.086021394 0.036053389
0.754206181 0.090196133 0.041239996
0.787603140 0.098798253 0.050095126
0.822011352 0.106894024 0.059329983
0.858444154 0.113219775 0.071474001
0.890322328 0.125363767 0.083617993
0.917520285 0.134345442 0.092599660
0.946742177 0.143833384 0.103478938
0.979127288 0.150411308 0.112586536
0.993168950 0.159518912 0.121694818
0.997343183 0.170398206 0.134344965
0.996963620 0.181277364 0.150031194
0.996963620 0.193421617 0.168626994
0.002150774 0.067552321 0.000000000
0.038582999 0.065401547 0.001771000
0.068564549 0.069702551 0.003542000
0.104744092 0.070714548 0.003542000
0.150031537 0.072865091 0.000000000
0.188993871 0.075901479 0.002530000
0.226059183 0.078178227 0.002783001
0.262745351 0.076786548 0.000000000
0.304237843 0.079316869 0.000000000
0.335990012 0.080708548 0.000000003
0.372928619 0.082226545 0.003668773
0.412396997 0.086274281 0.005692774
0.450727493 0.086400770 0.006831128
0.485136032 0.088425025 0.009614226
0.519671023 0.090322770 0.009614226
0.558001518 0.092978992 0.012017966
0.592915773 0.099051386 0.018089578
0.634155333 0.102087319 0.018848803
0.675141990 0.106641524 0.027957205
0.713092744 0.112966552 0.036939006
0.749904692 0.117140807 0.044908255
0.782289743 0.120177127 0.051233482
0.814547718 0.127008051 0.059203472
0.848956227 0.135104582 0.069323227
0.880834997 0.141429767 0.079316996
0.912586629 0.150790766 0.092852652
0.942947090 0.158634007 0.103984997
0.977988541 0.164705992 0.114737310
0.986338019 0.175584927 0.119544595
0.996710837 0.182921752 0.137507707
0.996078014 0.192536220 0.149398759
0.996078014 0.204680547 0.164325997
0.011511998 0.106767997 0.001265161
0.045414317 0.104996771 0.000000000
0.076660156 0.109677322 0.002529999
0.106515318 0.114484482 0.000000000
0.154333100 0.108791932 0.000000000
0.192536309 0.110057093 0.000000000
0.230233803 0.111827999 0.000000000
0.263250947 0.115749322 0.001265161
0.301961005 0.114990421 0.000506065
0.335863531 0.117014803 0.000000002
0.372169733 0.117141321 0.002909871
0.411891401 0.119165055 0.007716838
0.449082822 0.121062316 0.006578484
0.485642046 0.121062316 0.009361129
0.521062374 0.123086572 0.010372999
0.554206014 0.127387509 0.014041642
0.595952153 0.130676553 0.016318802
0.631751716 0.136116579 0.024794156
0.672358990 0.136748999 0.028463140
0.710562885 0.141050160 0.037065197
0.743832707 0.145224735 0.044908255
0.777229369 0.148260340 0.055028256
0.807843149 0.151296660 0.061733469
0.840100944 0.158128068 0.070841096
0.872485697 0.163693994 0.078684449
0.901707768 0.168501154 0.089310654
0.934598148 0.174067110 0.103984997
0.969512701 0.179379985 0.116128989
0.988108873 0.189500123 0.122833833
0.988361895 0.199367300 0.135736927
0.996584117 0.207210302 0.153826609
0.997343183 0.219355002 0.159519166
0.027071452 0.138266638 0.004681000
0.058950223 0.138646096 0.000885613
0.088171996 0.144718319 0.003542000
0.120935932 0.150537714 0.005313001
0.154333100 0.153574005 0.000000000
0.196837872 0.150537610 0.000000000
0.236432776 0.150031552 0.000379548
0.270841241 0.152182087 0.001644708
0.299683630 0.156356648 0.003162905
0.336116433 0.153321028 0.000126518
0.372928739 0.153194547 0.003289322
0.412270963 0.155218288 0.009614284
0.451360077 0.157115549 0.014168098
0.485262543 0.157368585 0.012144484
0.524730921 0.157495096 0.015433126
0.556103349 0.161543086 0.020492995
0.591397583 0.166476741 0.024667548
0.634029090 0.169133529 0.025553156
0.667425573 0.172169134 0.031625945
0.706008971 0.175584897 0.040860198
0.740164518 0.177862272 0.047691092
0.771157265 0.180898398 0.055028256
0.804554462 0.183934048 0.067172982
0.835167587 0.186970443 0.076533645
0.867805302 0.189626798 0.083365023
0.898039579 0.193042219 0.092220426
0.925870001 0.196458027 0.103605449
0.956229985 0.199493632 0.115749441
0.986211061 0.207083926 0.125616819
0.996837437 0.215812743 0.139278933
0.993927956 0.225047514 0.154206067
1.000000000 0.237191543 0.157242462
0.024035066 0.177735806 0.010753000
0.066539839 0.180771410 0.001644613
0.091966838 0.185451865 0.000000000
0.123592317 0.188235089 0.001012001
0.163440704 0.186970383 0.000000000
0.196837872 0.190005988 0.000000000
0.234281987 0.189499930 0.002530322
0.272865176 0.187855646 0.003415935
0.308032930 0.187096864 0.003162905
0.339152068 0.186717421 0.000126519
0.378494680 0.186590940 0.005818998
0.413409233 0.188614666 0.009361320
0.448323697 0.190511942 0.011132292
0.482226163 0.190764964 0.009108096
0.521695256 0.193801343 0.018216476
0.561163664 0.193927869 0.021505127
0.597090304 0.197975859 0.028083190
0.633776128 0.202276945 0.034408513
0.664389908 0.202529922 0.037697949
0.700568914 0.208348870 0.049336005
0.735610366 0.208222687 0.055281673
0.767488897 0.208222806 0.059835866
0.798481703 0.211258441 0.067172982
0.831878841 0.214294836 0.079317003
0.864769220 0.215053931 0.086400934
0.893990993 0.218342841 0.095256038
0.919797301 0.223908931 0.106388062
0.950158000 0.229854405 0.112713054
0.977861822 0.232890695 0.124857716
0.993295014 0.238709837 0.136495963
0.996457696 0.245287925 0.149651974
1.000000000 0.252371937 0.160278067
0.041239321 0.224794641 0.004174679
0.071094424 0.227830246 0.005186936
0.107147418 0.230866417 0.004680548
0.134977803 0.232763797 0.003795160
0.172928408 0.230486855 0.002150774
0.208475798 0.233523026 0.000000000
0.244402647 0.231498629 0.000000000
0.282479346 0.234788045 0.003036386
0.321189195 0.234408855 0.004680903
0.355091691 0.232637644 0.005186519
0.389120609 0.235167950 0.010878998
0.426565498 0.235167950 0.018975250
0.461606592 0.236559272 0.021884996
0.497153699 0.236812234 0.020999318
0.538899541 0.239848047 0.027830407
0.580771863 0.240480632 0.034534995
0.618849039 0.243516639 0.040733509
0.655281603 0.248323649 0.049209312
0.689437032 0.248323649 0.054142974
0.727893949 0.248829663 0.060468003
0.762428641 0.251106650 0.072612472
0.794813573 0.249715328 0.078558311
0.825173974 0.251106650 0.084503800
0.856166720 0.251739234 0.089437000
0.880455256 0.254775614 0.099304281
0.912840009 0.255028635 0.108412296
0.940543950 0.258823633 0.120556317
0.966856182 0.264895648 0.130676314
0.981909811 0.270841151 0.144591659
0.995066226 0.275648296 0.154965192
0.997722745 0.282605916 0.166350290
0.997469664 0.290322632 0.178494319
0.060847409 0.266793400 0.006577994
0.083238445 0.269829005 0.001391679
0.109930769 0.272865176 0.006072226
0.144592315 0.272106409 0.006578161
0.178368255 0.269829094 0.004301451
0.213535860 0.274130344 0.003795062
0.253257632 0.272106081 0.006577994
0.286401004 0.274003416 0.006577994
0.326628506 0.277039975 0.008855287
0.364832282 0.273118198 0.011005517
0.399999887 0.275901586 0.018595703
0.435420513 0.278557986 0.023402959
0.471853286 0.277419627 0.030234061
0.508539021 0.277166665 0.031499028
0.549652040 0.280202270 0.038962696
0.587223589 0.282479405 0.045034699
0.628210187 0.282479405 0.051106699
0.664769411 0.288298398 0.060720980
0.701201737 0.290322423 0.068817005
0.735483706 0.288677692 0.073244713
0.771157682 0.290322423 0.079822764
0.803541958 0.290322423 0.088931419
0.834029138 0.290195912 0.094497472
0.865907729 0.288677692 0.100569092
0.894370258 0.290955007 0.109803990
0.918405652 0.293991387 0.118912011
0.951296806 0.294750333 0.130803123
0.979000688 0.299683690 0.142947406
0.992662728 0.304111391 0.154458806
0.996204495 0.308538675 0.166097194
0.999240875 0.316381902 0.178747579
0.997722745 0.326249391 0.193168700
0.077546000 0.302467078 0.017963095
0.095761999 0.305502683 0.005060000
0.120556638 0.307779759 0.008096091
0.148387223 0.309298098 0.008096162
0.182542980 0.303985089 0.006199000
0.214041919 0.309298098 0.009614160
0.253510654 0.307779759 0.013662097
0.292473167 0.310436189 0.016445098
0.325110286 0.314990193 0.018722193
0.367615104 0.308918178 0.018722197
0.403541744 0.311575055 0.026691964
0.439974517 0.313852012 0.030993257
0.476407290 0.315369844 0.036306448
0.513093054 0.312587202 0.039595094
0.552561343 0.315116853 0.048197407
0.587223411 0.316634893 0.053383995
0.622138143 0.318912178 0.059455995
0.661606491 0.318912178 0.065527990
0.698165894 0.324731171 0.077419013
0.729791045 0.323971838 0.083491452
0.762049198 0.323212922 0.088425092
0.793675065 0.325237185 0.093485035
0.824161589 0.325110674 0.096774407
0.857558608 0.322074294 0.105882198
0.888678074 0.323592454 0.117267467
0.918405652 0.325869799 0.126502395
0.945730209 0.328906029 0.136116087
0.978621304 0.331941664 0.148260787
0.994939983 0.333459944 0.158507138
0.998987854 0.338772982 0.169892281
0.996204555 0.342188299 0.177229583
0.999240935 0.354333103 0.198482007
0.089690015 0.335863531 0.027071489
0.107906006 0.338899136 0.011891103
0.136875331 0.339784503 0.018342774
0.168627486 0.341176212 0.021758486
0.197722614 0.343453497 0.012271011
0.215939403 0.343453497 0.018343009
0.249968648 0.341176212 0.019228492
0.289943397 0.344718218 0.019481493
0.331183076 0.351422995 0.021758590
0.370651484 0.351422995 0.030866977
0.404427379 0.354079872 0.036685973
0.439974517 0.355091989 0.038836494
0.476407290 0.355218470 0.043517005
0.513093054 0.355091989 0.054775484
0.552561343 0.355091989 0.060847476
0.587223411 0.352814674 0.062239002
0.620620191 0.353067696 0.065528005
0.655534565 0.355344981 0.071599998
0.695003033 0.355344981 0.077672020
0.728778958 0.358380646 0.089563720
0.762049198 0.357368737 0.097533479
0.793422103 0.355598003 0.102593355
0.821125925 0.355471492 0.105882026
0.854522347 0.352435112 0.114990436
0.885642111 0.353953302 0.126375481
0.916002452 0.355598003 0.134345189
0.945730209 0.356230438 0.139152482
0.973055303 0.359266073 0.151296481
0.992662966 0.356989354 0.163440496
1.000000000 0.363061458 0.179000407
0.998987854 0.372169614 0.191524491
0.996204555 0.375585496 0.192410022
0.110562868 0.375078857 0.036179870
0.122959867 0.381024331 0.023908611
0.141176417 0.377608746 0.017330773
0.172043324 0.378620744 0.026692001
0.205313280 0.383301407 0.029601546
0.231119737 0.385831743 0.033143867
0.261986196 0.388362050 0.031625547
0.298039436 0.387729466 0.034534995
0.337255120 0.390765607 0.038582996
0.376723498 0.390765607 0.045540608
0.407463759 0.390765607 0.043010995
0.442884386 0.391777724 0.051107250
0.478178531 0.391777724 0.054902218
0.513093054 0.391777724 0.060720995
0.552561343 0.391777724 0.061479993
0.589626551 0.391777724 0.069955796
0.623529315 0.392283410 0.074509874
0.657558262 0.394054443 0.079949453
0.694750011 0.391777724 0.083744757
0.725869715 0.388994366 0.092599399
0.759139597 0.391777456 0.100822121
0.790512264 0.389753461 0.106894121
0.817963123 0.385957986 0.112080500
0.848576903 0.385704964 0.121188909
0.879696548 0.382669151 0.130297288
0.907273948 0.384440184 0.139025852
0.934598148 0.385957986 0.143580049
0.964326441 0.386590421 0.148513868
0.991650939 0.389626712 0.160657853
0.998228788 0.390639067 0.172801822
0.997975767 0.395825744 0.189626709
0.998987854 0.396837860 0.203795001
0.123719253 0.418595761 0.041239738
0.145983502 0.418595493 0.037191473
0.160404801 0.422137767 0.033522762
0.178621247 0.418595761 0.031751990
0.209740832 0.422390759 0.040100992
0.238709927 0.423782438 0.044781670
0.271094322 0.426818311 0.044781670
0.307779700 0.428209990 0.046679407
0.343833029 0.428969085 0.051992409
0.380771756 0.430234224 0.056799252
0.411511451 0.430234224 0.058191117
0.443896502 0.428209990 0.059202988
0.480328977 0.428209990 0.066034377
0.515116811 0.428209990 0.069323249
0.554585636 0.428209990 0.072865248
0.593674541 0.426186234 0.071979538
0.625553131 0.427704036 0.082606122
0.657937706 0.428842247 0.089057676
0.692979276 0.424414933 0.092093721
0.719797432 0.423402876 0.100695908
0.752055407 0.418469250 0.107906252
0.782415986 0.420113981 0.114990376
0.808854997 0.416318506 0.121947989
0.839215815 0.416318506 0.127260894
0.869576037 0.418089777 0.138393536
0.904111445 0.413662523 0.144718572
0.931562245 0.414800674 0.149652064
0.958886623 0.416318506 0.152688444
0.986590564 0.416951090 0.161669701
0.999746978 0.419987470 0.177356139
0.998102248 0.423909247 0.189120844
1.000000000 0.426186234 0.205819264
0.144212633 0.473244905 0.051106639
0.165844381 0.472485512 0.051106639
0.186843768 0.472612023 0.051106639
0.204427630 0.473244905 0.052245282
0.223402739 0.472485900 0.051865734
0.252245516 0.470967919 0.055660639
0.283997595 0.474636227 0.058949642
0.318405986 0.474888921 0.061100412
0.357115477 0.476406932 0.068690993
0.390892118 0.479822755 0.072865151
0.424794286 0.477672279 0.073624507
0.456040382 0.476786643 0.075522020
0.490575910 0.474888921 0.079696283
0.527007937 0.474888921 0.082226612
0.565591216 0.474888921 0.085641995
0.602783084 0.472485721 0.086780481
0.639595091 0.470208704 0.090195730
0.666919470 0.470714331 0.099810347
0.699304581 0.464136273 0.102340043
0.726628661 0.462491900 0.110942356
0.754332364 0.460973918 0.122707278
0.786716938 0.454901934 0.126755282
0.811258674 0.454522401 0.135231122
0.839595437 0.453510284 0.138266742
0.869955599 0.454648912 0.146995574
0.898797989 0.455787659 0.157242611
0.937761128 0.449715644 0.161290228
0.964579284 0.450853825 0.165591449
0.985831439 0.453510284 0.177356064
0.997849226 0.455281496 0.188361391
0.999114394 0.458317667 0.206578195
0.998861372 0.464136630 0.216445640
0.180897996 0.538520038 0.071600065
0.193295032 0.542061687 0.071093999
0.211637825 0.542947054 0.071093999
0.233396232 0.542188168 0.073624194
0.254016072 0.539532065 0.074636452
0.278304875 0.533460081 0.071600065
0.308665633 0.537002027 0.077166066
0.339658707 0.538393378 0.081593707
0.373814195 0.537128091 0.084883004
0.410246998 0.543200076 0.097027004
0.449082851 0.537887037 0.095129870
0.482985497 0.535863042 0.094623998
0.515117228 0.535863042 0.096647970
0.552056015 0.535610020 0.102719970
0.588487923 0.535610020 0.099683583
0.622264385 0.533459783 0.101707838
0.656926334 0.530170798 0.107020870
0.691967547 0.526375532 0.114484027
0.719292045 0.517267108 0.114484042
0.749146044 0.513472378 0.123086356
0.777861714 0.512334049 0.136622429
0.805692315 0.510563076 0.149272963
0.836179495 0.504617512 0.149652466
0.860847771 0.501581132 0.152941138
0.889436960 0.500569046 0.161037326
0.917014301 0.500822067 0.170145631
0.943327129 0.499810040 0.179253966
0.979759872 0.493738025 0.188361570
0.994686961 0.498039067 0.204933599
1.000000000 0.502340198 0.217583805
0.999367416 0.505376399 0.229601234
0.996331036 0.508412063 0.247818038
0.186969995 0.553700387 0.083744824
0.202150390 0.562807977 0.077672057
0.218848959 0.564199388 0.077165999
0.241492987 0.565464556 0.084756322
0.265654832 0.567235947 0.095256306
0.278304875 0.569892824 0.077672064
0.317773640 0.568880796 0.092346638
0.346236706 0.570145786 0.099810109
0.373814195 0.569513202 0.099050976
0.410246998 0.570525169 0.090955004
0.443769872 0.567868352 0.094370872
0.480455518 0.566223800 0.098165996
0.513346016 0.566223800 0.101834349
0.545983255 0.565970778 0.105755575
0.588487923 0.562934399 0.111827567
0.620113611 0.562934399 0.116002589
0.652624786 0.559265971 0.118406400
0.686653852 0.554458976 0.120936252
0.719292045 0.550664246 0.123592421
0.746616364 0.544339240 0.134724408
0.776470423 0.542694807 0.140543729
0.804174244 0.541682661 0.147754580
0.830107450 0.538013875 0.152688086
0.863503873 0.534977496 0.161796495
0.890448868 0.531941712 0.174193695
0.917014301 0.532321095 0.185325712
0.943327129 0.533206403 0.194433630
0.979759872 0.527134418 0.203541949
0.992283165 0.529032230 0.215306386
0.998481810 0.532700598 0.225174010
1.000000000 0.535736561 0.236306414
0.999367416 0.538772821 0.256926417
0.197849602 0.588108778 0.091081992
0.208222389 0.587603033 0.092220023
0.227703780 0.592409670 0.086147793
0.244908348 0.597722590 0.089436963
0.267678738 0.602276742 0.102340452
0.289942980 0.595192909 0.098291919
0.317773640 0.600505948 0.096014827
0.353700399 0.600505948 0.106008895
0.379506797 0.600505948 0.109803796
0.412650198 0.600505948 0.107526787
0.446173698 0.597596765 0.105123051
0.477545798 0.596584618 0.108159438
0.512080848 0.594307601 0.111574993
0.543959141 0.592030585 0.113851823
0.580012560 0.593295157 0.122074597
0.620113611 0.587855637 0.125742793
0.650474370 0.587855637 0.127261385
0.682985306 0.584187031 0.127640992
0.716382146 0.581150949 0.132447854
0.744212568 0.577735782 0.139025822
0.773434639 0.573561013 0.149272546
0.801770806 0.572043061 0.154332802
0.826312184 0.569133580 0.160531312
0.857431889 0.568374455 0.169639707
0.888551593 0.565338135 0.181024790
0.914610744 0.563693762 0.193295658
0.939405203 0.565211594 0.202403545
0.970145226 0.562934577 0.211511433
0.994686961 0.555217803 0.228083581
0.994939804 0.563567400 0.234914362
0.996963978 0.566729784 0.243896395
1.000000000 0.566729784 0.263630986
0.205439806 0.621505141 0.095635802
0.225173980 0.619987369 0.110815793
0.235293970 0.621252656 0.104364179
0.255281180 0.625553370 0.104617342
0.271853060 0.635673404 0.111828186
0.298039109 0.628083348 0.111448444
0.323339641 0.626565158 0.111954376
0.353700399 0.629348159 0.115116894
0.385578990 0.628589272 0.118153080
0.417457044 0.627830386 0.123465993
0.444655240 0.626439035 0.119291320
0.479063988 0.623908997 0.120303445
0.509424269 0.623908997 0.124478191
0.542441249 0.618849039 0.124984160
0.575838029 0.619354963 0.129032210
0.609487772 0.618216336 0.133333385
0.648956180 0.615180373 0.139405385
0.678684354 0.614547789 0.137002185
0.710309803 0.611511409 0.141303211
0.738140166 0.606957495 0.147375211
0.767362237 0.605439603 0.152308539
0.797723055 0.602403224 0.161416933
0.823149681 0.599367499 0.167994991
0.852118850 0.597976148 0.175711706
0.882479548 0.595698893 0.185578987
0.910056949 0.591271162 0.193548322
0.934851050 0.591524243 0.203921750
0.962175429 0.592536390 0.216065720
0.989879608 0.590638578 0.230107442
0.997975826 0.584819436 0.240986764
0.993674815 0.596078575 0.251106560
0.998481810 0.595572352 0.271220803
0.211005569 0.647564530 0.101834148
0.238836199 0.650094688 0.125363395
0.253257573 0.651612878 0.127893567
0.265022159 0.655281544 0.124604732
0.283997148 0.660594523 0.131436005
0.308285832 0.660594523 0.125110984
0.330044299 0.657431781 0.123466417
0.354332805 0.657305121 0.126122996
0.383681595 0.657178640 0.131435901
0.420113593 0.654143035 0.134471521
0.444528461 0.652751565 0.131309152
0.474636108 0.651359856 0.131309241
0.510056674 0.649462104 0.134851560
0.540417433 0.649462104 0.140670523
0.573434412 0.646805942 0.138393134
0.605692565 0.646173537 0.138266802
0.638709784 0.645540953 0.144339189
0.675648153 0.644908547 0.151549995
0.702972651 0.641872168 0.151550010
0.730929375 0.636685550 0.156483427
0.760784030 0.634408534 0.161290407
0.789879680 0.633396566 0.165717706
0.819987416 0.630107224 0.174320057
0.846805930 0.626059413 0.178874001
0.875774980 0.623023272 0.186590716
0.905249953 0.619860530 0.196078479
0.929538131 0.614800513 0.200126097
0.956736028 0.617710412 0.217963293
0.986084640 0.620113730 0.232131541
0.998861372 0.618469119 0.242631122
0.996710598 0.615559518 0.251739144
0.996710598 0.624667943 0.279063582
0.226186022 0.668817103 0.120051011
0.244402021 0.680961847 0.129158601
0.259329617 0.683491945 0.135483831
0.274763167 0.685009837 0.139785171
0.296141952 0.687919021 0.146616459
0.320429981 0.687919021 0.137508094
0.342188358 0.682859063 0.133712739
0.363440722 0.683618009 0.134218797
0.386211246 0.687665999 0.137507960
0.411006033 0.687539458 0.140543580
0.444528878 0.681594014 0.146489784
0.474889517 0.680076063 0.149525717
0.508032978 0.679823041 0.152561694
0.543453097 0.679823041 0.155850962
0.573813856 0.679823041 0.158886582
0.609234571 0.679570019 0.154206008
0.642125368 0.678051829 0.156483248
0.672612488 0.675268650 0.163694054
0.699936986 0.672233045 0.163694054
0.730044007 0.669196665 0.166476697
0.762049198 0.667805016 0.171663538
0.792156935 0.666793108 0.177482963
0.816951036 0.663504422 0.183428496
0.841239870 0.654395998 0.180392101
0.868058264 0.650347769 0.184946045
0.898418665 0.648703039 0.196837395
0.929538131 0.648196995 0.212270916
0.953826845 0.648196995 0.221378505
0.981024742 0.648450077 0.239215702
0.996204913 0.646932304 0.255155206
0.999746978 0.645414352 0.268690944
0.999746978 0.648956060 0.282100022
0.271979749 0.740164101 0.177229762
0.281847090 0.738393545 0.172422707
0.297912866 0.744086027 0.175079092
0.309424579 0.742188394 0.176217735
0.324604541 0.740670264 0.180392385
0.346489340 0.743074119 0.183301821
0.360658020 0.740543783 0.176723748
0.386084706 0.736369491 0.176723376
0.412270486 0.736749053 0.179000393
0.438583016 0.734724760 0.180012256
0.468817234 0.740037739 0.183175117
0.498165607 0.731941998 0.183175117
0.526628613 0.728526473 0.181277379
0.557621419 0.726881742 0.179633021
0.587982178 0.726881742 0.185198963
0.623149931 0.724477947 0.188235193
0.656546712 0.724098384 0.187855929
0.686274886 0.721694767 0.193801731
0.713599384 0.716508329 0.198102757
0.746489763 0.719038725 0.203668743
0.776850164 0.714105129 0.206704348
0.806325316 0.712334096 0.209867030
0.830866337 0.710816264 0.212397039
0.860468209 0.701707840 0.217331186
0.880202353 0.699430764 0.221126094
0.910183311 0.694117486 0.229981080
0.943453491 0.689436853 0.243896455
0.967742205 0.687160075 0.253004640
0.986717284 0.687160075 0.267425895
0.997722983 0.688930869 0.283744484
0.999114394 0.690575361 0.298039228
0.997216642 0.695508718 0.310183734
0.293990999 0.774319708 0.196205005
0.303099394 0.769386351 0.193928003
0.312713772 0.774446726 0.195951998
0.321568996 0.776217461 0.195951998
0.332574278 0.772548914 0.195951998
0.362934679 0.775584936 0.198988006
0.378494620 0.771663427 0.204427734
0.393927991 0.771916449 0.198355734
0.422517121 0.770145714 0.202150375
0.449841529 0.768248022 0.205565736
0.478178501 0.768247724 0.206577852
0.508412242 0.769892216 0.207463473
0.535736620 0.763061643 0.205565736
0.563314021 0.760278463 0.201517731
0.593674839 0.760278463 0.204300731
0.625047565 0.759772420 0.207969546
0.656926155 0.756736040 0.206451744
0.686907232 0.756356478 0.208981991
0.715496540 0.752814412 0.215054005
0.750284672 0.753194094 0.221126005
0.781783700 0.752434969 0.225300729
0.810120463 0.748386979 0.229348466
0.834661722 0.748007536 0.231372461
0.865022063 0.738899529 0.237444803
0.893864691 0.736622453 0.245414734
