Assets/EldamarStudio/100 Retro LUTs Pack/LUTs/cube/Janet LUT.cube
LUT_3D_SIZE 5
DOMAIN_MIN 0.000000 0.000000 0.000000
DOMAIN_MAX 0.903226 0.903226 0.903226
0.047059000 0.058823999 0.086274996
0.143579692 0.076154292 0.109803997
0.449336231 0.045667171 0.133332998
0.767995119 0.176850259 0.231625244
0.966350615 0.409613758 0.380897909
0.004554003 0.181783408 0.121947698
0.135989994 0.170651406 0.127513990
0.430360794 0.215812817 0.168753982
0.745477676 0.326122552 0.263251126
0.953826666 0.480834782 0.415433198
0.069575801 0.417836398 0.232131407
0.174699396 0.408728391 0.232131824
0.374699354 0.393674821 0.237950996
0.681341290 0.497659832 0.305502802
0.920556605 0.609487772 0.482858747
0.303605378 0.668944001 0.394560248
0.355850399 0.672865391 0.405566245
0.446173221 0.648703277 0.386591017
0.628716111 0.627703965 0.389627129
0.874383509 0.706261933 0.529664814
0.653004408 0.839342177 0.652751446
0.669070125 0.844655097 0.656166732
0.681593597 0.836811960 0.650980175
0.748133779 0.832637489 0.640480757
0.861732781 0.815938950 0.651486576
0.013030007 0.084630288 0.204680398
0.178241700 0.085641995 0.205312982
0.380012810 0.113092996 0.230866402
0.701328576 0.241745964 0.331942141
0.917647123 0.485135764 0.506261587
0.063124701 0.191271693 0.201391399
0.186084688 0.202403694 0.224288404
0.383933783 0.253130823 0.277925402
0.680708230 0.362681687 0.371410578
0.914357901 0.527514338 0.522960305
0.224035099 0.417204410 0.306640983
0.279569685 0.414927095 0.317773402
0.391397655 0.393674821 0.309930414
0.667046189 0.504870355 0.402276814
0.894750059 0.624541223 0.552308679
0.411511660 0.664642692 0.477419406
0.434788376 0.662998259 0.474889249
0.483111948 0.642757833 0.451613098
0.632637560 0.627703965 0.447311968
0.864516139 0.706767499 0.573561251
0.684250593 0.836179674 0.672485650
0.691714048 0.842631161 0.675774753
0.707021058 0.834535062 0.671726763
0.759645760 0.824415028 0.659962058
0.857178748 0.822770536 0.676154315
0.003289416 0.150410995 0.423150212
0.241745681 0.162555113 0.422138095
0.491840780 0.171410799 0.436179399
0.641492963 0.209993824 0.428083688
0.887286365 0.408981353 0.543453395
0.157368690 0.270082384 0.386843652
0.256419808 0.271094114 0.397976100
0.466919810 0.294623673 0.429981083
0.622517467 0.314610839 0.436432540
0.871220887 0.505629361 0.574446499
0.246552393 0.459076792 0.440733790
0.328273416 0.462365359 0.452498376
0.502213776 0.493105799 0.497026831
0.672232807 0.557115853 0.554585636
0.870967805 0.659202814 0.659835219
0.522960126 0.688172162 0.588867545
0.558127701 0.684250236 0.590512276
0.616318524 0.671853542 0.599873543
0.670588553 0.644402504 0.576091409
0.866666496 0.736242771 0.677798629
0.739025652 0.838836253 0.736242771
0.764452696 0.834535062 0.748640239
0.767741799 0.831625640 0.737002015
0.782416046 0.823150158 0.713472366
0.868943453 0.821252584 0.722074509
0.244529113 0.291461140 0.655281246
0.373561233 0.301581234 0.657811642
0.586590827 0.331435949 0.678051829
0.777735412 0.378874242 0.692473292
0.870461762 0.419101775 0.658950090
0.301581234 0.387223423 0.626944840
0.377482831 0.394054711 0.638203800
0.569639385 0.422896951 0.660088539
0.764958799 0.465654850 0.682226062
0.855661094 0.489563704 0.668057919
0.341429234 0.530296981 0.611764729
0.396711111 0.534598291 0.611638546
0.560531259 0.553193986 0.640101314
0.737254679 0.597596228 0.684250116
0.846805632 0.597343504 0.685642123
0.537508011 0.705250084 0.694370985
0.580898225 0.707147121 0.691081405
0.645667136 0.699304104 0.691840708
0.755218267 0.713978291 0.711069107
0.884376943 0.776090801 0.779759884
0.800759077 0.852118969 0.803035796
0.811132073 0.851866245 0.806957662
0.826059699 0.849588990 0.810372949
0.854522824 0.835799992 0.800252795
0.884882927 0.826186061 0.786337972
0.536622584 0.536495745 0.843389928
0.587223291 0.541682601 0.844402075
0.693231761 0.568500996 0.849336207
0.827957094 0.604048073 0.852498829
0.946615756 0.635799944 0.855154932
0.550537527 0.581783533 0.828336656
0.598228753 0.590006351 0.830992818
0.697406471 0.605313063 0.837065101
0.824541211 0.636052907 0.845667243
0.928906024 0.670714617 0.849588931
0.574446619 0.656546652 0.820620060
0.617457211 0.664389789 0.816571951
0.697786152 0.674257159 0.827071369
0.817330658 0.702972829 0.839215636
0.917773783 0.737634659 0.850474417
0.629474938 0.762428820 0.822137833
0.651233494 0.758127928 0.827198207
0.695635796 0.746742368 0.816065609
0.807210505 0.762049079 0.828716099
0.917267621 0.801897466 0.853383720
0.803162396 0.855028868 0.859076619
0.811511576 0.857052684 0.862871826
0.832384348 0.853131294 0.858317375
0.871347129 0.849841952 0.852119029
0.915243804 0.852498829 0.858949840
