Assets/EldamarStudio/100 Retro LUTs Pack/LUTs/cube/Jean LUT.cube
LUT_3D_SIZE 8
DOMAIN_MIN 0.000000 0.000000 0.000000
DOMAIN_MAX 0.903226 0.903226 0.903226
0.000000000 0.000000000 0.000000000
0.162555546 0.040354453 0.048197545
0.329918087 0.063504092 0.071347095
0.459582627 0.072865002 0.082985289
0.589247167 0.113472179 0.129158795
0.717140973 0.170145735 0.185958251
0.809740543 0.220872998 0.238836274
0.883870840 0.283870816 0.292978972
0.049335998 0.168880552 0.057558544
0.176723525 0.173181087 0.060341999
0.321694732 0.184187084 0.084629998
0.450601101 0.182163537 0.107653640
0.575964510 0.201265097 0.151928991
0.702593625 0.236179724 0.200506002
0.796710849 0.272991538 0.254522264
0.880329072 0.310183078 0.300442547
0.100189999 0.311954200 0.115875997
0.189627081 0.306388080 0.122960091
0.300063103 0.305629194 0.120556287
0.430613637 0.312713116 0.155851096
0.563441038 0.325110286 0.190259278
0.698292255 0.340797216 0.229601368
0.793295503 0.359013200 0.272612095
0.874130368 0.388235241 0.323845714
0.179379985 0.427704275 0.197343275
0.229980737 0.430866271 0.203288749
0.319544405 0.426565647 0.206704274
0.430486917 0.430486917 0.211891651
0.559392631 0.439847827 0.237318277
0.682985604 0.450980544 0.263883471
0.771157265 0.456799537 0.302719921
0.862744987 0.467678666 0.344591975
0.247691199 0.556356370 0.260088384
0.285895169 0.566982746 0.271600366
0.354206175 0.563441038 0.272738993
0.446552962 0.561163962 0.275015980
0.557242393 0.557242393 0.276660383
0.671347558 0.562302589 0.305503160
0.764199972 0.554079473 0.339279085
0.854901910 0.566603184 0.379759640
0.321188986 0.666414022 0.346742719
0.350538015 0.667931795 0.338646084
0.394940108 0.667046070 0.348639995
0.473371297 0.666286945 0.350537747
0.565085411 0.660341740 0.354458749
0.658444047 0.660467744 0.366223723
0.753194273 0.656419754 0.383048266
0.844781637 0.667678654 0.422390997
0.404807270 0.751549542 0.422137976
0.429728001 0.751296520 0.428969026
0.461353362 0.750158310 0.430107474
0.514484346 0.752687931 0.434408605
0.581404209 0.749019504 0.430866361
0.660973728 0.749651790 0.441619456
0.744338989 0.748260558 0.450221539
0.838709474 0.759139836 0.469702512
0.506134927 0.868564606 0.527007818
0.517140865 0.878304660 0.519291818
0.543326795 0.878937602 0.523212790
0.594307363 0.875015616 0.524604559
0.647691309 0.880075991 0.529664636
0.722074509 0.882605791 0.533585966
0.804427207 0.887412608 0.538140535
0.890828371 0.896014929 0.541302800
0.044655096 0.066666998 0.198229089
0.178241640 0.055660997 0.192409635
0.309171557 0.097153902 0.208855450
0.419607729 0.146868646 0.229980737
0.544971526 0.193927750 0.256293267
0.683997452 0.229221925 0.287159830
0.786970258 0.267172813 0.323212832
0.866919637 0.317141265 0.353826553
0.081087545 0.177103087 0.193548098
0.185325637 0.181024998 0.199873090
0.292726576 0.194307193 0.209614545
0.406704366 0.219101548 0.233523086
0.531182349 0.242504746 0.257052362
0.673497915 0.265654981 0.289943099
0.774066985 0.297280550 0.317520082
0.851865947 0.330929518 0.348766655
0.160658002 0.297406644 0.228083178
0.215560004 0.303731620 0.223276183
0.294624090 0.297786117 0.233143553
0.413789093 0.310689539 0.249588624
0.533838987 0.331815451 0.272232533
0.669196546 0.348260641 0.303225905
0.777988732 0.373813927 0.329032272
0.863124490 0.404301345 0.368500888
0.211132452 0.413535476 0.277039647
0.247944623 0.417963505 0.269955635
0.320809662 0.417963505 0.272232741
0.419481725 0.417963535 0.272991627
0.534977555 0.432890654 0.295382887
0.661606789 0.445414543 0.316128731
0.762934983 0.456419915 0.344718456
0.842884302 0.471979827 0.376596987
0.255154818 0.545351028 0.305123448
0.294623792 0.549399137 0.312207729
0.356483161 0.548007786 0.319038361
0.444149166 0.551296711 0.319291621
0.548513353 0.550537586 0.322453916
0.655155182 0.554079533 0.340797186
0.752182007 0.552561283 0.373434752
0.839595139 0.569006979 0.418722332
0.334092528 0.658823550 0.381404072
0.356735826 0.656419754 0.380391836
0.405692369 0.660341680 0.377609193
0.481341004 0.658317447 0.383175075
0.559898794 0.656419754 0.388235360
0.652878165 0.655660748 0.392410278
0.745097816 0.654016495 0.416445345
0.846678913 0.666287243 0.459329516
0.415939093 0.743833005 0.441492826
0.441745371 0.742441714 0.452245533
0.469576120 0.743706524 0.456293732
0.519797802 0.742062271 0.454649031
0.585958302 0.743833005 0.466413647
0.655408025 0.742567778 0.462112546
0.736622572 0.739785016 0.470841080
0.828842342 0.747880816 0.488298535
0.524604499 0.865654349 0.541303217
0.531561971 0.868944049 0.544844985
0.552814722 0.874763072 0.541303217
0.593548656 0.875142395 0.542315066
0.649588943 0.877672434 0.549399018
0.721694946 0.880581915 0.551422834
0.795445979 0.883871078 0.547881246
0.881973326 0.893738210 0.554838359
0.057179093 0.067425899 0.354965091
0.184187084 0.077925548 0.353447169
0.316635102 0.114358000 0.341682285
0.423150003 0.154712349 0.330297559
0.539911270 0.210752890 0.355724156
0.664136767 0.257431835 0.385452360
0.764200151 0.313346267 0.413029999
0.846426547 0.374446660 0.453637064
0.137887090 0.204933539 0.325616628
0.206072092 0.204933643 0.320050657
0.300948977 0.210373536 0.322833270
0.411005735 0.232384637 0.338646084
0.523845613 0.265654981 0.360531300
0.651233315 0.296268106 0.382922560
0.754079580 0.334092557 0.411005855
0.835547268 0.386464089 0.443643093
0.167615086 0.304870099 0.315749288
0.228842184 0.305249631 0.333459675
0.318153113 0.322074264 0.338520199
0.414168566 0.329538465 0.354712456
0.520303309 0.347122103 0.372296184
0.650853753 0.368627459 0.392915845
0.752434969 0.399620295 0.423150122
0.842504501 0.439595073 0.459076762
0.234661549 0.414421201 0.352940828
0.275521636 0.411637813 0.350917190
0.341556102 0.421884835 0.371789753
0.421884835 0.426186204 0.368248105
0.528020263 0.439088911 0.382289320
0.645161092 0.451992273 0.397849470
0.739532053 0.474003971 0.434155285
0.826059401 0.498545170 0.461986065
0.291587889 0.539026082 0.397343189
0.312333643 0.542188227 0.399240822
0.370525181 0.543833077 0.399620265
0.447817743 0.544212520 0.399999827
0.543959141 0.545477390 0.401265174
0.644655645 0.550158203 0.418722332
0.734472036 0.559519291 0.448071003
0.823402762 0.583554745 0.489184111
0.375331819 0.653763413 0.446299911
0.391903847 0.652877986 0.455155283
0.434281826 0.649715424 0.456040561
0.496015191 0.648576915 0.462744951
0.566603243 0.649842083 0.465907753
0.652498722 0.647817850 0.468943745
0.731815219 0.653130829 0.488551646
0.828336537 0.671094179 0.525743186
0.464516282 0.734345317 0.510816157
0.470714360 0.737254858 0.509171188
0.508538902 0.741429269 0.521062613
0.542567670 0.736242831 0.519038618
0.597090364 0.735104501 0.524098516
0.662997961 0.739026129 0.523718894
0.731815279 0.736748993 0.529664457
0.822391033 0.749905169 0.545730352
0.530423522 0.861353636 0.580138862
0.539531648 0.870715082 0.582795441
0.562808216 0.865907729 0.582036734
0.607336998 0.871853471 0.580265701
0.656546175 0.874256730 0.583048761
0.722580612 0.876027703 0.584440172
0.795951843 0.881593764 0.581784070
0.882352889 0.890069366 0.590132952
0.107147284 0.115496635 0.493738294
0.201391280 0.128399894 0.490069747
0.327641010 0.158254087 0.487033665
0.438836277 0.184440628 0.480329007
0.550790370 0.218975633 0.472991645
0.667299092 0.264389724 0.482100010
0.762681961 0.316128910 0.496521324
0.840733826 0.392663002 0.523466170
0.182542995 0.239848092 0.476534098
0.236938536 0.237065539 0.461353362
0.329158992 0.246426553 0.472612202
0.428968847 0.253890187 0.467425734
0.532068133 0.266413957 0.459962070
0.651992440 0.302466899 0.482732296
0.748892963 0.348134011 0.497280419
0.827957213 0.413029581 0.519544661
0.224162087 0.341302633 0.469070524
0.271979898 0.335736632 0.460341632
0.343706548 0.348766387 0.464642286
0.426186204 0.345224649 0.459582627
0.530044019 0.353826642 0.467805266
0.649715304 0.378368169 0.488172084
0.742820740 0.424667895 0.514863908
0.817457318 0.484630108 0.549272597
0.245540649 0.433270276 0.463503927
0.284377009 0.433270186 0.466666728
0.359772176 0.441113293 0.468943655
0.451739639 0.448956281 0.480328977
0.541429162 0.451992273 0.484503597
0.636811733 0.474256724 0.499810278
0.717267275 0.508412302 0.530297279
0.801644623 0.539658248 0.563314438
0.296647549 0.540670395 0.488298357
0.329917997 0.540670395 0.487792671
0.385958552 0.550158024 0.493358642
0.472486079 0.558380783 0.508159637
0.553953171 0.558380783 0.508918405
0.641239882 0.562428832 0.526755273
0.715749443 0.583934247 0.549778640
0.801771164 0.606577933 0.579506814
0.408475637 0.647944629 0.534598351
0.434408754 0.646299958 0.532700479
0.475901634 0.650221586 0.544212639
0.525363684 0.648576736 0.552182078
0.585452378 0.648197293 0.547754467
0.647058785 0.648197532 0.555217981
0.722200930 0.654901981 0.568121314
0.816571832 0.678937554 0.596837640
0.504869998 0.731309235 0.585072637
0.514864206 0.735990047 0.585958362
0.533080101 0.730676830 0.581910014
0.571663678 0.730803192 0.590133011
0.612903297 0.734724939 0.587097108
0.669702888 0.733586252 0.588994622
0.732447922 0.738140285 0.591271341
0.826059341 0.752561629 0.604553998
0.547122180 0.860847354 0.617710292
0.552815020 0.861100435 0.629475236
0.574699581 0.865907967 0.627956927
0.612270832 0.865022182 0.625806630
0.657811642 0.872738957 0.627451062
0.725869775 0.870461822 0.630486906
0.798608363 0.877798975 0.631245792
0.886780679 0.888298392 0.633270144
0.177735373 0.184060797 0.631751955
0.238583356 0.191904187 0.621505141
0.340923190 0.212270901 0.623150110
0.450221628 0.230992988 0.612903357
0.562682211 0.257052362 0.608222365
0.666160464 0.278052181 0.606072187
0.757242203 0.324225068 0.593295455
0.835167766 0.403288960 0.603921533
0.235420540 0.274256885 0.615559757
0.272612095 0.277925551 0.609993815
0.353067607 0.283618063 0.609740496
0.453763187 0.291081756 0.605819166
0.559898615 0.302466989 0.604300976
0.657052636 0.312207639 0.595572293
0.744592190 0.357242286 0.591271520
0.823403060 0.413788676 0.596457720
0.275648296 0.370651275 0.599494159
0.309803724 0.374573201 0.593928277
0.374573290 0.377735376 0.600379407
0.461226940 0.378873825 0.600379288
0.554079294 0.382416278 0.596457958
0.649083078 0.390512347 0.589374065
0.735989928 0.430866569 0.594813287
0.817457318 0.488424808 0.617457271
0.304617167 0.459456027 0.587729394
0.330044031 0.464642465 0.592410028
0.397469699 0.469323277 0.597596526
0.477166295 0.474763095 0.594940186
0.551296830 0.475901425 0.586463928
0.639089108 0.483365089 0.592662871
0.718026400 0.515749633 0.602150500
0.799240947 0.553320646 0.621758640
0.338267177 0.554205954 0.592536390
0.368500710 0.559646189 0.600885570
0.428463161 0.558001280 0.594940186
0.496015251 0.566223741 0.600885570
0.576849997 0.576849997 0.608222425
0.643896639 0.583554745 0.610626221
0.716508389 0.600506127 0.618595898
0.795825601 0.625680029 0.636811793
0.427324533 0.650221527 0.606957734
0.443390369 0.645540714 0.605186343
0.486527264 0.644655764 0.611764729
0.540038109 0.647058964 0.611005664
0.603162587 0.653004289 0.622137964
0.652498722 0.656040251 0.627198160
0.721062303 0.668184698 0.635673285
0.813282430 0.689563334 0.657052636
0.498545319 0.735104442 0.631751955
0.514231145 0.734724879 0.634914577
0.539278865 0.732068121 0.634914458
0.578494489 0.732827187 0.639974535
0.633396506 0.735230982 0.647565126
0.676534176 0.733586252 0.649083018
0.735736668 0.735990107 0.648324013
0.830360413 0.758507192 0.657052577
0.540923297 0.857431948 0.676281154
0.547754467 0.864389539 0.678684354
0.572169602 0.863124609 0.678684235
0.614548087 0.863124430 0.678178489
0.659962177 0.864389539 0.677798927
0.724351645 0.875015616 0.684629798
0.797849059 0.878431380 0.683744490
0.887033224 0.886906743 0.681847155
0.246805996 0.254522473 0.715369701
0.285388738 0.256799281 0.707273722
0.363314420 0.273750722 0.710057139
0.455028653 0.290195733 0.713345945
0.551802218 0.310562730 0.707400739
0.646552980 0.332953990 0.695635736
0.743327022 0.350031555 0.689436972
0.829095602 0.406071901 0.690322578
0.278431714 0.310183287 0.699177802
0.315749496 0.316129029 0.697533011
0.373307914 0.326375753 0.703605354
0.456040382 0.335736632 0.694370270
0.546995282 0.341049850 0.689563394
0.642378449 0.357115477 0.687413156
0.731941521 0.374320090 0.681846976
0.817457139 0.421252459 0.680075884
0.345224470 0.407083839 0.697026908
0.363314360 0.406957626 0.695382595
0.410499543 0.413535476 0.698039234
0.478810996 0.418848842 0.692093372
0.558633626 0.426691860 0.690195918
0.646679521 0.434788108 0.692599773
0.725363612 0.449968725 0.682226717
0.812903047 0.495508909 0.689436972
0.388614714 0.491714329 0.679317117
0.408981711 0.498039156 0.683870733
0.456546456 0.506767988 0.679443479
0.505502999 0.509045243 0.682606101
0.570777953 0.515370071 0.679063916
0.636306405 0.517773390 0.673245072
0.710310042 0.523719132 0.667552412
0.798355460 0.556103528 0.689436972
0.439342171 0.575838149 0.677672744
0.450980365 0.576343834 0.680328965
0.494749933 0.585452199 0.681088090
0.547122180 0.591651082 0.685894966
0.595192730 0.599494159 0.679063737
0.650221467 0.594054341 0.676786661
0.713978231 0.600632608 0.682732463
0.802909791 0.624541402 0.696900785
0.487539738 0.650474489 0.683870733
0.497532964 0.652119160 0.682352960
0.522453785 0.656419694 0.690575361
0.562049448 0.657558322 0.687033594
0.606324911 0.661859512 0.684250295
0.666286945 0.670208991 0.689816475
0.726881504 0.676407218 0.697406411
0.815180302 0.691208005 0.710056901
0.510057271 0.728905320 0.688424766
0.522201002 0.731562018 0.691208005
0.543580055 0.729158700 0.696774304
0.574573100 0.730297267 0.696267903
0.621758401 0.734724939 0.698671758
0.681214511 0.740923762 0.701454997
0.739278972 0.741682768 0.704237759
0.835420728 0.764959037 0.725616455
0.527893960 0.861226857 0.737760723
0.542441189 0.863124490 0.743579924
0.562555075 0.862492025 0.737507939
0.597343624 0.865907729 0.734598219
0.649462342 0.866666853 0.738140523
0.716128945 0.871726692 0.742188454
0.793548584 0.873750746 0.738266945
0.886780441 0.883111715 0.753194213
0.317267269 0.319544584 0.810373008
0.343959570 0.323465973 0.803794801
0.401264995 0.333712786 0.800253093
0.470841289 0.350917280 0.798102617
0.559519231 0.368248284 0.798735082
0.643011034 0.387729257 0.787982225
0.731941521 0.414294571 0.782289565
0.817330599 0.439721525 0.779380083
0.343327016 0.365844280 0.790385962
0.369133294 0.362808287 0.786590517
0.408601910 0.372548997 0.790385962
0.482226640 0.383807570 0.787981927
0.559013188 0.397596538 0.785199344
0.642631471 0.417584002 0.785072565
0.728020012 0.434028983 0.776343822
0.805439770 0.453889817 0.764832497
0.399367660 0.450601101 0.782922208
0.422138214 0.450853735 0.786590636
0.457432359 0.458317548 0.786084712
0.512333870 0.466540039 0.784313619
0.582922220 0.474762887 0.781277478
0.658191085 0.485642165 0.780518472
0.733459771 0.501960456 0.774193347
0.811890960 0.514737427 0.773054779
0.468184561 0.543200612 0.774572909
0.485262543 0.547501445 0.776597083
0.510815859 0.551043630 0.778241396
0.553194284 0.551549554 0.775079012
0.601644397 0.554712176 0.775079012
0.659329653 0.561037302 0.767995238
0.724731266 0.562175691 0.763946831
0.800759137 0.567868471 0.766097367
0.501328051 0.612903297 0.771031260
0.518912017 0.614673972 0.773561120
0.545477569 0.621378958 0.770904362
0.577482522 0.623909175 0.768501043
0.623023391 0.622264445 0.771031082
0.674004197 0.625932932 0.766856551
0.730423391 0.621632099 0.767995059
0.808602154 0.625427127 0.772549212
0.528399706 0.679443479 0.774952531
0.536369205 0.684503615 0.779506564
0.559266448 0.686906993 0.774572849
0.592663109 0.684629738 0.776723444
0.636052847 0.685009301 0.774320245
0.683112085 0.686654031 0.771663547
0.745603800 0.688172221 0.774952590
0.821631908 0.691207945 0.783554614
0.536875248 0.742062211 0.780898571
0.540797234 0.742062271 0.768500566
0.564452767 0.743706524 0.776470304
0.597343266 0.742062211 0.778494656
0.635800242 0.745983243 0.771663427
0.688931286 0.749272287 0.776723266
0.753826261 0.755470991 0.781910300
0.845793843 0.770778120 0.788235366
0.526248932 0.853510380 0.810626507
0.539278746 0.858443856 0.816824794
0.554459035 0.858190775 0.819228172
0.594307482 0.862997890 0.816571891
0.638835967 0.869323313 0.812776983
0.702593446 0.872106135 0.813536048
0.789626598 0.878304720 0.819101810
0.877419353 0.881973267 0.825047314
0.403035939 0.406830788 0.925995946
0.420113802 0.408475488 0.922074616
0.466666698 0.414673805 0.922833502
0.525869608 0.429095626 0.920682907
0.605439663 0.447564989 0.912460744
0.683491647 0.466792971 0.910942674
0.769007027 0.489437252 0.911574781
0.859329641 0.508791804 0.907653451
0.419354796 0.437065065 0.915243149
0.433902651 0.435547352 0.911954343
0.473624527 0.444401920 0.914231479
0.535356998 0.456546366 0.913219571
0.607084394 0.469576001 0.909297884
0.685388923 0.487159967 0.907273889
0.765717983 0.500316143 0.893611431
0.847564578 0.519164801 0.896520734
0.472485781 0.514611006 0.913219690
0.494117737 0.521442235 0.917267561
0.521315873 0.525110781 0.916129053
0.572675347 0.531435549 0.910942674
0.632258058 0.540164411 0.908032656
0.700316489 0.548260808 0.903858542
0.776850045 0.553320527 0.903225660
0.859076738 0.561923087 0.904364347
0.518279612 0.595951617 0.902340353
0.531688929 0.596837342 0.899430573
0.559898853 0.594433665 0.905249655
0.593927979 0.600252807 0.903731763
0.647944152 0.598987937 0.900316238
0.705629587 0.598355472 0.895761967
0.773181438 0.600379288 0.894243777
0.850727618 0.600252807 0.895256221
0.539279163 0.659835637 0.897279739
0.559645653 0.659582615 0.911954403
0.574320018 0.661480010 0.905755699
0.607969642 0.660721242 0.906767786
0.654269397 0.655660987 0.902466595
0.715496540 0.656673074 0.901327968
0.783175051 0.652245224 0.901580930
0.859708786 0.650600970 0.903478682
0.551928997 0.727261066 0.908665478
0.560278237 0.725236773 0.917267323
0.584693193 0.725869536 0.918279588
0.620872974 0.724857569 0.913725376
0.661606550 0.722580492 0.914611042
0.716761708 0.720682740 0.910942674
0.790891826 0.716255426 0.910942495
0.876407564 0.719291508 0.915369570
0.543200254 0.795192957 0.917393923
0.558127820 0.800253034 0.913598895
0.574825943 0.793928087 0.912713408
0.609487832 0.796458066 0.913725257
0.659582615 0.795951903 0.918658853
0.720177174 0.794813335 0.916761458
0.794560075 0.794813335 0.911448300
0.889436781 0.794307530 0.918279469
0.550410986 0.889436781 0.927514434
0.557622015 0.888425231 0.922580302
0.579253793 0.889436722 0.931941867
0.611511946 0.892472744 0.930550098
0.661100864 0.885515451 0.928652763
0.724731088 0.892599642 0.923592627
0.809361339 0.895003080 0.924098790
0.907779574 0.910436392 0.933839619
