Assets/EldamarStudio/100 Retro LUTs Pack/LUTs/cube/Jean LUT.cube
DOMAIN_MIN 0 0 0
DOMAIN_MAX 1 1 1
LUT_3D_SIZE 32
0.000000000 0.000000000 0.000000000
0.030360773 0.003036387 0.006072000
0.073624551 0.016824998 0.022896774
0.119671322 0.031246159 0.039089162
0.162555546 0.040354453 0.048197545
0.208095923 0.049462065 0.057305932
0.251106650 0.053510323 0.063883997
0.291967124 0.058190994 0.068311289
0.329918087 0.063504092 0.071347095
0.363314509 0.066540480 0.074383482
0.399620742 0.063757129 0.071600132
0.429981261 0.066792995 0.074635997
0.459582627 0.072865002 0.082985289
0.492473006 0.079443067 0.094876967
0.519797385 0.091587827 0.103984565
0.554332554 0.101328187 0.115496606
0.589247167 0.113472179 0.129158795
0.622643709 0.128652558 0.144971132
0.656040967 0.143832982 0.163187951
0.689437389 0.153447360 0.173055366
0.717140973 0.170145735 0.185958251
0.741429269 0.187349871 0.199114129
0.765717983 0.196584016 0.208475500
0.790006042 0.208728820 0.223655909
0.809740543 0.220872998 0.238836274
0.830739915 0.235799968 0.252624989
0.853510022 0.253510058 0.265275061
0.868690431 0.268690437 0.280455440
0.883870840 0.283870816 0.292978972
0.906135142 0.300821930 0.310436159
0.934345186 0.316381603 0.328146607
0.964706004 0.325489998 0.337255001
0.003036387 0.045541160 0.006072000
0.039468385 0.042504773 0.018216001
0.080581926 0.051992387 0.026438775
0.128273323 0.064642549 0.040353999
0.172802091 0.073750935 0.050474163
0.205060318 0.082859218 0.054269545
0.248071015 0.086906835 0.065907612
0.288931102 0.089943096 0.071347319
0.327640802 0.093105778 0.072865292
0.363314509 0.093864873 0.071347103
0.396710873 0.096900508 0.080202490
0.428969115 0.094117641 0.081720643
0.457305640 0.097153768 0.086780772
0.486907035 0.103225768 0.094876967
0.519797385 0.109803826 0.103984565
0.549525619 0.121947989 0.120303594
0.581657350 0.133206770 0.135231182
0.613535941 0.146869168 0.149778754
0.646932602 0.162048981 0.163187951
0.680329025 0.171663359 0.175838009
0.709930360 0.180771738 0.188994348
0.735357285 0.194434002 0.202150524
0.759772539 0.205692381 0.211638376
0.786970377 0.217836425 0.229727909
0.806704342 0.232257888 0.240354285
0.827703893 0.246552646 0.255407989
0.850474417 0.262112379 0.270335078
0.865654767 0.274762422 0.280455440
0.888804317 0.287286639 0.295635819
0.905123174 0.300316334 0.311701328
0.928273201 0.316887975 0.329031974
0.958634019 0.334598392 0.340290606
0.021125998 0.086780772 0.020746548
0.048956543 0.092346936 0.024288550
0.091840319 0.087159768 0.032131549
0.131056324 0.096774094 0.038709611
0.172802091 0.104617544 0.048576549
0.206704870 0.111954704 0.058696933
0.245034859 0.116002448 0.062871769
0.285894930 0.119038478 0.066793062
0.323845536 0.121315770 0.069576226
0.358886987 0.121315770 0.070714526
0.394560635 0.124224901 0.077166095
0.427956998 0.125236779 0.088298738
0.458444268 0.123466000 0.092853002
0.486780822 0.127767026 0.099684037
0.516382158 0.135736763 0.112587117
0.551675856 0.144465536 0.124604598
0.579000652 0.153573543 0.139784992
0.609361351 0.163820565 0.154965356
0.644276023 0.175964579 0.170145795
0.677672386 0.187729135 0.182289779
0.709171474 0.196837515 0.192536503
0.734724879 0.206957772 0.205186635
0.758001506 0.219101757 0.214674234
0.785325885 0.231245786 0.232890785
0.805818975 0.243516818 0.246426284
0.824035287 0.254522532 0.255534679
0.846805990 0.266919762 0.270967841
0.866919637 0.279063761 0.283365220
0.883617997 0.297659636 0.295635819
0.909677148 0.309803933 0.316128910
0.926375568 0.321947962 0.329790980
0.950411201 0.339405239 0.336874992
0.039089162 0.127514318 0.038962997
0.065907925 0.132827550 0.040228158
0.100189932 0.134977773 0.043263998
0.140670314 0.131435320 0.045541160
0.171031088 0.137508094 0.048576772
0.205692872 0.143580317 0.060214929
0.244655311 0.147121996 0.067805320
0.284123689 0.148892865 0.071347453
0.322833180 0.151170149 0.070588157
0.356736302 0.151170149 0.076660171
0.390512556 0.151549608 0.082732156
0.423656225 0.152561486 0.089057513
0.457052648 0.154838488 0.102340639
0.487033814 0.155344442 0.109045133
0.513346076 0.162428573 0.122201234
0.547881007 0.169006974 0.133712977
0.582036555 0.179127157 0.145856991
0.607590139 0.185831726 0.158633560
0.642757833 0.194940135 0.176217794
0.676407576 0.204301178 0.187603012
0.706641495 0.214547902 0.199114576
0.734978020 0.222644165 0.209234834
0.756483316 0.234282136 0.218848482
0.781530738 0.246426165 0.235926658
0.803288996 0.258570403 0.250853986
0.821505308 0.267932147 0.261606663
0.839722037 0.274510086 0.271221012
0.862491965 0.285894990 0.285642266
0.885136008 0.302213639 0.298165828
0.904870272 0.319417953 0.314864069
0.928652525 0.333333194 0.332953513
0.943832815 0.346236318 0.333332986
0.049335998 0.168880552 0.057558544
0.078558221 0.169639543 0.059456386
0.109930769 0.171410322 0.061353773
0.143327147 0.173560634 0.063377611
0.176723525 0.173181087 0.060341999
0.207084313 0.179253861 0.063377611
0.244655311 0.182795763 0.072232865
0.282605678 0.184187084 0.078557998
0.321694732 0.184187084 0.084629998
0.358127534 0.184187084 0.090702005
0.389500171 0.181277871 0.097532995
0.419860959 0.180265993 0.101581253
0.450601101 0.182163537 0.107653640
0.483744532 0.188235536 0.122833967
0.508285522 0.191397667 0.132194579
0.541808546 0.194813356 0.142061800
0.575964510 0.201265097 0.151928991
0.609108508 0.212776572 0.164326116
0.639468610 0.221884966 0.179506525
0.672991991 0.228589550 0.190259352
0.702593625 0.236179724 0.200506002
0.729285538 0.243896544 0.212650090
0.753700078 0.250095040 0.224920556
0.775458455 0.261986107 0.240100920
0.796710849 0.272991538 0.254522264
0.816192329 0.283111811 0.266540110
0.834788561 0.289310932 0.276154548
0.853004575 0.298418552 0.288298547
0.880329072 0.310183078 0.300442547
0.905376613 0.324098259 0.316128850
0.925616920 0.339025617 0.330297381
0.940796554 0.357242435 0.333332986
0.067552000 0.202276945 0.078810938
0.088804379 0.208348930 0.072738931
0.113725610 0.209107921 0.068185002
0.143327147 0.210879028 0.069955774
0.176723540 0.212650239 0.075521618
0.210119918 0.209613860 0.072485998
0.245540693 0.213156313 0.085642256
0.277545691 0.214547858 0.089943223
0.309930265 0.214547858 0.090702005
0.349019915 0.214547858 0.096774012
0.385451913 0.211637989 0.108665004
0.416824579 0.210625991 0.113725252
0.446046710 0.211764634 0.116761640
0.474636137 0.215559930 0.122833967
0.504996896 0.221631929 0.138013572
0.536748707 0.227197856 0.152181804
0.567615151 0.231246114 0.161796004
0.597216845 0.237065285 0.170145139
0.630361021 0.246172950 0.182542920
0.666286945 0.255281359 0.200505942
0.696520865 0.261985928 0.209614009
0.723845482 0.267552137 0.218722254
0.750664413 0.271347433 0.230993330
0.777988791 0.280455828 0.246172965
0.799747229 0.285515577 0.256799281
0.818216622 0.294243902 0.265527993
0.834915042 0.304364055 0.273118198
0.856040955 0.310562551 0.285262913
0.874256909 0.322327673 0.297406912
0.896268249 0.336243033 0.313092858
0.917520642 0.349652231 0.327767074
0.937760949 0.360278070 0.333332986
0.078178324 0.245793968 0.089943320
0.101960383 0.241745949 0.086401001
0.129664540 0.245667174 0.091081776
0.155977160 0.244781792 0.089437321
0.185705096 0.245288089 0.093991093
0.212650254 0.246552691 0.095255934
0.243516952 0.246046633 0.094749995
0.278305024 0.249083027 0.104996674
0.310436428 0.248450652 0.104617096
0.349905163 0.244908631 0.105376333
0.381404310 0.247058764 0.122327320
0.413788825 0.246046633 0.128399581
0.443010956 0.247185275 0.132574320
0.470841348 0.250221610 0.137508035
0.503478825 0.254016310 0.148134217
0.538646579 0.257685125 0.163314432
0.572169542 0.265148818 0.175458446
0.601517856 0.270209074 0.182542309
0.631119609 0.275521666 0.190891623
0.664768994 0.284630001 0.206072003
0.697406471 0.289942890 0.220493466
0.725363433 0.294370443 0.229854628
0.752435148 0.297659814 0.241745993
0.774952531 0.306768209 0.249715433
0.797722936 0.313599318 0.262618333
0.820366979 0.318279654 0.273371339
0.839975059 0.327640712 0.282732636
0.861227393 0.335736960 0.294876903
0.882353246 0.342061967 0.307020992
0.904111207 0.354206264 0.320936173
0.925237238 0.369512975 0.338393301
0.944845319 0.383554310 0.351043314
0.087286703 0.283111989 0.100695990
0.109930418 0.278684705 0.102593310
0.135230541 0.279063940 0.108159475
0.163061321 0.278304696 0.109677538
0.188867718 0.275268972 0.108538993
0.210626170 0.277039766 0.110309772
0.244908631 0.280834705 0.114104696
0.271979988 0.277545661 0.109170996
0.305376381 0.279822975 0.116761193
0.343073815 0.275521964 0.118153185
0.375458777 0.278178513 0.128905714
0.407463789 0.280834705 0.140290961
0.438962936 0.280834705 0.146742702
0.467805326 0.283365011 0.153826699
0.501201689 0.286400974 0.161543399
0.535357594 0.289436787 0.170525074
0.571789980 0.295509160 0.187223658
0.605945408 0.303984970 0.196710825
0.636306047 0.308032721 0.203794718
0.667552114 0.310057074 0.213282362
0.699051201 0.317014664 0.223276466
0.728399873 0.322074562 0.236432865
0.755344748 0.326375872 0.249082789
0.775078893 0.332447886 0.256672978
0.794686973 0.335989982 0.267298996
0.815939367 0.342061967 0.279443324
0.838456929 0.349146128 0.291587979
0.857432008 0.359393150 0.303731978
0.881973803 0.367488980 0.317520708
0.903352201 0.377103359 0.328146458
0.930297077 0.386590809 0.342441499
0.952309012 0.401011705 0.359139711
0.100189999 0.311954200 0.115875997
0.120683476 0.309677511 0.120429993
0.141808987 0.309424341 0.127134770
0.164579317 0.311701089 0.130170837
0.189627081 0.306388080 0.122960091
0.209361181 0.306388080 0.123719193
0.240733951 0.309171200 0.126502097
0.273497999 0.310183197 0.125869393
0.300063103 0.305629194 0.120556287
0.333459496 0.305629194 0.132701069
0.366097510 0.307779968 0.139026091
0.397976160 0.311574906 0.146363243
0.430613637 0.312713116 0.155851096
0.464010030 0.312966138 0.167489097
0.497406393 0.316002518 0.173561081
0.530803204 0.319797397 0.180391997
0.563441038 0.325110286 0.190259278
0.599873006 0.333586097 0.205313474
0.636305869 0.339658082 0.214168146
0.668690681 0.338899463 0.222770184
0.698292255 0.340797216 0.229601368
0.728400052 0.346363127 0.237951055
0.755597949 0.355091989 0.252877653
0.775079131 0.357495189 0.261985898
0.793295503 0.359013200 0.272612095
0.812144458 0.361796170 0.283997327
0.833396852 0.367868185 0.297153980
0.849082530 0.379506916 0.309803993
0.874130368 0.388235241 0.323845714
0.899430752 0.398355395 0.337001860
0.919670701 0.410879582 0.347754210
0.953067899 0.413915187 0.359898984
0.124478012 0.336243004 0.140164018
0.142694771 0.336243004 0.140164018
0.158886716 0.333965749 0.142567784
0.175711334 0.334977508 0.143326849
0.195699081 0.339784503 0.141176105
0.226059854 0.339784503 0.147248879
0.248324275 0.337254822 0.145477667
0.275268972 0.336243004 0.142820790
0.306135088 0.335990012 0.141808689
0.339531511 0.335990012 0.147881478
0.370018750 0.335990012 0.154206485
0.398481756 0.340164512 0.160278499
0.427197784 0.342694372 0.167615652
0.457938015 0.340290546 0.176597491
0.491334379 0.343326926 0.182669476
0.524730802 0.348766506 0.191144675
0.555091619 0.354712009 0.200126216
0.584693372 0.360910505 0.208349109
0.621125519 0.366982520 0.211385503
0.657558262 0.370271891 0.225806847
0.688045263 0.373055279 0.236812219
0.716508329 0.376217842 0.246805772
0.746489525 0.379380018 0.258950442
0.770778358 0.379379988 0.268058091
0.790259480 0.381783783 0.277166307
0.808475494 0.386084974 0.286401153
0.827324092 0.392156959 0.297153980
0.848576427 0.398228973 0.315369993
0.872232616 0.404553980 0.328019977
0.898418665 0.412523657 0.342061698
0.921948075 0.423529565 0.356989086
0.937887549 0.438203961 0.372042984
0.142947733 0.363440871 0.158633739
0.152434900 0.366350740 0.155723870
0.172801897 0.364199966 0.155723870
0.185704857 0.364958733 0.159265995
0.199620217 0.369512737 0.161163419
0.235040992 0.364452749 0.159645870
0.255281776 0.369512737 0.163187668
0.281087995 0.367615581 0.164199710
0.309930205 0.366350740 0.164452732
0.336875379 0.366350740 0.166223958
0.367362648 0.366350740 0.166476995
0.397722870 0.366350740 0.170525253
0.425932646 0.369513094 0.177988872
0.454775214 0.370524764 0.188361958
0.488172263 0.373561144 0.191777125
0.519164860 0.376596928 0.202656731
0.555091560 0.380645066 0.212270543
0.588614941 0.385325730 0.220746160
0.620493054 0.391397744 0.226059839
0.656925738 0.397469759 0.234661520
0.685768485 0.398734868 0.245793864
0.713092864 0.400759161 0.255913854
0.742694199 0.403542221 0.267678648
0.755850971 0.400758862 0.271220982
0.782416403 0.407590151 0.284883142
0.802529931 0.410499871 0.293864876
0.822264016 0.413535863 0.301961005
0.848323405 0.419607878 0.315369993
0.872232616 0.425679862 0.328272969
0.892978966 0.429981083 0.338646173
0.916002333 0.438583434 0.352434963
0.937255025 0.453763872 0.369639128
0.161163986 0.392789513 0.176849991
0.172295868 0.395825386 0.175837860
0.181910023 0.396584481 0.176976502
0.201897249 0.394813240 0.178241342
0.212523341 0.398608238 0.182795241
0.239089131 0.395825237 0.181403935
0.266413629 0.397849500 0.183428183
0.284630001 0.397343516 0.183174789
0.312713116 0.395446181 0.185452089
0.338266730 0.396710992 0.186717242
0.368374467 0.396710992 0.186717242
0.396710992 0.396710992 0.188741505
0.424794286 0.397849619 0.191777602
0.451739311 0.400632501 0.201264992
0.485135972 0.401897669 0.209613830
0.522200942 0.404933453 0.213788599
0.551043570 0.407969445 0.222896993
0.587223530 0.411005825 0.230866238
0.618975341 0.415686488 0.236938685
0.654901981 0.421758503 0.243769646
0.683744252 0.422137767 0.250980467
0.707020879 0.423023373 0.259962142
0.733965456 0.426059723 0.271220505
0.751802564 0.426818341 0.281846881
0.771283984 0.428842545 0.289943278
0.798608363 0.432384580 0.303731978
0.818722129 0.432763994 0.311575055
0.841492653 0.438835979 0.322201252
0.866160333 0.444908500 0.334345222
0.888677895 0.450980484 0.346489191
0.909803569 0.456040621 0.357621551
0.935230732 0.468943715 0.374699265
0.179379985 0.427704275 0.197343275
0.190385640 0.429601520 0.196204633
0.200379401 0.432763934 0.199493766
0.211005643 0.431625277 0.200253129
0.229980737 0.430866271 0.203288749
0.249715522 0.429348290 0.204047635
0.273244977 0.431878597 0.206577957
0.299051285 0.431119651 0.207463562
0.319544405 0.426565647 0.206704274
0.346868813 0.429221809 0.210120127
0.375964403 0.431625277 0.207969636
0.402023882 0.430486917 0.208855256
0.430486917 0.430486917 0.211891651
0.455028653 0.433270276 0.214927256
0.486654013 0.433270276 0.224414632
0.522580385 0.435673475 0.230486810
0.559392631 0.439847827 0.237318277
0.586084962 0.442884207 0.241492718
0.617963374 0.445920616 0.246046662
0.651866078 0.448323995 0.250980288
0.682985604 0.450980544 0.263883471
0.706261754 0.447944134 0.269955993
0.727640569 0.450727493 0.278684139
0.749904871 0.453763366 0.289816558
0.771157265 0.456799537 0.302719921
0.792915642 0.459329605 0.312080979
0.819228053 0.456799269 0.323719084
0.838077247 0.461606264 0.332827449
0.862744987 0.467678666 0.344591975
0.886400819 0.473750979 0.356736243
0.910309792 0.483365178 0.371536881
0.937887251 0.493231893 0.387223274
0.197849035 0.468690991 0.221631989
0.206451431 0.469450027 0.218848631
0.215306774 0.472486019 0.220746025
0.226692066 0.475521892 0.223276153
0.238836095 0.472612023 0.221505523
0.263124883 0.466540039 0.224541128
0.285895318 0.467552334 0.226565316
0.309930682 0.468311310 0.228462994
0.336496085 0.465528041 0.229222029
0.363820493 0.465528041 0.235294029
0.390891880 0.470841050 0.230486989
0.414421290 0.471094280 0.228716031
0.438583255 0.469197005 0.229601637
0.468944013 0.468944013 0.232637957
0.496268392 0.468944013 0.235673577
0.527893782 0.471347243 0.240606993
0.562555373 0.475648046 0.249209374
0.597216964 0.481087565 0.258950442
0.621505082 0.484123975 0.255914062
0.651106775 0.482099712 0.259203374
0.680961430 0.482352734 0.274003983
0.708286107 0.483364910 0.292219996
0.729665041 0.480581522 0.298418492
0.753953040 0.483617902 0.301707923
0.776217282 0.486401260 0.313852280
0.797469676 0.489437342 0.326249301
0.819228053 0.492473006 0.335610092
0.840480447 0.492473006 0.344718456
0.866539836 0.497280031 0.356736034
0.892093420 0.503352046 0.368880421
0.918153107 0.512966216 0.383681595
0.948513985 0.531183004 0.404933989
0.219101399 0.492978990 0.245919973
0.222137794 0.502087355 0.245919973
0.228589401 0.496394604 0.236685395
0.242884308 0.496773988 0.233396411
0.262365818 0.500189424 0.233902544
0.269196868 0.499936402 0.242757887
0.301075339 0.496394694 0.235673502
0.325363666 0.501201630 0.237317994
0.347121984 0.503984392 0.239848092
0.366856098 0.498924404 0.238330409
0.391271323 0.498924404 0.241492540
0.416192502 0.500189424 0.242631257
0.439848423 0.499556988 0.243896410
0.465907663 0.499304026 0.244781956
0.496268392 0.496268392 0.247817561
0.523592770 0.498671591 0.248449981
0.555218160 0.501707613 0.252751350
0.589247108 0.505376220 0.260088980
0.621505082 0.508411944 0.265022457
0.648577094 0.511448324 0.275901437
0.674636424 0.509424090 0.282352984
0.699177682 0.507653117 0.292219996
0.720556617 0.504870296 0.298418492
0.744845390 0.507905900 0.307526886
0.769133449 0.508664966 0.319924295
0.791397631 0.510689199 0.332321286
0.813662052 0.514231443 0.341935098
0.840480447 0.519797385 0.353826821
0.861732781 0.519797385 0.368248224
0.886021376 0.524604380 0.381024778
0.912080944 0.534218609 0.395825565
0.942441165 0.552435398 0.417077988
0.235546798 0.524477780 0.250979990
0.231372386 0.531182945 0.258190781
0.245161533 0.529538035 0.253889799
0.258570760 0.528272927 0.251106948
0.279823244 0.533586025 0.253384054
0.287918985 0.527513802 0.250347942
0.299936503 0.532194912 0.253890276
0.328399599 0.530803561 0.253004581
0.351170182 0.534598351 0.257558614
0.372675627 0.530170619 0.256167263
0.394307554 0.529917598 0.258949906
0.416572064 0.531941831 0.257938057
0.441619635 0.531182766 0.259076804
0.467678815 0.529917598 0.259582788
0.498039007 0.529032171 0.264769167
0.528399765 0.528399765 0.262997806
0.554206371 0.528399408 0.262997806
0.584946334 0.530929565 0.267931759
0.618342817 0.537507653 0.275775015
0.648577094 0.535736978 0.285009801
0.675901771 0.534977853 0.293358803
0.700695813 0.532953620 0.300442666
0.723213017 0.531309247 0.308158994
0.742947817 0.529790938 0.319544703
0.767235994 0.532827079 0.328652501
0.787349641 0.535736620 0.340796858
0.807084143 0.539278805 0.350916862
0.832511246 0.541555822 0.364958882
0.861732781 0.542314827 0.370145828
0.888298333 0.545856774 0.385325730
0.912081003 0.554585397 0.403415382
0.936369002 0.571283996 0.429221988
0.247691199 0.556356370 0.260088384
0.247691184 0.562428772 0.267678589
0.251233548 0.561416984 0.266034186
0.265654832 0.559139431 0.263757020
0.285895169 0.566982746 0.271600366
0.299557060 0.562428653 0.267046273
0.315749168 0.559898794 0.265022099
0.331435591 0.562682152 0.268184990
0.354206175 0.563441038 0.272738993
0.376976788 0.561922729 0.272738993
0.399873853 0.560278356 0.274130315
0.424162239 0.559266210 0.274636269
0.446552962 0.561163962 0.275015980
0.473497808 0.559013188 0.275522023
0.502592981 0.560278356 0.277799159
0.531435788 0.558760166 0.278178573
0.557242393 0.557242393 0.276660383
0.582163513 0.555471003 0.277925372
0.613789022 0.562808216 0.286148161
0.641366363 0.560784578 0.293738335
0.671347558 0.562302589 0.305503160
0.697659791 0.557242215 0.311575174
0.721821249 0.555850744 0.320176870
0.741429389 0.555597663 0.330929607
0.764199972 0.554079473 0.339279085
0.787096620 0.557115853 0.348386675
0.803542078 0.562555313 0.357495070
0.826818645 0.563567221 0.370651424
0.854901910 0.566603184 0.379759640
0.883744121 0.568627357 0.388362110
0.913219333 0.577355981 0.404427350
0.933332980 0.592536390 0.432258010
0.256799579 0.586084545 0.277672559
0.263503969 0.591524124 0.283744574
0.268690735 0.591144741 0.282479554
0.273624420 0.591271400 0.279569983
0.283491105 0.593548119 0.281846583
0.304237515 0.596078515 0.284376919
0.324224889 0.592156947 0.283617824
0.344465375 0.590006530 0.283870667
0.362681985 0.590133011 0.286147982
0.380897999 0.593168676 0.286147982
0.404301167 0.590385854 0.286147982
0.429981261 0.587982297 0.285515577
0.457432121 0.586084545 0.287159979
0.481720120 0.585831583 0.293231964
0.508664966 0.588108957 0.291334838
0.534724832 0.586337745 0.290702403
0.560278594 0.584566712 0.291334957
0.581530929 0.582163513 0.290702403
0.608855486 0.585199177 0.296774417
0.634029031 0.583301902 0.303478956
0.661479890 0.584060967 0.312081158
0.688551605 0.586970389 0.324225396
0.712586582 0.578115046 0.330297410
0.733332932 0.580139458 0.338899106
0.756862581 0.579886258 0.346363008
0.782289624 0.579000592 0.355724454
0.803542078 0.582036972 0.364832073
0.824794412 0.585072696 0.373940408
0.849462211 0.588235140 0.383807570
0.877419114 0.593801200 0.396584392
0.904111147 0.598482013 0.409234971
0.931435585 0.613662422 0.427451015
0.265908003 0.613409042 0.292852998
0.275015622 0.616445422 0.298925012
0.283870816 0.615433216 0.300696015
0.291208029 0.616192043 0.300190002
0.298671544 0.620872617 0.300063401
0.313851953 0.617836952 0.297027022
0.329538316 0.615306675 0.299557358
0.348513722 0.615306795 0.302087247
0.368754029 0.617331028 0.304364026
0.386970013 0.617457509 0.304364026
0.408095896 0.614674151 0.304364026
0.431625575 0.613662064 0.302340299
0.458444297 0.613409042 0.301834375
0.487792909 0.613156080 0.305376023
0.512080908 0.610120475 0.311448008
0.534218788 0.607590199 0.311954051
0.559013188 0.607590199 0.313472241
0.584566593 0.609488070 0.314990461
0.605819046 0.609488070 0.311954081
0.633143365 0.609741032 0.320809424
0.660214722 0.607590318 0.323972017
0.684756279 0.606325030 0.327261060
0.703478932 0.605439544 0.333333045
0.721694946 0.602403939 0.339405060
0.744718552 0.604427755 0.348007321
0.773181677 0.605566025 0.361037403
0.803542078 0.606325090 0.376976907
0.824794412 0.609361529 0.386084527
0.843389928 0.604428053 0.389879853
0.869449377 0.608222723 0.400759190
0.897786200 0.615939021 0.414801002
0.922327936 0.622770131 0.427451044
0.297280371 0.646300137 0.324731380
0.309171349 0.646553159 0.322454005
0.313978523 0.645287991 0.324225008
0.324351907 0.644781888 0.324225008
0.334978104 0.647817969 0.323845565
0.342947662 0.642377973 0.320809811
0.353067428 0.644402385 0.325363725
0.366097450 0.643516719 0.327008367
0.383175373 0.644655347 0.328146726
0.401391357 0.644655347 0.328146726
0.419734597 0.644528866 0.328146726
0.443010718 0.643516719 0.328146726
0.466160655 0.642378092 0.328146726
0.490828663 0.640480399 0.330676407
0.512587011 0.637444794 0.329158694
0.539278805 0.636812389 0.332826912
0.562808394 0.637191534 0.334724575
0.588235319 0.638962626 0.337128371
0.611638010 0.636812389 0.336242735
0.635673761 0.639595032 0.341555744
0.662998140 0.637697816 0.344971389
0.688298523 0.634661615 0.346995384
0.708412468 0.632890344 0.353067368
0.729285359 0.632510900 0.359139383
0.749778628 0.631752014 0.367488652
0.774952650 0.632890344 0.379380018
0.803036034 0.633902371 0.394687086
0.822011054 0.639215469 0.403795272
0.845920265 0.644908726 0.415559709
0.873244524 0.646426737 0.426059544
0.906388223 0.652751446 0.441239953
0.938266993 0.656925738 0.455281734
0.321188986 0.666414022 0.346742719
0.320050746 0.670208991 0.338013589
0.340923488 0.669956028 0.346615732
0.340164721 0.666919589 0.340290576
0.350538015 0.667931795 0.338646084
0.359645993 0.663377643 0.343200654
0.368248165 0.664895296 0.347754747
0.379000455 0.666286945 0.348893046
0.394940108 0.667046070 0.348639995
0.416571736 0.668184757 0.348639995
0.432890743 0.666286945 0.350537747
0.451359987 0.666286945 0.350537747
0.473371297 0.666286945 0.350537747
0.494117737 0.664262712 0.352814436
0.517014384 0.662871361 0.353067428
0.539278805 0.660341740 0.352940947
0.565085411 0.660341740 0.354458749
0.589373946 0.661732912 0.356482983
0.613662064 0.658696949 0.356482983
0.634155750 0.659329414 0.358253986
0.658444047 0.660467744 0.366223723
0.684756517 0.658443987 0.367235869
0.706894457 0.656546295 0.372548938
0.728146911 0.658317447 0.380391717
0.753194273 0.656419754 0.383048266
