Assets/EldamarStudio/100 Retro LUTs Pack/LUTs/cube/Jean LUT.cube
LUT_3D_SIZE 5
DOMAIN_MIN 0.000000 0.000000 0.000000
DOMAIN_MAX 0.903226 0.903226 0.903226
0.000000000 0.000000000 0.000000000
0.291967124 0.058190994 0.068311289
0.519797385 0.091587827 0.103984565
0.741429269 0.187349871 0.199114129
0.883870840 0.283870816 0.292978972
0.087286703 0.283111989 0.100695990
0.271979988 0.277545661 0.109170996
0.501201689 0.286400974 0.161543399
0.728399873 0.322074562 0.236432865
0.881973803 0.367488980 0.317520708
0.219101399 0.492978990 0.245919973
0.325363666 0.501201630 0.237317994
0.496268392 0.496268392 0.247817561
0.699177682 0.507653117 0.292219996
0.861732781 0.519797385 0.368248224
0.337381244 0.683618128 0.363947123
0.390133142 0.685515106 0.369133562
0.522453964 0.685515106 0.375078708
0.677672088 0.678684235 0.386464268
0.844022810 0.690195978 0.433269978
0.506134927 0.868564606 0.527007818
0.536495864 0.876660347 0.524730921
0.615306556 0.879570007 0.529032230
0.742568076 0.885135889 0.536116004
0.890828371 0.896014929 0.541302800
0.059456002 0.064389706 0.317773402
0.284756720 0.100695990 0.306008995
0.478937507 0.182163119 0.314863682
0.699304581 0.269070297 0.367488980
0.852245510 0.362049371 0.423782229
0.153953284 0.275268972 0.287665993
0.289310694 0.288677692 0.308918715
0.463630825 0.309930384 0.336748809
0.685262263 0.352435261 0.376976520
0.849588931 0.414294690 0.436812222
0.261859715 0.482859105 0.366476685
0.335736692 0.482859105 0.360278368
0.486148089 0.491081387 0.366477102
0.678937137 0.508032799 0.398861587
0.833270073 0.541049659 0.466287225
0.389500529 0.672738969 0.444022834
0.432257831 0.678305089 0.451233417
0.532574534 0.673750937 0.457432121
0.675015688 0.672106385 0.463630855
0.832384467 0.691840351 0.516634822
0.530929804 0.863630891 0.570271790
0.555470943 0.868437767 0.572422683
0.627071202 0.872738898 0.571157515
0.741808712 0.879316688 0.577862084
0.883870721 0.890828431 0.580012619
0.142567992 0.145857409 0.564326346
0.303732127 0.178874105 0.560025156
0.499556988 0.220366567 0.546615839
0.696647704 0.280834705 0.543074071
0.830233812 0.391777396 0.558380783
0.246173695 0.331183106 0.538772821
0.331183106 0.333459824 0.536875367
0.497280091 0.339658260 0.533206701
0.673371315 0.372422278 0.538393140
0.820872843 0.465654641 0.574066937
0.300189376 0.496268392 0.530297399
0.361923069 0.497912675 0.535230696
0.518532395 0.518532395 0.556483209
0.657052279 0.542061806 0.567868531
0.798987985 0.595699072 0.612017751
0.441872537 0.661606550 0.577355981
0.488171875 0.667299390 0.582542360
0.571410418 0.669829130 0.592663169
0.663504422 0.668184876 0.597217143
0.811764598 0.699936688 0.625047386
0.537254989 0.861985743 0.656419933
0.570398748 0.863377452 0.652751505
0.638709545 0.865907729 0.653131247
0.737255096 0.870841384 0.658064604
0.879570067 0.889563560 0.662997961
0.260973990 0.271727145 0.732574105
0.354712129 0.284123689 0.733839571
0.504111409 0.314231545 0.730297387
0.669829130 0.352182120 0.716888130
0.826818645 0.412396967 0.715622962
0.345224380 0.395951688 0.723086417
0.400885850 0.401138693 0.721315742
0.523086548 0.411637962 0.714610815
0.670462132 0.432257831 0.712586880
0.820493519 0.482099801 0.716255367
0.441745937 0.550917268 0.710942149
0.489816368 0.561290145 0.701201677
0.574067354 0.571790099 0.705123127
0.671473980 0.576723874 0.697280109
0.803921521 0.593674779 0.719544649
0.509804010 0.675775111 0.704111278
0.528273404 0.677672148 0.710309684
0.592663109 0.679316878 0.706767857
0.685515106 0.689437151 0.709045172
0.823529661 0.709424257 0.729032278
0.528146803 0.858443856 0.754965127
0.557242334 0.863251209 0.758254051
0.619354844 0.865907729 0.754585683
0.735357106 0.872485638 0.758886814
0.887539566 0.881593704 0.769892514
0.403035939 0.406830788 0.925995946
0.456546783 0.413661927 0.922327638
0.561796308 0.436306208 0.916129172
0.707526982 0.471600056 0.910689294
0.859329641 0.508791804 0.907653451
0.465654641 0.497406483 0.917773485
0.498039365 0.505882323 0.912586868
0.595066190 0.517014503 0.913219452
0.720050633 0.533586204 0.907400429
0.857052326 0.551549554 0.904364347
0.530803144 0.630233943 0.910309613
0.563187718 0.630613506 0.908665478
0.626945257 0.635546923 0.907021046
0.733966112 0.631625652 0.906388462
0.858696997 0.632890761 0.905123591
0.549399078 0.744718254 0.907906473
0.575837970 0.742567956 0.914231420
0.639342248 0.740543723 0.915243447
0.734218836 0.735610425 0.909677446
0.879696429 0.738266945 0.920176744
0.550410986 0.889436781 0.927514434
0.572675824 0.888424873 0.930423677
0.634788394 0.889436781 0.931941986
0.743453443 0.893358767 0.924351633
0.907779574 0.910436392 0.933839619
