Assets/EldamarStudio/100 Retro LUTs Pack/LUTs/cube/Jeffrey LUT.cube
LUT_3D_SIZE 8
DOMAIN_MIN 0.000000 0.000000 0.000000
DOMAIN_MAX 0.903226 0.903226 0.903226
0.000000000 0.000000000 0.000000000
0.123719089 0.023908548 0.025047095
0.282099992 0.018848903 0.034535099
0.421505272 0.016318996 0.045413997
0.577229381 0.075774990 0.082100183
0.754079700 0.134977728 0.129284993
0.909044981 0.201897576 0.189499989
1.000000000 0.282605976 0.265654802
0.084629998 0.093611546 0.035294000
0.152814999 0.101454549 0.031373002
0.273877561 0.116761096 0.046679452
0.416824967 0.125996083 0.053257290
0.566730022 0.162808076 0.095509186
0.733712673 0.211132541 0.135863438
0.888425231 0.254902124 0.188235238
0.997469962 0.314611256 0.253257811
0.163820192 0.207590193 0.053384002
0.208855450 0.205945283 0.051992543
0.283618182 0.213029996 0.057937995
0.416066080 0.250221521 0.080582000
0.564832389 0.287413090 0.116635084
0.731056094 0.328652859 0.156230256
0.897912562 0.361037105 0.212903276
0.993295133 0.412270904 0.287539691
0.244402289 0.357748270 0.106008634
0.274509639 0.353826553 0.111954182
0.337128729 0.356989294 0.113472179
0.423782289 0.363314271 0.115496635
0.571663439 0.405945718 0.138393283
0.724098802 0.444402099 0.174066827
0.881214261 0.475395262 0.234408632
0.994939983 0.507527292 0.311701417
0.307147384 0.520177364 0.164073199
0.341049999 0.526375592 0.161290199
0.391651183 0.531941354 0.169133291
0.485388815 0.530676782 0.168374196
0.588361561 0.531941354 0.173813999
0.741176486 0.566350162 0.214168444
0.883111954 0.596963882 0.266666472
0.996204793 0.628336310 0.355218142
0.393927753 0.713219464 0.248956248
0.423023343 0.714611173 0.250980526
0.479570091 0.712207377 0.258064747
0.559519291 0.709171474 0.260341734
0.658064365 0.705123484 0.260214716
0.771789968 0.709044993 0.269955456
0.891840279 0.721315444 0.327388018
0.993547976 0.750411391 0.428715616
0.495003283 0.842378557 0.376343966
0.519291282 0.846426547 0.379506350
0.559266269 0.848576844 0.386590749
0.622770250 0.848576844 0.389753282
0.705123365 0.844655275 0.395825475
0.800126493 0.842378557 0.398228854
0.899557292 0.844655275 0.421758235
0.992409945 0.849335909 0.491207600
0.648956597 0.957241774 0.578494430
0.662239075 0.960151315 0.585325897
0.686653674 0.965591550 0.588108838
0.730297208 0.963820338 0.588741183
0.784946322 0.962175608 0.598228931
0.850600779 0.959139705 0.603162408
0.923592746 0.961036921 0.613029480
0.997469962 0.950537801 0.637318432
0.071346998 0.027830547 0.085009545
0.121442094 0.024667548 0.077546000
0.242884099 0.049715545 0.099810548
0.363061637 0.087286547 0.130423635
0.518152833 0.133459538 0.164073348
0.699050903 0.181657091 0.210246533
0.871726871 0.236052826 0.254902124
0.992409945 0.308665484 0.313219756
0.108159088 0.088931441 0.077166542
0.144971102 0.090069987 0.085388996
0.235420644 0.114358090 0.105756000
0.363061637 0.139784738 0.128779545
0.519038796 0.179759532 0.170019001
0.688551486 0.230234087 0.198861480
0.860088706 0.276786834 0.245414242
0.990765214 0.334345371 0.310563028
0.172801644 0.187223196 0.117140643
0.201770753 0.191145003 0.114737548
0.256926179 0.189120635 0.122201093
0.379886180 0.233396292 0.144465640
0.529538274 0.278810978 0.181404337
0.702719450 0.321568608 0.216192096
0.864263296 0.368121207 0.257179141
0.993295312 0.417710185 0.332953572
0.242758080 0.323972374 0.156103730
0.272612184 0.332700461 0.156483278
0.323845625 0.333080024 0.158507541
0.401771277 0.337001920 0.160025537
0.539531589 0.387096792 0.191018268
0.703225613 0.431499094 0.228589460
0.864895582 0.472991675 0.278557986
0.990765214 0.514104903 0.350917190
0.312333822 0.493485391 0.210373536
0.343579829 0.500569165 0.205945283
0.387349755 0.501581013 0.215812534
0.466539919 0.508412242 0.218975440
0.565591395 0.509550750 0.218975350
0.713978589 0.554965079 0.251739532
0.867805302 0.591018140 0.304490864
0.991271317 0.623529375 0.388994336
0.398481727 0.685894907 0.288678020
0.425047547 0.690196097 0.289310545
0.479822844 0.691714287 0.294623613
0.551929057 0.695635557 0.294749826
0.646805882 0.692093849 0.299177885
0.749652267 0.692852914 0.303099006
0.879949272 0.716129184 0.362934709
0.990891755 0.746109962 0.454142958
0.497533113 0.830866516 0.396078348
0.519038558 0.834914565 0.403036088
0.554838836 0.837191880 0.404048115
0.622770488 0.835926652 0.412776828
0.697027028 0.837065279 0.420872748
0.789374053 0.835167527 0.426438838
0.895635307 0.842251539 0.439974815
0.987476230 0.847058654 0.518279195
0.643390179 0.956989348 0.586970091
0.666666627 0.955344617 0.599873185
0.689563572 0.960530877 0.598355532
0.728526235 0.958506942 0.604047775
0.783681154 0.959266186 0.609866977
0.848197281 0.956609726 0.619987309
0.923592687 0.961036921 0.626059353
0.993547976 0.953320742 0.649841785
0.104997002 0.039974902 0.187982187
0.161796540 0.051739097 0.178621083
0.237444997 0.061100904 0.169260010
0.358760178 0.099051446 0.196584195
0.499051183 0.157368898 0.240480989
0.656546474 0.217710078 0.291081816
0.830360770 0.280329168 0.335231006
0.983174801 0.355723858 0.399873644
0.148133993 0.110436089 0.146489188
0.171537086 0.118658639 0.146868646
0.240607098 0.122580640 0.162176087
0.345477372 0.156230554 0.196963832
0.483870834 0.205565736 0.242504641
0.643896401 0.256546527 0.289057314
0.826944828 0.310815990 0.332320929
0.985578775 0.377735496 0.398355454
0.191145092 0.187982187 0.166097090
0.227198079 0.205692649 0.191145077
0.278937101 0.209108189 0.191145092
0.367109627 0.236938640 0.217330635
0.495888233 0.282732368 0.257685214
0.659709394 0.328525811 0.295256078
0.832637668 0.382163256 0.346869260
0.986337721 0.445034921 0.420999110
0.270714700 0.311575174 0.224288642
0.287539303 0.312713623 0.218343198
0.326248825 0.321821362 0.232637286
0.388867825 0.328020275 0.232511088
0.515370250 0.372675270 0.265780836
0.671094418 0.425933152 0.310436517
0.839342117 0.478937536 0.362428665
0.982416093 0.534471810 0.434661865
0.332321078 0.475521982 0.272486180
0.347881079 0.472991556 0.277166396
0.388614982 0.481720299 0.281973273
0.454396188 0.481340736 0.286654174
0.542062104 0.486401170 0.292979181
0.689310431 0.541176379 0.326502174
0.848576665 0.587476313 0.385072559
0.979253590 0.639342070 0.464515954
0.414927423 0.670967817 0.362808198
0.437570840 0.671220660 0.364959091
0.480581701 0.673624456 0.362428665
0.550031483 0.671979666 0.367995292
0.632131636 0.676407158 0.372296005
0.734345198 0.676027417 0.377356082
0.864263356 0.712586820 0.437571347
0.985072553 0.749019325 0.518405855
0.511195540 0.817963541 0.464010268
0.529917836 0.827703834 0.461606443
0.572549284 0.828210235 0.473750532
0.625933170 0.827451289 0.470461637
0.699430764 0.825806439 0.477292836
0.790891826 0.828842402 0.485894948
0.887033343 0.832764208 0.499430567
0.983807564 0.848197103 0.579380333
0.663503945 0.955091715 0.632257700
0.671347022 0.953700244 0.635673642
0.704616845 0.954458892 0.640227616
0.738899112 0.954585612 0.643896222
0.790512383 0.951928794 0.651865959
0.850727439 0.953446865 0.653130949
0.919924080 0.953320801 0.663630545
0.991777062 0.956482887 0.684503376
0.144085988 0.064516351 0.310562640
0.205313101 0.075521737 0.296521634
0.288804650 0.085641734 0.278431535
0.357621640 0.108791992 0.267425627
0.505376339 0.165591553 0.330929637
0.656420052 0.226312369 0.375331998
0.813915253 0.296647549 0.420493275
0.961795926 0.413282424 0.502846241
0.198988095 0.145730287 0.259076357
0.231625557 0.146363080 0.257685184
0.272232711 0.152308643 0.256926090
0.356483281 0.164453089 0.263124377
0.487665832 0.208222285 0.307653278
0.638077259 0.265907645 0.365464717
0.798987567 0.334977657 0.425933182
0.950537324 0.434282035 0.502339959
0.230360180 0.219734550 0.254648983
0.264389634 0.225932822 0.263124257
0.313092619 0.246806100 0.274509639
0.380391717 0.261985838 0.293358743
0.483744621 0.299177885 0.335357189
0.634155691 0.349778742 0.383807570
0.801264882 0.415433109 0.445667267
0.953573465 0.494370580 0.520936072
0.283618003 0.317900270 0.288172275
0.308665276 0.327261150 0.297912657
0.365844369 0.350031376 0.324984282
0.412017256 0.355471283 0.326881647
0.500442386 0.389626831 0.350284606
0.642884493 0.434661478 0.393422008
0.808349550 0.493358523 0.457558632
0.955976903 0.562934935 0.534598231
0.350663722 0.469575942 0.366223812
0.372296005 0.473497808 0.364326268
0.411005735 0.478304833 0.372169167
0.461480170 0.477039993 0.368500829
0.538646638 0.487539798 0.377862036
0.677672446 0.539658368 0.422643632
0.829348743 0.594054163 0.480835170
0.959898591 0.655661166 0.560531199
0.438709378 0.651992440 0.446932644
0.457938015 0.656040728 0.453510344
0.499430627 0.656040847 0.451107174
0.552435338 0.657558739 0.452751368
0.630740285 0.661986232 0.457432181
0.715749621 0.665907443 0.461986363
0.845920324 0.707780063 0.520303726
0.964452863 0.756736457 0.601264954
0.545477629 0.810499907 0.550031900
0.555218279 0.818342805 0.551929235
0.590638638 0.816824794 0.551675916
0.637950659 0.814421177 0.548386931
0.705376029 0.816824973 0.562049448
0.783428311 0.820619881 0.568754077
0.870461583 0.828462899 0.578621268
0.969133615 0.851360023 0.648323774
0.689436734 0.949525595 0.689437270
0.696014881 0.951043546 0.690069437
0.719924212 0.951169908 0.693738341
0.754459143 0.953320801 0.696647584
0.797469795 0.949525595 0.700569272
0.853763580 0.950663984 0.707779646
0.920303583 0.950664282 0.714737415
0.988740981 0.954459071 0.731815040
0.213029996 0.124604993 0.452625364
0.258444101 0.128020450 0.440101355
0.336116165 0.138520181 0.428336471
0.414800823 0.156989455 0.411385000
0.504490972 0.179253176 0.409487367
0.661353886 0.237697527 0.464010119
0.824035525 0.309930354 0.515243292
0.954838574 0.431119442 0.580771983
0.242125198 0.198102280 0.401897728
0.272232741 0.194560736 0.405566156
0.332953870 0.199620381 0.402530164
0.398355603 0.207969636 0.395572335
0.483997464 0.225932822 0.402530164
0.640607476 0.274509728 0.453889728
0.804933727 0.347122014 0.510563076
0.942947447 0.452751160 0.581657410
0.285262287 0.274889201 0.382289559
0.313851833 0.279190540 0.384819835
0.351802379 0.282732368 0.392283350
0.407843024 0.289436907 0.388108820
0.491967082 0.308665186 0.403415382
0.636053264 0.361037165 0.458823562
0.797469497 0.430613548 0.529411614
0.937254667 0.529537976 0.609740853
0.310942262 0.357115448 0.386337847
0.341682255 0.362175703 0.398608446
0.387349814 0.379000276 0.408348918
0.451486647 0.404933482 0.432258278
0.526754856 0.422011286 0.447185457
0.646932483 0.464768916 0.491460919
0.788867831 0.525743067 0.555471122
0.925110817 0.602782547 0.627577245
0.367742002 0.475522190 0.430613577
0.388994664 0.485262543 0.439974815
0.439595193 0.498165369 0.459709257
0.506894350 0.514737189 0.476533800
0.568121433 0.521695137 0.486401170
0.676786482 0.556103468 0.521315813
0.810879469 0.612523556 0.575711608
0.935863197 0.682985306 0.651486158
0.482732296 0.649841905 0.537507951
0.496268004 0.653004706 0.539658189
0.528779149 0.653636873 0.540417314
0.571157217 0.657558918 0.543580174
0.633902669 0.656420290 0.545983493
0.710942686 0.668184638 0.555724084
0.834914565 0.715116978 0.616318643
0.949905217 0.770777702 0.682605624
0.586843789 0.802277148 0.632764220
0.597596467 0.804300904 0.636685431
0.616445363 0.808602154 0.633649707
0.654522717 0.809740782 0.635926664
0.710563004 0.813282847 0.639089346
0.783554792 0.815559566 0.643769622
0.861227274 0.820999384 0.657811582
0.960278213 0.856040359 0.716634929
0.709424615 0.942694426 0.753700197
0.719038308 0.947627962 0.750031590
0.736369252 0.945477664 0.754838705
0.768121302 0.946363032 0.756103754
0.806577981 0.946742654 0.758127630
0.859962046 0.947754502 0.761669755
0.920303583 0.947880983 0.772801638
0.986084402 0.951675832 0.779632986
0.268311232 0.178114727 0.604933739
0.311069012 0.185831726 0.608096182
0.389247090 0.197216988 0.602150559
0.468311369 0.211764738 0.586084843
0.565464497 0.230613530 0.568879962
0.661733449 0.250474483 0.561796248
0.821378827 0.325236827 0.614168286
0.954711735 0.443516582 0.663251519
0.296521246 0.247438282 0.575458467
0.328020543 0.245414525 0.568374634
0.386211246 0.257305533 0.570018888
0.465148449 0.261480182 0.557748079
0.547627985 0.269702733 0.552814543
0.651612639 0.288172096 0.553953230
0.812270761 0.359266251 0.606578171
0.948513806 0.470335305 0.664516211
0.329411834 0.337760806 0.544085860
0.349272460 0.342947364 0.549525440
0.404553920 0.338519901 0.542188168
0.469196469 0.340417445 0.542947292
0.544592083 0.351549357 0.534344971
0.646552682 0.368374735 0.549272835
0.802656651 0.438330352 0.612144053
0.934851408 0.541682720 0.684503496
0.364199877 0.425553620 0.537381232
0.386590630 0.425806373 0.539026022
0.429474831 0.433269918 0.540543973
0.489437252 0.436812282 0.539785087
0.559898734 0.446679085 0.541429162
0.655407846 0.474889129 0.568121254
0.792915583 0.534598470 0.624414861
0.918911994 0.625553489 0.702466607
0.400758713 0.513599336 0.543453217
0.422138065 0.519924223 0.555471003
0.468057811 0.529285192 0.552435100
0.538519800 0.552182317 0.577482820
0.618468881 0.576470554 0.605313122
0.699557424 0.598861814 0.617204428
0.798987627 0.651739419 0.666413426
0.921315491 0.713978529 0.739025831
0.483744711 0.652245700 0.603289008
0.504743874 0.657938480 0.609614015
0.548007727 0.662745357 0.620240390
0.609234631 0.676154435 0.636179388
0.670714676 0.687033236 0.655155063
0.726755202 0.693232477 0.656040668
0.822770536 0.733965516 0.696647704
0.937254667 0.784440219 0.756736457
0.614294529 0.798228800 0.704364002
0.623656034 0.796963990 0.694876909
0.647311926 0.799746633 0.702466786
0.684882939 0.806577921 0.714358032
0.727261126 0.812144160 0.717014670
0.781531036 0.815559566 0.721442282
0.855407834 0.827450991 0.733965755
0.948513448 0.867299438 0.792536438
0.746362925 0.931688547 0.812270761
0.758886635 0.934345365 0.815559566
0.774699509 0.932068050 0.818595588
0.790638745 0.936875224 0.816824615
0.816572011 0.941176355 0.815559745
0.860720932 0.941555798 0.820872605
0.916887939 0.946236670 0.829728127
0.976090848 0.948260605 0.845920444
0.335230976 0.267552286 0.777609110
0.367868543 0.271220803 0.772422552
0.434029102 0.280202270 0.773813605
0.532574296 0.291081280 0.766856253
0.639089167 0.307653487 0.755850792
0.743959785 0.325490296 0.743832827
0.849841833 0.348892987 0.736116230
0.959519088 0.467805475 0.754712045
0.353573740 0.324351817 0.764326513
0.382542849 0.324731261 0.755344808
0.440986454 0.330297083 0.753193974
0.536875129 0.336495847 0.752182066
0.632384658 0.345098078 0.745097935
0.739784837 0.364832461 0.732321382
0.837697804 0.385705560 0.728399873
0.950411201 0.488551289 0.756736219
0.393042266 0.417204261 0.742441237
0.416445374 0.420746207 0.740164399
0.471473664 0.419607460 0.737507522
0.545477688 0.426565468 0.737760842
0.639089406 0.430360556 0.732953727
0.729158640 0.442884475 0.725869656
0.834282398 0.463251144 0.728146791
0.941049874 0.559392571 0.759392798
0.443137169 0.515876234 0.723845899
0.465781301 0.521062613 0.716761172
0.510436237 0.519797504 0.719924152
0.567868233 0.525363505 0.719291627
0.642504930 0.528778911 0.718153238
0.724984288 0.529411852 0.711701274
0.821758270 0.557368636 0.726122916
0.929158807 0.640733778 0.777356088
0.481467456 0.605313182 0.720430076
0.501075387 0.608096123 0.724857926
0.545730531 0.614547431 0.717140794
0.601138890 0.622137845 0.720556378
0.663377643 0.623402774 0.723719478
0.731562257 0.631625712 0.722833633
0.821125805 0.659456253 0.743959427
0.923086524 0.726502001 0.797722876
0.538772821 0.700568974 0.733965993
0.550411284 0.701454699 0.731941819
0.585452020 0.705629528 0.727640808
0.633017421 0.707652986 0.733586311
0.707020938 0.722201347 0.751549900
0.763567269 0.742821217 0.764958739
0.837444484 0.769007027 0.784313738
0.925869763 0.812144279 0.829095125
0.623402536 0.806072295 0.765211523
0.634281993 0.808096111 0.763314247
0.657938302 0.809993804 0.766856253
0.702340186 0.811638534 0.777482629
0.753700376 0.818848610 0.787223399
0.809740961 0.834535003 0.808602333
0.864263237 0.846299529 0.817836821
0.950917065 0.877166331 0.860720873
0.757241786 0.933712780 0.855281770
0.763314128 0.930803061 0.854775190
0.783301532 0.934345365 0.861353517
0.807969749 0.934724927 0.865148902
0.841619074 0.939152241 0.870967865
0.877039790 0.942441523 0.881214499
0.922074258 0.947122097 0.883617938
0.966223836 0.952308357 0.886148214
0.440986753 0.399240762 0.927134633
0.463757157 0.396964043 0.919291615
0.521821856 0.409108013 0.918785691
0.601518214 0.423023373 0.917014599
0.704111099 0.444402218 0.910309613
0.800885439 0.467172414 0.910815895
0.903352559 0.498924881 0.905123413
0.989753127 0.530170619 0.886653781
0.455534130 0.444022834 0.911954343
0.486021310 0.443516701 0.915369987
0.535736859 0.452624857 0.913978696
0.615812600 0.468943834 0.910815775
0.707906306 0.483870864 0.908791780
0.805313170 0.504996955 0.906135023
0.901075363 0.524857581 0.891081512
0.982036829 0.554711938 0.888931036
0.519417644 0.541049898 0.902087212
0.543074250 0.539025962 0.916761279
0.577862144 0.545856833 0.908032715
0.642125130 0.553573549 0.901074946
0.722074807 0.562935054 0.898291945
0.808096170 0.576343954 0.899809957
0.900316179 0.588867843 0.893864512
0.977608860 0.612143993 0.888045788
0.584187031 0.634028912 0.891966760
0.597975671 0.641492665 0.890448809
0.625047565 0.642757535 0.891461015
0.675774634 0.646173060 0.887918949
0.736495972 0.652245581 0.886653781
0.812270522 0.655281425 0.888298631
0.885641873 0.664389789 0.884250283
0.962808371 0.684503436 0.887412786
0.610246956 0.721694946 0.889057636
0.632637620 0.716508448 0.886653781
0.661353767 0.722833693 0.886148036
0.705629230 0.730550349 0.883617759
0.755471170 0.731309116 0.884629726
0.816192508 0.734850943 0.885135531
0.885389090 0.735230803 0.881847024
0.959645569 0.758507133 0.893611729
0.654522479 0.793421566 0.889057517
0.664389789 0.797343433 0.891207755
0.691840827 0.799367130 0.888551533
0.729538202 0.800505698 0.884250641
0.773813844 0.804047942 0.884250641
0.824161530 0.809108436 0.884123743
0.880961061 0.809487939 0.886780620
0.950284481 0.829727948 0.904111505
0.693611264 0.872738659 0.894497275
0.699430466 0.874762833 0.897026956
0.716508389 0.866793275 0.889816344
0.752055705 0.869955897 0.894243777
0.798355222 0.866919756 0.894750118
0.847058535 0.872738600 0.898165464
0.891334534 0.883111954 0.904237628
0.950790763 0.907906711 0.927134633
0.771916568 0.949398756 0.908918619
0.767615318 0.944592059 0.910942554
0.784946144 0.944971502 0.912839949
0.817077637 0.944212556 0.917899966
0.848070920 0.943073988 0.919544578
0.890828490 0.947375000 0.923212945
0.926375628 0.951043546 0.934977651
0.966223836 0.957115650 0.953446925
