Assets/EldamarStudio/100 Retro LUTs Pack/LUTs/cube/Jeffrey LUT.cube
LUT_3D_SIZE 5
DOMAIN_MIN 0.000000 0.000000 0.000000
DOMAIN_MAX 0.903226 0.903226 0.903226
0.000000000 0.000000000 0.000000000
0.244908109 0.024162002 0.037571292
0.491081387 0.040606987 0.054269414
0.793548346 0.151169986 0.139405251
1.000000000 0.282605976 0.265654802
0.142567992 0.181783408 0.059456002
0.249462694 0.185705408 0.048070703
0.492093503 0.241998807 0.095508993
0.784693420 0.310942680 0.164832264
0.997090101 0.386211365 0.282985479
0.283112407 0.447311789 0.141935408
0.353447109 0.445035100 0.143580109
0.505502403 0.453889817 0.149145991
0.781783521 0.516255558 0.202150255
0.994180560 0.570904195 0.333712786
0.407084137 0.740544140 0.262112379
0.483617693 0.746109843 0.287918985
0.615686119 0.742568135 0.287666112
0.805186391 0.745477259 0.301328123
0.990259171 0.778494775 0.440354198
0.648956597 0.957241774 0.578494430
0.680834591 0.966350615 0.590891719
0.753320813 0.962428629 0.597469985
0.870588124 0.956862628 0.601897597
0.997469962 0.950537801 0.637318432
0.097406998 0.041492712 0.159898698
0.208602399 0.049715411 0.141935408
0.424794495 0.130170405 0.193928108
0.708918393 0.228589118 0.290069699
0.989500046 0.347374797 0.381404191
0.168374687 0.164452702 0.147121981
0.243263409 0.179506704 0.161543414
0.429348499 0.236432686 0.213536099
0.716129303 0.320429832 0.287159830
0.992409945 0.421252370 0.396457791
0.302719563 0.392663091 0.237697691
0.349525660 0.404806793 0.244276106
0.472106367 0.413282782 0.243896410
0.737381101 0.502593160 0.315623134
0.989879787 0.584692776 0.435041189
0.432890445 0.713725150 0.363820225
0.489184231 0.718405962 0.373307943
0.610373139 0.720050693 0.371536821
0.780392110 0.722327530 0.385705382
0.986590564 0.772549093 0.515623033
0.663756967 0.954332650 0.620366514
0.689436555 0.959519088 0.627071440
0.761163890 0.958507240 0.640101314
0.868943691 0.954459190 0.647565067
0.993295252 0.956229866 0.669829190
0.183807403 0.094876409 0.374066800
0.291334689 0.109550700 0.347628087
0.427703798 0.141935408 0.337507814
0.694876552 0.247564703 0.428716093
0.953320801 0.419481158 0.538393199
0.251739383 0.230234399 0.314231694
0.307020664 0.234155387 0.316888094
0.421758384 0.255408108 0.335483789
0.671979547 0.343326986 0.428336412
0.936369181 0.499810338 0.561669886
0.332194805 0.393042386 0.354458988
0.385072827 0.414927125 0.384187073
0.490448833 0.439468831 0.404807240
0.692219973 0.505249500 0.467299134
0.946110189 0.627324283 0.599240780
0.474130392 0.679823101 0.507906139
0.516002417 0.686653852 0.520303667
0.607843101 0.692219973 0.515749097
0.751423240 0.704364240 0.528526187
0.960783899 0.786084771 0.655787468
0.685262799 0.948766351 0.710816205
0.721315384 0.945477664 0.726375401
0.773561180 0.949398816 0.728652656
0.869322956 0.949019551 0.733459890
0.989879608 0.953953147 0.756736159
0.284503251 0.197343126 0.653510273
0.375332236 0.212650403 0.642630994
0.532068491 0.241113111 0.626312375
0.710310280 0.272739023 0.607337117
0.956989050 0.450853765 0.687286675
0.335737139 0.334218830 0.608348787
0.394686967 0.338520110 0.604427278
0.531688809 0.345351249 0.597596407
0.695888698 0.364326388 0.597849607
0.942188799 0.528020144 0.699177802
0.403162539 0.490575820 0.587728977
0.454269528 0.505629361 0.592283547
0.566350162 0.517014563 0.597469926
0.712840259 0.550031781 0.625553548
0.920303464 0.676281035 0.731815159
0.514105260 0.688678265 0.637697279
0.566223979 0.695129871 0.648324132
0.662365377 0.715369821 0.682732403
0.763188243 0.733712971 0.697533131
0.938520074 0.813535869 0.780771792
0.745097935 0.933459759 0.814800739
0.774699330 0.936369359 0.834282100
0.808222353 0.939911366 0.833143651
0.875901103 0.942567945 0.839089215
0.975837946 0.949778497 0.853763342
0.440986753 0.399240762 0.927134633
0.504364192 0.405818582 0.916761637
0.650727332 0.432637155 0.916129172
0.825933099 0.475774735 0.907779574
0.989753127 0.530170619 0.886653781
0.505755782 0.517267346 0.910183787
0.551549554 0.521821320 0.904743850
0.674003839 0.538519740 0.903099179
0.830866456 0.559139609 0.896773934
0.981657028 0.594180584 0.888045788
0.603162587 0.684250593 0.901834190
0.642125130 0.689184070 0.890322506
0.721442163 0.692093611 0.893358588
0.830866754 0.700569034 0.890069366
0.966476560 0.722833157 0.888171732
0.661606610 0.815433085 0.887539446
0.687792301 0.819101453 0.889057636
0.753447235 0.819734097 0.886780202
0.844149232 0.827577651 0.887412906
0.952308655 0.848197043 0.908918619
0.771916568 0.949398756 0.908918619
0.780897915 0.944212615 0.911574781
0.826565623 0.942188382 0.918785334
0.901960671 0.948386967 0.925742924
0.966223836 0.957115650 0.953446925
