Assets/EldamarStudio/100 Retro LUTs Pack/LUTs/cube/Jeffrey LUT.cube
DOMAIN_MIN 0 0 0
DOMAIN_MAX 1 1 1
LUT_3D_SIZE 32
0.000000000 0.000000000 0.000000000
0.018215999 0.000000000 0.000000000
0.049335547 0.008601999 0.008601999
0.085768320 0.018215999 0.018215999
0.123719089 0.023908548 0.025047095
0.172295868 0.026944935 0.037191868
0.208222315 0.027450999 0.039216001
0.244908109 0.024162002 0.037571292
0.282099992 0.018848903 0.034535099
0.312460035 0.015812512 0.031499490
0.351549625 0.009867001 0.034282129
0.386970252 0.009867257 0.039341994
0.421505272 0.016318996 0.045413997
0.457685024 0.028462999 0.051233035
0.491081387 0.040606987 0.054269414
0.531688571 0.057558596 0.066919796
0.577229381 0.075774990 0.082100183
0.625173688 0.093358561 0.096015409
0.670714974 0.108538978 0.105123051
0.713472784 0.120936006 0.119797364
0.754079700 0.134977728 0.129284993
0.793548346 0.151169986 0.139405251
0.833143950 0.169259489 0.157621980
0.875648797 0.184439898 0.175838009
0.909044981 0.201897576 0.189499989
0.938013673 0.220113978 0.203035653
0.965844154 0.239342123 0.219734117
0.996204853 0.263630897 0.244022876
1.000000000 0.282605976 0.265654802
1.000000000 0.306135148 0.290449142
1.000000000 0.332574189 0.319544554
1.000000000 0.356862992 0.352941006
0.018215999 0.015180387 0.003036387
0.033396386 0.024288775 0.003036387
0.058064163 0.026439000 0.015939385
0.094370320 0.032131545 0.026059549
0.133206546 0.037191771 0.029601775
0.163187474 0.048197322 0.031119868
0.206704244 0.048703387 0.033144001
0.244908109 0.048703387 0.041366283
0.282859087 0.045414388 0.042884007
0.315496445 0.040101293 0.028463101
0.348766267 0.042883903 0.034155615
0.383934349 0.041239388 0.041366253
0.418469369 0.044402286 0.047311742
0.455407679 0.052751772 0.052245032
0.497153401 0.064895764 0.066413417
0.532953560 0.077039763 0.074256800
0.575711608 0.092473179 0.086653993
0.620240510 0.108538948 0.099683598
0.658571005 0.123719364 0.111195043
0.709677398 0.136116385 0.123086721
0.751043797 0.148260385 0.134218648
0.789500356 0.163314253 0.143453255
0.827071190 0.181530744 0.157621980
0.869576037 0.199620292 0.175838009
0.905250072 0.214800671 0.189499989
0.937761009 0.233649641 0.204427332
0.968374431 0.253510386 0.222264454
0.996204853 0.272738516 0.244022876
1.000000000 0.283744454 0.265654802
0.996457994 0.309677124 0.285135925
0.995698988 0.338646173 0.313092768
1.000000000 0.362935007 0.352941006
0.040733546 0.038962770 0.014674226
0.051612936 0.041619387 0.016824998
0.068943545 0.044275999 0.016824998
0.098797932 0.049841933 0.029980998
0.138266638 0.054649223 0.033902775
0.172675475 0.061479997 0.035674002
0.204047635 0.069955774 0.033523228
0.241619110 0.068311065 0.031878941
0.278558105 0.068564095 0.041745774
0.311954498 0.066666774 0.034661777
0.347501636 0.067172676 0.037570998
0.384945989 0.070208803 0.039595000
0.419734508 0.071473673 0.049462512
0.456166834 0.077039994 0.055787548
0.494876564 0.089183979 0.065275170
0.534724593 0.099177763 0.073497795
0.571157396 0.112839960 0.087159991
0.614168346 0.127387762 0.099936575
0.653637230 0.141049981 0.110562794
0.699683607 0.155597776 0.127007946
0.745603681 0.167741761 0.139152691
0.785325825 0.180897892 0.148513421
0.823023260 0.197596505 0.159392729
0.863503814 0.209740773 0.171537012
0.901328087 0.227830291 0.189499989
0.933333516 0.244402334 0.203035653
0.965971053 0.263883859 0.220999286
0.996584415 0.280455530 0.242251649
1.000000000 0.295002818 0.257052809
0.998228788 0.311195135 0.287159890
0.993421853 0.341302574 0.311195165
0.995698988 0.366856247 0.348639995
0.063757159 0.066287160 0.027324161
0.072865538 0.065022320 0.029095385
0.087159991 0.066287160 0.027450999
0.109171480 0.068817161 0.028716160
0.140670329 0.077545993 0.033649616
0.173940644 0.081467219 0.034914773
0.209613994 0.087033480 0.037950840
0.241619110 0.092093453 0.038709711
0.274257004 0.089816161 0.036433000
0.307147324 0.092346482 0.041493002
0.343453556 0.092473000 0.042125128
0.381910384 0.094497256 0.045667000
0.420240134 0.100948989 0.047944289
0.456166893 0.104617156 0.059582967
0.490575641 0.114737138 0.066666834
0.530676782 0.124477953 0.076533988
0.572422564 0.135357171 0.084883153
0.609487712 0.149905130 0.101834148
0.651359975 0.162049338 0.111574985
0.695382535 0.176976681 0.125237167
0.737760484 0.187729314 0.139658302
0.780265272 0.199873313 0.151802838
0.819734335 0.214674145 0.161290020
0.856926084 0.224920899 0.171537071
0.895382583 0.238330305 0.186210990
0.930297136 0.255281180 0.205565646
0.960657954 0.272485971 0.220240116
0.993295431 0.286907434 0.239215583
1.000000000 0.304617465 0.253763646
0.996963918 0.323339462 0.278811038
0.996584117 0.345477253 0.314357728
0.994686961 0.372422159 0.345097989
0.084629998 0.093611546 0.035294000
0.094117939 0.091334932 0.036052998
0.107147314 0.092220321 0.032890547
0.126248926 0.095762096 0.029475162
0.152814999 0.101454549 0.031373002
0.171030983 0.107526548 0.028336613
0.205439314 0.111068867 0.035420772
0.241239563 0.114484385 0.042125449
0.273877561 0.116761096 0.046679452
0.304237604 0.116761096 0.046679448
0.340417296 0.117520094 0.044528674
0.378494650 0.119923800 0.047184996
0.416824967 0.125996083 0.053257290
0.453510106 0.137634084 0.059835996
0.484250367 0.143706083 0.069070116
0.523465991 0.151802346 0.082985342
0.566730022 0.162808076 0.095509186
0.611385524 0.174952134 0.104111440
0.650853992 0.187096953 0.116255470
0.692726195 0.201265365 0.125616804
0.733712673 0.211132541 0.135863438
0.774193227 0.218849093 0.148386985
0.816697955 0.230993077 0.160910487
0.850854158 0.243137106 0.173814267
0.888425231 0.254902124 0.188235238
0.925490201 0.268437833 0.205439180
0.958001137 0.283111662 0.225932583
0.988361835 0.295256436 0.238077343
0.997469962 0.314611256 0.253257811
0.997217000 0.335484177 0.278684556
0.993927956 0.357242495 0.311322033
1.000000000 0.381530523 0.344718456
0.102845997 0.120935924 0.035294000
0.114990771 0.123972312 0.041366000
0.126628935 0.123845927 0.044275772
0.141808867 0.124351859 0.041998934
0.161922619 0.125743315 0.037445001
0.183174998 0.128778934 0.031373002
0.208981305 0.132321253 0.038456611
0.239974394 0.137001932 0.042631064
0.270841271 0.141049862 0.043643065
0.301201969 0.141049862 0.043643069
0.337381661 0.146868870 0.046552937
0.373813897 0.151928872 0.048576675
0.410752386 0.158633575 0.053257290
0.447438091 0.167994857 0.059835996
0.486907214 0.174066857 0.071979985
0.522453904 0.180138856 0.086021729
0.561416626 0.191271126 0.099683926
0.602530181 0.205312848 0.109424420
0.644782007 0.217456952 0.113219082
0.684250355 0.226818353 0.122580417
0.726122558 0.236938730 0.129791051
0.768121243 0.245541066 0.139911190
0.810625970 0.255281836 0.154838488
0.853130758 0.267425865 0.176090911
0.889563620 0.277293146 0.191271335
0.926502287 0.289690226 0.206451595
0.960910976 0.304364055 0.223149925
0.988361835 0.316508830 0.241112947
0.997469962 0.331309050 0.258570731
1.000000000 0.349272460 0.283364922
0.998987973 0.368880600 0.313345641
1.000000000 0.390638918 0.341682076
0.121062636 0.153320313 0.053004317
0.125616446 0.153826386 0.048956320
0.142062217 0.159013540 0.052878093
0.156230479 0.158507466 0.052118998
0.173181638 0.157621861 0.046805676
0.192283258 0.160658017 0.045034677
0.216065958 0.158633634 0.038962677
0.246679336 0.163314313 0.044781707
0.277925313 0.168627411 0.047185317
0.308285683 0.170398638 0.050727319
0.341935724 0.173687309 0.048576549
0.380392224 0.181783572 0.057685185
0.416191965 0.190638632 0.065654635
0.451739073 0.201391369 0.075015992
0.493484914 0.212017953 0.087159984
0.530550301 0.218089953 0.092093803
0.570018649 0.227197960 0.106768191
0.610499680 0.240101218 0.119291730
0.651107311 0.250348002 0.126122355
0.693358362 0.262239009 0.139784679
0.738519907 0.271347374 0.146995321
0.778241634 0.280455530 0.156103447
0.814547479 0.289436996 0.171157300
0.854649127 0.296774000 0.185198903
0.892599344 0.308918566 0.199620575
0.930423617 0.319671303 0.217330962
0.965970993 0.333206624 0.235294312
0.991271079 0.345350891 0.253510296
0.997469962 0.357622117 0.274256647
1.000000000 0.371030927 0.296015382
0.999114394 0.393042475 0.323086590
0.997469664 0.422517627 0.348766327
0.142567992 0.181783408 0.059456002
0.142315030 0.180138692 0.059961993
0.157748252 0.186084539 0.063630767
0.174699858 0.185831830 0.056546833
0.189121142 0.183554545 0.050474256
0.203541979 0.189120933 0.054269418
0.226818636 0.183807671 0.052498411
0.249462694 0.185705408 0.048070703
0.282099992 0.192536309 0.050347995
0.312460035 0.197343469 0.054648999
0.345730603 0.203668520 0.058570541
0.381530941 0.210752651 0.062365510
0.417583704 0.219860747 0.074509993
0.450980097 0.231245726 0.086147994
0.492093503 0.241998807 0.095508993
0.531435609 0.250980675 0.103731796
0.570904434 0.260088682 0.109804183
0.613409102 0.272232682 0.124731399
0.653890252 0.282352984 0.135863051
0.691208065 0.292599708 0.145604089
0.739152193 0.302846432 0.156736001
0.784693420 0.310942680 0.164832264
0.817456961 0.319291413 0.179506689
0.858444035 0.325363398 0.194686726
0.895635724 0.335989535 0.208475560
0.929285049 0.348134309 0.220619977
0.965971053 0.360278398 0.241619408
0.991397679 0.372422397 0.262112677
0.997090101 0.386211365 0.282985479
1.000000000 0.395066679 0.310942382
1.000000000 0.411638260 0.336116552
0.997722745 0.445793986 0.361163706
0.163820192 0.207590193 0.053384002
0.162302390 0.206071794 0.060215097
0.173434764 0.210119963 0.065401688
0.194434047 0.213915125 0.069449939
0.208855450 0.205945283 0.051992543
0.217963159 0.213915125 0.061100833
0.238203734 0.209360868 0.058824003
0.262365788 0.206957415 0.059456386
0.283618182 0.213029996 0.057937995
0.313978225 0.222137600 0.057938002
0.347248614 0.230487064 0.065148875
0.380392402 0.240354344 0.072232991
0.416066080 0.250221521 0.080582000
0.446932137 0.259076178 0.092220001
0.485895216 0.267678499 0.098291993
0.524604738 0.277545780 0.106767803
0.564832389 0.287413090 0.116635084
0.609234691 0.299557090 0.123845898
0.652119100 0.311701119 0.138393059
0.687792480 0.320303559 0.146742716
0.731056094 0.328652859 0.156230256
0.777103245 0.338267118 0.164832264
0.816571593 0.344465613 0.177229971
0.858443797 0.351170212 0.195446000
0.897912562 0.361037105 0.212903276
0.930803239 0.372422308 0.227451071
0.961669981 0.384566993 0.240607083
0.989500284 0.396710962 0.264389813
0.993295133 0.412270904 0.287539691
0.997849226 0.421378970 0.315117121
0.998481989 0.432131559 0.342947453
0.998481989 0.459455997 0.370271891
0.175964981 0.237950996 0.047312014
0.179000601 0.240986601 0.056420397
0.186084777 0.243769765 0.056799721
0.202023998 0.245793983 0.059329689
0.224035084 0.245414466 0.067172945
0.233143464 0.245414481 0.076280557
0.249842137 0.243263677 0.065148853
0.273245186 0.241618991 0.062113006
0.298798561 0.243390024 0.067046389
0.320051014 0.249462008 0.070082009
0.353320867 0.255661249 0.072991878
0.382669270 0.265907973 0.078305006
0.413788795 0.277925491 0.086654000
0.449968547 0.289436996 0.098292008
0.486401290 0.295508981 0.104364000
0.522960007 0.306514502 0.112839803
0.561037123 0.317014217 0.123466000
0.603162706 0.326881498 0.132953510
0.654776037 0.339025527 0.132953525
0.694876850 0.345604241 0.144718722
0.737887204 0.351803005 0.158507243
0.779632866 0.360025495 0.170398265
0.813535988 0.371790022 0.177229971
0.853004396 0.380898416 0.195446000
0.894876540 0.389879704 0.215939268
0.930170655 0.399114162 0.234155640
0.958633602 0.408855021 0.249715477
0.992029965 0.420998991 0.267931491
0.990638554 0.438456655 0.294370323
0.993801177 0.447691262 0.323212892
0.998229027 0.456166595 0.348386973
0.992410004 0.477671981 0.361163497
0.193928003 0.277039856 0.070335001
0.199873492 0.274257213 0.070714518
0.209360868 0.277292818 0.077672675
0.220493317 0.277799010 0.079443574
0.237824291 0.276913732 0.084503546
0.257052660 0.281973720 0.088551804
0.273750722 0.279443413 0.085009739
0.291966975 0.278051734 0.079190865
0.313219309 0.278810829 0.080455773
0.332321525 0.282732606 0.079190388
0.356482983 0.280075729 0.079316869
0.387855619 0.288172245 0.082353257
0.417204291 0.299430877 0.090955213
0.450095057 0.311574876 0.104363993
0.486527801 0.322959840 0.110435992
0.522960007 0.333839476 0.121315598
0.562428355 0.345983595 0.129411861
0.603288829 0.356483310 0.137507856
0.645794153 0.366350651 0.142061889
0.691840529 0.378494620 0.153193891
0.731562376 0.384819865 0.165338606
0.775078952 0.391903996 0.176470727
0.816192150 0.401897728 0.182795972
0.852877915 0.408222765 0.195446000
0.887792289 0.417331159 0.213661984
0.924225152 0.425047576 0.231498778
0.955597937 0.432131737 0.248703182
0.988994300 0.439468741 0.274129987
0.998481929 0.454269558 0.297659636
0.996963859 0.466919601 0.322959810
1.000000000 0.475774437 0.350157917
0.997976005 0.492978871 0.372422755
0.218216240 0.314484507 0.088551253
0.222264498 0.311448365 0.084503256
0.232637510 0.310689479 0.086780548
0.242251500 0.312460244 0.094117828
0.253637075 0.311321974 0.098671541
0.273245186 0.317393988 0.101707920
0.287919253 0.313851923 0.097153991
0.304490954 0.314104944 0.096015275
0.323086619 0.315243423 0.097153828
0.342568249 0.318279475 0.096647762
0.366603255 0.317520350 0.096521243
0.388867497 0.318532497 0.096521251
0.420366645 0.327640891 0.101834632
0.451865822 0.338646472 0.114990503
0.486527801 0.349019229 0.124604501
0.524984241 0.361163855 0.121315345
0.562934399 0.371790051 0.133459732
0.603668094 0.383428156 0.141176313
0.641745687 0.393928230 0.148640007
0.682732642 0.403795004 0.156230018
0.726375699 0.412144452 0.168374479
0.766983271 0.419228375 0.181530863
0.811005712 0.428336501 0.191144735
0.845540822 0.436306238 0.207084253
0.883744299 0.444655538 0.219734237
0.922706962 0.450980574 0.240733564
0.956610084 0.457432091 0.257811576
0.983934402 0.466540486 0.279063940
0.997469962 0.474510074 0.301707357
1.000000000 0.489689976 0.324224889
1.000000000 0.501074791 0.349145800
1.000000000 0.516255260 0.376471013
0.244402289 0.357748270 0.106008634
0.246300042 0.355850518 0.102213636
0.255787641 0.354964912 0.100316413
0.267678648 0.353826553 0.103605472
0.274509639 0.353826553 0.111954182
0.291208208 0.358380556 0.114990570
0.303225994 0.356609553 0.111574993
0.320430338 0.353193969 0.110436566
0.337128729 0.356989294 0.113472179
0.358381152 0.360404432 0.116508469
0.379127264 0.360530913 0.116634987
0.401391536 0.360278189 0.115496635
0.423782289 0.363314271 0.115496635
0.457431704 0.372675627 0.124351993
0.491714239 0.382668853 0.134724990
0.529917777 0.393042237 0.136875480
0.571663439 0.405945718 0.138393283
0.610499382 0.414420903 0.148639709
0.646932244 0.425553590 0.156735972
0.685009480 0.433775932 0.163061306
0.724098802 0.444402099 0.174066827
0.764579594 0.449462771 0.185199469
0.806957901 0.458190918 0.200252652
0.844402552 0.466287166 0.218469456
0.881214261 0.475395262 0.234408632
0.920050323 0.482859254 0.248703301
0.961543441 0.486906856 0.272486061
0.982795775 0.498418868 0.288931429
0.994939983 0.507527292 0.311701417
0.998861372 0.517773628 0.335230440
0.999746978 0.530296862 0.360024840
1.000000000 0.544718266 0.387856007
0.267932028 0.410879046 0.126755029
0.267679006 0.410626024 0.126249030
0.276787013 0.410626024 0.124351770
0.287919015 0.410120219 0.124351904
0.300569057 0.407211035 0.125869542
0.312713057 0.407211035 0.128905937
0.322580338 0.406705022 0.128905743
0.339658409 0.406072378 0.127640709
0.362935066 0.404301018 0.131182954
0.384187460 0.410373032 0.134218574
0.400379866 0.410879046 0.134345055
0.419355214 0.409108311 0.132574290
0.441493005 0.408349454 0.130170956
0.466034025 0.411385059 0.130929992
0.502466798 0.423529059 0.137001991
0.541049778 0.433016807 0.144971803
0.583048582 0.444908231 0.154838964
0.626945078 0.458443999 0.165844485
0.663377941 0.464516014 0.168880105
0.700821996 0.470841080 0.174952671
0.737254441 0.481846750 0.185958251
0.773434222 0.493485153 0.199873164
0.809993505 0.496774495 0.209361017
0.855281711 0.502972960 0.227577776
0.893738031 0.511068761 0.245540991
0.930170357 0.519038320 0.262618691
0.964579105 0.525363982 0.279064059
0.985831439 0.534471571 0.300316423
0.995951772 0.545983672 0.326375782
0.998481810 0.558127940 0.354206145
0.996963620 0.569260061 0.382795572
1.000000000 0.575332046 0.416191995
0.283112407 0.447311789 0.141935408
0.280076027 0.444275409 0.135863408
0.292726010 0.444022387 0.135357410
0.302086979 0.446552724 0.138520136
0.306894094 0.449589252 0.143327281
0.324857831 0.446679384 0.128905937
0.337001801 0.441619396 0.147122324
0.353447109 0.445035100 0.143580109
0.374572992 0.447818041 0.138267085
0.393295079 0.443769395 0.146363348
0.417457312 0.446932256 0.146489829
0.435799986 0.447311789 0.146489829
0.455787182 0.447818041 0.143580124
0.478177994 0.450854182 0.140037611
0.505502403 0.453889817 0.149145991
0.541935146 0.461226821 0.152814806
0.580518544 0.470967770 0.157115802
0.621252537 0.483112186 0.163946733
0.660341561 0.491840392 0.174952880
0.707906306 0.500695765 0.183554485
0.746362865 0.507273793 0.190132573
0.781783521 0.516255558 0.202150255
0.816065490 0.524098814 0.218469381
0.855534732 0.533206463 0.236685410
0.891714275 0.539405584 0.252624840
0.927134693 0.547501504 0.269829333
0.962049425 0.555471003 0.288425386
0.988867819 0.561795950 0.312460423
0.994180560 0.570904195 0.333712786
0.998481810 0.582415938 0.363314092
0.999367416 0.595445573 0.393674552
1.000000000 0.608728409 0.422263980
0.293485194 0.483744591 0.159518987
0.297659606 0.485515207 0.143832996
0.307526767 0.476027578 0.150664002
0.321694940 0.480075598 0.149145991
0.325110584 0.487665981 0.151802748
0.331182867 0.486653864 0.148766860
0.353952974 0.488298595 0.154332504
0.362808406 0.487159878 0.160784200
0.381024808 0.491714060 0.151675984
0.402529806 0.487286419 0.155850679
0.426565528 0.489942640 0.156230196
0.450853795 0.488931030 0.156230196
0.469829082 0.487412959 0.155091837
0.490322620 0.487665981 0.151043564
0.517646968 0.488551378 0.155850410
0.547374547 0.493990779 0.160151809
0.583807349 0.500063181 0.166224182
0.621758342 0.509171784 0.171031028
0.659456015 0.516508579 0.177862152
0.702466726 0.528020144 0.194434255
0.747248411 0.539025784 0.203541845
0.783681095 0.547121942 0.212144047
0.817077518 0.555977285 0.227198273
0.851992726 0.560531497 0.238582999
0.889183939 0.569639146 0.259076297
0.922707200 0.575837970 0.277292609
0.957116008 0.583933830 0.297533333
0.986337602 0.591903567 0.321821779
0.997216940 0.598228574 0.345856786
0.998481810 0.609108210 0.374193549
1.000000000 0.621252418 0.409361154
1.000000000 0.634914637 0.442757577
0.307147384 0.520177364 0.164073199
0.314737171 0.523213029 0.161037177
0.321188956 0.520050585 0.158254191
0.332574189 0.515496552 0.165338188
0.341049999 0.526375592 0.161290199
0.343326986 0.528652608 0.165464938
0.362049192 0.526628733 0.170525059
0.382542610 0.529664636 0.174446389
0.391651183 0.531941354 0.169133291
0.414421201 0.529664636 0.168374196
0.435673535 0.529411733 0.166856378
0.459962159 0.531435430 0.168374196
0.485388815 0.530676782 0.168374196
0.505502999 0.528399587 0.165970996
0.532827377 0.527134359 0.167741776
0.562555313 0.528905392 0.167741999
0.588361561 0.531941354 0.173813999
0.624161720 0.538013995 0.181657389
0.659708977 0.544085979 0.184693247
0.700189590 0.555724323 0.197090730
0.741176486 0.566350162 0.214168444
0.782669127 0.577482283 0.225300312
0.816950977 0.586464167 0.238077492
0.848956525 0.590891898 0.249968484
0.883111954 0.596963882 0.266666472
0.916761279 0.603288829 0.287918836
0.950031877 0.609740436 0.308159262
0.981403947 0.618848801 0.329411894
0.996204793 0.628336310 0.355218142
0.996963978 0.636432588 0.381783366
0.997849345 0.648577154 0.415180355
0.998481810 0.660721183 0.453383803
0.324098974 0.557242513 0.161922976
0.333839178 0.560910761 0.173434556
0.338013738 0.560278296 0.176976547
0.344212562 0.560405076 0.178241536
0.349905103 0.566477120 0.177482545
0.355724156 0.572549105 0.182542562
0.374446452 0.568501115 0.184819728
0.393421799 0.567362368 0.186211407
0.411638558 0.569639087 0.186084896
0.429854572 0.569639087 0.183048502
0.448703140 0.567362368 0.181277856
0.470967501 0.567109406 0.181657299
0.495129615 0.570145130 0.184187144
0.522454023 0.573181570 0.184440106
0.549778402 0.570904255 0.184819549
0.578874171 0.569639087 0.182416350
0.604680777 0.569006681 0.183554962
0.627830505 0.569006681 0.191397578
0.661226988 0.575078726 0.194433972
0.698924363 0.586084664 0.203668758
0.738393188 0.595698953 0.217204556
0.777229726 0.605439246 0.235041097
0.816445053 0.614168108 0.250094980
0.847311854 0.619228125 0.264769316
0.879949272 0.625932753 0.280961573
0.911321700 0.631878197 0.301834226
0.941682577 0.635420501 0.322580576
0.974952400 0.644402385 0.337887406
0.993674815 0.655534506 0.364958763
0.997722983 0.665907741 0.392915696
0.993674934 0.674636543 0.419481128
0.996710598 0.686780572 0.452877581
0.336243063 0.596711099 0.186211050
0.348387033 0.602783024 0.195319444
0.351676047 0.604300976 0.198229015
0.358254224 0.605313182 0.200759009
0.371157587 0.608982027 0.204807013
0.374193966 0.615054011 0.198735014
0.392663300 0.611006021 0.196204692
0.410626233 0.609867275 0.195319071
0.426818252 0.612143993 0.195319071
0.445035011 0.612143993 0.195192561
0.466160893 0.612143993 0.197975919
0.489183992 0.609867334 0.198482051
0.512333691 0.609614313 0.199873656
0.534598053 0.612650037 0.202656940
0.561922431 0.615686417 0.205692545
0.589247465 0.613409162 0.203668818
0.613789201 0.610626221 0.202151015
0.636938930 0.608475983 0.203542396
0.667299092 0.608475983 0.206578016
0.700695455 0.617330611 0.217963040
0.738393247 0.624794543 0.229854524
0.776850283 0.633143961 0.244528979
0.813409448 0.644528985 0.262239009
0.846805871 0.644528985 0.274383008
0.879949272 0.651866317 0.286780626
0.910562634 0.660721302 0.306388646
0.938646138 0.668816984 0.331689000
0.969006896 0.674888968 0.349904984
0.991650760 0.683870852 0.381150812
1.000000000 0.693232238 0.412270367
0.999494016 0.701454997 0.439721584
0.999746978 0.708033025 0.461986035
0.373434395 0.669576108 0.229981095
0.377229720 0.667299509 0.225174129
0.387223512 0.669070482 0.229980960
0.394181073 0.669070482 0.229348540
0.406325191 0.670209110 0.230107725
0.409360945 0.671474159 0.228842735
0.419987679 0.669955790 0.230360419
0.440481067 0.667425752 0.231119454
0.458697081 0.667805195 0.231499001
0.476913333 0.665781438 0.229474738
0.498039275 0.668564081 0.226818606
0.519291639 0.668564081 0.231878728
0.542820990 0.666287422 0.232258096
0.565971076 0.665781438 0.231752023
0.590765119 0.666287541 0.232257962
0.613282561 0.664516330 0.232890382
0.638330460 0.662998140 0.233270213
0.662745297 0.661859751 0.233902812
0.693105459 0.661859751 0.232637435
0.726249456 0.664643109 0.238456368
0.759645760 0.668058455 0.254395843
0.794307649 0.672359765 0.267299503
0.826945364 0.680708706 0.279949695
0.857684970 0.686021745 0.292093724
0.891081333 0.688298464 0.311068982
0.923086286 0.695003033 0.328906000
0.951802373 0.702213526 0.353953362
0.979885876 0.708286107 0.381277353
0.988994002 0.717014253 0.404807001
0.997216642 0.726122618 0.436053097
0.997216642 0.736116350 0.468184650
0.997216642 0.745983362 0.498924375
0.393927753 0.713219464 0.248956248
0.404554129 0.708286107 0.254269749
0.406198770 0.711195767 0.254648954
0.412776828 0.713725746 0.253889740
0.423023343 0.714611173 0.250980526
0.430613548 0.713092983 0.252498746
0.448829621 0.712460399 0.260721147
0.459329695 0.712713420 0.255534470
0.479570091 0.712207377 0.258064747
0.498924732 0.709171474 0.258443981
0.520050585 0.708159626 0.255407870
0.539405286 0.709171474 0.256546706
0.559519291 0.709171474 0.260341734
0.582289994 0.707147717 0.258317471
0.606577992 0.707147717 0.258317471
0.632257819 0.706641674 0.260214716
0.658064365 0.705123484 0.260214716
0.683112085 0.705755889 0.262871563
0.710942566 0.707020700 0.262365520
0.738393366 0.706009090 0.263883471
0.771789968 0.709044993 0.269955456
0.802150488 0.709044993 0.285136133
0.830740213 0.713219523 0.294623971
0.861100733 0.717520714 0.310310006
0.891840279 0.721315444 0.327388018
