Assets/EldamarStudio/100 Retro LUTs Pack/LUTs/cube/Jennifer LUT.cube
LUT_3D_SIZE 8
DOMAIN_MIN 0.000000 0.000000 0.000000
DOMAIN_MAX 0.903226 0.903226 0.903226
0.133332998 0.035294000 0.050980002
0.149399459 0.035673548 0.051359549
0.165464908 0.039974906 0.050221100
0.190512002 0.058317639 0.047059000
0.227198184 0.077546000 0.046172999
0.282226473 0.097785987 0.052877739
0.373434275 0.123845704 0.054269426
0.505123436 0.146489665 0.033903014
0.126249000 0.087033994 0.050600551
0.133332998 0.083491549 0.047817998
0.161543101 0.084630094 0.054142904
0.188108996 0.092473090 0.051359549
0.227703735 0.111321993 0.057179093
0.286274552 0.126881987 0.054143000
0.379759550 0.152814701 0.048829712
0.519544601 0.175079107 0.025300337
0.120050803 0.130044192 0.057179093
0.118785545 0.139532089 0.052498192
0.147501796 0.134725094 0.057179093
0.170524642 0.150410995 0.058064900
0.220999286 0.159772083 0.051739097
0.275775015 0.181404263 0.052245360
0.371789992 0.206072181 0.045034911
0.514737487 0.228968918 0.010120182
0.084503360 0.204047635 0.056546710
0.091461353 0.199747086 0.063251354
0.123719260 0.206830993 0.054016192
0.152435362 0.213535637 0.054901998
0.202909380 0.229221642 0.055787615
0.272232741 0.247564986 0.044908103
0.379000276 0.273624629 0.016066011
0.537254751 0.306135476 0.002656833
0.003035997 0.290575385 0.047944002
0.005566002 0.290575385 0.054016456
0.036558919 0.292093188 0.037697807
0.107526995 0.295256197 0.034914546
0.173181191 0.304744184 0.036180004
0.262998074 0.325743377 0.018216200
0.381910443 0.362428576 0.000000000
0.545097768 0.401644170 0.001138640
0.001897740 0.395192474 0.011891004
0.003415545 0.390259206 0.008096008
0.001138645 0.397596568 0.006072264
0.001138644 0.400759369 0.001897740
0.142062098 0.412523657 0.005566196
0.250474483 0.424667716 0.001897740
0.386211306 0.460847706 0.001644712
0.566729724 0.501454771 0.002024260
0.003289004 0.558001518 0.006198708
0.005186744 0.559266269 0.000000000
0.002277288 0.562808514 0.003162710
0.003415642 0.569765866 0.000000000
0.052751735 0.576849818 0.000000000
0.286274493 0.586337864 0.003542452
0.447185248 0.595572233 0.004553996
0.624414682 0.624794543 0.004553996
0.000000000 0.754965425 0.003922000
0.001644715 0.750790656 0.000379548
0.001517998 0.754332662 0.000000000
0.001138644 0.758886397 0.001518189
0.049335912 0.767741561 0.001518192
0.337381423 0.777862132 0.000000000
0.539532006 0.786970437 0.000000000
0.712207198 0.791524589 0.013155987
0.129411995 0.034914549 0.091713995
0.141555548 0.039216001 0.091713995
0.161543101 0.055281550 0.092473090
0.187729344 0.066160642 0.089690447
0.227198184 0.080328740 0.088172443
0.287918717 0.103478804 0.091713995
0.375332028 0.121441998 0.089310706
0.515622616 0.132573992 0.077292845
0.121569000 0.081087545 0.095635995
0.133712530 0.087413445 0.087792993
0.151676446 0.088931441 0.088551991
0.186970338 0.093611635 0.086527541
0.227324381 0.111321993 0.093738355
0.286274552 0.128905728 0.088425189
0.378747374 0.148134276 0.086401001
0.526502311 0.167741701 0.075901277
0.115369998 0.133965999 0.089310892
0.124351546 0.140291005 0.093359001
0.141935095 0.137887090 0.085389093
0.171663180 0.149652094 0.085009545
0.216192186 0.162175894 0.084250547
0.279949635 0.176596925 0.083871000
0.381656826 0.198861286 0.078178257
0.525363684 0.226312369 0.060468294
0.072232999 0.209234893 0.091713995
0.084377259 0.210499555 0.087792993
0.109424450 0.212776542 0.090196095
0.158001363 0.214294732 0.089057550
0.203288823 0.233143643 0.077925444
0.269829422 0.248324096 0.077419460
0.381910354 0.273371160 0.067678906
0.536622345 0.303605437 0.024794646
0.000379548 0.292472750 0.080455549
0.001138644 0.297786176 0.070967741
0.032258276 0.295635670 0.078810550
0.103352457 0.304364651 0.076533645
0.174699187 0.310942173 0.078557812
0.264263034 0.330423653 0.061733358
0.387602985 0.364073277 0.027577560
0.557874620 0.398861527 0.005186558
0.000379548 0.399114460 0.032131363
0.002403808 0.398861527 0.039089169
0.001138645 0.400126457 0.037571069
0.000379548 0.404680461 0.027071722
0.132574543 0.414927453 0.020872820
0.249462456 0.429221928 0.008475556
0.396078110 0.462365925 0.002403711
0.579253495 0.502719641 0.002656740
0.000000000 0.569765508 0.000758999
0.005819256 0.565085530 0.000000000
0.000379548 0.571789861 0.000379548
0.001644712 0.577988446 0.002277288
0.053130891 0.580898166 0.004680806
0.284250736 0.591018319 0.003035997
0.448323995 0.600885093 0.002024260
0.624035239 0.628209829 0.001265167
0.006198704 0.760530949 0.000000000
0.003795180 0.755724430 0.000000000
0.002530013 0.755724430 0.003162904
0.001518095 0.763314188 0.001897547
0.040986527 0.770524919 0.001518192
0.340417504 0.778241634 0.001518192
0.540290833 0.785072565 0.000758992
0.719417989 0.792283535 0.000000000
0.125489995 0.036812000 0.142568097
0.137254998 0.043896098 0.141429543
0.155218095 0.056419998 0.141809002
0.185452446 0.071726643 0.144591644
0.223276377 0.084630094 0.149652004
0.282732397 0.093990996 0.144338816
0.379632980 0.095762096 0.143326998
0.527007818 0.087792657 0.142441273
0.117267452 0.087792896 0.148513556
0.126628548 0.084250547 0.141050085
0.146995544 0.092473090 0.144591644
0.186590999 0.102719903 0.142188460
0.218216658 0.113725193 0.142947450
0.287792742 0.117520280 0.148513451
0.386590719 0.126249000 0.141682193
0.535737038 0.131435543 0.139405102
0.101201899 0.138646096 0.144212186
0.115369901 0.137128100 0.141049996
0.137254998 0.141809002 0.140291005
0.174067095 0.144465551 0.143832743
0.216318995 0.159013197 0.143453091
0.285894990 0.171663195 0.142694101
0.378747374 0.187223285 0.140291005
0.534977853 0.203036010 0.132701024
0.058697265 0.207590088 0.140670449
0.072738558 0.211258650 0.141935185
0.109550655 0.210753083 0.144591749
0.146995544 0.217457637 0.143073738
0.196331635 0.230360180 0.137128279
0.275648296 0.245667532 0.139152363
0.388235569 0.267931998 0.137001753
0.546236277 0.289057374 0.115876287
0.000000000 0.297533393 0.136369199
0.003921806 0.292852283 0.135989651
0.007210813 0.300822198 0.130803287
0.097153462 0.297912836 0.133207098
0.174066991 0.307780176 0.133333191
0.259835392 0.329664469 0.124731004
0.392789483 0.359392583 0.116002291
0.566097200 0.389879644 0.090069667
0.002024260 0.407843381 0.117394358
0.000758999 0.406198531 0.119544357
0.001517998 0.403921545 0.112080999
0.005819352 0.407843471 0.115117177
0.125996187 0.415686369 0.105249912
0.250221461 0.426945031 0.101328105
0.397596300 0.459203005 0.071347371
0.585325301 0.502087533 0.018975407
0.002403808 0.568880379 0.023276538
0.000379548 0.571663260 0.022897085
0.001644712 0.573813677 0.020113826
0.000000000 0.577735603 0.010626118
0.038203549 0.583934307 0.002403814
0.280834705 0.591018260 0.001138649
0.438582927 0.605186641 0.002403810
0.626691818 0.629727840 0.002024264
0.004048010 0.763314486 0.001265168
0.003036284 0.760531068 0.001138547
0.000000000 0.763567269 0.002024263
0.000379548 0.765844166 0.001265167
0.004553996 0.772801876 0.002530012
0.333206892 0.781151235 0.003415642
0.539531589 0.789626539 0.002277094
0.723465919 0.798608482 0.003289109
0.110942349 0.048197355 0.207969636
0.120809905 0.052877743 0.207969636
0.145857096 0.060721446 0.207590088
0.176470995 0.071726643 0.207969636
0.213029996 0.088298649 0.217837006
0.279190630 0.090195999 0.217457637
0.371283889 0.089057639 0.228209913
0.529791415 0.029854575 0.241366282
0.108665451 0.087413445 0.204806834
0.113345645 0.089690447 0.212017536
0.134471551 0.096015446 0.207969636
0.174446523 0.104237899 0.211891636
0.216571733 0.107779637 0.220113993
0.282606065 0.118785545 0.221505284
0.387223274 0.114737712 0.234535009
0.542947352 0.065022372 0.233776033
0.092852905 0.142188460 0.209234998
0.100948453 0.140923202 0.204047740
0.127514347 0.144591644 0.207590088
0.159519449 0.153574005 0.209993899
0.217583537 0.154712439 0.218216538
0.281088084 0.164073363 0.214927539
0.388614923 0.164579093 0.217710286
0.549651742 0.144465432 0.218848735
0.028969366 0.209614351 0.203415647
0.044782076 0.208349183 0.200885534
0.087286815 0.209993899 0.213156104
0.133839354 0.216951281 0.212396994
0.199747190 0.224794284 0.212397084
0.279316753 0.238203987 0.202529728
0.396457911 0.252751648 0.210752994
0.561037600 0.255407810 0.206451446
0.003542452 0.296900809 0.216192290
0.000759096 0.296015173 0.203162625
0.000000000 0.296394736 0.208855450
0.072865456 0.299557626 0.207969636
0.166476831 0.308918536 0.206324920
0.263377637 0.326122940 0.206957802
0.399873346 0.348513275 0.202150181
0.575332165 0.372296005 0.195825279
0.002024260 0.405439436 0.200885534
0.000758999 0.403921366 0.196204633
0.002024260 0.403542012 0.199367449
0.000000000 0.412903100 0.194433898
0.102972738 0.422770292 0.199493736
0.254775584 0.428589702 0.189879730
0.408096015 0.460215360 0.181783795
0.596584260 0.490575731 0.159392819
0.004427648 0.572548866 0.168627292
0.003921807 0.570904076 0.161922559
0.000000000 0.569259882 0.158507288
0.000000000 0.577609122 0.160151705
0.000000000 0.584566534 0.151170269
0.271853447 0.588741422 0.143073916
0.446679175 0.602277219 0.128779009
0.639468729 0.627956688 0.094749942
0.000000000 0.766350567 0.022011392
0.003289108 0.760910571 0.015939225
0.000379548 0.765971005 0.008349176
0.001265167 0.773307562 0.003795180
0.006704650 0.773940802 0.001644716
0.308032990 0.780771434 0.001517991
0.529664457 0.791397750 0.003795187
0.726628363 0.799620211 0.004807010
0.083238617 0.056420192 0.293611377
0.100316361 0.058823999 0.290954828
0.119291708 0.067425899 0.288931102
0.165844440 0.075268812 0.290954739
0.211511806 0.089310996 0.296015173
0.274130464 0.094750188 0.296774209
0.382669359 0.084250718 0.323339254
0.532827437 0.016192220 0.347501338
0.065022171 0.088172443 0.296521515
0.080961615 0.096394800 0.301328361
0.117014810 0.101454735 0.296900809
0.155597538 0.104997002 0.289690197
0.212776557 0.111195184 0.295256168
0.278431654 0.118279383 0.301834643
0.386970103 0.112460256 0.328526020
0.551422954 0.050474409 0.352435112
0.027071625 0.146489292 0.299937189
0.056166917 0.146109641 0.293738306
0.096647903 0.147248179 0.290575206
0.140670553 0.153953448 0.291713744
0.195952103 0.155851081 0.287413090
0.270841390 0.165717751 0.301834434
0.393801570 0.159898996 0.322707057
0.551043510 0.130550027 0.337001830
0.000000000 0.219860822 0.290702194
0.000379548 0.221378639 0.292599559
0.032258179 0.215433285 0.289436758
0.112586550 0.221758187 0.295256108
0.177988976 0.227577627 0.296647727
0.280329168 0.231119379 0.304237753
0.403668553 0.233523190 0.315116823
0.580139220 0.214168012 0.317900091
0.001518192 0.300822198 0.297533363
0.002403808 0.298039436 0.297153831
0.000759096 0.301581293 0.289689988
0.014421009 0.308918536 0.287033558
0.151170000 0.313219368 0.293611377
0.264516264 0.321062386 0.289436728
0.416951269 0.330550104 0.303099483
0.594939768 0.337887317 0.296900719
0.000000000 0.407084465 0.301454991
0.002403808 0.404174685 0.297912657
0.002277094 0.408981711 0.293105811
0.007210908 0.413282633 0.290195823
0.056040451 0.421758443 0.286400944
0.251359701 0.430107892 0.289689988
0.424667716 0.456040621 0.287792653
0.617330611 0.474889100 0.280708343
0.000000000 0.577735662 0.294370472
0.003289004 0.574067056 0.287539184
0.000000000 0.575205564 0.278684288
0.004301258 0.578367889 0.276154637
0.000000000 0.590891719 0.277925164
0.241366446 0.591397822 0.272485793
0.452498525 0.602150261 0.268691093
0.655154824 0.623782218 0.254016280
0.003035997 0.773560941 0.232131749
0.003415635 0.764958382 0.227198005
0.000000000 0.768880367 0.222643733
0.003415635 0.772928119 0.223655850
0.001265167 0.781404257 0.219228387
0.231499016 0.786970377 0.206325233
0.519165337 0.793295145 0.192662999
0.730550349 0.799240768 0.168627322
0.001897740 0.062744997 0.401391715
0.010120267 0.066666998 0.406451464
0.064136729 0.071347095 0.407969564
0.134092003 0.077672094 0.401644468
0.209614456 0.083871193 0.405692279
0.279822707 0.098166004 0.401138723
0.384187549 0.082099974 0.420114011
0.543706477 0.007084285 0.457052439
0.000000000 0.093991183 0.411385000
0.000379548 0.101201810 0.408475727
0.046173446 0.101834185 0.412270814
0.128526077 0.105376542 0.405566275
0.207969546 0.111322001 0.413029909
0.290322274 0.113725282 0.409867227
0.386843801 0.104743637 0.427071691
0.558127582 0.028589686 0.459708959
0.000000000 0.155597746 0.411511749
0.005186648 0.149525478 0.407969445
0.010120267 0.150411084 0.398861736
0.103984736 0.157495096 0.406830907
0.199114189 0.163314447 0.413914919
0.280075967 0.167868197 0.411764562
0.390892029 0.162681654 0.427324533
0.565085351 0.121189132 0.460341454
0.001517999 0.229221642 0.404680461
0.004807100 0.223655641 0.407969594
0.002024260 0.222517282 0.406071812
0.030487265 0.227324381 0.406830907
0.177862003 0.232637286 0.412776470
0.272486061 0.235420629 0.405439556
0.404047996 0.229095429 0.424794525
0.588108599 0.211005718 0.458317816
0.000000000 0.326248914 0.418595910
0.002276998 0.320682853 0.411891162
0.002024260 0.321948200 0.416951120
0.000758999 0.317267388 0.414674014
0.118532896 0.317520440 0.410752922
0.259962201 0.319923759 0.420113742
0.428336293 0.318405926 0.428336561
0.614800870 0.312333733 0.441872001
0.000000000 0.414927453 0.403036445
0.001518192 0.414168268 0.409740925
0.005439902 0.420746207 0.407589823
0.000000000 0.422643453 0.414674461
0.003035997 0.433269918 0.407590032
0.250348002 0.440354198 0.422517449
0.437950850 0.444908261 0.420872718
0.641619325 0.450980544 0.426438957
0.000000000 0.576976538 0.436432272
0.007084001 0.573687553 0.435167462
0.001644712 0.580392182 0.430107713
0.003289004 0.586970389 0.431372553
0.000758999 0.592915952 0.422390938
0.183680907 0.600505590 0.411385179
0.455281377 0.606325328 0.416065693
0.672232687 0.623782218 0.415686160
0.000000000 0.775331795 0.435041279
0.004807204 0.773687184 0.432637900
0.004174734 0.774066627 0.425679713
0.000000000 0.781910121 0.417963356
0.001897539 0.789373398 0.398102641
0.082479537 0.792662740 0.394180715
0.493991226 0.791397870 0.390512198
0.736369133 0.799493670 0.382922292
0.002277288 0.068943709 0.563567281
0.001644712 0.068311289 0.562934816
0.001644712 0.070588000 0.562934816
0.054775648 0.066666707 0.566982925
0.200379372 0.064389713 0.567488849
0.315496236 0.053763431 0.563187838
0.428589553 0.019734444 0.565844536
0.559772134 0.000000000 0.567362547
0.003289004 0.097533256 0.573181570
0.001644712 0.096267991 0.565844536
0.003035997 0.097786255 0.569512963
0.036938906 0.101327993 0.565844536
0.202656463 0.098925002 0.571410418
0.319924146 0.090828456 0.570904195
0.428969085 0.068690725 0.571916103
0.564453006 0.013409376 0.572548747
0.003162905 0.156736299 0.574572742
0.007590456 0.156736106 0.565591097
0.000759096 0.159139916 0.573054790
0.008349357 0.156736091 0.568247736
0.189626902 0.156736091 0.570777655
0.312460423 0.150031552 0.566982865
0.431751847 0.139658391 0.570524633
0.575584948 0.103732213 0.581277966
0.001644712 0.227577344 0.572042823
0.000000000 0.232637271 0.569765508
0.002783356 0.229854330 0.573054552
0.000000000 0.233649716 0.574699521
0.144844994 0.234155476 0.578241706
0.301075459 0.229221925 0.574826181
0.435926497 0.224161997 0.574826181
0.597722590 0.199747190 0.590259254
0.000759096 0.344718486 0.576343954
0.002024260 0.341935635 0.573181331
0.001517999 0.336875081 0.577482581
0.003162710 0.327767015 0.580012619
0.009487711 0.321947992 0.573687792
0.273244828 0.320050627 0.578747332
0.445540547 0.318785489 0.586970568
0.624035239 0.305249840 0.594939828
0.000000000 0.459076881 0.575585306
0.000000000 0.460341632 0.577229619
0.000759096 0.459076881 0.576344192
0.003542258 0.457179159 0.581151366
0.000758999 0.451233178 0.585958362
0.217583910 0.444402218 0.584567070
0.445414066 0.444275707 0.581404150
0.661859274 0.444275707 0.599620461
0.000000000 0.597216606 0.593927562
0.001644712 0.590765536 0.583934128
0.000000001 0.597216547 0.584819555
0.000000000 0.598355174 0.584819555
0.000000000 0.603668451 0.579127073
0.125996083 0.606325269 0.594054282
0.457938105 0.612903595 0.585452616
0.697533131 0.615812957 0.591144562
0.000000000 0.779886425 0.611132264
0.000379548 0.780265808 0.613029480
0.003035997 0.782669246 0.604933560
0.001644712 0.784566581 0.610120177
0.001518192 0.791397870 0.602150321
0.003036280 0.796963811 0.602782905
0.458949983 0.806578279 0.583681047
0.742567778 0.800126493 0.584946394
0.001265167 0.056167167 0.758886397
0.001265167 0.053510334 0.756230235
0.001265167 0.053510334 0.761543214
0.003035990 0.029981004 0.766729712
0.196710929 0.009108230 0.762681544
0.359013438 0.000000000 0.762175798
0.511068702 0.000000000 0.768248022
0.659835160 0.000000000 0.765464544
0.005312988 0.097912699 0.769512415
0.004681000 0.089057840 0.761796296
0.000000000 0.087160006 0.756103873
0.000379548 0.083997622 0.766603351
0.185705006 0.063757204 0.764832258
0.355597526 0.022011571 0.763187826
0.507780075 0.001644715 0.770398617
0.664642870 0.000379548 0.774699569
0.001265167 0.158633828 0.760784149
0.001265167 0.159013376 0.763693988
0.002530012 0.153574005 0.767741740
0.003035990 0.150917172 0.766856194
0.152308494 0.137887195 0.769765854
0.355471283 0.121315554 0.767615199
0.510309994 0.073371217 0.763187587
0.664389491 0.007590044 0.760910630
0.000000000 0.239215821 0.768247962
0.001518189 0.235167623 0.769512773
0.004174634 0.236938819 0.768247962
0.001518189 0.233902439 0.768247962
0.048070833 0.229474798 0.769386292
0.325363666 0.220746458 0.771916211
0.502087235 0.196964011 0.774825752
0.672991574 0.153320864 0.774825752
0.001138640 0.358254015 0.772169232
0.001138644 0.350410998 0.769006908
0.000000000 0.340544075 0.778241754
0.001265167 0.331182659 0.775964379
0.001265167 0.331182659 0.777482569
0.278304756 0.322960109 0.777356029
0.496520996 0.312587172 0.781657100
0.683238208 0.290069520 0.780897737
0.000759092 0.493611634 0.779253483
0.000000000 0.492852747 0.781530440
0.000759096 0.490069360 0.780265450
0.001265167 0.479063660 0.778368175
0.001897740 0.460974455 0.774319768
0.167488962 0.456166714 0.790132403
0.476280659 0.453383893 0.780771673
0.699683547 0.440860480 0.782795429
0.002277288 0.644149244 0.786970437
0.002024260 0.644402266 0.787602603
0.001897736 0.641745687 0.783427954
0.000000000 0.637950540 0.788740933
0.004807300 0.635926306 0.788614452
0.015560018 0.629348516 0.788488388
0.448070943 0.624667525 0.793295145
0.714737236 0.616824508 0.791271329
0.002530012 0.806072176 0.790259421
0.002277285 0.803794980 0.791650414
0.000759096 0.806704462 0.786970317
0.003035990 0.805819154 0.787602603
0.003035997 0.804806709 0.789247155
0.001517991 0.810246468 0.802656114
0.445414275 0.805819094 0.789120376
0.739658177 0.811258376 0.795698524
