Assets/EldamarStudio/100 Retro LUTs Pack/LUTs/cube/Jennifer LUT.cube
LUT_3D_SIZE 5
DOMAIN_MIN 0.000000 0.000000 0.000000
DOMAIN_MAX 0.903226 0.903226 0.903226
0.133332998 0.035294000 0.050980002
0.162428722 0.041492712 0.050980002
0.209234834 0.066666998 0.043769583
0.294371009 0.106894128 0.054901998
0.505123436 0.146489665 0.033903014
0.121569000 0.118658699 0.054901998
0.146742716 0.122580700 0.054901998
0.203289419 0.137002110 0.056799591
0.300569117 0.168753982 0.055281546
0.516255379 0.211511701 0.016192181
0.037698034 0.249841809 0.054269414
0.077672601 0.246932089 0.050980419
0.164073423 0.250474393 0.051612586
0.292726278 0.287792385 0.028210305
0.530044615 0.349905372 0.000632584
0.002909872 0.434661388 0.006831130
0.000632580 0.431752235 0.000000000
0.025679849 0.447565258 0.002909872
0.280835241 0.462112397 0.004933870
0.576596856 0.531815052 0.003795180
0.000000000 0.754965425 0.003922000
0.000000000 0.754079640 0.001012124
0.000000000 0.764831960 0.000632584
0.387223005 0.780139089 0.000000000
0.712207198 0.791524589 0.013155987
0.130043998 0.035294000 0.128146991
0.148387000 0.050347999 0.128146991
0.202656835 0.075521708 0.129791290
0.301202118 0.099304423 0.132700562
0.520176768 0.104490854 0.122201003
0.108791716 0.121947698 0.125236705
0.137254998 0.123592414 0.123592407
0.190259412 0.138646409 0.125236705
0.296268404 0.160531133 0.125237122
0.522833586 0.188614696 0.113725580
0.011764921 0.250854105 0.122580700
0.066540174 0.245919973 0.125236690
0.154585719 0.256040692 0.123212866
0.288804263 0.286780685 0.108159542
0.544718504 0.339784950 0.086274415
0.001012128 0.440227836 0.085262284
0.004301290 0.437065214 0.075395443
0.009866991 0.452118814 0.073118150
0.289690107 0.468437433 0.049715452
0.590638518 0.532194495 0.001012128
0.002023991 0.762808383 0.001012124
0.003542137 0.757242262 0.001265167
0.000000000 0.765717864 0.001644708
0.389879853 0.783428252 0.005186999
0.719418168 0.795572400 0.003542137
0.103858426 0.050980002 0.253763795
0.131056279 0.060468286 0.248197109
0.189626992 0.077798583 0.247184962
0.305502802 0.096773997 0.264010251
0.530550182 0.017837230 0.292978972
0.078305021 0.130802989 0.254395962
0.109424293 0.127134711 0.244908109
0.181024998 0.142188281 0.249462277
0.296015531 0.153320715 0.258949965
0.545097768 0.112840198 0.283871233
0.000632584 0.253131241 0.244654953
0.011258900 0.248830110 0.247185394
0.138645992 0.262239397 0.249841809
0.301328540 0.279949397 0.247564673
0.583807349 0.296900809 0.251739413
0.000000000 0.446173668 0.238330126
0.000000000 0.448450506 0.236432686
0.000000000 0.453637123 0.234408528
0.295509100 0.469070256 0.239974827
0.613282800 0.521315396 0.218469381
0.007969820 0.765338600 0.137887418
0.002277130 0.767109275 0.131815195
0.001265006 0.775331974 0.114104778
0.339025766 0.791650414 0.083111808
0.730550230 0.798734963 0.016445406
0.002909872 0.063757129 0.433776259
0.013536000 0.071600132 0.439595252
0.166476682 0.078684293 0.438583136
0.313219368 0.088045754 0.441619277
0.551296592 0.005060025 0.489943236
0.000000000 0.137634695 0.436306238
0.000000000 0.140290692 0.436052978
0.147121996 0.145477697 0.438962847
0.314737678 0.146110132 0.441872120
0.566097558 0.097659782 0.491967052
0.001012128 0.276786655 0.451739371
0.001012128 0.271094084 0.439341962
0.045414146 0.269576252 0.448830068
0.304364413 0.271347404 0.447185367
0.598861396 0.251359850 0.484503359
0.000000000 0.455408245 0.448577106
0.001897579 0.457685113 0.451106817
0.000000000 0.465148270 0.458191127
0.286780268 0.481847107 0.467046231
0.658064544 0.487666130 0.463630944
0.000000000 0.774572730 0.485642135
0.003162747 0.777103126 0.476786941
0.002909711 0.785072565 0.457684934
0.204680622 0.792915523 0.443010658
0.740417302 0.799746633 0.431499124
0.001265167 0.056167167 0.758886397
0.000000000 0.052245170 0.760278404
0.072865374 0.021252630 0.766097009
0.397976249 0.001265167 0.760151565
0.659835160 0.000000000 0.765464544
0.000000000 0.140923694 0.759519219
0.000000000 0.137634695 0.763187528
0.008982025 0.125110462 0.757874668
0.391650498 0.087665886 0.766603291
0.660088480 0.001265167 0.763440788
0.000000000 0.285768390 0.770018995
0.000000000 0.279570103 0.767109275
0.010499995 0.278684616 0.773307562
0.353447258 0.265781134 0.769765735
0.684123814 0.220873013 0.785831809
0.000000000 0.525996089 0.779506564
0.002024252 0.525995851 0.782795548
0.000000000 0.514864266 0.782163084
0.246679515 0.492599249 0.793674827
0.707526565 0.481087953 0.789373517
0.002530012 0.806072176 0.790259421
0.001265167 0.801138461 0.788994253
0.005312988 0.805945516 0.791650534
0.055660848 0.809234381 0.800126374
0.739658177 0.811258376 0.795698524
