Assets/EldamarStudio/100 Retro LUTs Pack/LUTs/cube/Jennifer LUT.cube
DOMAIN_MIN 0 0 0
DOMAIN_MAX 1 1 1
LUT_3D_SIZE 32
0.133332998 0.035294000 0.050980002
0.133332998 0.035294000 0.050980002
0.135483772 0.035294000 0.048829775
0.141050160 0.035294000 0.048323840
0.149399459 0.035673548 0.051359549
0.152435064 0.038709935 0.054395933
0.158001006 0.041745678 0.052371677
0.162428722 0.041492712 0.050980002
0.165464908 0.039974906 0.050221100
0.168500513 0.043010522 0.047185484
0.174446732 0.051865868 0.047059000
0.182542726 0.054901998 0.047059000
0.190512002 0.058317639 0.047059000
0.197090060 0.066666998 0.046805967
0.209234834 0.066666998 0.043769583
0.216571987 0.071473993 0.043136999
0.227198184 0.077546000 0.046172999
0.243010983 0.083617993 0.051612578
0.261227012 0.089690000 0.054648962
0.273877025 0.090195999 0.052118644
0.282226473 0.097785987 0.052877739
0.294371009 0.106894128 0.054901998
0.318785489 0.110183500 0.055028509
0.346109927 0.119291902 0.058064904
0.373434275 0.123845704 0.054269426
0.402150303 0.126881674 0.046805695
0.433017075 0.130929932 0.039216001
0.466413409 0.140037537 0.039216001
0.505123436 0.146489665 0.033903014
0.546363294 0.152561978 0.027830567
0.589753509 0.155092016 0.018216029
0.635294020 0.149020001 0.000000000
0.130297378 0.047438003 0.047944386
0.133332998 0.047438003 0.047944386
0.133332998 0.045287773 0.052245386
0.139278933 0.044402387 0.054396160
0.147881448 0.045161385 0.055534676
0.140291065 0.050853934 0.045287546
0.155977011 0.046300001 0.053383932
0.162428722 0.049462382 0.049082682
0.164706007 0.051360000 0.044907998
0.165464923 0.052118905 0.044149101
0.177229390 0.055155259 0.046932485
0.183554605 0.061986379 0.051106997
0.189373642 0.065148741 0.051992357
0.194307417 0.069955640 0.050600678
0.209234834 0.072738998 0.055914357
0.214168191 0.075142190 0.052877970
0.225679979 0.082099803 0.052245386
0.242378563 0.088424996 0.054016385
0.258191407 0.089690015 0.054648966
0.273624063 0.101328008 0.054901998
0.287918717 0.104237735 0.054016385
0.302466750 0.110942386 0.054901998
0.324604481 0.116255499 0.054901998
0.346109927 0.125363901 0.055028517
0.373434275 0.129917711 0.051233616
0.400758624 0.134344980 0.046552714
0.430992782 0.139025673 0.041239616
0.469449818 0.143073931 0.036179613
0.508159101 0.149525389 0.030866627
0.551170170 0.152055621 0.023023413
0.594940126 0.155597597 0.013915018
0.638330400 0.158127621 0.000000000
0.131562218 0.057431772 0.047059000
0.128146619 0.059582546 0.042757999
0.135483772 0.057431772 0.047059000
0.136748612 0.054396160 0.048071001
0.145098001 0.053890225 0.049209680
0.143074065 0.058190998 0.049462128
0.143832996 0.058443997 0.044275545
0.158759996 0.055660997 0.048450224
0.165591419 0.059962098 0.044654999
0.171157777 0.061353777 0.047437999
0.176344007 0.066413872 0.046046872
0.184439987 0.067425996 0.045034744
0.191650644 0.073245004 0.050727222
0.196711034 0.077292807 0.050727036
0.204301417 0.080329187 0.051107056
0.220619962 0.085515738 0.056420196
0.228209764 0.090069547 0.051866002
0.243263796 0.097280189 0.053130977
0.255408227 0.098798007 0.059202991
0.272738665 0.105629012 0.052751224
0.287918717 0.113978483 0.050853968
0.302086979 0.117267646 0.050600998
0.320303202 0.122200988 0.050474487
0.347627908 0.129285127 0.048450224
0.375585049 0.135989696 0.048197228
0.402909428 0.139025673 0.046299897
0.431751907 0.144844845 0.044275776
0.469576329 0.151170224 0.038203780
0.515496552 0.152561769 0.029981012
0.554964900 0.158633754 0.020367038
0.597976029 0.161163762 0.011764783
0.639216006 0.167235777 0.002150774
0.130803004 0.070335321 0.048323840
0.129790992 0.068311386 0.043516997
0.130676597 0.069576226 0.042251840
0.135989845 0.069070160 0.047059000
0.140543550 0.066034451 0.042125449
0.147121936 0.067299061 0.049462065
0.147627994 0.067805000 0.048450001
0.151675999 0.069070160 0.046932161
0.161543101 0.069829255 0.046173066
0.172169805 0.072865643 0.050727002
0.178115278 0.076281160 0.050600868
0.183175147 0.079569995 0.047564745
0.191524163 0.080708638 0.045667000
0.200759038 0.086654164 0.051233035
0.205819413 0.090702415 0.050221421
0.217077821 0.096141987 0.051865995
0.230993003 0.099684000 0.058191162
0.245034561 0.105755992 0.051486593
0.256672978 0.109424196 0.059202991
0.270335168 0.113978326 0.055660799
0.287918717 0.120050482 0.051612742
0.305123121 0.126122996 0.048576869
0.318658620 0.129664660 0.048450351
0.347880810 0.136875331 0.047691256
0.375711560 0.141682163 0.043136999
0.408475786 0.147627681 0.043263510
0.436812222 0.151170000 0.044275906
0.472485870 0.159519285 0.037445009
0.517014563 0.163188159 0.029981019
0.562808096 0.166730136 0.019101877
0.602276802 0.171031162 0.009614456
0.641745985 0.176344156 0.003922000
0.126249000 0.087033994 0.050600551
0.131561995 0.079823166 0.049082931
0.132953539 0.078557774 0.046046771
0.133332998 0.080834709 0.044402160
0.133332998 0.083491549 0.047817998
0.148513392 0.080455162 0.050853614
0.152561545 0.080708094 0.051359549
0.155470997 0.081593707 0.052624710
0.161543101 0.084630094 0.054142904
0.164579496 0.087666474 0.051106520
0.173055321 0.088551991 0.054269418
0.179759979 0.089816734 0.052877743
0.188108996 0.092473090 0.051359549
0.200506032 0.095509477 0.051612582
0.209867418 0.101454996 0.054648962
0.218595728 0.107906543 0.053763453
0.227703735 0.111321993 0.057179093
0.238962561 0.112586983 0.064769432
0.260214955 0.118659005 0.055661030
0.270335346 0.122327805 0.055281546
0.286274552 0.126881987 0.054143000
0.305882126 0.132953987 0.054648966
0.326628506 0.139025986 0.051486071
0.352434903 0.147881359 0.053763356
0.379759550 0.152814701 0.048829712
0.408096284 0.157621533 0.042757548
0.445161581 0.162934557 0.041239519
0.478557944 0.169006541 0.032131918
0.519544601 0.175079107 0.025300337
0.564579189 0.180771977 0.016445037
0.609866798 0.185831994 0.006957618
0.649336040 0.185831994 0.003922000
0.132321000 0.093106002 0.047564935
0.132321000 0.099178001 0.056673322
0.131182775 0.096268162 0.055155158
0.131182775 0.094244093 0.050853934
0.133332998 0.092599936 0.047817998
0.133332998 0.092599936 0.053889997
0.145983711 0.097153872 0.054395933
0.151170224 0.097280160 0.054395933
0.156230092 0.096774094 0.054142904
0.164579496 0.099810489 0.051106520
0.170524999 0.105756000 0.056799740
0.175079316 0.104743734 0.054269422
0.182036996 0.103857994 0.052118644
0.194434032 0.104617089 0.054648966
0.209614411 0.107653476 0.057685349
0.216571987 0.116002798 0.048703328
0.224668130 0.121568739 0.044655066
0.235673904 0.124730989 0.048070699
0.254142970 0.130803019 0.055661034
0.264263362 0.136875004 0.057685357
0.284756720 0.140543804 0.052625198
0.309550911 0.145098001 0.051107127
0.332700491 0.151169986 0.057558842
0.341808885 0.157242000 0.051486067
0.379000545 0.163820058 0.051486067
0.410120308 0.170777664 0.045793694
0.439469129 0.177861929 0.038203873
0.481594324 0.178114921 0.029095529
0.520303726 0.184186921 0.019987246
0.567362547 0.188488275 0.013156019
0.617963374 0.192915991 0.006957618
0.667551994 0.197975993 0.003922000
0.125743330 0.106767677 0.052118998
0.125743330 0.105249994 0.051106744
0.127893552 0.109171227 0.055914130
0.130676836 0.108158998 0.056167159
0.135863319 0.106767677 0.053890225
0.135863319 0.106767677 0.051359676
0.140923321 0.109297998 0.054901998
0.148134395 0.110436291 0.051613003
0.151929319 0.109677188 0.051360000
0.159266487 0.114484802 0.053636838
0.165465012 0.112839997 0.054269418
0.177609250 0.116888255 0.058317933
0.186085001 0.117140993 0.058317643
0.197470039 0.118785344 0.062239286
0.203542411 0.121821731 0.060721092
0.216318995 0.127261311 0.061353676
0.222643986 0.134724990 0.055787317
0.232637644 0.138772905 0.055154901
0.250853658 0.142947659 0.056673292
0.258191347 0.149019644 0.057685357
0.280581981 0.151296645 0.056926258
0.305502921 0.153700188 0.051106870
0.326628804 0.158380508 0.053763356
0.345351219 0.166856319 0.052498192
0.370398313 0.172928318 0.048703294
0.409107983 0.180391982 0.045667335
0.439468741 0.188994318 0.037697937
0.475901216 0.193042323 0.028589558
0.515749753 0.193295315 0.019481178
0.560531318 0.201138526 0.010373253
0.609614253 0.205692708 0.004427715
0.657937706 0.210119992 0.001391678
0.121569000 0.118658699 0.054901998
0.123213284 0.118912086 0.055155031
0.122074939 0.120176926 0.051486067
0.122580551 0.123212859 0.053257290
0.131309301 0.122833408 0.055914130
0.138899282 0.120303407 0.053636841
0.139026001 0.122833312 0.053510323
0.146742716 0.122580700 0.054901998
0.152055994 0.121821404 0.052625090
0.159898996 0.127893969 0.059582703
0.164326280 0.126881838 0.058190994
0.168247834 0.129538253 0.056926254
0.181151226 0.133712992 0.056546710
0.193295375 0.136748731 0.059835616
0.203289419 0.137002110 0.056799591
0.211891279 0.140796989 0.057811294
0.222517475 0.146868989 0.057811294
0.231245980 0.152940989 0.059708860
0.249462008 0.156989262 0.060721248
0.259835720 0.162808716 0.057179291
0.271220982 0.166729987 0.055281550
0.300569117 0.168753982 0.055281546
0.320936292 0.172675207 0.054142907
0.343706906 0.181783602 0.052624710
0.371789992 0.186970413 0.045414299
0.400758624 0.193042397 0.040987015
0.436938465 0.200885639 0.034408942
0.472612113 0.205818981 0.025300562
0.516255379 0.211511701 0.016192181
0.556103587 0.213535905 0.012017542
0.604680419 0.220873088 0.003795298
0.650979996 0.223908693 0.000000000
0.120050803 0.130044192 0.057179093
0.122327521 0.133080393 0.057938386
0.121062674 0.136116415 0.056799546
0.120303839 0.136875257 0.052498192
0.118785545 0.139532089 0.052498192
0.135863096 0.134219095 0.055155028
0.138646320 0.135736778 0.056419998
0.139911607 0.137001812 0.057937995
0.147501796 0.134725094 0.057179093
0.159645811 0.140797094 0.066287480
0.164579138 0.141809002 0.064516224
0.169386089 0.145856991 0.060721260
0.170524642 0.150410995 0.058064900
0.179885998 0.156230032 0.052498192
0.197090641 0.154206425 0.049968518
0.208855286 0.155977398 0.051739287
0.220999286 0.159772083 0.051739097
0.230107501 0.165211678 0.051739097
0.247944027 0.171157211 0.060467958
0.262871653 0.177229717 0.055660993
0.275775015 0.181404263 0.052245360
0.291461140 0.184693083 0.051486064
0.318659008 0.191018075 0.056926332
0.342947811 0.200758904 0.052625097
0.371789992 0.206072181 0.045034911
0.403035730 0.211258993 0.034155916
0.432384282 0.217331007 0.028083907
0.471853405 0.220619634 0.019228561
0.514737487 0.228968918 0.010120182
0.563314319 0.235294208 0.006325001
0.604680240 0.238330573 0.006072009
0.653257072 0.241366193 0.000000000
0.113978021 0.148260981 0.066287480
0.113978028 0.151296601 0.060215481
0.111954287 0.154332787 0.060974225
0.112713516 0.153573990 0.061100639
0.118785545 0.148640499 0.058570962
0.127893925 0.148640499 0.058570962
0.134851485 0.150917172 0.061227158
0.137254998 0.153953224 0.065780990
0.138393417 0.155977502 0.069323093
0.141429037 0.155977488 0.066287473
0.150663912 0.159139633 0.066666991
0.163567245 0.164072990 0.062492482
0.172422484 0.167867988 0.058823995
0.173813999 0.168374047 0.058570966
0.185957998 0.171410426 0.058570966
0.198355630 0.174193814 0.060847677
0.214927673 0.177229777 0.059329480
0.233143896 0.180392087 0.054775480
0.242251545 0.183428481 0.054775473
0.262871385 0.189373985 0.049588989
0.279949248 0.193548277 0.047311999
0.297027141 0.196584150 0.048197355
0.318659008 0.200126484 0.050853558
0.342947811 0.212270498 0.041745938
0.371789992 0.219734013 0.037444711
0.404933304 0.227071196 0.029854534
0.441492677 0.235547006 0.018975519
0.480961800 0.241619006 0.012903521
0.512460411 0.250221312 0.004048180
0.561290205 0.257558465 0.000253001
0.616698503 0.262618601 0.000253000
0.662365496 0.265654981 0.000000000
0.104996875 0.169386864 0.066666998
0.110815868 0.166603491 0.060594998
0.110815868 0.167488873 0.058823999
0.111068837 0.171030998 0.058570709
0.114737131 0.172295988 0.055914126
0.116255201 0.172295988 0.055914126
0.125363573 0.169766307 0.058444448
0.128526121 0.170398742 0.059835870
0.130803213 0.172169775 0.062618770
0.138140395 0.174319997 0.063883610
0.149904877 0.174319997 0.060847998
0.156989008 0.175331876 0.058823742
0.167235777 0.179632872 0.057052769
0.173814029 0.183427900 0.058823999
0.188614860 0.186464280 0.058823999
0.200758860 0.189500064 0.058823999
0.212903112 0.194054514 0.055281680
0.228715822 0.198482156 0.047818013
0.242378041 0.201517984 0.043264002
0.257052362 0.210120365 0.046046644
0.278051734 0.214421123 0.047944125
0.298292249 0.217456996 0.048956260
0.321442366 0.220746368 0.047944359
0.342947811 0.230107754 0.044402029
0.371789992 0.239974439 0.035294428
0.406324953 0.246679202 0.029601529
0.445288002 0.254269660 0.020493131
0.487160325 0.262744874 0.009614136
0.526628792 0.266160697 0.006198974
0.568374157 0.274763048 0.001138654
0.620999277 0.280202746 0.000000000
0.668564022 0.281214863 0.000000000
0.095888749 0.186590731 0.062619001
0.093864761 0.187602848 0.060594998
0.101708010 0.182669252 0.062871993
0.101708010 0.182669252 0.062871993
0.103984714 0.187223256 0.059076704
0.105629012 0.190512255 0.050854005
0.117267326 0.192030564 0.055408064
0.126375705 0.188994527 0.055155035
0.129032254 0.188614994 0.055534583
0.136875480 0.190385774 0.058570523
0.142820746 0.192536503 0.059835870
0.150917277 0.194560245 0.056799743
0.159266278 0.195698887 0.054901998
0.169260040 0.200885504 0.056799743
0.180898413 0.205692664 0.056799743
0.195698738 0.208728448 0.058823999
0.210879132 0.210246250 0.055787615
0.225932807 0.215306878 0.049715318
0.243896246 0.219734564 0.047817990
0.257052362 0.226312622 0.046046644
0.272232741 0.233523250 0.037697747
0.297280133 0.236685365 0.040860269
0.324731201 0.239848003 0.038836498
0.349778622 0.247059152 0.035800103
0.375837982 0.258191198 0.026186049
0.413155943 0.267299145 0.022644069
0.453384101 0.273498178 0.017457005
0.492852837 0.279569775 0.005313017
0.536748767 0.287413090 0.005186845
0.574446321 0.293990999 0.002150783
0.624667764 0.301328331 0.000885608
0.676660299 0.302466989 0.002024256
0.084503360 0.204047635 0.056546710
0.079570003 0.204807028 0.055408359
0.084250487 0.204806998 0.059709359
0.090702355 0.200126633 0.063251354
0.091461353 0.199747086 0.063251354
0.095256060 0.203541994 0.051866066
0.103858329 0.205945671 0.050980356
0.114611067 0.209108278 0.055534579
0.123719260 0.206830993 0.054016192
0.130170703 0.206830993 0.057052482
0.133333132 0.208602220 0.054396231
0.142947227 0.211638376 0.054522745
0.152435362 0.213535637 0.054901998
0.164073363 0.216572031 0.054901998
0.172296122 0.221758634 0.054901998
0.182795838 0.226565480 0.056167159
0.202909380 0.229221642 0.055787615
0.221125990 0.231119215 0.049715009
0.241872340 0.237697944 0.051233321
0.257052630 0.243770003 0.048703291
0.272232741 0.247564986 0.044908103
0.290448993 0.254649132 0.031752486
0.323339343 0.258190781 0.030866984
0.351675928 0.265275449 0.024794454
0.379000276 0.273624629 0.016066011
0.412396938 0.285515636 0.008602321
0.456420124 0.294624060 0.011132004
0.492852837 0.298924834 0.001518014
0.537254751 0.306135476 0.002656833
0.578620672 0.314105034 0.002150783
0.623023093 0.321441680 0.000000000
0.681214392 0.324478000 0.002783356
0.068057999 0.225553066 0.051233035
0.065781355 0.222011372 0.048450384
0.070082225 0.223782286 0.051360000
0.077672102 0.223782152 0.055155031
0.081846967 0.220999479 0.054648966
0.087918967 0.217963085 0.054648966
0.090955287 0.217963025 0.052118711
0.096141964 0.220999062 0.054016385
0.103225902 0.225047067 0.059076902
0.112333521 0.225047067 0.062112510
0.116128869 0.225553066 0.051359966
0.129032031 0.227577329 0.047311965
0.145856649 0.229475066 0.048829999
0.161037043 0.229222029 0.054648966
0.167109028 0.232258409 0.054648966
0.173687562 0.237697989 0.054142967
0.189121127 0.242757872 0.052877810
0.214547992 0.246805608 0.049462043
0.232764035 0.255914003 0.043390028
0.251739681 0.261480004 0.040101320
0.270462006 0.264516026 0.040354289
0.290448993 0.267299145 0.038836103
0.315116495 0.276533991 0.029854979
0.345603824 0.285768867 0.017963225
0.373687297 0.292600036 0.008602265
0.406324953 0.301454991 0.002530328
0.445794135 0.313093096 0.000253032
0.482226878 0.322201461 0.000253032
0.526375771 0.328653038 0.002403801
0.568627119 0.334725022 0.002150783
0.614673734 0.339911431 0.000000000
0.678430974 0.342947036 0.000000000
0.037698034 0.249841809 0.054269414
0.043770034 0.240733415 0.054269414
0.039342605 0.245793760 0.053636990
0.045287874 0.246046662 0.056167159
0.057937734 0.239341974 0.057432320
0.072738603 0.239215463 0.051612586
0.071220919 0.243769377 0.049082909
0.077672601 0.246932089 0.050980419
0.088551596 0.248323828 0.055534583
0.100189537 0.243263826 0.056040518
0.109297879 0.249082834 0.053257134
0.121189252 0.251866072 0.050347578
0.135863423 0.253763795 0.049209222
0.148893043 0.253510773 0.048576973
0.164073423 0.250474393 0.051612586
0.174952418 0.255913973 0.046805587
0.185831577 0.263504177 0.045034587
0.202403307 0.270714790 0.043769591
0.220620036 0.277166367 0.040354419
0.247185379 0.275142044 0.037065066
0.270715058 0.281593740 0.034029327
0.292726278 0.287792385 0.028210305
0.315116495 0.294749945 0.014674604
0.348513722 0.306893975 0.008602593
0.376723677 0.313852131 0.003542140
0.408222705 0.322707355 0.000632584
0.446300119 0.334345460 0.000506064
0.488298863 0.343453825 0.003289416
0.530044615 0.349905372 0.000632584
0.573181748 0.355977356 0.000632584
0.619481385 0.361163795 0.000000000
0.678430974 0.364199400 0.000000000
0.012144405 0.269322991 0.052498195
0.018216405 0.267425388 0.054901998
0.015686404 0.264768779 0.050600998
0.014674406 0.269322991 0.055155002
0.024920767 0.264768779 0.058950193
0.032005161 0.264768779 0.044781946
0.046426535 0.265021771 0.053257320
0.053257495 0.267804772 0.045288004
0.066160604 0.269322991 0.046046909
0.078305028 0.266539991 0.047691200
0.097153880 0.269702792 0.049588937
0.108285993 0.271726787 0.042504556
0.121948190 0.272106320 0.040227659
0.135357231 0.271094203 0.038457006
0.159139603 0.272359371 0.047944386
0.167109191 0.278937578 0.043769814
0.180771381 0.281973571 0.037697814
0.195698559 0.288425207 0.037191804
0.215686142 0.296267986 0.039468959
0.239848375 0.298798233 0.029221844
0.269070476 0.301454574 0.024288204
0.293358862 0.309044778 0.019734398
0.315116495 0.315369755 0.009108204
0.348513722 0.327513784 0.003036194
0.377356261 0.339658350 0.001518196
0.411638290 0.345983773 0.000000000
0.450601041 0.356103778 0.000000000
0.491208047 0.367109418 0.001138644
0.538519800 0.378367960 0.003668972
0.588108957 0.382669181 0.004174569
0.634029329 0.387223393 0.003921613
0.685641766 0.390259385 0.002403804
0.003035997 0.290575385 0.047944002
0.003036003 0.293611377 0.046426199
0.003542000 0.289057195 0.050600998
0.000000000 0.290322363 0.044529002
0.005566002 0.290575385 0.054016456
0.009740743 0.290575385 0.043769807
0.013789138 0.289057195 0.043264005
0.019861108 0.292093188 0.046805810
0.036558919 0.292093188 0.037697807
0.050980605 0.292093188 0.039974518
0.071853496 0.293484837 0.041492682
0.093106002 0.292979181 0.039468944
0.107526995 0.295256197 0.034914546
0.120935999 0.293864399 0.032637838
0.144465208 0.296900809 0.038456995
0.161037207 0.300190002 0.039216008
0.173181191 0.304744184 0.036180004
0.190891549 0.306009173 0.028842855
0.213914990 0.314231426 0.029601611
0.236432537 0.319291562 0.022011288
0.262998074 0.325743377 0.018216200
0.291334867 0.332827270 0.011132069
0.313598663 0.339658201 0.004807003
0.346995533 0.351802588 0.001517999
0.381910443 0.362428576 0.000000000
0.416192472 0.373181641 0.000000000
0.457685173 0.379886270 0.000000000
0.496141404 0.391018361 0.000000000
0.545097768 0.401644170 0.001138640
0.595698714 0.414547384 0.005692765
0.649462521 0.416698188 0.006072009
0.696267962 0.419101983 0.002403808
0.007210584 0.316761523 0.041239589
0.001771000 0.320303559 0.033902440
0.000000000 0.316887766 0.037950639
0.000000000 0.312207133 0.043264009
0.000000000 0.314863950 0.037951007
0.005566008 0.314863950 0.040733654
0.004680747 0.312966228 0.039342329
0.002277292 0.314231128 0.035673723
0.000885542 0.319417715 0.034029007
0.022137944 0.319417715 0.034029007
0.039595343 0.319417715 0.032764018
0.063504383 0.318658799 0.031372692
0.089311004 0.317773551 0.031246359
0.108286045 0.323339552 0.033775970
0.127640575 0.325996369 0.030740270
0.143959463 0.327893943 0.029475432
0.165970996 0.326628953 0.026945451
0.184187129 0.328526527 0.026945449
0.211511582 0.334598541 0.014800651
0.233902380 0.341303140 0.008855004
0.260214716 0.348007709 0.007843172
0.285894662 0.357116014 0.008728874
0.310562909 0.366350114 0.000126512
0.343959510 0.378494769 0.000632576
0.383175254 0.388361841 0.000000000
0.423403293 0.398102194 0.000000000
0.467932135 0.407210618 0.000000000
0.505123138 0.416318983 0.000000001
0.552308381 0.425426871 0.000000001
0.605186522 0.437444299 0.002909566
0.655534506 0.448829532 0.006072009
0.707147002 0.448829532 0.000000000
0.004174964 0.350158006 0.032131955
0.001138580 0.344085991 0.019987192
0.000000000 0.341176212 0.021252027
0.000000000 0.338899016 0.027577378
0.000000000 0.339152038 0.031878985
0.000000000 0.339152038 0.031878985
0.000506000 0.339152038 0.032131951
0.000253032 0.340543687 0.028589571
0.000000001 0.343833059 0.025047116
0.000885518 0.346742928 0.027956987
0.004680905 0.346742928 0.022137996
0.025427252 0.348766655 0.020619988
0.055914298 0.350158006 0.022644009
0.090069972 0.350664020 0.027703941
0.117394358 0.350664020 0.024667565
0.129538149 0.355724037 0.021631861
0.153067440 0.355218023 0.014295029
0.184187129 0.352814615 0.005693028
0.202403963 0.361922979 0.005693028
0.226944983 0.370778382 0.001897610
0.256672710 0.375838220 0.000506000
0.285515130 0.381404161 0.000759032
0.307526529 0.390638947 0.000126512
0.340923756 0.402782977 0.003162904
0.383428216 0.412650317 0.001391680
0.425680012 0.423149943 0.000000000
0.467932135 0.434535086 0.000000000
0.522580802 0.443643451 0.000000003
0.562428653 0.452751815 0.000000003
0.613535523 0.463630885 0.001771217
0.667172551 0.473371357 0.003289356
0.713218987 0.476153970 0.000000000
0.001138643 0.364073038 0.020240281
0.000885612 0.363567024 0.019228224
0.000000000 0.361796021 0.015686000
0.000000000 0.360657394 0.017962996
0.000000000 0.360657394 0.020240281
0.000000000 0.360657394 0.020240281
0.000000000 0.363187701 0.017710604
0.000000000 0.363440722 0.017457634
0.000000001 0.364579380 0.015180348
0.000000004 0.365591496 0.016192477
0.005692517 0.365718007 0.018848641
0.002656651 0.367742270 0.008728651
0.019354906 0.370778084 0.005692635
0.048323996 0.373181403 0.008222662
0.090829007 0.380771726 0.010246927
0.132574394 0.378367931 0.012017535
0.149272546 0.381783575 0.008222640
0.174952537 0.380139142 0.001138643
0.199620605 0.380644977 0.001138643
0.226186022 0.389753371 0.001138643
0.250474483 0.395066738 0.000000000
0.282226324 0.401138693 0.000000000
0.312965989 0.412270874 0.000126512
0.349019378 0.427071720 0.003162904
0.384693205 0.434661716 0.001644712
0.427324295 0.444655359 0.000000000
0.469196826 0.456293464 0.000506064
0.517014802 0.465401828 0.002783357
0.569006681 0.474510193 0.002783357
0.612523556 0.483618110 0.001012141
0.665275097 0.493864626 0.001138643
0.716508389 0.500695705 0.000000000
0.001897740 0.395192474 0.011891004
0.000000000 0.395192474 0.009993747
0.000000000 0.395192474 0.008096008
0.002529999 0.391397625 0.008096008
0.003415545 0.390259206 0.008096008
0.001897740 0.393295199 0.008096008
0.000000000 0.393927783 0.007463586
0.001644708 0.395319462 0.006072264
0.001138645 0.397596568 0.006072264
0.000000003 0.401012182 0.006072265
0.003921743 0.395319462 0.007084136
0.003795004 0.395445973 0.009487748
0.001138644 0.400759369 0.001897740
0.018596008 0.405060202 0.001897740
0.055914000 0.409234852 0.003289416
0.099557310 0.412523657 0.002530195
0.142062098 0.412523657 0.005566196
0.164073557 0.415559858 0.001897740
0.193928003 0.415053487 0.001897740
0.223150119 0.417457074 0.001897740
0.250474483 0.424667716 0.001897740
0.276786983 0.428716242 0.002909610
0.311574489 0.438962936 0.003794996
0.349778563 0.450600892 0.005060160
0.386211306 0.460847706 0.001644712
