Assets/EldamarStudio/100 Retro LUTs Pack/LUTs/cube/Jerry LUT.cube
LUT_3D_SIZE 8
DOMAIN_MIN 0.000000 0.000000 0.000000
DOMAIN_MAX 0.903226 0.903226 0.903226
0.160784006 0.121569000 0.125489995
0.185452446 0.121569000 0.133712545
0.243769988 0.125489995 0.141176000
0.334092647 0.122707352 0.142314643
0.472232372 0.130929798 0.146616191
0.638203442 0.141176000 0.156863004
0.792030573 0.176091284 0.185578987
0.927260756 0.234281793 0.235546961
0.183934450 0.146995544 0.136495993
0.194813550 0.150917456 0.133712545
0.252751529 0.155597553 0.145098001
0.348260641 0.163820192 0.149020001
0.472991377 0.178241536 0.150158450
0.630487502 0.200632289 0.163061187
0.777229309 0.220619828 0.184060708
0.909171045 0.262239367 0.226312652
0.201517999 0.224035278 0.149020001
0.235167995 0.229475096 0.152182102
0.292979211 0.245161280 0.151296899
0.402656287 0.261985838 0.163946912
0.531941414 0.292979211 0.166982904
0.675268471 0.310310096 0.181783989
0.813409328 0.334598392 0.214674085
0.929284990 0.369639188 0.266034186
0.249968290 0.392662555 0.162555635
0.281088173 0.401770979 0.175585091
0.359013021 0.409613997 0.177862093
0.460341573 0.423908919 0.183301985
0.584440112 0.433270097 0.202023983
0.697027266 0.438962907 0.221125722
0.809993505 0.451359898 0.255281627
0.923719466 0.476786941 0.317394048
0.301707804 0.568121374 0.213914990
0.338772833 0.579000354 0.219607830
0.405060291 0.588488281 0.229475081
0.510562837 0.585325599 0.242757991
0.626059353 0.591650963 0.260088354
0.732700467 0.587729394 0.282985449
0.834788024 0.588488460 0.331056178
0.929158568 0.611132145 0.398861587
0.413662255 0.737128019 0.337381005
0.442504764 0.743200302 0.351422936
0.492472917 0.742694736 0.361923009
0.574572861 0.737634361 0.371663719
0.665148616 0.738267183 0.382415891
0.766097724 0.738772750 0.411005467
0.854775727 0.730803192 0.439848483
0.940164804 0.745856941 0.509044707
0.514611244 0.827704251 0.461985976
0.537381113 0.838836312 0.471726537
0.578874290 0.837823987 0.485262364
0.629474878 0.836179256 0.499051213
0.696647584 0.832258284 0.506388545
0.774320185 0.829728007 0.522327304
0.857431948 0.831625283 0.542694271
0.937254965 0.838836133 0.591018498
0.660467982 0.938899636 0.638329923
0.686401248 0.943326771 0.659582376
0.708538890 0.943326890 0.661732912
0.740923584 0.944085777 0.664389551
0.786084950 0.942568004 0.674003780
0.845034659 0.940670550 0.686653793
0.899177551 0.942441523 0.699177623
0.963693798 0.938772798 0.727260768
0.164326459 0.121569000 0.153320551
0.188993990 0.121189453 0.153700009
0.240986645 0.129411995 0.159519553
0.334472090 0.126249090 0.169386089
0.468311191 0.128146529 0.175205633
0.632005513 0.143073738 0.195066288
0.771663368 0.175837830 0.212776840
0.910057068 0.228462964 0.258696914
0.172548994 0.150537997 0.158760563
0.204681009 0.151297003 0.151676536
0.246806100 0.155597642 0.165465012
0.351802289 0.162681654 0.170145094
0.472232550 0.171663091 0.181909993
0.614547729 0.194686547 0.194054559
0.758380830 0.216951281 0.216698259
0.890069664 0.254269630 0.255407780
0.199114084 0.229980737 0.165717646
0.228462726 0.234661654 0.174066991
0.295003563 0.240481094 0.182289541
0.392410219 0.256926119 0.184946090
0.521315753 0.283997536 0.200632185
0.661353409 0.300695986 0.213409334
0.792536318 0.323845834 0.241239801
0.916382074 0.361290008 0.290828794
0.238962978 0.376976430 0.186590821
0.275395632 0.378621370 0.195066199
0.346489757 0.392030388 0.205565721
0.443010449 0.401391566 0.208222374
0.563314199 0.414800465 0.225426987
0.675395250 0.425933152 0.246553078
0.796205103 0.444022655 0.277672261
0.906135201 0.466286987 0.325616598
0.288931340 0.543580174 0.236685887
0.324857742 0.558253944 0.243769884
0.399620295 0.566097617 0.253004372
0.497153640 0.571663618 0.260721117
0.608475804 0.577102959 0.276154548
0.717899978 0.574699759 0.303478718
0.820999622 0.577102840 0.343832970
0.920936286 0.603541911 0.412397116
0.397849530 0.718279541 0.344591856
0.429728031 0.720177233 0.367236078
0.487160146 0.721315742 0.371031255
0.561416805 0.720936179 0.376976520
0.654648900 0.723718822 0.399241060
0.756736040 0.725616455 0.416192204
0.848829985 0.723213255 0.453004509
0.934092522 0.734345436 0.507400393
0.487919062 0.814800560 0.456799537
0.519544482 0.820999682 0.471600384
0.560531259 0.819734454 0.476660371
0.614294648 0.823276699 0.490702271
0.687160194 0.823402882 0.498924822
0.769512951 0.822897077 0.520303845
0.853763580 0.827071548 0.550031543
0.924857318 0.833649278 0.585072994
0.658823431 0.931435525 0.639089167
0.675522089 0.939531803 0.649968326
0.700821996 0.937507927 0.655660808
0.735863388 0.936116219 0.662618339
0.780898154 0.937761009 0.667678475
0.834282160 0.935483694 0.684503317
0.896267831 0.935357213 0.697786212
0.960404754 0.935483515 0.732574403
0.169386089 0.119924091 0.186590910
0.191271096 0.122707449 0.188488558
0.243769988 0.127007991 0.199873090
0.342315197 0.125489995 0.217837110
0.488045275 0.114610806 0.233523190
0.644402206 0.114863642 0.259456009
0.781910479 0.165971190 0.285136193
0.910056770 0.237444699 0.321695060
0.174067080 0.150537908 0.199114099
0.198734641 0.146616012 0.191145003
0.254649103 0.154459000 0.212017640
0.352940798 0.160404652 0.218595996
0.485262603 0.158380911 0.235926896
0.622770488 0.177482545 0.254269540
0.765844285 0.212650239 0.279570013
0.899304211 0.264136612 0.323718905
0.201517999 0.222517088 0.220873192
0.230866536 0.230739728 0.223276183
0.294624090 0.239722088 0.234282091
0.398735166 0.255787551 0.247565001
0.523339450 0.276534081 0.264010191
0.663377643 0.298924834 0.278557718
0.789626777 0.323466390 0.306894213
0.913345933 0.367615223 0.353953183
0.226185650 0.370018631 0.248450637
0.262112558 0.383428365 0.258317292
0.344592154 0.389753282 0.267298937
0.444275916 0.401518285 0.275522083
0.559772432 0.410120338 0.289942920
0.680961192 0.425426930 0.312207401
0.793927968 0.444022536 0.340417475
0.909297585 0.473371208 0.388488412
0.280455261 0.545351028 0.302340180
0.315369725 0.553067505 0.306262076
0.398861378 0.563441098 0.322074473
0.490575254 0.566477060 0.327007830
0.606578290 0.570525169 0.344718456
0.711954653 0.571157277 0.362302423
0.815306902 0.581404209 0.404174477
0.913725615 0.607084155 0.459582627
0.408222377 0.713725746 0.411512077
0.430739999 0.720556557 0.420620173
0.487792611 0.717900038 0.422517836
0.565464735 0.718279600 0.432764024
0.654016495 0.716634929 0.446426392
0.750916958 0.720177114 0.461859822
0.840860426 0.714231551 0.487413019
0.931941569 0.734092414 0.547375023
0.499557287 0.810499430 0.496268064
0.521568537 0.818216503 0.502972782
0.566477239 0.817457259 0.513093233
0.617330432 0.816571534 0.523972273
0.687286377 0.818848789 0.532574236
0.768374562 0.818975508 0.552561760
0.856546342 0.824415267 0.578621089
0.934977889 0.832890391 0.618342936
0.651107013 0.929031909 0.649588823
0.678304613 0.927640498 0.658949852
0.695635676 0.932320774 0.668817043
0.732574284 0.933585942 0.675648153
0.774952233 0.933965683 0.681594133
0.828462720 0.931941628 0.693864524
0.891081572 0.934977651 0.712207258
0.960025489 0.938519835 0.741808712
0.178747997 0.122707352 0.261226922
0.203415558 0.120430358 0.268311530
0.255408108 0.120809905 0.277672559
0.354206294 0.119291715 0.300442636
0.497406334 0.112207197 0.336748987
0.645920217 0.113724999 0.360784650
0.790259182 0.155344635 0.380518615
0.914484620 0.246805772 0.415053457
0.176343992 0.146995649 0.274257094
0.209740549 0.154585823 0.278052002
0.272739112 0.150158450 0.291840643
0.365844190 0.150917456 0.309044629
0.495508999 0.162302107 0.334471971
0.630993009 0.170398444 0.354965180
0.776470542 0.205060184 0.375205457
0.900442600 0.275142640 0.411005735
0.194560096 0.229601189 0.310942262
0.220619634 0.234661639 0.314484626
0.304870069 0.244528994 0.332574636
0.407463342 0.254269630 0.346363008
0.538646638 0.273118466 0.366603166
0.669196606 0.290575385 0.374320179
0.794560492 0.332574546 0.405312926
0.916887939 0.384440064 0.445919991
0.222517282 0.383554548 0.356103539
0.260594636 0.390638471 0.371157289
0.338013828 0.398482174 0.371031284
0.442378283 0.399241269 0.375711560
0.566223621 0.418089449 0.394939899
0.681088030 0.431372643 0.403541893
0.794813216 0.458064288 0.430613250
0.906008780 0.490448892 0.471094251
0.279696375 0.549651980 0.406704456
0.313598812 0.556735992 0.410119802
0.398861289 0.565844297 0.418342978
0.499557436 0.567362249 0.423909187
0.613155901 0.571663737 0.435167819
0.713346183 0.578368247 0.454775721
0.810878932 0.586843669 0.494876742
0.916888177 0.615053833 0.528652668
0.428589642 0.710310102 0.495888650
0.449462622 0.713725686 0.500822067
0.501201630 0.712839961 0.500695884
0.569007039 0.717140973 0.511321604
0.657305539 0.717900097 0.522327542
0.751296639 0.719923854 0.535230994
0.838709593 0.720177114 0.550664246
0.924857438 0.740796804 0.601138473
0.513978601 0.810373247 0.553320646
0.540164709 0.820620060 0.566603303
0.571283996 0.816318750 0.570777953
0.623782575 0.818722367 0.582922280
0.689184010 0.821758687 0.587602556
0.770651579 0.822517693 0.600252926
0.850221515 0.827197969 0.618342936
0.929917634 0.834282100 0.651360095
0.654775620 0.923212945 0.678810775
0.672232807 0.931815147 0.692599416
0.696394622 0.931056261 0.697280169
0.728146434 0.932700574 0.702087164
0.775079072 0.931055963 0.711322129
0.829728067 0.933206677 0.722453892
0.892726123 0.935736716 0.737760723
0.958506942 0.941682637 0.767109394
0.183427989 0.117647000 0.381404191
0.214800909 0.112207197 0.384946018
0.282859087 0.111448102 0.397090375
0.377988636 0.103605002 0.415812552
0.507526994 0.098925002 0.444149196
0.651739240 0.103352182 0.478178442
0.785072744 0.154079273 0.489690185
0.915875912 0.247438446 0.515749335
0.190385550 0.145730376 0.394939810
0.213156089 0.156483352 0.399241269
0.280834734 0.149399355 0.404807180
0.384945929 0.148260713 0.420999646
0.504490972 0.151297003 0.445667386
0.640733600 0.165338293 0.464516193
0.777735591 0.205819279 0.482985526
0.898165464 0.278684378 0.506388485
0.180392191 0.232004985 0.437191397
0.230234340 0.230234176 0.444528848
0.309551001 0.238962993 0.451992184
0.418848723 0.247944549 0.463757187
0.542947233 0.267931998 0.477039993
0.674256921 0.288172185 0.492726296
0.793801367 0.330423564 0.509171247
0.911195576 0.393042177 0.542567670
0.210246637 0.387223125 0.471599996
0.258949816 0.389120549 0.483238369
0.337128729 0.390259027 0.487412930
0.449462324 0.402783096 0.492852837
0.566223562 0.414168358 0.499557436
0.682732522 0.435673714 0.508286238
0.790512264 0.463124722 0.530044377
0.899557173 0.501834393 0.560152054
0.281214178 0.552435338 0.516888201
0.320430189 0.565085351 0.526881754
0.404301167 0.567489147 0.532068372
0.502340257 0.569006979 0.538772702
0.608222365 0.575964391 0.542188227
0.705376446 0.580771387 0.560404956
0.806578040 0.592409849 0.574320138
0.908665597 0.624162078 0.604427516
0.437065244 0.710815489 0.580518723
0.457685113 0.714484513 0.582668841
0.513725638 0.716382086 0.595192909
0.578114808 0.714737296 0.597596407
0.656926036 0.719164729 0.603162587
0.749019563 0.721947968 0.610626042
0.834788322 0.726881683 0.629727960
0.922580421 0.742441535 0.660594642
0.530423582 0.814421058 0.632511258
0.549272537 0.819861054 0.637824178
0.580771565 0.818975449 0.637824357
0.627450764 0.817836821 0.641492724
0.692852437 0.824541390 0.652625144
0.764073253 0.824794710 0.659582794
0.850221336 0.829095364 0.673750818
0.932574153 0.839595079 0.702973008
0.646552801 0.929411650 0.715496302
0.667046070 0.930423677 0.728526115
0.689057589 0.935863256 0.733079910
0.725237012 0.931815147 0.737381160
0.769892275 0.932320774 0.744465649
0.828336596 0.932447612 0.748766720
0.889057815 0.935357153 0.763693690
0.954332590 0.943832755 0.785452187
0.192157000 0.108032748 0.524731457
0.230866730 0.105629459 0.530803263
0.301201850 0.095003098 0.536748767
0.397090256 0.084503263 0.556103468
0.515370190 0.078937463 0.570145309
0.649968505 0.092093736 0.589373767
0.781783760 0.146995574 0.601897717
0.906894386 0.239468783 0.616065741
0.184440002 0.134218812 0.519923985
0.226691797 0.137254804 0.525237441
0.298165649 0.135610089 0.540164471
0.399114758 0.132068545 0.550411344
0.507400274 0.137254998 0.563820481
0.644275725 0.153826728 0.583048940
0.777988374 0.196711123 0.591776967
0.897027016 0.274003893 0.609487712
0.161543101 0.228336543 0.571283877
0.213915080 0.230993181 0.571410477
0.307906181 0.232511178 0.579506576
0.414421290 0.242757991 0.582163155
0.540164411 0.253636986 0.587349474
0.669070363 0.280708551 0.606325388
0.797216773 0.320556730 0.616066039
0.906514704 0.391776979 0.636812389
0.194180891 0.377229571 0.591271102
0.245161280 0.378367931 0.595825374
0.323719025 0.378241897 0.594560146
0.434787899 0.391777009 0.605566084
0.567488909 0.403795272 0.613156319
0.688171983 0.424161762 0.620746076
0.793168724 0.454648852 0.621758461
0.898039043 0.500189841 0.647691369
0.278178453 0.535989881 0.625300467
0.324984103 0.546236634 0.629222035
0.400126368 0.551043689 0.631625891
0.489942908 0.555850804 0.635800064
0.599873483 0.559645891 0.642251611
0.707906544 0.575838327 0.645161033
0.803921282 0.594939709 0.656925917
0.908412218 0.624667704 0.683617711
0.431119472 0.701454997 0.675901771
0.457937807 0.707273722 0.675901771
0.503732085 0.713472724 0.676154435
0.572422683 0.705123484 0.680961370
0.646553159 0.707653284 0.680961251
0.734471679 0.713092983 0.683491707
0.825680017 0.719670773 0.701708019
0.919038832 0.736116409 0.722327411
0.524351537 0.807969272 0.701707721
0.548387229 0.811511576 0.702719569
0.581277370 0.814548016 0.705123425
0.625427008 0.815306902 0.710436344
0.692726016 0.814168453 0.713725448
0.761923015 0.822770536 0.719164968
0.851359785 0.828589737 0.737128198
0.935357332 0.843390048 0.761163712
0.650853872 0.926375508 0.777229488
0.660594702 0.929537952 0.774952352
0.687033534 0.927640676 0.776090860
0.715749621 0.929158688 0.784566939
0.751549602 0.928020179 0.780771494
0.816824794 0.930297017 0.788741410
0.885768533 0.936242759 0.806072116
0.954711974 0.942314863 0.830866516
0.193801299 0.087919287 0.680581808
0.237191543 0.082099974 0.685894966
0.312966287 0.075395197 0.693232298
0.411385298 0.064389713 0.692852616
0.530423582 0.059709191 0.701201737
0.652371764 0.084250271 0.707906723
0.794307292 0.139784977 0.727008224
0.902719378 0.244655311 0.719291210
0.180898160 0.125363708 0.670714974
0.220746547 0.127514556 0.672738850
0.306261659 0.122327812 0.686653852
0.410626382 0.120683096 0.686907291
0.525237083 0.130044177 0.700062931
0.656546235 0.151170000 0.710563183
0.784819722 0.194687277 0.719291270
0.901707470 0.272991419 0.716255665
0.145224720 0.219228089 0.688678265
0.207843006 0.220493644 0.697659791
0.298672020 0.229474887 0.699557066
0.414547980 0.236938730 0.709804118
0.542315066 0.253763378 0.717647076
0.670714438 0.277799010 0.723086298
0.805186629 0.320303470 0.735483885
0.907020867 0.384819716 0.729664981
0.161416993 0.364452630 0.706388295
0.223023370 0.367235988 0.711068630
0.312839806 0.373940617 0.720935941
0.426565647 0.384060651 0.718153298
0.556482971 0.399367571 0.721695185
0.684756339 0.415686369 0.731688678
0.803162277 0.446932286 0.736622214
0.902719676 0.493232250 0.741808891
0.274130464 0.531182408 0.727767348
0.310183376 0.537001669 0.736242831
0.386211216 0.540544033 0.741808653
0.477166355 0.544086039 0.740037918
0.589247167 0.552435160 0.742062271
0.701328456 0.570398390 0.752941251
0.811005592 0.588488519 0.752941072
0.902972937 0.615053713 0.754585445
0.424921185 0.691967189 0.765970767
0.445161104 0.700569451 0.769892693
0.488677949 0.699304223 0.764452994
0.556862712 0.700948894 0.772422731
0.634408712 0.702846229 0.766350329
0.725110888 0.702973187 0.770018876
0.827956855 0.718153000 0.777608812
0.914358258 0.736875236 0.796078265
0.523086309 0.809361279 0.777356267
0.534977853 0.811764598 0.784187555
0.567995250 0.813282847 0.781910300
0.622770607 0.816571832 0.789247215
0.684123874 0.818848610 0.786843598
0.762682199 0.820493281 0.793042302
0.846299589 0.826691985 0.803162575
0.928652346 0.834282100 0.820620060
0.660467744 0.916128933 0.833143353
0.661100507 0.927008033 0.837951005
0.677292883 0.920429945 0.834029078
0.714484394 0.925110817 0.834914565
0.759266317 0.929538012 0.841619253
0.814547956 0.927893579 0.846552730
0.880455673 0.933333218 0.857938290
0.951043487 0.939785242 0.870714843
0.190765008 0.065275013 0.830486953
0.229727998 0.061733462 0.833143771
0.311954200 0.056672916 0.832004964
0.418089628 0.048576802 0.831878603
0.540923357 0.060847469 0.841239810
0.665275216 0.108032815 0.852751434
0.797596276 0.179126814 0.856293321
0.927260756 0.275015622 0.852624953
0.171283722 0.115749560 0.825047135
0.217457399 0.119924001 0.821125925
0.303352088 0.113345653 0.828210294
0.416065872 0.121821642 0.829348564
0.535104394 0.134092093 0.836812139
0.663377643 0.171283990 0.837064862
0.794686735 0.224794522 0.839342237
0.919671059 0.301201642 0.845920205
0.130424008 0.222517088 0.834155679
0.194686815 0.226439089 0.843769848
0.301454842 0.226186037 0.842378139
0.422011644 0.241619557 0.842504978
0.541682422 0.263504118 0.840986788
0.674762785 0.294750035 0.850348055
0.805059791 0.335610360 0.856040657
0.925110698 0.403541982 0.861353755
0.128905460 0.361543447 0.841492593
0.198102579 0.366223902 0.845414281
0.307021171 0.371536821 0.844781935
0.427324444 0.388108730 0.850853801
0.555471182 0.404933482 0.846805930
0.682858706 0.425553441 0.848829865
0.800379634 0.457558632 0.853510261
0.921948075 0.498671442 0.859202802
0.246805772 0.524098396 0.851612806
0.289816767 0.533712924 0.855787635
0.357874542 0.530802965 0.855534434
0.462492079 0.536369503 0.855407953
0.584566414 0.548640192 0.855660975
0.696141660 0.566856384 0.860341430
0.814294696 0.585452139 0.865148544
0.924477756 0.615939200 0.868184447
0.415812761 0.695382714 0.865780771
0.437570930 0.693864524 0.872485876
0.477166384 0.694623590 0.874383509
0.541303039 0.692219853 0.872106433
0.619607866 0.691967010 0.870588243
0.722074628 0.698671639 0.875015616
0.826691985 0.713851988 0.878431320
0.931055963 0.735357225 0.883112013
0.525110424 0.823150098 0.881720364
0.542567849 0.824667871 0.874004006
0.573434472 0.822643697 0.882985353
0.624161899 0.821252346 0.885009527
0.683617890 0.822517514 0.889057696
0.753953159 0.823150039 0.888551652
0.837444425 0.826312482 0.889183760
0.940164804 0.839215517 0.898039222
0.644908488 0.933712780 0.908791780
0.657178760 0.933206558 0.911068857
0.676660597 0.931055903 0.902972698
0.709424376 0.933712721 0.910056949
0.751802802 0.928272963 0.911322117
0.813788712 0.930549800 0.910689592
0.882226229 0.934598029 0.922580779
0.942820966 0.938899636 0.921947777
