Assets/EldamarStudio/100 Retro LUTs Pack/LUTs/cube/Jerry LUT.cube
DOMAIN_MIN 0 0 0
DOMAIN_MAX 1 1 1
LUT_3D_SIZE 32
0.160784006 0.121569000 0.125489995
0.160784006 0.121569000 0.125489995
0.165085003 0.121569000 0.127640769
0.173687309 0.121569000 0.130676836
0.185452446 0.121569000 0.133712545
0.194560066 0.121569000 0.136748940
0.206198648 0.124098673 0.137254998
0.223276705 0.125489995 0.138899282
0.243769988 0.125489995 0.141176000
0.261985987 0.125489995 0.141176000
0.283111870 0.125489995 0.135356992
0.306388497 0.123466261 0.137380987
0.334092647 0.122707352 0.142314643
0.367236078 0.125995994 0.145098001
0.397596806 0.132067993 0.145098001
0.432763964 0.130929798 0.145098001
0.472232372 0.130929798 0.146616191
0.514104724 0.134597987 0.150284991
0.553573966 0.140670002 0.156357005
0.593042374 0.141176000 0.156863004
0.638203442 0.141176000 0.156863004
0.682732284 0.145224258 0.160910994
0.719165027 0.157115996 0.172675505
0.755597830 0.163188010 0.175711900
0.792030573 0.176091284 0.185578987
0.827071667 0.188488305 0.193548322
0.860468090 0.198608071 0.199114129
0.893864393 0.213788435 0.217330873
0.927260756 0.234281793 0.235546961
0.960657597 0.251992166 0.251992166
0.986970425 0.270714551 0.270714551
0.996078014 0.298038989 0.298038989
0.160784006 0.127640992 0.122454390
0.169892386 0.127640992 0.140670389
0.174193382 0.129791230 0.134218603
0.180265382 0.130676612 0.131182775
0.189247161 0.130297154 0.131056383
0.203668460 0.127640992 0.136748940
0.205186397 0.127640992 0.134724677
0.225174010 0.130170673 0.140797019
0.248324007 0.130043998 0.145730585
0.261986017 0.125489995 0.141176000
0.286021739 0.131309003 0.146995738
0.309424371 0.131561995 0.143453509
0.334851235 0.132953614 0.144212395
0.364705652 0.137633994 0.145098001
0.400632411 0.138139993 0.145098001
0.433396399 0.137001798 0.142694190
0.472232372 0.138519987 0.145097986
0.513472140 0.143073976 0.150917411
0.550537586 0.146742791 0.159392625
0.595572710 0.152814776 0.159898624
0.639342129 0.159013018 0.165591359
0.681720138 0.163440511 0.166983008
0.716128588 0.169639498 0.166982993
0.752561390 0.184440389 0.178747520
0.793548167 0.188235089 0.186337903
0.830107629 0.197596282 0.197722986
0.862998426 0.207210392 0.207210392
0.893864393 0.219860435 0.220366493
0.929917574 0.237697631 0.233270273
0.958380759 0.258570552 0.248956546
0.983555019 0.278937340 0.270335346
0.999114394 0.304111004 0.304111004
0.160784006 0.135863230 0.119418226
0.167741612 0.133712992 0.131182984
0.176849991 0.135863215 0.140797004
0.185451999 0.135104001 0.138013765
0.192535996 0.133332998 0.136875451
0.198861167 0.132068157 0.134092227
0.214294776 0.133712992 0.134724677
0.224161774 0.135357276 0.138266698
0.248703331 0.136875093 0.146110132
0.262239009 0.132194772 0.141429037
0.286021739 0.137760773 0.142694190
0.310309976 0.139784768 0.146742716
0.336875290 0.139784768 0.143959358
0.365717798 0.143832773 0.143200263
0.400252789 0.147627771 0.145098001
0.436432570 0.149525583 0.151296735
0.472864956 0.149525583 0.149778545
0.513472140 0.153700009 0.152688429
0.549905002 0.155218214 0.155724049
0.590386093 0.163188010 0.165085003
0.634029508 0.169259995 0.165085003
0.676280737 0.176090896 0.169386357
0.711194992 0.179253757 0.164958999
0.751675785 0.188361913 0.173055008
0.788361549 0.200885475 0.182922289
0.826691628 0.205312759 0.192030311
0.859582603 0.214168131 0.204427361
0.889943004 0.226312533 0.219860762
0.923465788 0.243769631 0.234155655
0.954585314 0.263757169 0.249841943
0.979253650 0.284123987 0.270714790
1.000000000 0.305882007 0.305882007
0.168374330 0.142441168 0.123972163
0.166855991 0.141935542 0.128020227
0.176343933 0.141935542 0.131182998
0.184187159 0.143706322 0.135989830
0.197469711 0.138393313 0.141302839
0.203668326 0.138393313 0.134851068
0.213788629 0.140923321 0.134598166
0.230740160 0.142694443 0.138266698
0.249715254 0.146489158 0.145098001
0.265907645 0.144971475 0.142567679
0.287286580 0.148134008 0.142441168
0.314105123 0.150158003 0.144465432
0.339531779 0.151296645 0.146363169
0.369513035 0.151676118 0.143706322
0.400885373 0.156736001 0.145730585
0.435420424 0.160404816 0.149778813
0.474636167 0.164705962 0.154333010
0.513472140 0.168374151 0.156230420
0.549905002 0.169639185 0.155724049
0.589121103 0.176723361 0.161543012
0.630487502 0.182669148 0.167362154
0.670967996 0.187729284 0.168374017
0.707400024 0.191018626 0.166223869
0.747627795 0.198229000 0.172296166
0.784313440 0.205060154 0.180645123
0.819354773 0.216951147 0.191018626
0.852245152 0.223529220 0.200126261
0.882605731 0.234914884 0.216065705
0.916887760 0.251107126 0.230360806
0.946742117 0.269829184 0.248577103
0.974066556 0.291081607 0.271220714
0.998734832 0.309677154 0.304617167
0.183934450 0.146995544 0.136495993
0.173687324 0.149652392 0.134977609
0.177229539 0.150537997 0.132321224
0.188361987 0.150537997 0.131435841
0.194813550 0.150917456 0.133712545
0.216065928 0.150917456 0.133712545
0.225806549 0.153447226 0.136622325
0.236053139 0.154838547 0.140543997
0.252751529 0.155597553 0.145098001
0.274003923 0.161669552 0.145098001
0.293484986 0.162302107 0.145857006
0.319418043 0.162681550 0.147501722
0.348260641 0.163820192 0.149020001
0.375585049 0.166603550 0.149272963
0.402909398 0.169512674 0.149399459
0.435799897 0.173687354 0.149020001
0.472991377 0.178241536 0.150158450
0.513851702 0.183934078 0.151296958
0.550284564 0.190006107 0.160404593
0.589121103 0.196457565 0.160784006
0.630487502 0.200632289 0.163061187
0.670967996 0.204048127 0.166097417
0.707020521 0.207210988 0.169386044
0.742694259 0.216065645 0.175711811
0.777229309 0.220619828 0.184060708
0.810625970 0.227451071 0.193421781
0.843896568 0.239468619 0.205819488
0.874256551 0.248576999 0.214927077
0.909171045 0.262239367 0.226312652
0.940290689 0.278810948 0.243770152
0.968374133 0.297912598 0.267426014
0.995698571 0.319164991 0.300822467
0.180898055 0.162175938 0.130423993
0.183934450 0.162175938 0.139531612
0.182289869 0.162681997 0.140164003
0.191903993 0.162681997 0.139658064
0.206957549 0.163061440 0.139784545
0.216065928 0.166097060 0.136748940
0.232258320 0.168627381 0.141808942
0.242631212 0.170018926 0.144086003
0.255787164 0.170018926 0.145098001
0.277039558 0.170777917 0.145098001
0.304110914 0.173940793 0.150916994
0.329917759 0.176470608 0.151929006
0.356609911 0.179000571 0.151296705
0.381657034 0.181783929 0.149272963
0.408981413 0.181783929 0.152308583
0.445920408 0.191903859 0.150031865
0.482858837 0.199493930 0.153573811
0.519670725 0.204933524 0.159898639
0.553320944 0.208222896 0.163440987
0.589753687 0.217077523 0.161416590
0.630487502 0.221884668 0.164579004
0.670967996 0.225932926 0.169133186
0.707020521 0.231498986 0.172422439
0.734344900 0.237571001 0.181530848
0.770018637 0.241872221 0.190132707
0.804553986 0.247691602 0.196457684
0.837951064 0.257811844 0.203036129
0.871220887 0.269829363 0.217963472
0.901580870 0.278937727 0.227071762
0.931182683 0.292599678 0.243770152
0.960278511 0.310056597 0.265907943
0.992662907 0.331308991 0.291714072
0.187982321 0.182416320 0.139532000
0.188488394 0.182416320 0.141049936
0.195825770 0.184566543 0.143706322
0.202024326 0.184946001 0.144971490
0.216571867 0.185325548 0.146236643
0.225680247 0.188361704 0.145351261
0.239847988 0.191397965 0.144845322
0.258317381 0.194433928 0.149272606
0.273244500 0.196078420 0.150917098
0.292726129 0.197849646 0.152688324
0.314737529 0.200758860 0.155976996
0.344085634 0.201770991 0.155977264
0.374193609 0.206577957 0.155471325
0.403668702 0.212650314 0.154332966
0.437824368 0.217204317 0.157368585
0.469955742 0.222011313 0.155597806
0.509171486 0.232384518 0.157115996
0.547248363 0.238836229 0.164579317
0.584440589 0.241872624 0.169512972
0.620619714 0.253004611 0.174572960
0.658950210 0.258317232 0.171537057
0.695762455 0.261353433 0.175711632
0.727387607 0.265654653 0.180392310
0.757115841 0.266919643 0.187096909
0.791270912 0.275268912 0.198481992
0.826312304 0.282985628 0.212017655
0.859709382 0.292726308 0.221758574
0.893105745 0.300822318 0.232890442
0.923845887 0.317899823 0.252877831
0.952435076 0.328779399 0.270841390
0.975332260 0.345856905 0.292852908
0.997217000 0.368753642 0.315496653
0.195446000 0.202023983 0.146742716
0.202023983 0.203668699 0.150031701
0.203542054 0.204174623 0.150031701
0.213915601 0.205945402 0.148766533
0.224541694 0.206704408 0.150284827
0.229854926 0.211005643 0.149020001
0.252245367 0.217331022 0.152309000
0.264136404 0.217077985 0.149020001
0.286906809 0.219354704 0.152055621
0.307779968 0.221505478 0.155091777
0.330550581 0.227830544 0.158127844
0.357874691 0.230486691 0.162049264
0.388235003 0.233902335 0.160152003
0.421379060 0.243010730 0.160404965
0.457811803 0.250474393 0.163440585
0.490196049 0.256546408 0.161669806
0.522074699 0.264136583 0.161669806
0.559898555 0.271979809 0.166982859
0.597343564 0.275015980 0.172043011
0.637318015 0.281467706 0.176470727
0.674003482 0.286274642 0.181783736
0.712460518 0.290322393 0.183807984
0.742061973 0.294370681 0.191144988
0.775458813 0.300442696 0.197217003
0.807084382 0.303984970 0.204553992
0.840733349 0.311701685 0.218089640
0.872359395 0.323339701 0.234535351
0.902340412 0.331688702 0.243643254
0.933080256 0.345097691 0.261732817
0.964959145 0.361416399 0.283111691
0.987856030 0.375332177 0.310942471
1.000000000 0.398102403 0.335990012
0.201517999 0.224035278 0.149020001
0.211385086 0.227071479 0.152814910
0.217203990 0.228716195 0.155345008
0.223023206 0.229475096 0.154838935
0.235167995 0.229475096 0.152182102
0.236686081 0.234788090 0.149525940
0.255914122 0.241113320 0.152562007
0.280075729 0.246679485 0.155092001
0.292979211 0.245161280 0.151296899
0.320303619 0.245161280 0.154332519
0.344718665 0.253131062 0.157368869
0.372296184 0.258950025 0.160910994
0.402656287 0.261985838 0.163946912
0.433017075 0.270841211 0.164199948
0.468437791 0.279443502 0.167235672
0.501581132 0.286148101 0.166982710
0.531941414 0.292979211 0.166982904
0.564832091 0.302087575 0.170018673
0.598608077 0.305376232 0.173055053
0.637317836 0.308412343 0.176850349
0.675268471 0.310310096 0.181783989
0.709424198 0.312334090 0.188362002
0.745856941 0.318279594 0.200379506
0.782289743 0.328526199 0.207084104
0.813409328 0.334598392 0.214674085
0.843769908 0.339026093 0.224920735
0.874636054 0.345098108 0.240101159
0.899683774 0.356736094 0.249715537
0.929284990 0.369639188 0.266034186
0.962175608 0.382036358 0.283744246
0.986338019 0.399620175 0.307147145
0.998481989 0.417836994 0.343580008
0.207589999 0.257432461 0.149020001
0.210626394 0.260468096 0.145983607
0.218342707 0.263504297 0.147628292
0.229601145 0.266413838 0.149273008
0.244275615 0.268943518 0.149146482
0.256420374 0.268943518 0.149146497
0.262998521 0.269196510 0.149020001
0.283238500 0.274509728 0.152562007
0.311195195 0.281594098 0.157368898
0.335483998 0.284630477 0.160404518
0.359898478 0.290449470 0.163440868
0.386211276 0.296647996 0.164453000
0.414800942 0.300316483 0.163567364
0.445161045 0.301201999 0.161163554
0.475521803 0.307273984 0.164199933
0.510942578 0.313472509 0.167235672
0.544085920 0.319544524 0.170018718
0.576976120 0.326375604 0.173055083
0.619481027 0.335483998 0.176091477
0.650474191 0.338772655 0.181910500
0.683238208 0.341808766 0.187856004
0.714737117 0.345730484 0.193928003
0.742820561 0.351676047 0.200379521
0.779253364 0.354712427 0.209487930
0.808854818 0.360404998 0.220746487
0.837697327 0.366350502 0.234029129
0.868564069 0.372422516 0.249209553
0.901960433 0.378494501 0.264389932
0.932321131 0.392789334 0.279317290
0.966223776 0.404301196 0.292852908
0.991903961 0.418089956 0.309804052
0.992410004 0.442124993 0.337507993
0.216571867 0.293738008 0.154839009
0.225427255 0.299683452 0.151802599
0.228463098 0.302719623 0.153067768
0.236053035 0.304490864 0.153573841
0.248323873 0.306641281 0.154206216
0.265528023 0.314231634 0.169386864
0.285262436 0.311701298 0.159266233
0.301454723 0.312966436 0.159392849
0.325742960 0.318026632 0.163440913
0.347881019 0.321062475 0.166476518
0.372169733 0.327008009 0.163693875
0.400505722 0.329032004 0.168753996
0.428716063 0.334471643 0.169386357
0.457305759 0.340037882 0.166602999
0.487665832 0.343453735 0.166982546
0.520429790 0.344718724 0.172422737
0.556356490 0.349778742 0.179000542
0.589500010 0.356483310 0.186717138
0.622896850 0.365591705 0.196584836
0.654269576 0.366350740 0.194054514
0.686527550 0.371157616 0.201644734
0.717899978 0.375205606 0.207716733
0.745224357 0.379253387 0.212017506
0.773307800 0.382289767 0.221125901
0.800632536 0.385325581 0.225680292
0.828715801 0.392156661 0.237318158
0.860088229 0.400252938 0.253004253
0.895888388 0.408728719 0.270588428
0.921315610 0.417457551 0.291081816
0.947627902 0.430360705 0.310310185
0.976849914 0.442378461 0.327640861
0.995066106 0.460594743 0.348892987
0.231751993 0.334218502 0.156863004
0.236812383 0.338266760 0.157874614
0.243643478 0.340164274 0.159139782
0.249209419 0.344465524 0.163441002
0.259835809 0.345983505 0.162302256
0.279696524 0.350158185 0.167362615
0.300442815 0.353194445 0.170398355
0.318405777 0.353447050 0.166476712
0.338140190 0.356483340 0.167236000
0.358127773 0.359519273 0.166476786
0.384313762 0.363440514 0.169765860
0.410626233 0.371536762 0.170778260
0.440986544 0.371536762 0.173434615
0.469197035 0.377735525 0.170904294
0.497786224 0.382542640 0.172675505
0.530550063 0.383175224 0.181530595
0.563946486 0.384693414 0.187602982
0.597975731 0.389626920 0.193674684
0.626945257 0.395951957 0.198861435
0.655281723 0.398735255 0.205186635
0.685642004 0.398735255 0.205945730
0.717900038 0.403542131 0.215812996
0.746236503 0.406577766 0.221884757
0.773560882 0.409614146 0.227198169
0.802656531 0.414674222 0.239848018
0.829728305 0.417710185 0.247059077
0.859582543 0.425553441 0.261606574
0.891461134 0.434661418 0.278305143
0.919291615 0.441746086 0.299177498
0.943579912 0.452625215 0.316887885
0.968753576 0.464769244 0.338519931
0.996078014 0.478810966 0.359013259
0.249968290 0.392662555 0.162555635
0.254143029 0.395698965 0.165591255
0.260468274 0.396584570 0.166350424
0.271220773 0.396837562 0.170651644
0.281088173 0.401770979 0.175585091
0.300822556 0.401011914 0.170271993
0.319797963 0.403542250 0.170651317
0.342315197 0.406578213 0.174825713
0.359013021 0.409613997 0.177862093
0.377609283 0.412650406 0.172928646
0.403415501 0.414547682 0.177355990
0.431878537 0.418216169 0.179127261
0.460341573 0.423908919 0.183301985
0.490955323 0.424667954 0.181277663
0.520050704 0.431625575 0.186085045
0.553320706 0.432890564 0.194054618
0.584440112 0.433270097 0.202023983
0.615938842 0.434408933 0.207463577
0.642757952 0.435926616 0.205439329
0.670082331 0.437824279 0.213535637
0.697027266 0.438962907 0.221125722
0.727387547 0.439974785 0.227198243
0.757495224 0.442883909 0.239215747
0.783807516 0.444908172 0.244275883
0.809993505 0.451359898 0.255281627
0.840354264 0.456040323 0.269069940
0.869702995 0.459076703 0.282226622
0.896394789 0.466919482 0.298039407
0.923719466 0.476786941 0.317394048
0.950411201 0.486401230 0.338519454
0.968500674 0.500316262 0.359898448
0.993800998 0.512966275 0.385199279
0.267172992 0.472359031 0.177229956
0.272991955 0.475648403 0.179253653
0.281720757 0.477040023 0.179506749
0.293358982 0.477040023 0.180518985
0.312713534 0.477419555 0.184946448
0.327893943 0.474383175 0.181910053
0.342821300 0.475648344 0.180897996
0.364326715 0.479443401 0.184946030
0.389880061 0.481973112 0.188994095
0.411132485 0.485009521 0.192030489
0.435800046 0.485389054 0.195825160
0.464136541 0.485389054 0.194813296
0.494750291 0.485389054 0.196205035
0.525111079 0.485642046 0.201517999
0.558507442 0.494750410 0.210626379
0.593295574 0.496648014 0.217583984
0.625427186 0.496648014 0.221884832
0.652625024 0.495636046 0.225426614
0.676913083 0.489564031 0.228463009
0.703225374 0.489564031 0.236559317
0.728905439 0.489058018 0.245920315
0.754965246 0.489816934 0.255787224
0.785072982 0.492979050 0.267931998
0.809361041 0.493232042 0.277166158
0.832131267 0.499557287 0.288551569
0.857305348 0.505882382 0.301201969
0.887160003 0.509171128 0.314864039
0.911448002 0.512207508 0.333080024
0.938393414 0.525363803 0.351549655
0.965212107 0.538266957 0.372801960
0.985958397 0.552435040 0.400632203
0.988994002 0.570651054 0.437065035
0.273244977 0.493611395 0.186337575
0.276280582 0.499683410 0.177229956
0.288551331 0.505122960 0.187855646
0.297406733 0.507399976 0.196710736
0.307400525 0.508159041 0.202909440
0.340037912 0.513852298 0.194054052
0.352687985 0.508285582 0.188487992
0.372042984 0.513978362 0.195192695
0.395446002 0.520430088 0.201644421
0.414168090 0.518405855 0.192030504
0.444149315 0.521442235 0.203795001
0.473244905 0.521821797 0.203921676
0.504744053 0.521821797 0.208855405
0.537255049 0.522074759 0.222770363
0.567615807 0.525110364 0.219733983
0.593801379 0.527007997 0.228842378
0.623655975 0.527007997 0.232763991
0.653384149 0.526375532 0.235293984
0.682985842 0.522960365 0.243643373
0.701707840 0.528020382 0.246679053
0.727514148 0.525237381 0.256673038
0.754206121 0.522454381 0.267172694
0.782036602 0.523339748 0.277039587
0.806325436 0.529411793 0.289184362
0.835167408 0.531941533 0.300695837
0.862239003 0.536242604 0.315622956
0.890702426 0.539784849 0.333586097
0.920556426 0.545603871 0.357368797
0.947501242 0.553953230 0.378241599
0.971283734 0.562555373 0.397090346
0.990259171 0.574319959 0.421884567
0.998102427 0.594939828 0.458317399
0.286527783 0.531688571 0.200252801
0.289563388 0.530550361 0.200759172
0.296900570 0.538772643 0.202403784
0.310309768 0.542567551 0.206704438
0.318659097 0.542567551 0.208602011
0.341935754 0.544591844 0.209613860
0.362428784 0.552561700 0.205439597
0.376217484 0.549778342 0.205945596
0.398229003 0.556609809 0.216571793
0.419734031 0.556862891 0.214294791
0.449588746 0.554838598 0.218216598
0.477925241 0.553826511 0.222264603
0.507906497 0.553446949 0.221885145
0.539532006 0.553446949 0.232763991
0.567741990 0.554332376 0.236179382
0.595698953 0.559772372 0.240353793
0.621505141 0.559772372 0.246426195
0.650347710 0.559139788 0.248576790
0.678937376 0.556103706 0.255913943
0.705376208 0.556609750 0.259456247
0.731182694 0.558886766 0.266286850
0.758001208 0.555850744 0.278937340
0.783934295 0.555850744 0.290828288
0.810499847 0.557368755 0.300695777
0.834788024 0.561164021 0.317393959
0.862112284 0.566982746 0.333965629
0.887413263 0.572042823 0.352181911
0.912081003 0.576217592 0.368880689
0.939784825 0.582542598 0.395319611
0.965338409 0.595192969 0.414800733
0.986337781 0.605819166 0.437444359
1.000000000 0.624035597 0.472359002
0.301707804 0.568121374 0.213914990
0.306261986 0.569639564 0.218469590
0.310562760 0.570651650 0.217583805
0.325996310 0.578494370 0.226186126
0.338772833 0.579000354 0.219607830
0.353573680 0.579000354 0.222264186
0.370271981 0.583554685 0.223782510
0.388361901 0.587729394 0.225680187
0.405060291 0.588488281 0.229475081
0.428589404 0.591524422 0.233269989
0.452624738 0.585705519 0.237950668
0.485515445 0.587223351 0.240480989
0.510562837 0.585325599 0.242757991
0.539785028 0.585325599 0.245920181
0.568374574 0.585325599 0.249462187
0.595698953 0.587096810 0.257052392
0.626059353 0.591650963 0.260088354
0.652751327 0.591650963 0.264389753
0.679190397 0.589500189 0.271347374
0.704996526 0.589247167 0.273118526
0.732700467 0.587729394 0.282985449
0.761037230 0.587729394 0.292093337
0.785325944 0.587602854 0.306135178
0.811258674 0.586211145 0.316634864
0.834788024 0.588488460 0.331056178
0.860467672 0.590133190 0.345097840
0.883870959 0.598861337 0.367362320
0.904111445 0.603921413 0.385579079
0.929158568 0.611132145 0.398861587
0.954712152 0.617963195 0.426945120
0.979886353 0.634914577 0.449588746
1.000000000 0.651359975 0.482985169
0.316255152 0.599114537 0.226059154
0.322960198 0.605819106 0.234029338
0.327514380 0.607590139 0.233396575
0.335610330 0.609487534 0.229854330
0.359519541 0.614421070 0.242378548
0.369639218 0.614168108 0.240860194
0.383174896 0.616698265 0.242884293
0.400632381 0.618089974 0.246299982
0.418975532 0.618216455 0.251992464
0.440227896 0.621252060 0.248956069
0.461100549 0.614547789 0.254016131
0.488298506 0.614294946 0.257431805
0.520303607 0.618089974 0.261606544
0.542061985 0.618342996 0.267425567
0.572043180 0.618722558 0.267805129
0.599367797 0.618722558 0.273750752
0.627830625 0.618975341 0.278304964
0.659329534 0.622011125 0.280202538
0.683618426 0.622011125 0.289310932
0.708539009 0.622011125 0.291967541
0.734092355 0.620113730 0.299557388
0.760404646 0.618089974 0.312713116
0.784693420 0.617963493 0.321695000
0.808981597 0.614927232 0.332827151
0.831625283 0.615812838 0.347248256
0.855660677 0.618722558 0.361543208
0.881973088 0.618722558 0.371663630
0.900316298 0.627450705 0.401391864
0.923845530 0.636558950 0.412270695
0.946868777 0.643896103 0.428715914
0.971410573 0.651865721 0.458064586
0.998735011 0.673118174 0.491461009
0.328400046 0.632511079 0.238204032
0.337507635 0.641619444 0.253384411
0.344212681 0.644023001 0.259203255
0.350032032 0.645287812 0.255154997
0.359519631 0.647817552 0.248450637
0.380771995 0.644781947 0.263631016
0.393422008 0.647058725 0.267172694
0.410752743 0.648450077 0.268564075
0.430993080 0.648450077 0.270588100
0.449335575 0.648576558 0.276280522
0.479316801 0.648703039 0.279063910
0.502593279 0.647944033 0.280329019
0.527387738 0.648450077 0.282859027
0.554206073 0.648703098 0.288678050
0.581530452 0.651739478 0.291714430
0.606704712 0.652119040 0.294497192
0.631246030 0.650600791 0.296521038
0.656293213 0.649335623 0.298418611
0.680582106 0.652372003 0.307527006
0.707653463 0.652372003 0.316635400
0.732827544 0.650474250 0.323087007
0.757368982 0.648450077 0.330929875
0.781657100 0.648323596 0.339911073
0.805945873 0.645287991 0.345983863
0.830233991 0.644528985 0.359392703
0.855660677 0.647565067 0.375964403
0.881973088 0.652119040 0.392916083
0.903225422 0.652119040 0.408096462
0.926881671 0.660847783 0.432511002
0.947627962 0.668184996 0.451486409
0.968121231 0.675142586 0.472486019
0.992662966 0.685262978 0.497533083
0.387856126 0.704870105 0.311574757
0.388615102 0.705629170 0.312839806
0.399873465 0.708285749 0.315117180
0.407210767 0.708285749 0.316887945
0.413662285 0.709044635 0.313851774
0.425300688 0.706009030 0.317014337
0.433902740 0.705503106 0.322074711
0.448829710 0.706641495 0.325110793
0.468943477 0.706641495 0.326249480
0.489183754 0.706641495 0.328273475
0.510689139 0.706641495 0.334218949
0.537001908 0.704617202 0.335231096
0.559013367 0.703858078 0.334092468
0.582542777 0.703858078 0.335230738
0.604807138 0.704364121 0.340796798
0.632131517 0.702593505 0.341429383
0.655281544 0.702214122 0.347121924
0.677672327 0.701075435 0.350917101
0.699810386 0.701961100 0.353573740
0.729665101 0.704996705 0.365464747
0.756989479 0.703099489 0.368880391
0.782163322 0.700063288 0.375205636
0.806198359 0.698165596 0.385958433
0.825174212 0.695129275 0.392030567
0.844908357 0.694370389 0.402656764
0.866793036 0.694370389 0.418722093
0.890828490 0.697659492 0.436938524
0.914358139 0.702214122 0.454396188
0.935610533 0.707527101 0.477545708
0.959772289 0.716508508 0.498292148
0.979126990 0.724478006 0.522707283
0.997722983 0.733586431 0.556483090
0.413662255 0.737128019 0.337381005
0.417457253 0.739025712 0.346868753
0.424162000 0.740923464 0.350410759
0.435041159 0.742188334 0.349905163
0.442504764 0.743200302 0.351422936
0.453130931 0.743200660 0.346868753
0.463503987 0.742694736 0.360784024
0.474509686 0.742694736 0.358886719
0.492472917 0.742694736 0.361923009
0.512587011 0.742694736 0.364199966
0.530043900 0.740796983 0.364326745
0.551422715 0.740670502 0.373940706
0.574572861 0.737634361 0.371663719
0.596078277 0.736622453 0.369133472
0.618975401 0.734977722 0.378494471
0.639342010 0.738266766 0.377861708
0.665148616 0.738267183 0.382415891
0.688045561 0.738646746 0.390891701
0.711827993 0.738646746 0.393421739
0.735736966 0.739532113 0.396963745
0.766097724 0.738772750 0.411005467
0.792409956 0.735737085 0.413029462
0.816444993 0.732827485 0.423149973
0.834661782 0.731562316 0.429221988
0.854775727 0.730803192 0.439848483
