Assets/EldamarStudio/100 Retro LUTs Pack/LUTs/cube/Jerry LUT.cube
LUT_3D_SIZE 5
DOMAIN_MIN 0.000000 0.000000 0.000000
DOMAIN_MAX 0.903226 0.903226 0.903226
0.160784006 0.121569000 0.125489995
0.223276705 0.125489995 0.138899282
0.397596806 0.132067993 0.145098001
0.682732284 0.145224258 0.160910994
0.927260756 0.234281793 0.235546961
0.195446000 0.202023983 0.146742716
0.264136404 0.217077985 0.149020001
0.457811803 0.250474393 0.163440585
0.712460518 0.290322393 0.183807984
0.933080256 0.345097691 0.261732817
0.273244977 0.493611395 0.186337575
0.372042984 0.513978362 0.195192695
0.567615807 0.525110364 0.219733983
0.754206121 0.522454381 0.267172694
0.947501242 0.553953230 0.378241599
0.422770143 0.749272227 0.347501248
0.493737817 0.764958978 0.388235122
0.626438797 0.755850852 0.407590240
0.790385962 0.761037290 0.446426123
0.938899636 0.775458455 0.530803084
0.660467982 0.938899636 0.638329923
0.701960504 0.943833053 0.661479950
0.758506954 0.944085777 0.671094596
0.859455943 0.940417528 0.687665939
0.963693798 0.938772798 0.727260768
0.168626994 0.119924292 0.175205410
0.225553408 0.123213284 0.182415992
0.412017792 0.123845711 0.211511701
0.685894966 0.136369124 0.244276121
0.917393923 0.239468634 0.307779849
0.193168715 0.199746698 0.202656418
0.263504416 0.213156402 0.211511701
0.459076405 0.239974812 0.234408274
0.700316429 0.279190570 0.266160846
0.917393923 0.346615821 0.333206534
0.259456009 0.478557944 0.263757259
0.352687687 0.495002985 0.269323438
0.549904764 0.510689437 0.298797995
0.744086027 0.515243411 0.343326807
0.924857497 0.553320408 0.418975234
0.428968847 0.736496150 0.412017852
0.486527443 0.748007238 0.429348558
0.619860828 0.744718373 0.451612711
0.783554554 0.752814710 0.478810966
0.932700515 0.761163771 0.553700387
0.651612878 0.931055963 0.649082720
0.693105757 0.932320774 0.662491918
0.746742785 0.935863197 0.674889207
0.848956108 0.934977651 0.694876611
0.963061154 0.937507927 0.740796864
0.181024581 0.125489995 0.312586993
0.251739413 0.119924292 0.328272969
0.419228375 0.110436417 0.364958793
0.681087732 0.113472544 0.419228226
0.908286035 0.235673785 0.456546634
0.183680996 0.205312982 0.365591407
0.273624688 0.208602399 0.369512826
0.461606383 0.228842407 0.399873495
0.695762396 0.261606842 0.429601789
0.907906532 0.359139800 0.484377086
0.239216000 0.472105950 0.441366404
0.339658678 0.487160236 0.454775512
0.544085860 0.494370788 0.470840961
0.727387726 0.520177066 0.496647537
0.901581168 0.566350639 0.540164590
0.445035100 0.728020549 0.539152145
0.509298027 0.736242831 0.552561641
0.618595779 0.738140404 0.564958632
0.776090860 0.748007298 0.578747869
0.928399384 0.764706075 0.639215946
0.651359797 0.921947956 0.703099191
0.683365166 0.929411530 0.711321890
0.744718373 0.929032207 0.714737356
0.847058952 0.932067931 0.739025772
0.957241774 0.939532220 0.769766033
0.191144869 0.100948870 0.564200103
0.284756303 0.096015424 0.577229559
0.461353689 0.077419132 0.595825672
0.691461146 0.098165996 0.626818419
0.909930468 0.243263751 0.644149423
0.165591300 0.199747115 0.599620283
0.283618003 0.205945566 0.605818927
0.478684634 0.220999420 0.624161720
0.706261992 0.257685244 0.640227854
0.909804106 0.365717590 0.659835339
0.234408692 0.464262962 0.642125309
0.336748809 0.476660341 0.658443868
0.531941533 0.490702063 0.658444285
0.732953846 0.517267823 0.673118114
0.910183370 0.571916521 0.691208243
0.448324114 0.728779137 0.700190008
0.503731728 0.738772988 0.709045112
0.620746136 0.736496150 0.713599145
0.767868161 0.742441118 0.718912125
0.920556784 0.765971124 0.749399066
0.655913949 0.925869823 0.791397929
0.679949760 0.930676520 0.797343493
0.735230684 0.931055963 0.801012218
0.835294127 0.933332920 0.805945754
0.953952789 0.941555738 0.836432755
0.190765008 0.065275013 0.830486953
0.287412703 0.058697179 0.830486953
0.482605964 0.053004406 0.832384408
0.701960981 0.126502216 0.851739287
0.927260756 0.275015622 0.852624953
0.140797302 0.195192695 0.835420489
0.273877412 0.195825696 0.837064743
0.480329096 0.220746532 0.844276071
0.706135213 0.274762630 0.853637099
0.926881671 0.377229303 0.866160512
0.174952358 0.447311968 0.854649067
0.302972704 0.454775512 0.854901969
0.508032560 0.476787210 0.852624774
0.725489974 0.512334108 0.864769101
0.931815147 0.563061178 0.877039969
0.437824309 0.727767289 0.864768922
0.491081387 0.726501822 0.870588481
0.596204996 0.727766991 0.876533985
0.753194273 0.730044305 0.878810823
0.933080256 0.762428939 0.889942944
0.644908488 0.933712780 0.908791780
0.672612488 0.930044055 0.907273889
0.735610247 0.933712602 0.914737403
0.830739915 0.933332920 0.913978636
0.942820966 0.938899636 0.921947777
