Assets/EldamarStudio/100 Retro LUTs Pack/LUTs/cube/Joanne LUT.cube
LUT_3D_SIZE 8
DOMAIN_MIN 0.000000 0.000000 0.000000
DOMAIN_MAX 0.903226 0.903226 0.903226
0.000000000 0.003922000 0.000000000
0.117899641 0.000000000 0.007084001
0.251486301 0.003922000 0.001517998
0.400758922 0.005060354 0.005566002
0.547628343 0.003922000 0.001518192
0.716761470 0.021378737 0.001897740
0.868184865 0.047690995 0.022517283
0.991144776 0.085135974 0.068184808
0.015686000 0.117899641 0.000000000
0.119038090 0.122201093 0.000000000
0.259329289 0.123339638 0.007084000
0.396837652 0.130044177 0.000759096
0.543200791 0.138646275 0.005566002
0.704364479 0.150411278 0.006198804
0.851612806 0.160658002 0.026818736
0.980392218 0.174067199 0.058697090
0.060215093 0.261733115 0.001517998
0.152688101 0.266414106 0.000379548
0.277293205 0.271853179 0.000000000
0.428968847 0.276913553 0.011765000
0.578115404 0.289943188 0.014041902
0.728652477 0.295383006 0.017077995
0.877672374 0.300063282 0.048450094
0.993674815 0.304364353 0.087918818
0.114484638 0.422896892 0.011765000
0.198355719 0.427324563 0.005819353
0.326375455 0.429348826 0.012776639
0.455913901 0.431751907 0.020240286
0.596331000 0.434535265 0.027830549
0.730803311 0.435040921 0.048070736
0.865528286 0.430613250 0.065780923
0.980265439 0.434282124 0.115116812
0.180139184 0.584693372 0.007843000
0.246047080 0.598735154 0.012903353
0.360531181 0.594686985 0.019481095
0.485009283 0.593169153 0.033270355
0.625427246 0.591650963 0.045287997
0.758633673 0.584946156 0.062112540
0.880076230 0.576723456 0.098545283
0.992409945 0.572043002 0.148766190
0.256799728 0.756735981 0.090449013
0.306641102 0.765971184 0.105502546
0.402783096 0.763061643 0.106767640
0.523971915 0.755597353 0.111574732
0.646299839 0.746869206 0.114484727
0.779886007 0.738646746 0.133079991
0.898292243 0.724478006 0.162934735
0.996204793 0.714231610 0.211890951
0.305502683 0.856420279 0.161669850
0.347881019 0.868943572 0.174826264
0.427830398 0.863757133 0.186084464
0.526755035 0.859709263 0.186337918
0.640986621 0.852625132 0.194560468
0.761164188 0.847312272 0.207716718
0.879317284 0.842378557 0.226691976
0.990385830 0.826059580 0.261606514
0.425426573 0.967615783 0.325995922
0.451739520 0.976596951 0.352940857
0.505502820 0.973940790 0.352940857
0.584946334 0.970398426 0.355344951
0.673877120 0.968500793 0.364073247
0.776090801 0.961796045 0.370398462
0.883617818 0.955850780 0.389500409
0.993674815 0.953193963 0.425553411
0.000000000 0.003922000 0.090069994
0.107274093 0.000000000 0.102593094
0.255787641 0.000000000 0.110056639
0.391651183 0.000759096 0.109677091
0.545224369 0.004680806 0.114737444
0.708918273 0.016824741 0.124604806
0.849462271 0.039088998 0.136495993
0.984440029 0.074130073 0.144212514
0.013282999 0.113599092 0.103731647
0.137128085 0.118279092 0.102213547
0.248703629 0.122580640 0.103352092
0.390512615 0.127261430 0.110056639
0.534218550 0.132447898 0.118785545
0.682732582 0.141429543 0.121442094
0.831245959 0.149525568 0.126628563
0.969765782 0.160784230 0.141682088
0.054395646 0.256546646 0.113219544
0.157115549 0.262871653 0.113598995
0.277672648 0.261606276 0.109171547
0.416318744 0.269070446 0.122580640
0.563187480 0.278052092 0.129285082
0.712966442 0.283238620 0.128399894
0.851612628 0.290702194 0.144465551
0.985072315 0.296900809 0.152688086
0.112587087 0.404933900 0.114484727
0.192915827 0.408095986 0.125237092
0.313093185 0.409740835 0.119671181
0.435546935 0.417204440 0.123971827
0.579759777 0.421252280 0.130676895
0.712966204 0.423276722 0.137001976
0.853763640 0.425300360 0.151802376
0.977735400 0.423276424 0.166477084
0.164832652 0.564452946 0.121062450
0.238962889 0.572295785 0.123086706
0.339279115 0.579127133 0.126881987
0.471220702 0.573561072 0.132321179
0.605692565 0.573181570 0.133586541
0.737381458 0.570018828 0.138899341
0.862365544 0.566223860 0.162428737
0.985072613 0.563820541 0.199999914
0.242631361 0.741682470 0.159645736
0.294244528 0.742567956 0.166223839
0.393295377 0.742062092 0.171030834
0.508539021 0.742188394 0.171030834
0.638329923 0.737001896 0.178874001
0.770398319 0.725616515 0.187982082
0.883491755 0.717900097 0.203415558
0.989879608 0.705249906 0.243010417
0.283997744 0.841239870 0.196710810
0.334092557 0.848830283 0.206704661
0.411891550 0.848703265 0.210499659
0.517899930 0.845161319 0.215433002
0.629981101 0.844022870 0.225806728
0.750790358 0.836558819 0.234661371
0.872106314 0.838583112 0.253004521
0.983681262 0.822770536 0.289310724
0.417836905 0.966730058 0.332574308
0.445667267 0.969892502 0.364199787
0.502846181 0.968753934 0.371283859
0.581024945 0.960910380 0.369765967
0.666793466 0.962175608 0.377482474
0.771410704 0.956609726 0.385705024
0.881341100 0.952308357 0.404300988
0.990765214 0.947501659 0.428716123
0.000759096 0.000000000 0.213029996
0.115876094 0.000379548 0.223276183
0.257052183 0.003922000 0.234282091
0.397976279 0.001138644 0.238962993
0.551423252 0.000759096 0.239722088
0.711701572 0.000000000 0.248324186
0.860341311 0.001644712 0.251486272
0.982669055 0.036305957 0.254522175
0.004301452 0.112839997 0.220999196
0.116635092 0.114357993 0.226439089
0.259329289 0.120682992 0.230739728
0.397217184 0.117899641 0.230739728
0.542441785 0.118785545 0.236306459
0.688678145 0.120683186 0.233016923
0.840607405 0.130930007 0.243643090
0.971536934 0.145730376 0.254269660
0.044655003 0.251486301 0.229601189
0.153953537 0.256167084 0.240480989
0.277293175 0.264010191 0.243643090
0.417963654 0.267552525 0.243263736
0.567236185 0.271853179 0.244402185
0.714231670 0.279443383 0.251106739
0.857938051 0.278937101 0.255407900
0.988614798 0.289943188 0.265148818
0.082226284 0.408222914 0.235547170
0.177735180 0.407843381 0.243517086
0.306894273 0.411005557 0.243896529
0.432890564 0.411005557 0.238329917
0.580265641 0.410625905 0.246173635
0.714231491 0.415686458 0.254775733
0.850347936 0.422137976 0.260341614
0.979000568 0.424920917 0.270841390
0.142568097 0.564200163 0.240354270
0.216192201 0.566477060 0.246426538
0.340923190 0.571284115 0.248323992
0.465780914 0.572043180 0.249462634
0.603415370 0.568880260 0.248450100
0.735863328 0.563693941 0.258570373
0.867552280 0.563440919 0.270841271
0.984313428 0.564200163 0.295129836
0.229348734 0.737254739 0.273371369
0.282605827 0.738646746 0.281720459
0.383175105 0.737381339 0.280582070
0.503605485 0.735863388 0.281340897
0.634408593 0.730044067 0.283997446
0.762302756 0.722959757 0.291461200
0.884250641 0.707273901 0.295508921
0.990385711 0.702846348 0.330297172
0.288298488 0.841745555 0.286527276
0.329285026 0.843010604 0.301455110
0.406578094 0.841745555 0.307020903
0.510183334 0.840860367 0.308918476
0.629222095 0.838456571 0.310689449
0.749905109 0.834155679 0.319291472
0.873750567 0.836179256 0.333333492
0.984566510 0.824415267 0.364073277
0.408348799 0.963693798 0.404806882
0.443643391 0.961922824 0.414927065
0.499810100 0.964452863 0.420366764
0.576976657 0.960530877 0.427451044
0.663630307 0.957874537 0.435294151
0.768121481 0.952308536 0.438203543
0.873750567 0.952941120 0.453004211
0.989626765 0.947628081 0.478810698
0.002276998 0.001138644 0.347501636
0.129285172 0.000000000 0.356483281
0.261733115 0.000379548 0.362808198
0.400758922 0.000000000 0.368247986
0.559771955 0.001138644 0.383934289
0.719418049 0.000000000 0.392030627
0.861353278 0.001138644 0.377229661
0.990006149 0.005312988 0.383934289
0.005060451 0.108159095 0.346110284
0.131182730 0.112460449 0.353699833
0.262492090 0.107653543 0.359266520
0.406704366 0.108918190 0.365085185
0.551929057 0.107400283 0.372169286
0.701707840 0.100316189 0.369386733
0.848956287 0.093611635 0.374067008
0.984819531 0.112460166 0.379000455
0.029095907 0.253890216 0.375332177
0.145730272 0.249462649 0.369386643
0.288045555 0.255787641 0.373687357
0.428589284 0.264896005 0.376091272
0.576217890 0.264516443 0.387476563
0.720936179 0.260088384 0.378747761
0.863504410 0.265528083 0.382669032
0.987855732 0.286527663 0.393674850
0.075142287 0.408728540 0.380138934
0.172296196 0.418216288 0.386463940
0.301960737 0.415812463 0.392030716
0.445160925 0.415432930 0.385199279
0.580265641 0.412776470 0.384440362
0.716635346 0.413155913 0.376723289
0.854775548 0.418722630 0.382922292
0.979253590 0.420999646 0.394687265
0.085009642 0.566603363 0.384060889
0.187982187 0.576470613 0.388361722
0.324857652 0.579253256 0.384313822
0.467552453 0.574066937 0.385199457
0.607969582 0.570145547 0.383554727
0.737887561 0.564705789 0.392283469
0.864389420 0.562302530 0.403542280
0.981910110 0.565717876 0.413915306
0.211764902 0.735863388 0.407716811
0.280202538 0.739658535 0.411132425
0.380518526 0.736369729 0.409867376
0.501201749 0.731562078 0.413409531
0.630993187 0.730550230 0.413662195
0.764073431 0.724604666 0.414421380
0.877672553 0.708791673 0.415306896
0.988614798 0.705249965 0.450221360
0.283111930 0.842884243 0.423150003
0.333712965 0.846552908 0.424541205
0.411385119 0.842251658 0.426312298
0.514484644 0.844528913 0.428842634
0.628589272 0.842504680 0.429348379
0.753194094 0.839342177 0.433902591
0.874256909 0.836179256 0.449588984
0.985199153 0.824415267 0.470841080
0.417330831 0.958633423 0.497280270
0.455407977 0.961669803 0.503478467
0.507906318 0.962555170 0.515117228
0.579885960 0.961416781 0.517140985
0.667552352 0.958506942 0.519544780
0.767615497 0.951423049 0.524731219
0.876660466 0.949146152 0.536621988
0.986210942 0.950790405 0.546869278
0.009361193 0.002403808 0.489689976
0.137887090 0.001138644 0.499051183
0.273497909 0.000000000 0.493485272
0.408475727 0.000379548 0.505629599
0.560025156 0.002403808 0.513219357
0.718279660 0.000000000 0.530423582
0.858823478 0.001518192 0.519418240
0.982036591 0.007969820 0.516255379
0.007084001 0.101454742 0.483618021
0.134724900 0.112080902 0.494750023
0.269449979 0.105376452 0.496267915
0.412903279 0.104237899 0.502214074
0.553067386 0.100443006 0.505755782
0.702719569 0.082985379 0.507147431
0.845793784 0.079063900 0.509930253
0.981404066 0.109424211 0.509171486
0.003921807 0.253890097 0.507527173
0.137128189 0.256672740 0.520556629
0.285136193 0.256293297 0.518659174
0.434914380 0.254269660 0.518279672
0.577482581 0.251486301 0.519418240
0.724857450 0.256293297 0.522200942
0.861100376 0.261733115 0.515496314
0.988614798 0.280329078 0.520556509
0.029348448 0.407210469 0.513978601
0.159140006 0.409993798 0.524731159
0.296774268 0.406830937 0.523972154
0.440480918 0.403289080 0.522706807
0.583048999 0.404807270 0.517520368
0.725363433 0.409614265 0.516508818
0.857179165 0.416698396 0.521568418
0.978241503 0.427450955 0.523719192
0.094750196 0.565085411 0.528652608
0.186843738 0.573687375 0.532827437
0.318785280 0.577609062 0.537634373
0.463503927 0.571663499 0.533712983
0.604933560 0.568121433 0.532827377
0.732574463 0.566223741 0.536369443
0.865401447 0.563440919 0.536116183
0.986084759 0.568500817 0.545856833
0.228336617 0.733333528 0.554332674
0.288804531 0.737254918 0.557621837
0.384820104 0.733586431 0.554838598
0.504744053 0.729158878 0.556103587
0.626945019 0.727766812 0.549398959
0.757494986 0.724225283 0.544971406
0.875522256 0.712333977 0.555091619
0.984060585 0.710689604 0.572169423
0.312460452 0.844908476 0.550664365
0.361796439 0.849335968 0.563061595
0.423276186 0.847312272 0.558127999
0.516128838 0.844908297 0.557368875
0.630234003 0.847312272 0.560784459
0.750031233 0.837823987 0.558886766
0.874509871 0.836938381 0.569386423
0.984313309 0.829981029 0.582289815
0.426565617 0.958127797 0.598102331
0.464010000 0.959771752 0.610120356
0.513978422 0.958633542 0.616192102
0.582036555 0.959392607 0.616950989
0.671979725 0.954332590 0.615939200
0.769892514 0.952435195 0.621252477
0.878558040 0.948387265 0.630233884
0.978494763 0.946742654 0.638203621
0.021631744 0.002024260 0.636432707
0.145350635 0.002024260 0.636559248
0.282732308 0.000000000 0.638962507
0.422643930 0.001138644 0.648956120
0.565591216 0.000000000 0.654522538
0.709171474 0.000000000 0.652245700
0.848450303 0.001644712 0.653763413
0.985325694 0.000000000 0.650221467
0.002024260 0.099177547 0.619101942
0.130423635 0.099557288 0.631625712
0.271347553 0.096521199 0.635547101
0.413029730 0.083364829 0.637444437
0.552561760 0.073371552 0.639089346
0.704111397 0.054269612 0.647311687
0.846046627 0.051233541 0.642378449
0.978367984 0.088804550 0.642884135
0.001517998 0.244781733 0.645414472
0.123339631 0.244781837 0.646932364
0.277672440 0.246299922 0.652371526
0.428842753 0.239215627 0.655154943
0.573434353 0.239342347 0.650853574
0.721948147 0.235293821 0.654396057
0.854775548 0.249842182 0.649462402
0.984313607 0.277040005 0.652498484
0.001138644 0.393042266 0.650347888
0.115623176 0.393042266 0.663757205
0.274003983 0.390638471 0.654648721
0.429474920 0.392663002 0.657811344
0.585958362 0.394180924 0.661733329
0.723719358 0.390765280 0.650853574
0.855028331 0.402150512 0.645287752
0.975458622 0.422011286 0.650853992
0.028842188 0.551423371 0.666287124
0.162175909 0.554838836 0.659709215
0.300189912 0.560531080 0.669322968
0.445793986 0.554964960 0.661986351
0.592662752 0.553067565 0.663883686
0.732574463 0.558507383 0.664389670
0.858317554 0.564325988 0.660468221
0.970651805 0.579380095 0.668184519
0.209360719 0.725110471 0.687665761
0.267046094 0.729538441 0.682985544
0.371157587 0.731941581 0.688804388
0.493611455 0.722833753 0.682985604
0.623023391 0.717014492 0.678178489
0.746489704 0.709171474 0.677672446
0.860720813 0.711068690 0.683871210
0.979885876 0.709171474 0.689563632
0.308539033 0.841619492 0.674383461
0.352688283 0.842757702 0.671220541
0.425933301 0.840354323 0.676913321
0.525363684 0.837697446 0.684503496
0.633143663 0.836812317 0.684376895
0.748007417 0.838077009 0.683238268
0.868184805 0.836812317 0.684630156
0.974826038 0.828715801 0.702972949
0.464389622 0.955850780 0.718532443
0.497406512 0.950790763 0.713725448
0.539025843 0.952308595 0.725490332
0.596457779 0.953320801 0.719418049
0.665401697 0.949525714 0.714990556
0.766982675 0.948766708 0.713978708
0.870588541 0.948639929 0.719671130
0.982162774 0.947501540 0.736369550
0.010120288 0.006198708 0.781910300
0.152814999 0.003542452 0.787096977
0.284503222 0.000000000 0.780265391
0.425300360 0.002277288 0.785704911
0.571157396 0.000000000 0.787476540
0.709044993 0.001897740 0.788108587
0.859329522 0.000000000 0.792030573
0.985705197 0.000000000 0.781024575
0.000000000 0.086527549 0.776597261
0.139405549 0.083112098 0.775711536
0.277292907 0.076913387 0.777608871
0.421125919 0.067046158 0.786590636
0.564200103 0.045034643 0.781783760
0.705123484 0.019228645 0.782415926
0.854016542 0.008349185 0.786717474
0.972169459 0.066919439 0.772548795
0.000000000 0.230234176 0.783428490
0.104617454 0.233522996 0.789753497
0.267805099 0.233396292 0.788614571
0.419228256 0.231498837 0.788614929
0.568880260 0.231878474 0.790512443
0.708538711 0.229854539 0.791018248
0.864895821 0.231751978 0.796078265
0.983807683 0.261100441 0.781277478
0.001644712 0.379000276 0.793042541
0.034281991 0.383301646 0.792915583
0.261606276 0.379886091 0.791271389
0.415939271 0.381150931 0.790891886
0.574067116 0.380138904 0.791651011
0.712586820 0.383807451 0.792536080
0.863757193 0.388488263 0.785958171
0.974572897 0.407210559 0.776597321
0.001518192 0.537381172 0.793042302
0.119924188 0.540037811 0.791271389
0.279570103 0.542947412 0.793548346
0.426312476 0.541808784 0.796331286
0.578874350 0.540544093 0.794433773
0.725237191 0.544845045 0.799620569
0.862112463 0.550664186 0.794433773
0.971284032 0.567741990 0.777735829
0.184060559 0.699683726 0.808348835
0.243769735 0.711195409 0.809867024
0.347122014 0.708791971 0.805945575
0.473244905 0.704490900 0.802403390
0.601265073 0.703984916 0.798355341
0.729031980 0.702973247 0.799241006
0.862745106 0.705123484 0.801897705
0.964705765 0.717646897 0.801138759
0.297279954 0.843010545 0.796584547
0.337128520 0.839469016 0.810246587
0.410499662 0.840733826 0.804807246
0.520177007 0.836812317 0.807589889
0.627703905 0.838583112 0.805692255
0.746489763 0.832637787 0.805566251
0.863630295 0.832890272 0.807716489
0.960657597 0.834535003 0.817078054
0.464895695 0.948766768 0.803541780
0.483112037 0.950284541 0.809107900
0.527008235 0.947122097 0.815686524
0.601391435 0.948260486 0.818975329
0.686021566 0.948387146 0.825806260
0.779000998 0.947122097 0.827071428
0.866666615 0.946363032 0.829348683
0.963440657 0.952941239 0.836053312
0.005186845 0.003922000 0.911448598
0.144339100 0.002277285 0.914990544
0.283618182 0.001265167 0.922706902
0.425173938 0.001265167 0.918026805
0.569639206 0.000000000 0.916761637
0.706388652 0.000000000 0.915622771
0.848197401 0.001644712 0.916761637
0.982036650 0.000000000 0.920682907
0.002530012 0.075521640 0.912587047
0.128273562 0.074130557 0.914610982
0.274383187 0.067678638 0.912713706
0.419101804 0.059076447 0.912839949
0.561416745 0.043390546 0.910436451
0.703352332 0.027577538 0.911321998
0.840354264 0.027830178 0.912839949
0.984313309 0.053130999 0.920809329
0.002656832 0.227451012 0.911448419
0.083617851 0.234788060 0.916255355
0.266413987 0.231878281 0.915117085
0.418089896 0.226818457 0.918406248
0.559013188 0.228716195 0.918026626
0.705629706 0.231878281 0.920429945
0.845161080 0.238077372 0.917647243
0.988614798 0.251612931 0.924983859
0.001518189 0.370271921 0.912839949
0.014168538 0.370904535 0.918152809
0.242504656 0.375584930 0.915622890
0.405439436 0.377735496 0.923212945
0.552435398 0.379253298 0.913345993
0.701454878 0.380265445 0.915117025
0.846679211 0.385325491 0.916382074
0.984819591 0.401644260 0.920935988
0.004048204 0.526881754 0.912460446
0.057685077 0.526881754 0.919544578
0.249715477 0.528905451 0.921821713
0.410878927 0.527767003 0.922706962
0.562428355 0.533206522 0.916508615
0.705249965 0.539911151 0.920936167
0.846046925 0.542567968 0.917267561
0.985578775 0.558507383 0.918026745
0.167994842 0.694623649 0.916508675
0.231246009 0.687286317 0.921315670
0.337381244 0.691207886 0.918658853
0.458950192 0.688804567 0.920809627
0.589373887 0.691207886 0.920429766
0.720556676 0.691460729 0.926375628
0.850727737 0.698545277 0.918152928
0.973813653 0.712207496 0.923719049
0.302466899 0.835546911 0.920430243
0.344845116 0.833143592 0.918658972
0.415053666 0.830613554 0.919165075
0.514231443 0.828715980 0.920429945
0.622897089 0.828715980 0.922833502
0.737508237 0.828336418 0.921947837
0.848829925 0.833775997 0.922833502
0.968627334 0.838456571 0.923213184
0.454016626 0.955850840 0.921821654
0.471853614 0.963061512 0.927514195
0.519924104 0.961669505 0.930297077
0.588867605 0.954585612 0.925489962
0.675015748 0.947880983 0.929790795
0.775964618 0.949398816 0.923845530
0.866413534 0.943200469 0.927514017
0.951928794 0.948007762 0.931055903
