Assets/EldamarStudio/100 Retro LUTs Pack/LUTs/cube/Joanne LUT.cube
DOMAIN_MIN 0 0 0
DOMAIN_MAX 1 1 1
LUT_3D_SIZE 32
0.000000000 0.003922000 0.000000000
0.018215999 0.000885613 0.000000000
0.042884320 0.002150774 0.000000000
0.076533996 0.002656839 0.002529999
0.117899641 0.000000000 0.007084001
0.151296809 0.000000000 0.001012001
0.187223643 0.000000000 0.005059999
0.220366985 0.001644708 0.004554003
0.251486301 0.003922000 0.001517998
0.284883469 0.003921998 0.007589996
0.321188986 0.001012129 0.002024001
0.361669481 0.002024256 0.004047996
0.400758922 0.005060354 0.005566002
0.434156030 0.007590032 0.000000000
0.467552394 0.004554423 0.000000000
0.508159578 0.003922000 0.000000000
0.547628343 0.003922000 0.001518192
0.585958481 0.005186992 0.003289424
0.631499052 0.011259004 0.000253032
0.674256742 0.014547647 0.000000000
0.716761470 0.021378737 0.001897740
0.757242262 0.029474998 0.004933870
0.793801486 0.035546992 0.008095992
0.833269954 0.041618999 0.014168002
0.868184865 0.047690995 0.022517283
0.902972937 0.055154663 0.033016980
0.938393116 0.064263061 0.044655062
0.968753874 0.073371440 0.053763442
0.991144776 0.085135974 0.068184808
1.000000000 0.097279958 0.083365180
1.000000000 0.109424204 0.098545365
1.000000000 0.121569000 0.113724999
0.003036387 0.019101612 0.000000000
0.015180386 0.019101612 0.000000000
0.048450161 0.020366773 0.002150774
0.083111934 0.022138000 0.001771226
0.121315479 0.022011386 0.003288999
0.157368809 0.027324386 0.013156001
0.188235641 0.024794711 0.002024001
0.223655984 0.027577773 0.001771000
0.256799191 0.031246386 0.000000000
0.287919074 0.031246390 0.001517999
0.321315467 0.034155514 0.001770999
0.359645754 0.033396386 0.002024256
0.398861676 0.035420641 0.004807387
0.434408993 0.037950739 0.002783355
0.470587999 0.034914419 0.000000000
0.506388187 0.036685802 0.000000000
0.546110153 0.040354382 0.000000000
0.585326076 0.044022962 0.002150605
0.628463387 0.047691781 0.006325034
0.676787138 0.053763777 0.008855356
0.716002405 0.055155158 0.009108387
0.754205883 0.059835769 0.012017999
0.790765107 0.065907761 0.017077867
0.830234289 0.071979776 0.020240001
0.867425919 0.078051768 0.026312578
0.902972937 0.086906753 0.033270378
0.938899159 0.096141383 0.042125385
0.971790254 0.097659439 0.053763442
0.991524339 0.104110986 0.062871821
1.000000000 0.115496412 0.077293180
1.000000000 0.126755148 0.096900955
1.000000000 0.136748612 0.122833386
0.001771226 0.047185320 0.000000000
0.024667999 0.049335547 0.002150774
0.045414548 0.049335547 0.000000000
0.087412924 0.052371934 0.005566387
0.124984093 0.053257547 0.005313226
0.154332876 0.055787548 0.005059999
0.190006644 0.060721096 0.007716776
0.225300699 0.057685066 0.002150774
0.260720938 0.060721003 0.001391678
0.291081786 0.060721003 0.000000001
0.324351639 0.063630678 0.002150774
0.359772265 0.064642549 0.002150774
0.396837652 0.064642549 0.002783356
0.432258278 0.066666812 0.001771226
0.468690753 0.067425907 0.000632584
0.505123317 0.069196574 0.000000000
0.543073893 0.072232962 0.001518192
0.583807886 0.077039964 0.002150775
0.627830982 0.080075972 0.005186778
0.671600759 0.083744779 0.008475583
0.712586999 0.087919027 0.011511967
0.750031352 0.089184128 0.012776870
0.787855744 0.094117761 0.017710218
0.829348743 0.100189775 0.022770097
0.864389777 0.104111545 0.023782030
0.900822520 0.110183530 0.031246115
0.936748803 0.118785545 0.039089225
0.970145524 0.118785545 0.051233210
0.988108933 0.126248762 0.062871821
0.997469723 0.132321209 0.077292942
0.997849226 0.143706754 0.094623804
0.997849226 0.154079556 0.121188998
0.005059999 0.081846997 0.000000000
0.031119546 0.082352929 0.003036387
0.057558548 0.085768320 0.003036387
0.081846990 0.085768320 0.000000000
0.127007917 0.088045612 0.007969839
0.156609699 0.087159999 0.001518066
0.189753637 0.092220321 0.001265161
0.224035531 0.093358614 0.005186839
0.261986136 0.091840416 0.005186838
0.292852998 0.092346482 0.002656515
0.326122880 0.093991190 0.001644709
0.361543506 0.096268162 0.002656839
0.396837652 0.097406805 0.003795483
0.430740029 0.097533323 0.001265161
0.468184650 0.099557571 0.001265161
0.503352582 0.102593347 0.002529999
0.542568326 0.105629347 0.000253031
0.582036674 0.108665571 0.003921830
0.626312792 0.111701198 0.005186839
0.669070601 0.114737518 0.005439809
0.707780182 0.117773741 0.008475579
0.744212449 0.119797483 0.010499839
0.783301950 0.122707307 0.013535505
0.823529482 0.128779322 0.020746164
0.861733317 0.131309450 0.026059322
0.893990993 0.133207142 0.027703661
0.929917872 0.138773099 0.036305998
0.963314414 0.139532000 0.046931986
0.985831797 0.148766622 0.061606653
0.995192945 0.154838428 0.077292942
0.997343183 0.159139991 0.093737982
0.997343183 0.169766009 0.113851838
0.015686000 0.117899641 0.000000000
0.041113321 0.115243480 0.002656839
0.067552321 0.117900096 0.003922000
0.093232095 0.122201093 0.003415838
0.119038090 0.122201093 0.000000000
0.161542863 0.119164705 0.000000000
0.196837410 0.123339638 0.000379548
0.227830544 0.124478385 0.002529998
0.259329289 0.123339638 0.007084000
0.292726457 0.126376018 0.007083998
0.326502323 0.125743538 0.002403549
0.361163944 0.127387822 0.000379548
0.396837652 0.130044177 0.000759096
0.430487067 0.133333534 0.004048452
0.469828933 0.133586541 0.004301451
0.505629420 0.135610282 0.005566192
0.543200791 0.138646275 0.005566002
0.585073054 0.141682506 0.001264992
0.624541581 0.144718125 0.007336998
0.666034222 0.148133904 0.006198803
0.704364479 0.150411278 0.006198804
0.740417719 0.152814999 0.008601999
0.776850462 0.152814999 0.008854991
0.813282549 0.158381000 0.017710356
0.851612806 0.160658002 0.026818736
0.888045490 0.160658002 0.033143867
0.918911636 0.161164030 0.036685545
0.952308774 0.164199635 0.042757541
0.980392218 0.174067199 0.058697090
0.995319426 0.181277856 0.076154396
1.000000000 0.184187084 0.092978984
1.000000000 0.184187084 0.105122998
0.015686000 0.151296809 0.000000000
0.049083158 0.151296809 0.000000000
0.076660708 0.150790870 0.002656839
0.101455092 0.154332876 0.005186839
0.125110865 0.158633873 0.006072000
0.161542863 0.158633873 0.000000000
0.198987633 0.160657465 0.002530322
0.228336468 0.160910711 0.001771227
0.256673127 0.160151869 0.001012001
0.292726457 0.165844411 0.001012002
0.329032004 0.160151944 0.003921871
0.360910565 0.159139931 0.003415935
0.394560337 0.159645870 0.002277291
0.430487067 0.160657942 0.001012065
0.466919810 0.166729927 0.007084059
0.508665502 0.166982919 0.002530069
0.548134208 0.169007048 0.004047998
0.588108778 0.172043279 0.006831001
0.627577960 0.175078914 0.007337007
0.664262950 0.180897862 0.013409002
0.699810207 0.180771679 0.012270806
0.733713150 0.180771798 0.012270805
0.767742097 0.183174998 0.014926990
0.804174900 0.183174998 0.020999001
0.840607524 0.188740999 0.029854348
0.878937602 0.191018000 0.036179736
0.915875971 0.191524059 0.039721932
0.949272394 0.194560409 0.045793928
0.977355838 0.197596699 0.057178907
0.992283046 0.203921914 0.070335031
0.997469664 0.209487855 0.084376656
1.000000000 0.214547858 0.099050999
0.033396319 0.192283645 0.000000000
0.059203155 0.192283645 0.000000000
0.088298768 0.194433868 0.000000000
0.116888314 0.194813311 0.002656839
0.142694861 0.197216868 0.004933775
0.172675639 0.195066646 0.001012001
0.206577957 0.200126633 0.000000000
0.244655013 0.201517954 0.001391678
0.276407182 0.200126633 0.000759096
0.312839985 0.202656627 0.002530323
0.341682315 0.204680309 0.002909871
0.376091063 0.200632572 0.005945740
0.410373271 0.201264992 0.005313323
0.448450357 0.202909350 0.002783290
0.487159818 0.206704631 0.006577994
0.533206582 0.212776631 0.010246804
0.572928369 0.216065630 0.009108126
0.611384988 0.218848884 0.012902999
0.650854230 0.218089998 0.012903000
0.687539339 0.218848959 0.013409004
0.727766752 0.224920958 0.021378737
0.762049258 0.223782510 0.023908995
0.794054329 0.223655641 0.028589312
0.830487132 0.223655641 0.034661323
0.864642560 0.225932926 0.040733315
0.899430633 0.230360270 0.048197344
0.935104132 0.232004702 0.053890318
0.966476738 0.235041097 0.064010315
0.984440088 0.238077462 0.077925615
0.995825291 0.241113394 0.091840364
0.997722745 0.247311905 0.103857920
0.997469664 0.255028635 0.115749314
0.048070703 0.229854703 0.000000000
0.074003763 0.226565704 0.000000000
0.095509060 0.230360642 0.001644708
0.121568613 0.233396560 0.000379547
0.151549831 0.233017012 0.002277292
0.181404218 0.228715926 0.000506065
0.215433314 0.233270392 0.003288997
0.243896410 0.237697691 0.000000000
0.283364832 0.238456786 0.000000000
0.320683002 0.239342406 0.002150777
0.351675868 0.238962516 0.003922000
0.387982041 0.241239667 0.007590448
0.421379209 0.240480766 0.009487708
0.459835738 0.243769407 0.007210997
0.499304086 0.248197109 0.008855286
0.539405286 0.251992404 0.010246804
0.584946096 0.255028397 0.010246808
0.621631861 0.260214984 0.014294568
0.660088956 0.259203374 0.017330704
0.696774006 0.258950412 0.014041712
0.733712494 0.259456396 0.018089741
0.776217282 0.264516264 0.028209999
0.809361041 0.262871414 0.035546992
0.845793843 0.262871414 0.041618999
0.879949272 0.265148669 0.047690995
0.913345635 0.268184721 0.053763345
0.946236134 0.270208478 0.061353933
0.976596832 0.270967841 0.074636281
0.993674815 0.274003804 0.086148098
1.000000000 0.277040154 0.102972731
0.997343421 0.281846762 0.116381600
0.992789030 0.290954977 0.125489995
0.060215093 0.261733115 0.001517998
0.083744384 0.258697093 0.000000000
0.106135190 0.258950174 0.001391678
0.126881331 0.262998283 0.002656839
0.152688101 0.266414106 0.000379548
0.186464012 0.261859387 0.000759096
0.217836738 0.264389724 0.004301096
0.250727326 0.268817365 0.004554004
0.277293205 0.271853179 0.000000000
0.316761613 0.274889588 0.000000002
0.352688074 0.273624241 0.004427868
0.389879584 0.275395453 0.007210900
0.428968847 0.276913553 0.011765000
0.462618977 0.279696196 0.012017968
0.501581371 0.284756213 0.012523903
0.540164590 0.288424999 0.013282999
0.578115404 0.289943188 0.014041902
0.619355142 0.291840583 0.010373104
0.655788004 0.295129985 0.018848967
0.692979097 0.295383006 0.017837090
0.728652477 0.295383006 0.017077995
0.764832199 0.296395063 0.023655998
0.807083964 0.299051195 0.035673503
0.843516767 0.297786206 0.042378098
0.877672374 0.300063282 0.048450094
0.911068738 0.302340418 0.056040246
0.944971204 0.305882096 0.063630961
0.975837946 0.303605437 0.078810625
0.993674815 0.304364353 0.087918818
1.000000000 0.308159292 0.100821942
0.998102486 0.312207580 0.117140695
0.988994062 0.321315199 0.126249090
0.081467502 0.289057523 0.007589998
0.093611494 0.295129508 0.001518000
0.114990547 0.294244289 0.000000001
0.139025971 0.292852998 0.000126517
0.164832115 0.293738514 0.000379548
0.201264873 0.299810529 0.003415937
0.222391143 0.300316483 0.003795484
0.251233488 0.302213788 0.002403776
0.286400825 0.305249631 0.000000003
0.319797993 0.308286011 0.000000002
0.362176239 0.311321616 0.008728866
0.398229212 0.316129029 0.009487743
0.432005137 0.318659365 0.009108162
0.465654582 0.316128999 0.012017970
0.502087295 0.316128999 0.015053578
0.543453574 0.318785787 0.017963324
0.582669377 0.320304006 0.022391001
0.619355142 0.322201401 0.025553498
0.655788004 0.331309021 0.019481499
0.695003390 0.331815004 0.027957365
0.730550170 0.331815004 0.028842751
0.764073133 0.332827151 0.029222002
0.797975540 0.335483998 0.035673510
0.834408343 0.329411983 0.044781912
0.868564367 0.330423713 0.051486488
0.901961148 0.332068026 0.060341470
0.935863614 0.333206505 0.072738588
0.972296357 0.339278519 0.087918952
0.992536426 0.337001860 0.095129468
1.000000000 0.339531958 0.104869962
0.998229027 0.345477521 0.117267206
0.992030442 0.351675987 0.129285485
0.099809997 0.328019857 0.004933871
0.106134996 0.334092617 0.001771000
0.122580543 0.335863620 0.002150774
0.149146140 0.334851742 0.001644709
0.178367972 0.335231185 0.000758999
0.204680741 0.338772863 0.006325063
0.238583192 0.342315167 0.001771130
0.265275389 0.342694730 0.004301126
0.298418820 0.344465524 0.005818998
0.331815481 0.347501338 0.005818997
0.365211844 0.347627848 0.002909870
0.401644349 0.346616000 0.009993996
0.436179399 0.350031883 0.011891224
0.471600056 0.352308720 0.014674129
0.508032858 0.349651873 0.015053578
0.544465601 0.354458869 0.022896798
0.587476194 0.358001202 0.026945192
0.626818299 0.359392852 0.031625863
0.658697128 0.361669749 0.034661870
0.695129871 0.362428725 0.034155872
0.728779435 0.362428725 0.035294257
0.763188004 0.362428725 0.036306124
0.799999893 0.363440871 0.044402372
0.825300694 0.362934887 0.053510774
0.859456182 0.363694161 0.060341865
0.891461074 0.363946944 0.067805178
0.924857438 0.362428725 0.077419125
0.966097116 0.363693744 0.085389301
0.991903901 0.364452749 0.089943022
1.000000000 0.366982847 0.102845944
1.000000000 0.372169465 0.117267206
0.997976005 0.376217753 0.129411995
0.103858262 0.367488742 0.007969996
0.124098502 0.371536762 0.006957865
0.136748806 0.375332236 0.006198770
0.156230420 0.375332236 0.005439997
0.186590806 0.375711769 0.002403707
0.215812862 0.378747821 0.006830999
0.247691318 0.381783545 0.010878993
0.277798712 0.381530941 0.004806995
0.307779908 0.381910414 0.010120094
0.339911520 0.384946018 0.013915250
0.371284127 0.383048743 0.008981868
0.404680490 0.385072500 0.009993736
0.438076884 0.384313881 0.013788740
0.473877102 0.388994515 0.016191998
0.512081087 0.387729347 0.019733995
0.548513293 0.387855738 0.022896798
0.581910074 0.390891761 0.028969193
0.623655677 0.392789513 0.031373002
0.658191323 0.392789513 0.034662012
0.692093730 0.394813240 0.041239738
0.726628721 0.394813240 0.039342482
0.757116020 0.393801361 0.038330127
0.793421984 0.392663002 0.045287736
0.825300813 0.390765250 0.052498393
0.858444035 0.395066261 0.061353736
0.887666047 0.396710992 0.071600400
0.917267323 0.394813240 0.082479253
0.955217838 0.394813240 0.091587633
0.983807325 0.396837503 0.099051401
0.997469664 0.395066291 0.107400209
0.997975767 0.400379241 0.122453853
0.997975767 0.404553980 0.133459985
0.114484638 0.422896892 0.011765000
0.137255013 0.423655808 0.010626356
0.157115772 0.426691681 0.010626356
0.175964803 0.427324563 0.010373354
0.198355719 0.427324563 0.005819353
0.230993211 0.429601848 0.009614062
0.264389604 0.432637572 0.015179997
0.296773970 0.432384610 0.015812645
0.326375455 0.429348826 0.012776639
0.357495278 0.431625426 0.021505479
0.385578722 0.431119800 0.014927356
0.419101864 0.429854631 0.014927384
0.455913901 0.431751907 0.020240286
0.489310294 0.434788287 0.020240286
0.527008235 0.435673922 0.024541283
0.562934935 0.434535265 0.027071448
0.596331000 0.434535265 0.027830549
0.627324343 0.433902860 0.032131925
0.665781617 0.433396906 0.033650011
0.699684024 0.435041219 0.043137293
0.730803311 0.435040921 0.048070736
0.765211880 0.435040921 0.050094992
0.795952082 0.432131767 0.053510144
0.831372797 0.429095358 0.058570284
0.865528286 0.430613250 0.065780923
0.898671329 0.433902264 0.075395294
0.923972130 0.433396339 0.089563578
0.956736028 0.432763934 0.101074986
0.980265439 0.434282124 0.115116812
0.991777003 0.436053038 0.125996247
0.996963620 0.434787869 0.141682252
0.997216642 0.440606922 0.152055636
0.145857036 0.499557078 0.011259001
0.160784394 0.497027397 0.008728613
0.178114995 0.497786313 0.007590032
0.199873313 0.499051183 0.008349000
0.224162042 0.496901035 0.008095999
0.254522830 0.496901035 0.014167999
0.286907285 0.498671740 0.020746000
0.320050687 0.499430716 0.021884711
0.353447139 0.496394962 0.020366967
0.389879942 0.493358552 0.026438963
0.415180027 0.495888889 0.018975163
0.447817504 0.495129794 0.018216254
0.485768229 0.492979020 0.022770610
0.528020084 0.492979020 0.031625967
0.561416447 0.496015429 0.031625967
0.594813406 0.494244248 0.031879000
0.626945019 0.492473006 0.030866807
0.658443689 0.492346615 0.029854568
0.691840947 0.489310980 0.038962983
0.724478364 0.489058018 0.050601039
0.754332721 0.487413317 0.058696993
0.784693241 0.485136032 0.066540025
0.820999444 0.484883040 0.078557536
0.854395866 0.481720150 0.081846938
0.885768533 0.480961055 0.088172033
0.916128993 0.481214076 0.095888659
0.946236134 0.480708092 0.105249971
0.976596832 0.477672487 0.114357568
0.993674815 0.477293044 0.133079827
0.997975826 0.479316831 0.148766413
0.996710598 0.481340587 0.164706007
0.999746978 0.484376997 0.188994035
0.154965416 0.517773807 0.005187006
0.167109415 0.520809412 0.008222619
0.184186995 0.518279731 0.005692774
0.209993318 0.520303786 0.008349260
0.241998523 0.524478376 0.013661995
0.263630450 0.530297399 0.008096005
0.291460901 0.525237381 0.019228004
0.321694970 0.529285073 0.021884711
0.351929098 0.532827079 0.018848905
0.380771577 0.529791296 0.017330591
0.411385328 0.529664814 0.020493459
0.446552664 0.530297399 0.023023412
0.483111620 0.528526187 0.026185993
0.518911660 0.526375413 0.028589582
0.558380842 0.526375413 0.034661576
0.591777205 0.524604797 0.037065379
0.625173748 0.521568596 0.039468795
0.659202695 0.520429969 0.041239567
0.697912931 0.522707343 0.045034975
0.722959995 0.522454381 0.054143354
0.752941012 0.522454381 0.060088672
0.784693241 0.520809650 0.065781124
0.820999444 0.518279374 0.075521924
0.854395866 0.512207389 0.084630325
0.887792289 0.511321843 0.099304400
0.919164896 0.512713492 0.112207383
0.949019432 0.514105141 0.123718970
0.976596832 0.511068881 0.135609940
0.993674815 0.510689437 0.144718215
0.996457994 0.514231384 0.156356618
0.993674755 0.515243173 0.171410576
0.996710598 0.508664966 0.198102415
0.166476995 0.552814782 0.006325191
0.178620994 0.551043391 0.009361418
0.192915767 0.554079533 0.014547804
0.213409126 0.556609929 0.011005991
0.244908348 0.562302530 0.012903260
0.274256736 0.560278535 0.008855000
0.298165321 0.563440740 0.005945818
0.327134401 0.559013426 0.016445104
0.357495159 0.562808394 0.017963292
0.386464298 0.561417043 0.018216321
0.416698515 0.561290562 0.018595871
0.447058767 0.561290562 0.025680253
0.483111620 0.560151935 0.026439162
0.517014086 0.557368577 0.023909034
0.556483269 0.557368577 0.036432795
0.593548656 0.559772372 0.037697803
0.625426829 0.556736350 0.040733807
0.658570111 0.553699970 0.043769576
0.696268141 0.553193927 0.046805974
0.729032040 0.553446949 0.053004555
0.757115424 0.551549733 0.062112935
0.787476242 0.550031662 0.068184666
0.820872962 0.547121763 0.077292696
0.851992667 0.545603812 0.086401097
0.883111775 0.546363115 0.100063466
0.914990306 0.545097888 0.113978662
0.945351124 0.545098066 0.125616744
0.974573195 0.542062163 0.139657989
0.993674815 0.541682601 0.141935021
0.996457994 0.543453336 0.161669791
0.993042350 0.548892736 0.179886371
0.996078014 0.547374547 0.207210809
0.180139184 0.584693372 0.007843000
0.196837366 0.586211205 0.012397192
0.205059767 0.585958183 0.014547807
0.221505314 0.590259373 0.018089809
0.246047080 0.598735154 0.012903353
0.278305143 0.597217202 0.009867257
0.305629373 0.595698833 0.011385317
0.330170393 0.596963704 0.011891283
0.360531181 0.594686985 0.019481095
0.390891999 0.594686985 0.022517482
0.421252728 0.594686985 0.024162190
0.454648972 0.593169153 0.028716249
0.485009283 0.593169153 0.033270355
0.518026173 0.590512335 0.025933027
0.554965079 0.589247167 0.036053404
0.590512574 0.591650963 0.042251997
0.625427246 0.591650963 0.045287997
0.655787349 0.588614762 0.048323765
0.690449178 0.585578620 0.051360164
0.727134585 0.586843371 0.057179194
0.758633673 0.584946156 0.062112540
0.788994193 0.580898404 0.070208803
0.819228292 0.577482581 0.078810506
0.848197460 0.577482581 0.087918907
0.880076230 0.576723456 0.098545283
0.909044862 0.575585186 0.109550990
0.939279020 0.572928369 0.122074939
0.969639480 0.570904613 0.142314911
0.992409945 0.572043002 0.148766190
0.999494016 0.567742109 0.161669403
0.995193005 0.572548747 0.188994378
0.997596204 0.579253197 0.216318801
0.194686994 0.610879540 0.007210599
0.213409394 0.617584109 0.013915013
0.224288374 0.619987547 0.016951004
0.234281883 0.622517526 0.016951004
0.252498567 0.627451062 0.017710099
0.281847298 0.632764101 0.015433507
0.309677720 0.631245792 0.018722577
0.335989982 0.630486727 0.022517452
0.362428755 0.631119132 0.026185675
0.392789572 0.631119132 0.029222062
0.422517717 0.630486727 0.031625874
0.455660969 0.628462791 0.036053423
0.491081268 0.626565516 0.040607348
0.521442056 0.626565516 0.038330056
0.554458976 0.623908699 0.041745983
0.586590827 0.624414921 0.045920569
0.619987607 0.624414921 0.051359996
0.652751565 0.622011125 0.056799576
0.683112442 0.618975520 0.059835974
0.721189380 0.620240211 0.065655001
0.754965305 0.619481325 0.071094409
0.785958588 0.616065979 0.074509576
0.816192091 0.610120475 0.080581568
0.843516469 0.609614551 0.089183904
0.874762833 0.607337296 0.097027294
0.906641662 0.604174554 0.108538963
0.933966041 0.599114537 0.115117036
0.964199543 0.599114537 0.144592300
0.989879608 0.601138294 0.158254132
1.000000000 0.597722769 0.173181161
1.000000000 0.592663109 0.193674609
1.000000000 0.601770699 0.220999032
0.206831053 0.644276083 0.004175052
0.215939447 0.653384447 0.013282655
0.230360821 0.657938302 0.019987071
0.247059137 0.661986053 0.023023073
0.267679006 0.666919589 0.023782169
0.285894990 0.663883924 0.029854935
0.312713385 0.661606669 0.030108029
0.340037763 0.661859751 0.030614028
0.368627310 0.664642811 0.032384995
0.401897997 0.667551994 0.038330510
0.429348856 0.664642870 0.038457029
0.458949983 0.661859691 0.040733799
0.492093295 0.659961998 0.045161087
0.527514100 0.659961998 0.050474115
0.557874918 0.659961998 0.056546874
0.586084843 0.657305777 0.057559006
0.616951287 0.654775858 0.059582815
0.649715185 0.652372003 0.062871620
0.680076122 0.652372003 0.065908022
0.716002822 0.649335623 0.071727052
0.748893023 0.646805823 0.079696774
0.780265450 0.643769920 0.086274840
0.813156486 0.640480578 0.089689992
0.840480924 0.637444973 0.095762007
0.870082557 0.634661794 0.099810332
0.902087629 0.633017063 0.113093004
0.933966041 0.632511020 0.133333087
0.961290419 0.632511020 0.142441481
0.988867760 0.632511020 0.161290020
1.000000000 0.629222035 0.176976219
1.000000000 0.625553608 0.192662641
1.000000000 0.629095972 0.208855078
0.241239741 0.722201169 0.070714764
0.255914122 0.725743473 0.071473725
0.265022516 0.732701123 0.076280884
0.278937578 0.732574522 0.080455303
0.297153562 0.731435895 0.081593663
0.317773372 0.728399694 0.080455624
0.341050029 0.727893770 0.076407753
0.364832431 0.725110769 0.077546030
0.390638918 0.725111067 0.079443485
0.422011852 0.726122975 0.083491743
0.457937866 0.723339677 0.086527392
0.485262245 0.720303535 0.086527392
0.516002297 0.717267394 0.088804379
0.550284743 0.715117097 0.092473060
0.580644846 0.710057139 0.090954855
0.611005664 0.710057139 0.089816839
0.644781947 0.708918750 0.093991183
0.679443657 0.707147539 0.098924384
0.707653701 0.704996705 0.099810012
0.740797102 0.702214062 0.108412385
0.773434818 0.701075435 0.108792126
0.802783191 0.698924959 0.113346368
0.832637846 0.695635617 0.118532710
0.865275264 0.687286258 0.129917741
0.888045609 0.684250712 0.135989726
0.916888297 0.681214452 0.142315060
0.948387384 0.679316819 0.159139797
0.977988422 0.677040100 0.177356184
0.989373803 0.674383223 0.194433689
1.000000000 0.674256742 0.212650135
1.000000000 0.672865331 0.234155655
1.000000000 0.675901771 0.260721117
0.256799728 0.756735981 0.090449013
0.270082384 0.763567388 0.092346743
0.284756780 0.764958978 0.100189775
0.291334838 0.769766152 0.103225842
0.306641102 0.765971184 0.105502546
0.335483670 0.762934744 0.102466933
0.351675898 0.764326513 0.102593251
0.379253656 0.764326513 0.104743958
0.402783096 0.763061643 0.106767640
0.432005256 0.764199972 0.107526734
0.462491989 0.759392858 0.108665124
0.496647239 0.756356478 0.111574732
0.523971915 0.755597353 0.111574732
0.555344999 0.754079700 0.114104994
0.584060729 0.749651968 0.116002314
0.614420891 0.748386979 0.112966545
0.646299839 0.746869206 0.114484727
0.683112204 0.746489763 0.121947885
0.711701572 0.744718492 0.123212740
0.748387396 0.739785075 0.123972096
0.779886007 0.738646746 0.133079991
0.810246825 0.737634599 0.134092376
0.838456750 0.734598279 0.141049981
0.868311167 0.729032278 0.149652004
0.898292243 0.724478006 0.162934735
