Assets/EldamarStudio/100 Retro LUTs Pack/LUTs/cube/Joanne LUT.cube
LUT_3D_SIZE 5
DOMAIN_MIN 0.000000 0.000000 0.000000
DOMAIN_MAX 0.903226 0.903226 0.903226
0.000000000 0.003922000 0.000000000
0.220366985 0.001644708 0.004554003
0.467552394 0.004554423 0.000000000
0.757242262 0.029474998 0.004933870
0.991144776 0.085135974 0.068184808
0.048070703 0.229854703 0.000000000
0.243896410 0.237697691 0.000000000
0.499304086 0.248197109 0.008855286
0.776217282 0.264516264 0.028209999
0.993674815 0.274003804 0.086148098
0.154965416 0.517773807 0.005187006
0.321694970 0.529285073 0.021884711
0.558380842 0.526375413 0.034661576
0.784693241 0.520809650 0.065781124
0.993674815 0.510689437 0.144718215
0.262871981 0.770904243 0.092473254
0.378241509 0.785579145 0.116887696
0.579633236 0.779379845 0.129285112
0.805186391 0.765971124 0.150284380
0.991650820 0.746363103 0.223529100
0.425426573 0.967615783 0.325995922
0.492852658 0.975711524 0.359013081
0.623150170 0.970904350 0.365338564
0.802656353 0.959771752 0.373434335
0.993674815 0.953193963 0.425553411
0.000000000 0.000000000 0.185705408
0.223655969 0.001644708 0.204680413
0.471473813 0.000000000 0.206957698
0.760531247 0.000000000 0.224288568
0.986970067 0.057052232 0.233775854
0.038582996 0.224920988 0.200758979
0.243896395 0.227577403 0.210246682
0.494370371 0.243263826 0.220999405
0.758507252 0.251360118 0.219734401
0.989879608 0.261859715 0.236812219
0.128146574 0.496521115 0.219355121
0.299430996 0.508665383 0.224920988
0.542062223 0.511321843 0.226565272
0.777103126 0.505123138 0.237950832
0.990132689 0.504490674 0.262871414
0.240986869 0.763314486 0.237444818
0.374320149 0.768247843 0.259076416
0.568501055 0.764326394 0.256420225
0.793421686 0.757115662 0.269449830
0.987855613 0.739278972 0.315369815
0.412396908 0.964705884 0.388614625
0.484629810 0.963693798 0.407210648
0.617583632 0.962049067 0.417457163
0.795698822 0.954838634 0.426312476
0.986590803 0.947375000 0.463630319
0.011132416 0.000632584 0.412017792
0.229854688 0.000000000 0.418468982
0.470840961 0.000000000 0.435546786
0.749778509 0.000000000 0.452498823
0.981404185 0.000000000 0.445414364
0.005819429 0.212523818 0.429601401
0.241619110 0.215812415 0.438836217
0.496647686 0.220999405 0.447944373
0.752308547 0.216065854 0.447565079
0.984060764 0.241745681 0.450600803
0.079696171 0.488425404 0.443896413
0.269702673 0.493991107 0.460974395
0.530929804 0.495635837 0.461606830
0.765717864 0.493358672 0.458444238
0.987982213 0.498924404 0.474130243
0.217584118 0.746742249 0.467931658
0.355724394 0.758760512 0.480582207
0.561922669 0.750284672 0.478684783
0.787855983 0.750663877 0.479949802
0.987602472 0.738899469 0.511827946
0.419987470 0.953826427 0.544845223
0.487918794 0.960784078 0.558001161
0.617836356 0.959771931 0.559771955
0.795066237 0.951296389 0.567362309
0.987982213 0.944718361 0.597975731
0.019608000 0.000000000 0.674889266
0.255660981 0.000000000 0.679443419
0.498291969 0.002909872 0.687666118
0.742568135 0.000000000 0.685642123
0.985072613 0.002023998 0.686906934
0.000000000 0.208855271 0.689943254
0.248830125 0.208601981 0.697406530
0.506135285 0.203668684 0.699683845
0.763440728 0.195825696 0.701961160
0.987349629 0.235547379 0.685135901
0.000632584 0.478305101 0.703225672
0.253004551 0.483491272 0.704617560
0.519797802 0.478937209 0.708159268
0.769007266 0.479316801 0.699430525
0.981783509 0.507526815 0.691840649
0.224541128 0.748387098 0.717014372
0.348134309 0.757748365 0.716888130
0.562934816 0.749904871 0.714357674
0.774826288 0.741556287 0.713093102
0.978368104 0.742568135 0.725489974
0.459329605 0.953573465 0.734724760
0.529664397 0.954079568 0.744465530
0.637191653 0.951549470 0.750916958
0.792536378 0.947754502 0.742567837
0.981403947 0.945730507 0.760910809
0.005186845 0.003922000 0.911448598
0.249462694 0.000000000 0.917647064
0.495003372 0.000000000 0.917394221
0.739278972 0.000000000 0.913852096
0.982036650 0.000000000 0.920682907
0.005439889 0.195572555 0.921062648
0.233776107 0.198481694 0.915116906
0.488045663 0.191271275 0.916129172
0.741808951 0.194686770 0.918405890
0.988614798 0.214674369 0.925995886
0.002656833 0.447185159 0.929158390
0.199620709 0.456166923 0.920303464
0.486527622 0.456419975 0.923972189
0.745098114 0.467299074 0.922327459
0.989247203 0.489943206 0.924604774
0.197596282 0.728779137 0.913725674
0.326754957 0.729411721 0.915622830
0.533333540 0.729031980 0.919671059
0.757495284 0.728399575 0.925616622
0.976849794 0.741809130 0.925236762
0.454016626 0.955850840 0.921821654
0.504996777 0.958886445 0.926248908
0.633776188 0.953953147 0.929158330
0.803288996 0.947374821 0.924857676
0.951928794 0.948007762 0.931055903
