Assets/EldamarStudio/100 Retro LUTs Pack/LUTs/cube/John LUT.cube
LUT_3D_SIZE 8
DOMAIN_MIN 0.000000 0.000000 0.000000
DOMAIN_MAX 0.903226 0.903226 0.903226
0.121569000 0.129411995 0.125489995
0.150537997 0.125869542 0.126249000
0.212397203 0.135737002 0.134977907
0.313345999 0.129411995 0.132194638
0.461986154 0.129411995 0.138140008
0.661353469 0.123592742 0.133460000
0.847564578 0.123213291 0.137887001
0.976976573 0.153067827 0.167488977
0.133332998 0.160784006 0.132953539
0.150538012 0.154079542 0.129032448
0.210879102 0.155597642 0.140037552
0.306262076 0.167362452 0.137634352
0.452498555 0.177609354 0.136621997
0.659202754 0.188867807 0.135357261
0.840986848 0.198734552 0.137634456
0.971536756 0.207083926 0.167994827
0.124731094 0.212397203 0.133332998
0.158001453 0.214674100 0.138013899
0.208476007 0.216319010 0.131688893
0.306641638 0.230739743 0.144338906
0.457938254 0.258444309 0.137254998
0.668437779 0.292472839 0.133712739
0.842125356 0.312713116 0.142694384
0.973687708 0.322454035 0.175331980
0.121442363 0.334218562 0.134471640
0.156356648 0.337001920 0.138393447
0.240101442 0.337760836 0.137634456
0.335863262 0.343706280 0.138898998
0.471600175 0.375838250 0.132574186
0.664642453 0.417710006 0.119671263
0.831246316 0.434408635 0.131182641
0.962175608 0.443769813 0.183807656
0.022264622 0.519924164 0.122454002
0.129285261 0.532447577 0.119038455
0.263377994 0.530044496 0.113978818
0.388741106 0.536748946 0.116128810
0.518406391 0.539531589 0.113978818
0.679949284 0.558759868 0.108665258
0.830740094 0.566477060 0.146109983
0.953320801 0.573561192 0.214673787
0.000000000 0.719164729 0.138899729
0.096647367 0.720303297 0.132700726
0.266919553 0.716255367 0.138266981
0.410373390 0.714737475 0.143453628
0.549905181 0.707653284 0.156230465
0.695382714 0.711195707 0.156230465
0.821884811 0.705249965 0.188741252
0.943200767 0.707147717 0.270588458
0.167109534 0.831245959 0.261606842
0.232131392 0.834281981 0.271094531
0.327514172 0.830613554 0.274509639
0.437318206 0.832258284 0.279949546
0.560151696 0.826691985 0.282732457
0.685135961 0.826059580 0.293864548
0.801518261 0.822770536 0.308665246
0.920936227 0.827071428 0.347754627
0.429601550 0.948133945 0.479316413
0.453763425 0.948387206 0.478684306
0.503731728 0.948639929 0.491460830
0.567109466 0.945477784 0.490575403
0.650854170 0.950663984 0.498924792
0.738266766 0.943580031 0.509044766
0.830107689 0.947754502 0.516635060
0.933712780 0.945477724 0.536495745
0.129032448 0.133332998 0.152055994
0.147375003 0.136495993 0.157621995
0.204554096 0.133712545 0.166603550
0.289057285 0.140796542 0.170524538
0.426312715 0.127893806 0.176344186
0.631625652 0.108159468 0.187729537
0.832258105 0.094497167 0.204933837
0.968121171 0.139152348 0.227704361
0.134471551 0.158001468 0.150917456
0.154079556 0.154838547 0.161542997
0.197090536 0.156356648 0.159139991
0.278052092 0.165085465 0.169386104
0.426312715 0.170524538 0.181024984
0.622770429 0.172548801 0.188614741
0.814674258 0.175585091 0.193548277
0.950790763 0.199620381 0.224035069
0.134471551 0.205692649 0.170524642
0.160784021 0.208475992 0.173687547
0.208855540 0.209235102 0.166983008
0.289816260 0.220493555 0.174446538
0.441239804 0.248323992 0.180771649
0.638836324 0.277672559 0.182163447
0.832005084 0.298039556 0.201011837
0.961796403 0.318026274 0.228842810
0.111195460 0.315749615 0.169260010
0.155724362 0.320556730 0.177482530
0.222770631 0.324477822 0.176344082
0.322200835 0.326375544 0.176723629
0.457179189 0.360910654 0.183048546
0.641745746 0.396837473 0.179506987
0.814674377 0.424920917 0.191397741
0.942441583 0.432004839 0.235800013
0.001518192 0.508539021 0.170524642
0.105882175 0.514484584 0.174066901
0.240480989 0.512460828 0.172675729
0.375079185 0.521062851 0.175964639
0.510183692 0.527008176 0.175964639
0.660974264 0.545983553 0.181024998
0.819734335 0.563061476 0.214168444
0.941556096 0.569639206 0.268057883
0.001518192 0.706261694 0.207843021
0.079696551 0.706008971 0.207210556
0.261480272 0.709044993 0.211132273
0.405692279 0.705629706 0.209234729
0.544465363 0.703225732 0.218216375
0.688930988 0.699683666 0.228083730
0.811385095 0.700948954 0.251233101
0.932700932 0.708285868 0.326755017
0.189626902 0.819607556 0.310183614
0.247944340 0.826059580 0.320176899
0.337381393 0.824794710 0.321315646
0.442884356 0.824035704 0.324984461
0.562049210 0.822011352 0.336622179
0.677292824 0.816951275 0.338014096
0.794813573 0.818848610 0.353067636
0.916508496 0.816951394 0.386337459
0.455787599 0.938393474 0.517140687
0.479064137 0.945477784 0.511701286
0.519797206 0.945730329 0.526249111
0.574193597 0.948134005 0.520176768
0.657558501 0.945224404 0.529917300
0.741176307 0.941049695 0.535610259
0.831752002 0.945857227 0.543073952
0.925236881 0.945857167 0.563187838
0.129411995 0.129411995 0.238962993
0.165844560 0.133712545 0.233143538
0.216192082 0.140417099 0.224035278
0.289816290 0.140417099 0.232384548
0.430613339 0.132701010 0.260847479
0.623529196 0.090828530 0.287286490
0.825047314 0.039848190 0.314358175
0.953700006 0.163946867 0.345730454
0.143959463 0.163061097 0.215433195
0.169006646 0.162681550 0.220999092
0.208476007 0.163061097 0.221378639
0.289057285 0.169386104 0.233902633
0.428463191 0.165085360 0.255028456
0.615053713 0.148640171 0.284376979
0.804807186 0.136875078 0.297533274
0.938013554 0.204174653 0.328779072
0.142062008 0.210753098 0.222517088
0.165085465 0.213915199 0.223276183
0.222517088 0.226439089 0.235800087
0.300316542 0.231119186 0.236559093
0.439215481 0.242125288 0.259203225
0.632384717 0.260594457 0.285262108
0.816318810 0.281087905 0.299937010
0.952434838 0.330803007 0.353700072
0.110436454 0.319797724 0.244655535
0.146995455 0.321821272 0.251865834
0.220493451 0.335104376 0.253383756
0.323339373 0.334724694 0.254522294
0.448070824 0.354585528 0.259076387
0.632384658 0.387856007 0.283111751
0.810752571 0.416571856 0.308792025
0.932447553 0.445414364 0.356609553
0.000000000 0.501201332 0.275774986
0.058823641 0.497912556 0.272865444
0.224161997 0.508159578 0.281214207
0.360657603 0.510056913 0.274130285
0.499683559 0.514484346 0.281340897
0.654395998 0.536495686 0.293485343
0.808855295 0.554712296 0.327261299
0.921188772 0.578241348 0.389500022
0.012144190 0.701707721 0.327640831
0.095762372 0.701328456 0.328399926
0.266666681 0.699304223 0.333333254
0.402023882 0.700189829 0.336115927
0.542441666 0.695003152 0.338899493
0.679696739 0.691460729 0.343706399
0.806071937 0.698165536 0.377862364
0.919291496 0.710562944 0.447058976
0.289436847 0.809614122 0.428210199
0.328652740 0.814168453 0.440101206
0.394813359 0.814294577 0.438077271
0.479063541 0.814927518 0.442884445
0.580392241 0.812650263 0.449841857
0.684250474 0.811511755 0.452751398
0.792283535 0.810373008 0.464010268
0.906767726 0.812776983 0.493611544
0.513345599 0.935736775 0.572675169
0.524478137 0.936369658 0.580139160
0.563314021 0.934471905 0.587349713
0.604174852 0.940290630 0.586084902
0.674003780 0.940796912 0.594433606
0.747754633 0.940037787 0.595445812
0.833523095 0.941555798 0.601138592
0.920177042 0.942694604 0.617710590
0.125489995 0.133332998 0.390765280
0.175964639 0.129411995 0.382163286
0.254522264 0.133839354 0.371157289
0.336369634 0.128273353 0.361037254
0.445920020 0.125996456 0.370018810
0.637824178 0.075901628 0.413788617
0.818975151 0.051233564 0.451739341
0.947881043 0.197975591 0.475521982
0.118026547 0.172548905 0.346362829
0.167362452 0.175585091 0.352308363
0.240101546 0.173687443 0.357874393
0.326881737 0.166223913 0.349272281
0.433776289 0.165844455 0.357115477
0.626818299 0.147122175 0.409234703
0.813662171 0.150158271 0.441492617
0.931561768 0.244528696 0.474383533
0.111195460 0.244908556 0.345857352
0.153320462 0.243643194 0.361923069
0.238204092 0.239342451 0.346362889
0.325363696 0.240101442 0.348387182
0.447058558 0.248450100 0.368880451
0.634155452 0.255408108 0.415812552
0.812902987 0.292220116 0.446426243
0.926881790 0.392789245 0.503858089
0.075901724 0.341429263 0.364959270
0.140543893 0.340544194 0.363314271
0.230360284 0.350410908 0.368374616
0.352687925 0.364452928 0.391903907
0.487286627 0.377861917 0.401771069
0.651486337 0.393801361 0.425174177
0.800379634 0.436938912 0.466033906
0.905502975 0.494749874 0.511701703
0.003035997 0.497659743 0.403921604
0.051233277 0.504617095 0.405692458
0.221505344 0.515749812 0.415180266
0.370777935 0.529031932 0.420493454
0.514864028 0.528272986 0.427577257
0.662491798 0.546362996 0.444022655
0.792789400 0.569512844 0.485895097
0.901075304 0.612143993 0.544844806
0.077039734 0.696267843 0.467931718
0.190765381 0.693105638 0.477292925
0.331941843 0.693611264 0.486653924
0.440987021 0.694244087 0.491714269
0.560151517 0.692346632 0.496900797
0.674130142 0.694370389 0.504617095
0.790638566 0.699430704 0.529538214
0.899683774 0.721947908 0.586084723
0.411005557 0.804807246 0.562681973
0.445414186 0.805819273 0.583427906
0.482099861 0.808728516 0.567741811
0.538772523 0.807589889 0.570145547
0.615686297 0.806451261 0.575205624
0.700442731 0.807589889 0.574699581
0.789120853 0.805439532 0.586464286
0.898039222 0.817583859 0.602277279
0.554079711 0.933206618 0.654142916
0.568247795 0.931941867 0.660594761
0.593421876 0.938772619 0.658443749
0.639974356 0.936369658 0.656672955
0.690196157 0.935483575 0.662239254
0.764073312 0.935231030 0.663504422
0.843010664 0.937634468 0.671347439
0.930170596 0.942947447 0.681846976
0.117014810 0.129411995 0.598355532
0.185705185 0.123972192 0.598734975
0.291334480 0.117773712 0.588108718
0.417330474 0.102087192 0.579000771
0.538013697 0.086527810 0.576344371
0.667046487 0.055914082 0.569133341
0.816318631 0.064389564 0.589879751
0.948513806 0.215053573 0.598861694
0.086148262 0.177103177 0.570524931
0.165844351 0.177988902 0.577862144
0.277672470 0.174446449 0.569259703
0.399367243 0.167488635 0.570904374
0.520303845 0.149399266 0.565843999
0.648703098 0.138772801 0.558000922
0.808475673 0.154838473 0.579759479
0.931815147 0.257811427 0.592536271
0.003922000 0.267805278 0.562934637
0.111068644 0.274257004 0.558633864
0.255408078 0.266287297 0.567868352
0.393169194 0.267931998 0.566223681
0.516129315 0.264010191 0.554459274
0.646679342 0.254901826 0.559139669
0.812523544 0.301201582 0.589879751
0.924098611 0.401264727 0.612523854
0.000758999 0.396964073 0.563314021
0.050347999 0.393801332 0.566223681
0.232511178 0.392283350 0.561796010
0.376850098 0.394180804 0.560151994
0.509298027 0.394939899 0.557874799
0.657811463 0.401391447 0.565085173
0.792283535 0.453004479 0.593674719
0.892473221 0.527008057 0.626565397
0.002403808 0.537128389 0.557621360
0.013029991 0.542062283 0.565464795
0.226818487 0.535736442 0.574193358
0.391271442 0.543959737 0.576470375
0.556103587 0.572675586 0.597723305
0.670334995 0.582795382 0.602909803
0.776849985 0.609487593 0.627577364
0.879569948 0.648577034 0.661480010
0.142947629 0.696267843 0.598355651
0.229981184 0.689942896 0.602530181
0.351422846 0.692726076 0.606577933
0.480581641 0.694623590 0.617836773
0.598102629 0.697153509 0.634661376
0.686780751 0.699051201 0.636938632
0.783174992 0.711195648 0.650348246
0.888171852 0.737634361 0.682858884
0.432890654 0.805692255 0.650221348
0.458570451 0.808728278 0.653383911
0.516129255 0.805566132 0.655913949
0.578241527 0.803289056 0.667552173
0.644022644 0.805566013 0.670714557
0.713219225 0.803162515 0.670714676
0.789879501 0.807083964 0.671600163
0.892093778 0.825426877 0.696774006
0.565717757 0.926628530 0.720303595
0.584819794 0.932827234 0.717646837
0.618595779 0.927260756 0.729791105
0.655787349 0.931941867 0.727767110
0.708665490 0.932194591 0.728399992
0.774572909 0.935610533 0.730423629
0.847691417 0.932826996 0.738772750
0.926122427 0.940670431 0.735104382
0.121441990 0.135104254 0.754332721
0.192030087 0.139152259 0.750790298
0.307526737 0.133206993 0.744465470
0.425047517 0.125236988 0.742567718
0.562682152 0.115623184 0.741302967
0.691208243 0.107273720 0.732700467
0.820366859 0.102845997 0.728020430
0.933712780 0.228589311 0.722833693
0.087665923 0.193421900 0.740417480
0.174826026 0.193042353 0.736242890
0.293358654 0.192156732 0.735736430
0.424668193 0.185831621 0.734851420
0.546110153 0.183048472 0.727134645
0.677039981 0.180645272 0.721948147
0.802403450 0.177103266 0.713725448
0.922074318 0.265781313 0.714357972
0.052118838 0.301707834 0.737001717
0.163946554 0.300569385 0.735736430
0.286780834 0.302087307 0.728273213
0.417836845 0.304111540 0.731435835
0.548766613 0.304870427 0.726375520
0.673750460 0.310183823 0.723592699
0.806704640 0.317773610 0.719670773
0.914863765 0.414294779 0.726249397
0.082732275 0.426438659 0.720430076
0.180392355 0.430487186 0.717647076
0.309677303 0.437318355 0.719165266
0.426565379 0.444528639 0.715875804
0.544844806 0.445540994 0.714357793
0.661859453 0.451233536 0.705502748
0.782922208 0.457431912 0.703984618
0.891587615 0.528652728 0.724098623
0.168627620 0.565464675 0.716508746
0.248576462 0.570272207 0.718279719
0.358760238 0.576470494 0.718152761
0.479696542 0.587096810 0.722580314
0.584313452 0.597596526 0.711575210
0.675268650 0.599620819 0.713092983
0.778241277 0.608602345 0.717773497
0.881214619 0.652625203 0.738519967
0.321948171 0.691460729 0.724731445
0.358380735 0.693485022 0.724731147
0.436053306 0.698545158 0.719797611
0.527767301 0.697406471 0.719038665
0.613788724 0.702846229 0.724098504
0.713219464 0.717140973 0.732827485
0.790006459 0.727514207 0.739279211
0.890448809 0.748639762 0.766856611
0.448450297 0.794054329 0.732194781
0.478304565 0.802656531 0.731309116
0.519924402 0.799241006 0.738646507
0.577988565 0.801897645 0.742315054
0.651992500 0.802150548 0.746742249
0.729031980 0.806704521 0.755850971
0.795319557 0.807337046 0.750284553
0.898545265 0.827197850 0.772675395
0.564073205 0.928399622 0.781783760
0.577103078 0.929285049 0.785958409
0.604427874 0.932827175 0.786464393
0.649082601 0.930423617 0.788488388
0.712460279 0.930803239 0.800000131
0.780898511 0.929790795 0.801011801
0.849715412 0.935104489 0.805692673
0.924098730 0.935104489 0.807463646
0.170524985 0.183934271 0.866540551
0.222011343 0.185578987 0.863757253
0.318026394 0.190132990 0.865022361
0.435547262 0.194686979 0.860847592
0.553194284 0.205692455 0.856673241
0.678178489 0.219987303 0.853636980
0.799241006 0.247564554 0.844655275
0.918785751 0.293611526 0.839468241
0.165591270 0.229727820 0.848577023
0.220366642 0.237697840 0.850474119
0.315622985 0.241872266 0.851486742
0.435673475 0.244275883 0.851992488
0.553067625 0.253384173 0.852751255
0.671600163 0.269070268 0.843263745
0.786717534 0.287792534 0.830992997
0.904617190 0.319671273 0.825806558
0.223149940 0.346742362 0.840860367
0.268564194 0.353446901 0.852372050
0.352308631 0.359266281 0.851866245
0.450600922 0.364326239 0.846426249
0.568754017 0.379506648 0.843390286
0.680076003 0.395951748 0.844275951
0.792156816 0.417710364 0.833776295
0.902087152 0.452498466 0.832510829
0.339278817 0.496900529 0.836432815
0.370271832 0.505502820 0.837318182
0.430487156 0.511448145 0.834914863
0.508159459 0.513725460 0.828968942
0.595066547 0.523592472 0.832637548
0.685768723 0.531056166 0.824794531
0.785199285 0.537760854 0.821125865
0.881973565 0.551043749 0.823782086
0.405692548 0.614800453 0.828715861
0.443137079 0.619481385 0.828589737
0.504237533 0.632131755 0.827577412
0.569386423 0.642884195 0.832511187
0.636179686 0.645540476 0.828463197
0.711575210 0.647185206 0.820620179
0.787729144 0.647944331 0.820493460
0.883491576 0.654648900 0.828210294
0.480581850 0.724731207 0.831499100
0.510436356 0.729411602 0.840860486
0.546362996 0.729411542 0.831372261
0.598987997 0.735357165 0.830740035
0.665654898 0.737381458 0.830740094
0.728779197 0.736242771 0.825047314
0.800505757 0.738140523 0.835167766
0.896015048 0.749272645 0.839089453
0.503478825 0.811005533 0.823782265
0.519670844 0.808981717 0.832510829
0.561796188 0.805439234 0.831499219
0.605945885 0.808222651 0.826185942
0.662871778 0.811891139 0.825174153
0.733080029 0.811005533 0.830107510
0.814294517 0.822770536 0.840733826
0.906767905 0.837950706 0.853510559
0.575964510 0.922327340 0.852245212
0.587602377 0.926122367 0.865275025
0.606325328 0.926501870 0.867172599
0.653763652 0.928399384 0.864263058
0.711701274 0.926881373 0.866413534
0.777608812 0.927893639 0.865275145
0.856673062 0.933712780 0.875648141
0.926501811 0.933459342 0.878811121
0.267045796 0.277545601 0.974193633
0.302846342 0.281847060 0.971536756
0.376849890 0.289310604 0.971536756
0.473118454 0.303352207 0.967488945
0.582289755 0.327893943 0.962049067
0.692346454 0.357874483 0.963693798
0.803921521 0.400126278 0.956609786
0.906261802 0.449082732 0.949272633
0.284882784 0.321694851 0.960025251
0.315876007 0.332447350 0.962808192
0.388994336 0.335483700 0.963693798
0.482352942 0.350284398 0.962934792
0.587981999 0.371410310 0.960151613
0.689183831 0.395951957 0.952308416
0.796458125 0.428462893 0.950917125
0.900948763 0.470082581 0.947628260
0.373434693 0.453257561 0.959139705
0.403415501 0.456926018 0.955977023
0.454268992 0.468310952 0.962428629
0.536875427 0.476913035 0.960530877
0.623023212 0.495888591 0.955723763
0.719291508 0.512839854 0.954332411
0.812903106 0.532321215 0.949398816
0.904237688 0.557115853 0.945983529
0.485515386 0.590132952 0.946362793
0.513472319 0.595319033 0.950410783
0.542441428 0.598987758 0.948640108
0.596331358 0.603288829 0.949398816
0.661859334 0.607337117 0.942567647
0.731941879 0.613282561 0.942314863
0.815559685 0.621505320 0.941176355
0.903352201 0.627577245 0.937507927
0.550664008 0.688425004 0.949145794
0.576343834 0.696647406 0.945856929
0.605566204 0.698544919 0.945097923
0.643643141 0.700442612 0.943453610
0.695003152 0.699430764 0.941303194
0.755850673 0.700569153 0.943706632
0.825553715 0.700189710 0.939658642
0.907906473 0.703352511 0.938519776
0.588614821 0.775078952 0.953952849
0.596710861 0.773813725 0.957874775
0.627071738 0.772295773 0.953320801
0.664895594 0.776849926 0.951423049
0.718659163 0.780518472 0.944971800
0.772928715 0.783554554 0.943580031
0.842378497 0.781656981 0.943706155
0.916002572 0.786717474 0.945983529
0.592789531 0.848450541 0.941303015
0.605692625 0.852625132 0.944338918
0.628336430 0.848323882 0.943832994
0.670588136 0.850221395 0.946236610
0.720303595 0.850980461 0.946742654
0.785072863 0.853004694 0.944592059
0.856293559 0.861479819 0.944212615
0.922960222 0.864768803 0.947375000
0.619861007 0.942947447 0.953320742
0.643516779 0.931815028 0.961036921
0.660720825 0.938393414 0.950031698
0.692599416 0.936369658 0.949146152
0.738393188 0.936242819 0.950917006
0.801897645 0.939531744 0.947248757
0.868184686 0.939911187 0.950663984
0.933585942 0.945477784 0.950663984
