Assets/EldamarStudio/100 Retro LUTs Pack/LUTs/cube/John LUT.cube
DOMAIN_MIN 0 0 0
DOMAIN_MAX 1 1 1
LUT_3D_SIZE 32
0.121569000 0.129411995 0.125489995
0.127640992 0.123339996 0.125489995
0.135863230 0.123719223 0.127640769
0.143706322 0.125489995 0.128146827
0.150537997 0.125869542 0.126249000
0.162681997 0.128905937 0.132321000
0.174825996 0.131941676 0.133332998
0.191903695 0.134977713 0.134977713
0.212397203 0.135737002 0.134977907
0.230613977 0.129665002 0.125869513
0.254648983 0.129411995 0.125489995
0.282985508 0.129411995 0.129538000
0.313345999 0.129411995 0.132194638
0.343959093 0.129664958 0.129664958
0.377356231 0.132700577 0.132700577
0.417963564 0.130929798 0.138139993
0.461986154 0.129411995 0.138140008
0.508159101 0.129411995 0.133332998
0.556735992 0.129411995 0.133332998
0.602530062 0.126628637 0.136116356
0.661353469 0.123592742 0.133460000
0.721062362 0.122580871 0.131435990
0.766350508 0.125489995 0.137128487
0.805818915 0.125489995 0.134092093
0.847564578 0.123213291 0.137887001
0.887286305 0.125743300 0.142567679
0.921189070 0.134851068 0.146616071
0.942441404 0.143959448 0.155724451
0.976976573 0.153067827 0.167488977
0.995698988 0.162175745 0.174320206
0.999114394 0.172169209 0.183554962
0.996078014 0.184313998 0.207843006
0.127640992 0.129411995 0.122454390
0.124604605 0.132447600 0.122454390
0.130676597 0.130676612 0.124604613
0.141429156 0.130297154 0.127640769
0.153953165 0.128905848 0.129285395
0.168753982 0.131941557 0.135357395
0.180897996 0.132447615 0.131309390
0.191397697 0.134977713 0.133586377
0.207843199 0.137254998 0.135737002
0.230613977 0.135737002 0.128905907
0.251739860 0.135483995 0.128526390
0.277925640 0.135483995 0.132574394
0.307273984 0.135483995 0.135230750
0.338393092 0.135989994 0.132447615
0.377356231 0.141808972 0.132700577
0.415559769 0.140037581 0.130929798
0.460467964 0.138519615 0.135104373
0.507526696 0.139152184 0.135736823
0.553700387 0.141555995 0.133332998
0.613409102 0.141555995 0.136116356
0.664010167 0.140670389 0.137254998
0.719038606 0.138772875 0.133460000
0.766603470 0.137633994 0.131435990
0.811890900 0.137633994 0.137128487
0.849082530 0.139911279 0.136369392
0.887286305 0.142567992 0.140923366
0.921695113 0.149019450 0.145604059
0.945477843 0.153067842 0.149652451
0.977356136 0.162175536 0.166729957
0.995698988 0.169513047 0.176090971
0.999114394 0.180012748 0.186590806
0.996078014 0.196457997 0.210879400
0.133712992 0.133712992 0.125870004
0.130676597 0.136748612 0.125870004
0.134091988 0.137633994 0.132321224
0.140164316 0.138899162 0.132827163
0.151929229 0.137634456 0.132574439
0.163567156 0.137128055 0.129791230
0.176217765 0.135483772 0.132194996
0.193295464 0.138772771 0.131056279
0.207463875 0.142315090 0.135863319
0.230360985 0.143706769 0.133965999
0.251739860 0.143706769 0.131562218
0.279063970 0.145730510 0.129538476
0.307653517 0.145857006 0.132954001
0.338519812 0.145857006 0.131182775
0.376091212 0.148133993 0.131182775
0.413409531 0.149145961 0.130929798
0.455913931 0.149145961 0.132447988
0.504490674 0.149145976 0.136622429
0.553067982 0.149145976 0.133586034
0.608222783 0.153700009 0.136116356
0.661353469 0.155597746 0.133460000
0.713725448 0.154838651 0.132954001
0.764452755 0.152055293 0.129791468
0.809993684 0.154079556 0.137887225
0.850853562 0.156356275 0.143706769
0.883111656 0.159392670 0.142315090
0.917267323 0.164705768 0.146616071
0.948134124 0.169386446 0.152941450
0.971789956 0.177735701 0.160657957
0.994560421 0.185072526 0.178873941
1.000000000 0.192030594 0.186463982
0.998228788 0.206451774 0.203162462
0.135989830 0.144844994 0.130676836
0.134218603 0.140290618 0.126882002
0.138899162 0.144971162 0.133333236
0.143706322 0.144971162 0.137381166
0.150917456 0.147248536 0.134345457
0.161796063 0.144212380 0.127008066
0.173434630 0.143706322 0.131815150
0.189247534 0.143073991 0.133586273
0.209741041 0.148387089 0.134344995
0.230487496 0.151423484 0.135863319
0.251739860 0.152814835 0.134345129
0.277799129 0.154838905 0.133839250
0.309297800 0.157874510 0.133080348
0.339785069 0.158254042 0.132447869
0.374193788 0.159266159 0.129411995
0.411891431 0.160531327 0.133206829
0.455408335 0.159519196 0.128652826
0.501581252 0.163187996 0.134724826
0.552561998 0.162049204 0.133586034
0.605692565 0.166097343 0.136116356
0.660341442 0.170271739 0.134724841
0.708918214 0.172296003 0.129664972
0.762428463 0.169892162 0.129664987
0.805692732 0.174066901 0.137634262
0.846679270 0.175837874 0.141935408
0.883111656 0.178873837 0.147628322
0.911954105 0.180898100 0.147121996
0.948386848 0.184692994 0.156989291
0.971536756 0.193421826 0.164705992
0.989247143 0.205819294 0.174067110
0.999114394 0.211891308 0.191397756
0.998734832 0.220620170 0.198608324
0.133332998 0.160784006 0.132953539
0.134092003 0.148260161 0.126122832
0.139405221 0.149145767 0.128399774
0.147122175 0.154459000 0.132447615
0.150538012 0.154079542 0.129032448
0.165717617 0.151043937 0.125996053
0.178747639 0.153067678 0.134850994
0.193042442 0.154459000 0.140037552
0.210879102 0.155597642 0.140037552
0.229095876 0.158634037 0.133965552
0.251360327 0.161290228 0.134092003
0.276660711 0.164326265 0.135357261
0.306262076 0.167362452 0.137634352
0.339405507 0.170651093 0.140416995
0.369766265 0.173813954 0.131688878
0.408475786 0.176470801 0.135863185
0.452498555 0.177609354 0.136621997
0.503858566 0.176091075 0.126754984
0.552435458 0.182163090 0.132826999
0.604174376 0.185831904 0.135357350
0.659202754 0.188867807 0.135357261
0.713851810 0.191650540 0.133080140
0.762301981 0.191777050 0.130044490
0.802277148 0.197596103 0.135357454
0.840986848 0.198734552 0.137634456
0.877292633 0.200505778 0.139658436
0.910815537 0.203668579 0.147121996
0.947248280 0.200632185 0.159265995
0.971536756 0.207083926 0.167994827
0.989247143 0.219607845 0.177862197
0.999493957 0.234282434 0.187603042
0.996457577 0.240354449 0.202783450
0.133332998 0.160784006 0.129917935
0.139404997 0.166855991 0.139025554
0.140164003 0.165084928 0.136495829
0.146742374 0.166602999 0.135483772
0.156610012 0.166223556 0.132068053
0.162682012 0.163187951 0.125996053
0.177862257 0.165211678 0.130549997
0.189247280 0.166602999 0.132700711
0.201391160 0.168121189 0.132447928
0.216951102 0.173814416 0.137001947
0.246805876 0.173940927 0.139658064
0.273624331 0.176470608 0.138140261
0.303225696 0.179506645 0.136116356
0.336369127 0.182795867 0.134344995
0.366729885 0.188867867 0.134344995
0.411511660 0.189626932 0.132827058
0.454016566 0.193168998 0.137380987
0.498039514 0.197090521 0.137887001
0.549399078 0.200379878 0.132826999
0.603541791 0.206451893 0.130550355
0.657684982 0.210120186 0.132321253
0.710816205 0.214167923 0.134345129
0.759266376 0.219101444 0.136116490
0.804806828 0.222137839 0.133080095
0.840227902 0.221125573 0.138393059
0.873244882 0.222770274 0.140670061
0.904617071 0.228336871 0.144212127
0.938139915 0.234029353 0.159265995
0.969259679 0.233649805 0.163440838
0.989247143 0.236938626 0.174573183
1.000000000 0.243390054 0.186084986
0.999493957 0.249462053 0.193675071
0.133332998 0.178494319 0.134471998
0.136875317 0.182036638 0.138519615
0.142947316 0.183807641 0.143326774
0.147501484 0.182542473 0.139785007
0.158381000 0.180518314 0.135863319
0.168753996 0.175331935 0.134092316
0.177356318 0.177356318 0.133080319
0.192536697 0.180391923 0.137507603
0.206451744 0.182795316 0.136242777
0.225174144 0.188867643 0.137001991
0.247312039 0.189120680 0.135104120
0.273624301 0.191144943 0.138140261
0.303858280 0.195319325 0.136116356
0.338899374 0.200000003 0.133838996
0.373814136 0.206071988 0.138393000
0.413788885 0.212143987 0.138393000
0.460594475 0.216951191 0.135357007
0.505249739 0.223402902 0.135483578
0.558760047 0.226439297 0.131309330
0.613156378 0.234787986 0.135610357
0.665907383 0.238962740 0.132574260
0.718912065 0.243010640 0.134345129
0.768627465 0.248829633 0.137254998
0.809360921 0.249462217 0.136622414
0.850347817 0.252498627 0.142694607
0.881467640 0.251359969 0.149019629
0.910183311 0.255155325 0.152308643
0.939531744 0.261227310 0.161416754
0.972801626 0.261986315 0.173560828
0.988994002 0.269070268 0.180139199
0.998355269 0.276154220 0.193801597
1.000000000 0.283870965 0.204807326
0.130043998 0.196457699 0.135610282
0.141303092 0.196205094 0.141935334
0.146489695 0.200379699 0.143326774
0.150031701 0.199114531 0.142568007
0.157242462 0.196837246 0.136875451
0.165591300 0.194560409 0.135610282
0.180139318 0.194434017 0.138899282
0.192536697 0.195825696 0.133965999
0.209235102 0.198102415 0.137760714
0.230487496 0.202403411 0.137381479
0.251739860 0.204300702 0.135989845
0.276660681 0.207969248 0.138646260
0.304364353 0.213282630 0.140543997
0.340291053 0.219860703 0.138013661
0.376723796 0.225932688 0.139910996
0.414674580 0.230360404 0.139531717
0.461733162 0.237950593 0.139531717
0.509424090 0.248323798 0.134345144
0.564072967 0.255407959 0.131309256
0.618722439 0.259076357 0.133333281
0.668184757 0.267678440 0.137001976
0.719797432 0.271726698 0.133965582
0.770778000 0.277798682 0.135863274
0.808728635 0.280834705 0.138899282
0.848197103 0.281467259 0.144086286
0.886274576 0.285894990 0.150411323
0.914864123 0.286400974 0.156736359
0.943327129 0.290195972 0.163947001
0.972675502 0.292599708 0.175331980
0.993421733 0.293105662 0.187349483
0.997722745 0.305249691 0.199999869
1.000000000 0.315116972 0.216698289
0.124731094 0.212397203 0.133332998
0.142188579 0.212397382 0.140923396
0.151803002 0.212777004 0.145098001
0.156103909 0.217330933 0.143326908
0.158001453 0.214674100 0.138013899
0.162555158 0.217330948 0.135357052
0.175964639 0.216319010 0.135357007
0.192536697 0.216319010 0.138519615
0.208476007 0.216319010 0.131688893
0.229728401 0.216319010 0.137760893
0.251739860 0.219987229 0.137254998
0.277040243 0.224288180 0.141303003
0.306641638 0.230739743 0.144338906
0.340291053 0.240101099 0.144085944
0.376723796 0.247185096 0.141049683
0.416192591 0.252371907 0.138013706
0.457938254 0.258444309 0.137254998
0.508285582 0.268185079 0.137254998
0.562554955 0.283238232 0.134345129
0.616445363 0.286780298 0.133332998
0.668437779 0.292472839 0.133712739
0.716002285 0.299810201 0.135483965
0.767362416 0.305755675 0.132827088
0.805692792 0.311195105 0.138899103
0.842125356 0.312713116 0.142694384
0.879443288 0.314737171 0.149652421
0.914358020 0.320303261 0.154206097
0.944465756 0.320556283 0.163567454
0.973687708 0.322454035 0.175331980
0.990638912 0.325237185 0.185957968
0.999240935 0.329538286 0.202276587
0.999240935 0.341682285 0.223528996
0.121695481 0.230613977 0.133332998
0.136875108 0.239721596 0.136369392
0.145730585 0.237571016 0.141809002
0.150537848 0.237065002 0.143832833
0.154965058 0.241998494 0.141049519
0.170145437 0.241998494 0.141049519
0.179759800 0.237065017 0.130802989
0.192536712 0.234535009 0.132573992
0.208476007 0.234535009 0.140796512
0.226692006 0.234535009 0.140796512
0.250854254 0.240354016 0.138140395
0.277040243 0.244275764 0.141303003
0.306641638 0.248576984 0.143959358
0.340291053 0.255281508 0.141049549
0.376723796 0.267425478 0.138013929
0.422770590 0.276913285 0.134977669
0.467805356 0.285768688 0.134977698
0.511321962 0.295509487 0.137254998
0.556862473 0.307653517 0.137254998
0.608349144 0.317141354 0.134345129
0.663883686 0.325869709 0.131435737
0.719038546 0.332953632 0.129665002
0.770398021 0.336116493 0.129791468
0.815939248 0.339152098 0.135863483
0.849715531 0.340037525 0.135104194
0.881847084 0.341429204 0.139405355
0.914358020 0.344592065 0.151170477
0.941682398 0.347628444 0.163314477
0.974446297 0.347881496 0.175331980
0.991650522 0.351549983 0.183933988
0.996204555 0.360025585 0.196457595
0.996204555 0.375079453 0.223528996
0.124478124 0.254648983 0.136242867
0.130929619 0.266666472 0.142188400
0.143959552 0.265021861 0.143074006
0.150284842 0.260215044 0.145098001
0.154838547 0.261353731 0.143326864
0.170018926 0.266413748 0.138266876
0.185199320 0.263883442 0.135736555
0.201644689 0.263124585 0.132953703
0.221632004 0.265148640 0.139784873
0.244148985 0.267298877 0.144085869
0.259455889 0.264389724 0.146995753
0.283744633 0.268437475 0.143959612
0.310183644 0.273750633 0.143959358
0.340544045 0.281593889 0.140670002
0.379632920 0.288424850 0.134977549
0.418469518 0.298165649 0.134345129
0.464010149 0.308791846 0.133332998
0.509803832 0.320556551 0.136242688
0.559898913 0.334977865 0.143073991
0.611005962 0.341555864 0.134724647
0.662618577 0.352434993 0.129538000
0.716255546 0.360531002 0.127514258
0.767235875 0.363693863 0.129538476
0.804427743 0.369512826 0.132827133
0.845414221 0.370271742 0.141176417
0.873497784 0.370271742 0.142061874
0.899810195 0.372801930 0.148640200
0.927134573 0.380645305 0.163187996
0.965085566 0.378368050 0.175331980
0.990132809 0.381656975 0.191018403
0.998102248 0.387729198 0.203415722
0.996078014 0.396837860 0.220619872
0.127514258 0.289057225 0.135230735
0.131561995 0.291081488 0.141302735
0.133839026 0.298418522 0.141050011
0.147248641 0.294876516 0.141050011
0.155218095 0.292979240 0.141050011
0.172043189 0.295762241 0.138266996
0.195319578 0.296268195 0.138772666
0.210499957 0.294876516 0.135736704
0.230993330 0.297533333 0.137254998
0.254016519 0.300569266 0.140796989
0.273624390 0.299810380 0.141935617
0.294876516 0.300822228 0.144971475
0.320303619 0.303858161 0.143073738
0.347881079 0.310436517 0.140923038
0.382036656 0.312966496 0.136622265
0.421505123 0.329538286 0.133332998
0.464010268 0.337128490 0.134851187
0.509550750 0.348893076 0.134092271
0.558380723 0.364073485 0.136242956
0.609993875 0.372928232 0.130676910
0.659709215 0.380897999 0.125363529
0.710183263 0.390891492 0.122454137
0.760278225 0.394939750 0.125490487
0.798608840 0.399114519 0.128526092
0.833270311 0.402656227 0.136116296
0.872738600 0.402656227 0.143832982
0.898798048 0.403162301 0.148133993
0.926122427 0.409234673 0.164832175
0.958001196 0.411764920 0.177356243
0.985072732 0.412270516 0.193042204
0.998861372 0.418089479 0.209487721
0.998102248 0.424161971 0.221631736
0.121442363 0.334218562 0.134471640
0.129032269 0.331182659 0.139404997
0.134471640 0.331182927 0.140164137
0.140796795 0.337001920 0.139532000
0.156356648 0.337001920 0.138393447
0.174573228 0.337001920 0.136116356
0.199241325 0.337001920 0.138646320
0.223403051 0.337001920 0.140670076
0.240101442 0.337760836 0.137634456
0.261353850 0.340797126 0.137254998
0.286021858 0.342062265 0.137254998
0.309297979 0.341809005 0.138140380
0.335863262 0.343706280 0.138898998
0.363187671 0.346236676 0.139152035
0.392662793 0.345351279 0.137887418
0.430234045 0.357621789 0.135989830
0.471600175 0.375838250 0.132574186
0.517773747 0.382542849 0.133713007
0.563820302 0.396711260 0.127640992
0.614927113 0.408601940 0.124984346
0.664642453 0.417710006 0.119671263
0.710183382 0.423782289 0.117647000
0.758001149 0.429601282 0.120556869
0.797470093 0.433649540 0.123592742
0.831246316 0.434408635 0.131182641
0.864010274 0.438329935 0.142314985
0.901960671 0.438329935 0.149905071
0.929917395 0.440733731 0.167488620
0.962175608 0.443769813 0.183807656
0.982036591 0.447944671 0.198355585
0.995824993 0.451865911 0.217457235
0.998861372 0.457937926 0.230360284
0.101201966 0.387603045 0.137254998
0.115876354 0.384566694 0.139531657
0.128652945 0.382036805 0.140923038
0.142568097 0.382796049 0.141429171
0.158128008 0.388109028 0.143706486
0.176343992 0.388109028 0.134598106
0.200632647 0.387856066 0.135863319
0.224920988 0.388109028 0.138393283
0.248703137 0.388108969 0.139658064
0.269955546 0.391144574 0.136622444
0.299936712 0.394433916 0.136495963
0.327008039 0.393927813 0.136495963
0.353320301 0.392283052 0.135610357
0.383934051 0.392536104 0.132826999
0.411258429 0.389500499 0.135863379
0.447438419 0.395319283 0.136495963
0.488172323 0.407969415 0.133713007
0.531436086 0.424541563 0.127640948
0.580012977 0.433649987 0.121568941
0.631372452 0.448323727 0.123339646
0.681087494 0.459455788 0.121189006
0.726881385 0.465781063 0.117647000
0.766097486 0.465781063 0.117899992
0.805312932 0.471600085 0.121062875
0.838709593 0.471094310 0.128905699
0.869323313 0.472233027 0.141302645
0.899431050 0.477546066 0.156736106
0.929790974 0.477546066 0.171916470
0.964705586 0.479949236 0.191650793
0.985705197 0.485009402 0.209614217
0.993295372 0.490323007 0.226565614
0.996331036 0.496395022 0.247818038
0.092093587 0.427071393 0.137254998
0.101201974 0.424035788 0.131182998
0.111574829 0.425300449 0.135610417
0.126375347 0.428336382 0.135357425
0.145983264 0.433649361 0.131942004
0.164200008 0.433649361 0.131562486
0.197596654 0.431119680 0.135104418
0.224920988 0.432005078 0.135610282
0.249209195 0.432131350 0.133080006
0.272991925 0.427577317 0.127514064
0.302972406 0.433522791 0.127387583
0.335357308 0.436938643 0.127387583
0.364579439 0.438709587 0.127387583
0.393042415 0.441112816 0.126754999
0.426438808 0.444149196 0.126754999
0.456167012 0.443516791 0.127387583
0.492979169 0.448450208 0.125869781
0.533712685 0.458317369 0.121568851
0.576976597 0.470081955 0.115496159
0.628336728 0.484756351 0.112207517
0.678051889 0.494243801 0.112334013
0.724604666 0.499936521 0.113093004
0.766097486 0.502213836 0.117899992
0.799493909 0.502213836 0.123971999
0.838709831 0.503478825 0.133965567
0.873498082 0.505629420 0.149651632
0.905250072 0.511195481 0.169133112
0.932827413 0.513978839 0.187096849
0.960531235 0.513978839 0.199620381
0.982669175 0.519923985 0.217204392
0.993927956 0.524857581 0.235673994
0.999367416 0.523719370 0.256926417
0.054143228 0.471347392 0.130044192
0.075268790 0.470714986 0.121568397
0.092979178 0.476280838 0.124098942
0.114484340 0.478557587 0.128905848
0.141429350 0.480455130 0.127008185
0.161669880 0.474383384 0.127008185
0.192662835 0.486274064 0.122454204
0.230740294 0.479949474 0.126881927
0.258823603 0.479190379 0.125363722
0.283111989 0.476407379 0.120936006
0.313219607 0.481973380 0.123086810
0.343579590 0.483997375 0.121062554
0.375458449 0.485515594 0.121821642
0.404301047 0.487033397 0.123086810
0.435547173 0.487919003 0.123086810
0.471347392 0.490954757 0.123086810
0.504743814 0.489436954 0.123086810
0.543959081 0.494117588 0.118406445
0.586463988 0.506261587 0.107020885
0.632511139 0.513978183 0.110942349
0.678431511 0.525363505 0.111701258
0.722960114 0.530929744 0.114231445
0.763946652 0.533839583 0.120303795
0.801897705 0.533839583 0.126375809
0.830740094 0.536116302 0.141555801
0.868311524 0.536242783 0.155344456
0.901708066 0.539784849 0.174066797
0.929032445 0.542821229 0.192283079
0.956356823 0.543200791 0.212396964
0.983681142 0.546742797 0.226312175
0.996963978 0.554332614 0.244781777
1.000000000 0.555850744 0.266034186
0.022264622 0.519924164 0.122454002
0.031372637 0.521442354 0.110309623
0.059582397 0.526375771 0.110436365
0.092219949 0.531688571 0.116508812
0.129285261 0.532447577 0.119038455
0.155091941 0.529032290 0.117899805
0.192536324 0.531056464 0.112839818
0.224667922 0.537634254 0.111701518
0.263377994 0.530044496 0.113978818
0.290702224 0.529285371 0.111701526
0.323845536 0.532068372 0.112966686
0.357242167 0.535610557 0.118026555
0.388741106 0.536748946 0.116128810
0.419228405 0.536875427 0.117773645
0.448323995 0.535610557 0.113978818
0.480455399 0.536495984 0.115496621
0.518406391 0.539531589 0.113978818
0.554205954 0.537760973 0.113978818
0.594054163 0.547248542 0.103226028
0.637824059 0.550790548 0.102972813
0.679949284 0.558759868 0.108665258
0.722454071 0.564832151 0.115749121
0.762048960 0.567109466 0.123466305
0.797343493 0.565718174 0.130929992
0.830740094 0.566477060 0.146109983
0.860847771 0.569512665 0.164326310
0.897153974 0.569133282 0.180645257
0.927514195 0.570145607 0.199873373
0.953320801 0.573561192 0.214673787
0.977609098 0.574067175 0.236938372
0.998734951 0.581024766 0.253004164
1.000000000 0.587729394 0.273624003
0.006578009 0.571536660 0.115117021
0.001771000 0.573940516 0.102466621
0.016698241 0.579127073 0.098924786
0.058949772 0.582669079 0.103226013
0.107526533 0.582669079 0.108539008
0.142188653 0.588235080 0.105755650
0.184440345 0.587349832 0.102719575
0.223023415 0.585326076 0.099683709
0.255534619 0.585832000 0.101961009
0.291967392 0.582795620 0.101961009
0.329664588 0.582036674 0.102593422
0.365464509 0.584693313 0.106767744
0.401391327 0.587097049 0.112460010
0.434788436 0.589626670 0.112966008
0.462871790 0.586590886 0.105755836
0.494497120 0.585326076 0.103731781
0.528146565 0.586843908 0.104996614
0.565718114 0.589247108 0.101961009
0.599114597 0.592283487 0.101961002
0.639595330 0.592536509 0.099810228
0.680202305 0.595698953 0.102466576
0.718785286 0.602403104 0.110942125
0.760783970 0.602276623 0.126122490
0.791144848 0.599241018 0.136242896
0.824414909 0.599114537 0.151549578
0.857178807 0.599241018 0.169765756
0.889563859 0.602276623 0.187982544
0.925616384 0.599493980 0.209108427
0.952688038 0.602530122 0.220999300
0.975838184 0.606325150 0.238329962
0.993927956 0.607716560 0.261480153
1.000000000 0.616824985 0.279696167
0.000506000 0.623149991 0.102973029
0.000506000 0.623149991 0.099936642
0.000000006 0.627704024 0.095888801
0.028083351 0.631246030 0.097154021
0.086274125 0.631246030 0.102467023
0.134850904 0.631246030 0.102467023
0.174573034 0.631752014 0.107273981
0.212903410 0.629854739 0.105755992
0.249589100 0.628589869 0.101961024
0.288931012 0.631372571 0.101961032
0.331182748 0.628336906 0.104870155
0.367109209 0.631625950 0.105629049
0.401897281 0.635168016 0.106388018
0.437824070 0.635167956 0.106894024
0.471220404 0.632131577 0.112966008
0.508918405 0.629095852 0.105755873
0.544592083 0.629348814 0.103731804
0.577862144 0.631752014 0.104996644
0.608223021 0.631752014 0.101961039
0.644402742 0.632005036 0.101961039
0.683238685 0.630107760 0.105502993
0.720683098 0.630107880 0.113598995
0.754711986 0.632637501 0.126122519
0.785072803 0.629601836 0.141302928
0.819987535 0.631119728 0.155977309
0.853383899 0.631119668 0.172801971
0.883491099 0.629601896 0.191018194
0.910815477 0.632637560 0.209234953
0.941555679 0.629854858 0.225047842
0.967868388 0.632890999 0.243264124
0.988361955 0.637571394 0.264769584
1.000000000 0.641113043 0.285768986
0.000000000 0.683111787 0.121442370
0.000000000 0.683111787 0.121189341
0.006451774 0.683111787 0.113851950
0.029854517 0.685388744 0.113346010
0.085262187 0.684250295 0.118659012
0.138646588 0.677040100 0.118659012
0.182163358 0.679569781 0.123719014
0.220240340 0.679822743 0.121568725
0.256672829 0.678684354 0.116635270
0.294117510 0.679696262 0.118659012
0.336495727 0.676913679 0.124351501
0.370904475 0.677925467 0.123339623
0.405818999 0.680961370 0.123719066
0.443390071 0.680455387 0.124857366
0.474256724 0.674889326 0.120809354
0.510056913 0.674256742 0.129285157
0.549146175 0.674636543 0.127008379
0.585072517 0.676407516 0.128146723
0.617583692 0.674256742 0.127261341
0.656293750 0.677040100 0.127008379
0.692726493 0.673245072 0.132701114
0.729285479 0.670335770 0.139658719
0.762302339 0.671474099 0.147754729
0.787349463 0.671094656 0.149652272
0.824541450 0.670335770 0.173940629
0.855913937 0.668690741 0.192536339
0.883997202 0.665781140 0.211764485
0.915876150 0.671094656 0.234535262
0.948513508 0.671474099 0.252751350
0.977229476 0.673877776 0.273371398
0.995446026 0.680835187 0.300063550
1.000000000 0.687665761 0.330803752
0.000000000 0.719164729 0.138899729
0.003794996 0.719164729 0.131309256
0.015939508 0.721062481 0.140037954
0.045287888 0.719797313 0.129664719
0.096647367 0.720303297 0.132700726
0.143706739 0.720303655 0.138772726
0.188235641 0.713725448 0.134344995
0.230740398 0.716761470 0.142061695
0.266919553 0.716255367 0.138266981
0.302213728 0.715116739 0.142441243
0.338772744 0.716002584 0.144591734
0.378874242 0.715117157 0.146489248
0.410373390 0.714737475 0.143453628
0.448323786 0.713219464 0.145224467
0.483617812 0.710436463 0.145730466
0.514990568 0.709171474 0.151676267
0.549905181 0.707653284 0.156230465
0.588614702 0.709930539 0.154965311
0.624541461 0.709424496 0.152434990
0.659709096 0.711954355 0.158127725
0.695382714 0.711195707 0.156230465
0.729791522 0.705123723 0.162302732
0.762175977 0.703479230 0.166856721
0.790006042 0.705249965 0.173940733
0.821884811 0.705249965 0.188741252
