Assets/EldamarStudio/100 Retro LUTs Pack/LUTs/cube/John LUT.cube
LUT_3D_SIZE 5
DOMAIN_MIN 0.000000 0.000000 0.000000
DOMAIN_MAX 0.903226 0.903226 0.903226
0.121569000 0.129411995 0.125489995
0.191903695 0.134977713 0.134977713
0.377356231 0.132700577 0.132700577
0.721062362 0.122580871 0.131435990
0.976976573 0.153067827 0.167488977
0.130043998 0.196457699 0.135610282
0.192536697 0.195825696 0.133965999
0.376723796 0.225932688 0.139910996
0.719797432 0.271726698 0.133965582
0.972675502 0.292599708 0.175331980
0.092093587 0.427071393 0.137254998
0.224920988 0.432005078 0.135610282
0.426438808 0.444149196 0.126754999
0.724604666 0.499936521 0.113093004
0.960531235 0.513978839 0.199620381
0.000000000 0.743453264 0.159139991
0.236812398 0.745097995 0.158253953
0.487792403 0.740544140 0.172549129
0.723719060 0.739531994 0.189627111
0.937634468 0.740544140 0.285009682
0.429601550 0.948133945 0.479316413
0.490828574 0.950663984 0.490954548
0.600505769 0.946742654 0.491587132
0.761796236 0.941555798 0.507526875
0.933712780 0.945477724 0.536495745
0.129411995 0.131688714 0.215433702
0.201011717 0.134345278 0.202023983
0.351169974 0.133965582 0.222644106
0.682985663 0.066793300 0.268816978
0.960531235 0.155597657 0.312080801
0.142820716 0.194813415 0.199746698
0.202023983 0.201391399 0.216065705
0.358760089 0.217077985 0.229854703
0.689057410 0.233776122 0.258949816
0.957241774 0.296647519 0.324098498
0.058949903 0.408728808 0.235040694
0.202023983 0.413662106 0.235673696
0.409108102 0.420240045 0.247185409
0.706641555 0.481973380 0.267805099
0.945477426 0.516635060 0.349398792
0.039974615 0.730044127 0.318279535
0.243643239 0.733965695 0.315370202
0.483365208 0.730044127 0.328779548
0.710056961 0.728399873 0.343200535
0.923592627 0.738899231 0.430613607
0.500948608 0.937001646 0.552181780
0.541302562 0.935989738 0.569133401
0.630486727 0.941935301 0.575331926
0.770524859 0.942567945 0.587349772
0.921948016 0.942947447 0.603289127
0.125489995 0.126754999 0.491208196
0.251106977 0.126122579 0.477166474
0.431751788 0.112334006 0.455914199
0.691713870 0.048830006 0.501328051
0.944085956 0.200632423 0.530929804
0.075648189 0.229854688 0.456925899
0.222011700 0.232131392 0.448071212
0.414041787 0.227197692 0.449336231
0.691334665 0.225300699 0.494370788
0.925110340 0.357747853 0.545730531
0.005060187 0.433016777 0.463124782
0.191523984 0.435294062 0.466034085
0.449336231 0.464389801 0.498418778
0.699304104 0.500821948 0.531182766
0.898418725 0.588614821 0.606325209
0.204048023 0.718532383 0.542820811
0.358254284 0.718532264 0.562175930
0.544212818 0.719544530 0.576217771
0.704491138 0.721188843 0.587602556
0.896774113 0.753953218 0.643516660
0.572296143 0.926502228 0.685895264
0.597723067 0.930423379 0.688930988
0.675522208 0.932447731 0.696394384
0.787602544 0.934724927 0.695382595
0.928652763 0.932953358 0.706894398
0.129538000 0.146236122 0.782669246
0.281467706 0.144591838 0.780392110
0.493358672 0.140417129 0.768627524
0.726628840 0.138646379 0.763061285
0.934724927 0.235673711 0.757495284
0.102719694 0.284250528 0.764326274
0.268817395 0.287160248 0.766982794
0.488172084 0.291840404 0.766603291
0.711701155 0.301328540 0.756736577
0.928779125 0.390512109 0.761416972
0.220619947 0.512713194 0.754838705
0.353194356 0.527514398 0.752561808
0.545224667 0.553067923 0.751296699
0.703605413 0.561796427 0.741429269
0.886654258 0.609234452 0.758760273
0.389753371 0.722833395 0.753067970
0.471979678 0.729665041 0.744085848
0.589500129 0.726755142 0.747375250
0.736496150 0.743453264 0.758128107
0.899304092 0.773181081 0.791398108
0.567109108 0.927893579 0.808096230
0.599620640 0.931055903 0.809740543
0.679063916 0.927260756 0.813156068
0.799873650 0.929538071 0.819733918
0.928146482 0.935104430 0.829475105
0.267045796 0.277545601 0.974193633
0.355597496 0.287033617 0.972548902
0.525869787 0.317520320 0.964326382
0.725237250 0.366982877 0.963187814
0.906261802 0.449082732 0.949272633
0.358760178 0.423402995 0.961669981
0.416824758 0.431878150 0.963440716
0.564832032 0.454522431 0.961416483
0.739279091 0.493105441 0.958886504
0.903984845 0.539405465 0.947501779
0.540923238 0.658570349 0.945983350
0.579885840 0.661479950 0.947754502
0.654016614 0.663124621 0.952055633
0.773940682 0.663377643 0.947121918
0.910183728 0.672232807 0.942188203
0.588867486 0.789247274 0.954965055
0.618975461 0.794054270 0.949272275
0.690828502 0.797722816 0.947754681
0.792157114 0.802276790 0.941555798
0.921062589 0.803921521 0.946742594
0.619861007 0.942947447 0.953320742
0.651106954 0.934092343 0.959139645
0.712081254 0.936369598 0.948007643
0.818342924 0.939278781 0.949019670
0.933585942 0.945477784 0.950663984
