Assets/EldamarStudio/100 Retro LUTs Pack/LUTs/cube/Judy LUT.cube
LUT_3D_SIZE 8
DOMAIN_MIN 0.000000 0.000000 0.000000
DOMAIN_MAX 0.903226 0.903226 0.903226
0.098039001 0.098039001 0.105881996
0.179127544 0.102340452 0.110562995
0.252372086 0.121569000 0.125489995
0.342441261 0.143453285 0.126628637
0.442631394 0.169260189 0.136368990
0.564073443 0.195951998 0.149020001
0.698924243 0.217963278 0.166350290
0.842378438 0.227450997 0.185704991
0.077292554 0.191271096 0.130171001
0.154079542 0.191271096 0.121569000
0.243390456 0.195951998 0.129032448
0.329032272 0.208096549 0.135609999
0.443516999 0.218975350 0.146616191
0.563693881 0.243390352 0.159013182
0.698798299 0.259076744 0.178747699
0.838709474 0.265655011 0.186084539
0.028462909 0.292347014 0.153700098
0.112460449 0.289563656 0.143073648
0.212397203 0.293106109 0.149020001
0.317014545 0.301328540 0.151297003
0.430866390 0.312713295 0.163820192
0.561290145 0.321694940 0.171283826
0.698039114 0.335483998 0.183428183
0.838836133 0.336748838 0.193168923
0.001138644 0.394560635 0.165338293
0.050347812 0.392156631 0.174952805
0.186843634 0.398861200 0.168627188
0.292599648 0.400758922 0.174825996
0.425679803 0.411764830 0.181024998
0.557368815 0.422011644 0.189753085
0.699557304 0.425932646 0.192789003
0.845667303 0.436559290 0.210246816
0.001518192 0.519544184 0.186463997
0.000000000 0.518026412 0.194433987
0.158254102 0.511701167 0.194433898
0.294370472 0.517140985 0.196711197
0.425427169 0.519544184 0.201518193
0.558127701 0.526881635 0.201011732
0.703225851 0.533586442 0.208602101
0.847817957 0.540290773 0.220240191
0.005945744 0.640354216 0.211638004
0.002024260 0.636685729 0.213788748
0.118153192 0.637318134 0.214042008
0.293231934 0.638583481 0.212523907
0.428083628 0.640101254 0.206198812
0.559898496 0.644402206 0.207589984
0.709298015 0.650348008 0.219228446
0.858823359 0.651865959 0.226059631
0.004553996 0.770145297 0.227450997
0.000000000 0.769765854 0.226312265
0.081973284 0.768500745 0.224288285
0.292726278 0.771283925 0.220746338
0.435294271 0.770272136 0.225680187
0.578368247 0.774067283 0.227450997
0.725996554 0.774699271 0.229728281
0.860341132 0.778367817 0.232384533
0.000000000 0.905123413 0.236685991
0.004807297 0.905755639 0.245667547
0.087033652 0.910309613 0.240101233
0.299810469 0.909930468 0.244149148
0.456040710 0.912713408 0.249588624
0.604427636 0.912207365 0.243769899
0.752941370 0.912460506 0.249841973
0.901328564 0.908918619 0.247059003
0.085895449 0.102720000 0.202277005
0.161922544 0.110942543 0.191650540
0.233902633 0.132068440 0.206199005
0.327514201 0.162681550 0.207716912
0.434914380 0.188108996 0.219481185
0.554206192 0.214041799 0.227071539
0.695635259 0.224161997 0.232131809
0.838077188 0.234029159 0.240986824
0.080835007 0.183807552 0.199114099
0.142314553 0.198734537 0.202277005
0.220619634 0.204174548 0.206199005
0.320430189 0.213156089 0.209614545
0.430234194 0.234029546 0.219481185
0.557748258 0.247691289 0.227703735
0.691334724 0.259835839 0.234408990
0.838456750 0.270841271 0.245161369
0.032005362 0.284882635 0.211638093
0.119291902 0.288804561 0.220746547
0.204554006 0.293106109 0.207717001
0.306767732 0.300569445 0.215939447
0.423402816 0.311069012 0.223023340
0.553067565 0.325743467 0.228968903
0.694370687 0.335863560 0.237444997
0.839342058 0.342568099 0.248070836
0.000379548 0.393674701 0.224161997
0.041366361 0.393674701 0.223402902
0.183807656 0.398481756 0.226185635
0.296142101 0.402024060 0.226565182
0.419481516 0.411385298 0.229348540
0.551549375 0.420493633 0.234408990
0.693232059 0.432637274 0.242631450
0.838836133 0.434535027 0.249336004
0.007210811 0.509677529 0.241113350
0.000000000 0.515243590 0.238077462
0.151170075 0.510057092 0.239848092
0.289436728 0.516761541 0.238709733
0.420620173 0.516761541 0.237950549
0.556989431 0.524604797 0.245034546
0.697027266 0.531562150 0.248829737
0.844907999 0.539405525 0.254142910
0.001518192 0.631878555 0.252245367
0.001518192 0.636559248 0.247311741
0.114610836 0.636053264 0.257431805
0.291713834 0.638583481 0.253636628
0.427577555 0.638583481 0.251359731
0.563061416 0.638962924 0.251233369
0.705755532 0.647944272 0.257052451
0.857684791 0.653004587 0.265528351
0.005439708 0.765085101 0.265654981
0.000000000 0.771283984 0.265654981
0.082859196 0.768880129 0.261100978
0.286147952 0.768880129 0.263630539
0.442124933 0.770777822 0.267046541
0.582289755 0.772549093 0.262618780
0.724351823 0.770524800 0.266540289
0.865401745 0.775964677 0.266034424
0.000000000 0.907020807 0.277798533
0.002277285 0.911574781 0.283618271
0.076786652 0.908032894 0.275142223
0.302719623 0.908159375 0.278557658
0.456420153 0.910562932 0.277292758
0.606198609 0.910815775 0.284503669
0.751296639 0.912460506 0.285262674
0.902466774 0.905755639 0.279443264
0.060341995 0.114484094 0.298545092
0.134851098 0.123466447 0.295888633
0.217078105 0.144212186 0.295509100
0.320430189 0.166223913 0.300190091
0.426186115 0.194433898 0.305629164
0.554712236 0.212397099 0.309930444
0.689437211 0.229728281 0.319038093
0.828715682 0.243137002 0.326375842
0.056926448 0.202277094 0.298292428
0.119924001 0.203035995 0.289563656
0.215939462 0.206957996 0.295509100
0.312207550 0.222264543 0.294623971
0.418343097 0.238709733 0.306515008
0.546742439 0.253890187 0.310689539
0.684123814 0.265655011 0.319417655
0.832004964 0.272612572 0.333966106
0.000000000 0.288425028 0.292347014
0.095382452 0.291208476 0.300190002
0.187982187 0.299431086 0.292347014
0.298545182 0.305249631 0.300569564
0.417584002 0.315875977 0.313598871
0.542061985 0.326882094 0.316635072
0.686147988 0.338646084 0.324478090
0.834028900 0.344591826 0.328526109
0.000000000 0.392915636 0.308032990
0.018469451 0.398102194 0.301328450
0.175585002 0.399620384 0.304111093
0.285894960 0.401644558 0.304111093
0.409234703 0.411005646 0.311954081
0.547121823 0.418469280 0.313092828
0.690955222 0.427830398 0.318532467
0.839468539 0.433649629 0.331941754
0.000759096 0.508539081 0.312713087
0.000379548 0.508918524 0.313219547
0.144845188 0.511701226 0.320556283
0.284629732 0.512080729 0.311827898
0.408096284 0.517140985 0.319038093
0.546616256 0.522580445 0.321062535
0.693232059 0.532827377 0.329285294
0.845793664 0.540670395 0.336622328
0.000000001 0.634661436 0.322833568
0.002024260 0.634661496 0.334218651
0.114231199 0.635420561 0.328525990
0.284250289 0.635040998 0.324478298
0.425300479 0.634535491 0.323339641
0.559898496 0.641366124 0.325616717
0.702213943 0.644022644 0.326755375
0.855407715 0.655407846 0.340670347
0.000000000 0.767615318 0.338646293
0.000000000 0.768500686 0.331562191
0.071600184 0.770904541 0.331436068
0.286527276 0.770145297 0.329791576
0.440860182 0.766097367 0.332321286
0.580012977 0.769259810 0.333080381
0.721948445 0.774067283 0.335483998
0.862871587 0.774446428 0.340290874
0.000000000 0.907526970 0.351296514
0.004174537 0.909930170 0.350158393
0.083617829 0.909044743 0.348007292
0.303984821 0.910689175 0.355218202
0.460341334 0.909424424 0.353320658
0.604301155 0.911195457 0.350284576
0.751676202 0.909550726 0.350537926
0.896520853 0.906894386 0.353320748
0.013915360 0.133332998 0.404554009
0.104237996 0.135609999 0.392536193
0.209234998 0.151296899 0.394054264
0.306641608 0.177609354 0.398481637
0.419607729 0.198355287 0.401264995
0.551676095 0.214294627 0.409108281
0.685009658 0.230866641 0.413029969
0.833396435 0.241872162 0.423529446
0.023023816 0.206957996 0.394686729
0.105502546 0.206831098 0.391777277
0.199114293 0.215559900 0.401770651
0.299304277 0.224161997 0.394180983
0.422770619 0.240607187 0.404427290
0.549146056 0.251992434 0.407463461
0.684882820 0.265781164 0.418216377
0.836559117 0.276660383 0.423529357
0.004301353 0.302213728 0.395066291
0.056546811 0.296142012 0.380265713
0.185325637 0.307653427 0.390259147
0.292599648 0.309171557 0.390259176
0.412396938 0.317393988 0.400505960
0.542062223 0.327261537 0.406704366
0.685389102 0.339025646 0.419355005
0.832384706 0.345224261 0.425932825
0.000000000 0.391777277 0.393422008
0.000000000 0.402024090 0.387476563
0.151929185 0.405186266 0.402529627
0.278684258 0.408601910 0.400126636
0.411258370 0.413029999 0.402783066
0.544339001 0.422011644 0.411005735
0.686148286 0.430992991 0.416951269
0.839848161 0.432511091 0.428716004
0.004807003 0.508918583 0.410626203
0.001138547 0.509297967 0.409108311
0.130044088 0.510057092 0.402276903
0.279570073 0.511574984 0.406324923
0.413914919 0.515875816 0.403921723
0.546362698 0.524984241 0.413409442
0.691587329 0.530929685 0.420493335
0.847438395 0.538266957 0.430107564
0.002024260 0.629854321 0.412650526
0.004301354 0.629095435 0.408222377
0.104744092 0.633902371 0.415433198
0.280328989 0.635420561 0.414927512
0.426565558 0.639721811 0.415812641
0.555218339 0.638583422 0.417710364
0.701327980 0.643137455 0.416824967
0.853383839 0.655407846 0.429980844
0.001138644 0.763946831 0.424162000
0.001897740 0.766603291 0.426945180
0.073371381 0.767868519 0.425047725
0.291587621 0.766223550 0.427577645
0.435800105 0.768880129 0.430234075
0.581024587 0.771410704 0.427830189
0.722074568 0.771283925 0.426565647
0.864136577 0.777988315 0.432764113
0.000000000 0.904870391 0.441872269
0.004553989 0.911574841 0.443137437
0.096647792 0.909171224 0.443896532
0.307653099 0.909171224 0.440986663
0.459202886 0.910309613 0.439721793
0.606072247 0.910309613 0.445034802
0.752688348 0.907653451 0.448070973
0.902593434 0.905376196 0.451612622
0.005439805 0.149020001 0.510183394
0.082100160 0.153953359 0.504617155
0.189500183 0.172422275 0.503732085
0.313472182 0.188488349 0.503858149
0.417584181 0.203035995 0.502340376
0.543959498 0.223023444 0.510436594
0.687792301 0.234535292 0.514863908
0.834787786 0.244655192 0.526502192
0.005566002 0.220619723 0.497912824
0.062871709 0.225806087 0.503984988
0.193927735 0.233649999 0.504237831
0.297153711 0.237571090 0.497026920
0.419102162 0.245287895 0.502593637
0.549525619 0.257938206 0.509803951
0.683364928 0.268817097 0.518785477
0.830866337 0.278304905 0.522454321
0.001518192 0.307906061 0.502972960
0.018595554 0.312713295 0.508412480
0.172296003 0.315876007 0.498292297
0.292979091 0.317014456 0.501201749
0.406451583 0.320556283 0.497785985
0.543580115 0.329159081 0.506514728
0.686148167 0.340164274 0.514737427
0.837444484 0.347501546 0.527387381
0.000379548 0.405186266 0.496521533
0.000379548 0.408728659 0.498039424
0.147627741 0.412650436 0.495508999
0.288298190 0.414548069 0.499557614
0.404807359 0.415686429 0.498292178
0.547501326 0.424794286 0.512207627
0.686906993 0.435800195 0.520682812
0.832890332 0.443516999 0.529285192
0.001518192 0.505376339 0.501455009
0.001518192 0.513219416 0.495129585
0.115117103 0.512460291 0.502214074
0.283111632 0.518279612 0.502973139
0.422137976 0.522580564 0.509298027
0.554838896 0.526881635 0.515116751
0.697153449 0.531941712 0.519544184
0.843896210 0.544591963 0.532700837
0.000379548 0.637697458 0.512207627
0.006325002 0.631878614 0.512966633
0.102972984 0.634661436 0.512839913
0.284124166 0.637317955 0.513598919
0.427198112 0.636559188 0.513598919
0.554459274 0.642884016 0.516255200
0.703225851 0.647944272 0.524984360
0.854142725 0.656925797 0.535483837
0.001518192 0.767868519 0.531056225
0.002656643 0.763567090 0.531941712
0.086401172 0.764705658 0.528146446
0.281467646 0.770524919 0.525616765
0.435420394 0.771663487 0.530423522
0.581151247 0.769006968 0.530929685
0.721948445 0.770145297 0.529664457
0.869196832 0.779127121 0.540164530
0.001138640 0.907906413 0.549019337
0.006831464 0.906388283 0.544212520
0.059076708 0.906894386 0.541049898
0.300442755 0.907653153 0.542947352
0.449715197 0.910436451 0.547121942
0.606198490 0.908032775 0.544085681
0.751929164 0.908791780 0.545603752
0.898671746 0.904996634 0.543706357
0.000000000 0.174446732 0.617077768
0.023403170 0.175585181 0.620620012
0.187223092 0.190638900 0.625553608
0.312586904 0.201011837 0.622011364
0.434661388 0.215559989 0.622138202
0.554332733 0.227324471 0.620999694
0.688045740 0.236179546 0.621631742
0.841619372 0.243896097 0.629348516
0.002024260 0.239848286 0.622517526
0.011385549 0.234029546 0.621505022
0.178241447 0.242251992 0.618975461
0.307906270 0.250853896 0.622390926
0.426818371 0.255913824 0.616192102
0.558254182 0.260214984 0.619102001
0.686527550 0.270841271 0.621758640
0.836685538 0.279190183 0.629095554
0.002024260 0.322327822 0.620620012
0.002024260 0.322833389 0.623402894
0.163061097 0.324857831 0.619734347
0.298039526 0.325996190 0.618216395
0.425680012 0.330677092 0.620999753
0.552941322 0.335863441 0.617077768
0.686527550 0.341302723 0.622770429
0.842504799 0.351928979 0.634155750
0.001138644 0.418848723 0.614927471
0.004048004 0.420366704 0.616950989
0.133839279 0.420746267 0.621758640
0.290954918 0.422770530 0.611891329
0.420999616 0.428336442 0.620620191
0.548134446 0.425932646 0.615306675
0.689689815 0.432890743 0.623656094
0.838962495 0.445793986 0.637444854
0.000000000 0.521695375 0.618216515
0.000379548 0.527640820 0.610752583
0.107274100 0.527387559 0.618595839
0.283111632 0.528905511 0.615432978
0.426818371 0.534724772 0.622517526
0.551802933 0.532447875 0.619354725
0.701075494 0.538013935 0.632004797
0.845667303 0.551549673 0.644528806
0.002024260 0.638456464 0.618975520
0.001518192 0.637065291 0.618216515
0.083238646 0.638962686 0.620493412
0.279190630 0.641366124 0.623656094
0.426059365 0.640986741 0.623276591
0.567868471 0.646426499 0.628715694
0.714990258 0.648703277 0.638456464
0.861100376 0.653130829 0.641239583
0.001897740 0.768754244 0.639215469
0.006325002 0.762175560 0.635167420
0.101328179 0.768121123 0.637191832
0.290828615 0.766982555 0.639974535
0.445667386 0.768627465 0.638203979
0.576723933 0.768880069 0.635040939
0.719797254 0.774319828 0.636938751
0.867678881 0.778747380 0.648576558
0.001265167 0.908791661 0.661353648
0.000759092 0.907779872 0.658064306
0.159392878 0.904490829 0.659709036
0.328273118 0.906894326 0.658823371
0.450474292 0.908412218 0.653384089
0.599493802 0.905123115 0.649462461
0.750664115 0.911195338 0.655281365
0.894370675 0.911068678 0.658950210
0.001644712 0.200632572 0.756103516
0.005313265 0.201391578 0.757368684
0.170778006 0.209234908 0.747375190
0.312333971 0.220239997 0.753320932
0.443263561 0.228083566 0.752182007
0.574446738 0.231752440 0.751929045
0.708665252 0.237571284 0.744338930
0.843643606 0.249715149 0.746869028
0.002277288 0.255534261 0.760784268
0.000000000 0.259076744 0.743326843
0.156103820 0.257558554 0.758507371
0.307653636 0.264895886 0.753700376
0.438583285 0.266793460 0.748513758
0.569386542 0.275901079 0.750537336
0.711448252 0.272865117 0.746995687
0.844908535 0.281467199 0.742188215
0.000000000 0.339279115 0.745730460
0.000379548 0.337381363 0.746868849
0.143200487 0.336875081 0.751423240
0.305123627 0.340164185 0.745730281
0.439468652 0.345603883 0.751423120
0.572928548 0.348260760 0.748134077
0.707906365 0.347881198 0.747248292
0.846173286 0.353826642 0.748134077
0.003289004 0.438330203 0.749905288
0.000759096 0.436432451 0.749398887
0.119165018 0.439974844 0.749778390
0.292093277 0.436052918 0.751043618
0.438962728 0.441872358 0.748513639
0.573181510 0.441113293 0.745351076
0.712460637 0.439468563 0.750537276
0.846679389 0.447058827 0.746363103
0.000000000 0.542188406 0.748893201
0.000759096 0.543326735 0.748260260
0.096647374 0.542947292 0.748892963
0.291713893 0.542947233 0.750157833
0.433776289 0.544591963 0.749778330
0.571157336 0.543326676 0.747754574
0.708665252 0.543706119 0.744971573
0.849082589 0.548513353 0.748893261
0.003542452 0.654901981 0.752435029
0.004174544 0.656293631 0.746742249
0.066160582 0.660341382 0.746995747
0.281467646 0.658190966 0.749398887
0.437317938 0.654649019 0.750537276
0.575585485 0.654649019 0.750157773
0.715876281 0.654522419 0.749272525
0.860974073 0.666666567 0.755471230
0.004553996 0.772422552 0.754079580
0.003922000 0.772042990 0.749146044
0.030107476 0.774067223 0.742314577
0.277545899 0.773560882 0.747121930
0.439215481 0.773308158 0.748892963
0.584187508 0.774446726 0.759898543
0.725996554 0.780265570 0.756103516
0.874762893 0.778747320 0.761416495
0.006831284 0.905376196 0.764832377
0.003542251 0.906641185 0.765085280
0.154206425 0.908285797 0.768121243
0.326628536 0.906388581 0.766729653
0.478178263 0.905629516 0.770272136
0.612649977 0.909677505 0.773307920
0.751802862 0.907273889 0.772802114
0.895635486 0.904111326 0.773181498
0.000000000 0.231498823 0.893358767
0.000000000 0.233902544 0.884503305
0.140797198 0.237318069 0.891207874
0.313978255 0.244655192 0.893105388
0.455787361 0.247185141 0.887919009
0.595572233 0.255534559 0.886906922
0.735357523 0.258949816 0.883238137
0.876407623 0.255028814 0.886780620
0.007843000 0.280455381 0.887160063
0.001644715 0.271979719 0.892599761
0.140164196 0.274130374 0.891207874
0.317140996 0.281340897 0.888425112
0.450853854 0.290322632 0.886653781
0.597090065 0.293864697 0.887286663
0.736495793 0.292472988 0.889943063
0.876660347 0.287286818 0.888677955
0.000000000 0.356989264 0.888045788
0.002403714 0.357748240 0.893358529
0.125237286 0.355851114 0.888425052
0.308412552 0.358127981 0.886401117
0.454902172 0.361922979 0.886780620
0.596837461 0.363693923 0.887286663
0.739278674 0.365211904 0.888045788
0.879696488 0.362935007 0.888804674
0.003795180 0.455407798 0.892220140
0.001265167 0.456293613 0.888424933
0.121695273 0.457811475 0.892852545
0.312713444 0.459962100 0.892220140
0.454902083 0.462365568 0.886907101
0.597216725 0.458317369 0.885641992
0.739278674 0.457558274 0.886021435
0.881467223 0.456293404 0.882858574
0.001518192 0.564073145 0.885641932
0.000758999 0.563694000 0.885515392
0.103099287 0.562808216 0.884123981
0.306009084 0.564705908 0.890195966
0.458444208 0.563820541 0.885262430
0.598355353 0.564073145 0.887665927
0.744465113 0.560657918 0.886527598
0.881593704 0.562934816 0.891840577
0.000000000 0.679190397 0.886527836
0.000379548 0.677545667 0.886780620
0.086906873 0.678558052 0.886907041
0.298418820 0.677672386 0.886780620
0.454902351 0.671347499 0.887665927
0.600632429 0.673371434 0.890701950
0.745983064 0.671347499 0.892220259
0.885009527 0.668058217 0.888045788
0.008349176 0.793801069 0.891966760
0.000000000 0.797849357 0.891081512
0.073244423 0.797470033 0.884376585
0.301201731 0.793927968 0.885009587
0.458443910 0.793548524 0.890702009
0.604174852 0.792789578 0.889057338
0.742062032 0.793674827 0.895255923
0.889816344 0.791144788 0.892346323
0.003922001 0.920682907 0.895888746
0.004553989 0.920809805 0.894876361
0.073750734 0.920682907 0.885515451
0.303732067 0.922074616 0.892346680
0.462492347 0.914231598 0.889057636
0.615686178 0.916128814 0.891461015
0.754206598 0.914231598 0.893358767
0.891966760 0.911574781 0.893358767
