Assets/EldamarStudio/100 Retro LUTs Pack/LUTs/cube/Judy LUT.cube
DOMAIN_MIN 0 0 0
DOMAIN_MAX 1 1 1
LUT_3D_SIZE 32
0.098039001 0.098039001 0.105881996
0.110183001 0.095003389 0.108918384
0.128778771 0.096268229 0.111954227
0.152561486 0.099304162 0.112460159
0.179127544 0.102340452 0.110562995
0.200379938 0.105376065 0.116634995
0.214041993 0.113472320 0.120177321
0.231119692 0.119291708 0.123213284
0.252372086 0.121569000 0.125489995
0.273624480 0.121569008 0.125489995
0.291966975 0.133206993 0.128399864
0.316255242 0.139278740 0.127387732
0.342441261 0.143453285 0.126628637
0.366477042 0.149272963 0.129664958
0.387729377 0.152308583 0.132700577
0.413788795 0.160151809 0.133332998
0.442631394 0.169260189 0.136368990
0.473624527 0.178368405 0.141808569
0.507021010 0.187476039 0.144844964
0.534851372 0.191018358 0.147881359
0.564073443 0.195951998 0.149020001
0.596458256 0.202023998 0.152055874
0.632890940 0.208095998 0.161036998
0.669322968 0.214167997 0.167108998
0.698924243 0.217963278 0.166350290
0.729031980 0.220999315 0.168880671
0.763441086 0.224035054 0.176976934
0.802909434 0.227071449 0.180012539
0.842378438 0.227450997 0.185704991
0.878305137 0.229222208 0.190006211
0.915243566 0.230487391 0.193927988
0.960784018 0.227450997 0.200000003
0.098039001 0.116255775 0.111953996
0.110183001 0.116255775 0.108918384
0.124477774 0.119671382 0.116255775
0.146489158 0.119797766 0.119797774
0.172295764 0.118279837 0.118912384
0.188235164 0.126628458 0.119671382
0.209487543 0.132194385 0.123213060
0.233017012 0.135863006 0.124604613
0.255408108 0.138266802 0.123971999
0.267552525 0.142821386 0.119417995
0.291713983 0.145730525 0.122327864
0.314231515 0.153447002 0.125363737
0.339405358 0.157495037 0.126628637
0.364199668 0.161669999 0.129411995
0.393801391 0.167488962 0.129664958
0.417457581 0.172928378 0.137507573
0.442631394 0.179885983 0.139404997
0.470588148 0.187476188 0.142441154
0.503984630 0.196584433 0.147881359
0.534598351 0.202909380 0.153700396
0.565970719 0.206198737 0.155092001
0.598482013 0.210120261 0.156103864
0.632890940 0.214167982 0.161163509
0.669322968 0.220239997 0.170145392
0.703478813 0.224035278 0.171663389
0.736495733 0.228462979 0.173560977
0.771536767 0.232131451 0.180012673
0.805945814 0.230107844 0.183048934
0.840101182 0.233143553 0.186084554
0.875268757 0.235294208 0.191776976
0.912207365 0.236559391 0.195192620
0.957748353 0.233522996 0.196963608
0.091587774 0.138772994 0.113724999
0.110183001 0.138772994 0.117141165
0.124477774 0.140923783 0.114105001
0.138393313 0.145730615 0.121948227
0.161290318 0.142694548 0.123719223
0.183554709 0.144718617 0.123719223
0.203795090 0.149145782 0.124098673
0.225047469 0.155217782 0.127134711
0.252372026 0.155470863 0.127640769
0.268437773 0.157368973 0.124351770
0.294243991 0.162681893 0.127008095
0.314484507 0.167741776 0.125996485
0.339658648 0.172675416 0.128779128
0.364199787 0.175964773 0.131815255
0.385072827 0.182036772 0.133712992
0.417077810 0.188108772 0.138772964
0.445920408 0.194180772 0.143326774
0.473371118 0.199620366 0.143959358
0.505249798 0.205692753 0.148513958
0.540164530 0.212017789 0.156736240
0.566729784 0.216192037 0.157115966
0.597343147 0.219228357 0.156863004
0.628715932 0.222517267 0.159139767
0.667172730 0.230613545 0.170271903
0.701328039 0.234408289 0.174699768
0.734724820 0.234661683 0.173308089
0.770398080 0.238456771 0.177609071
0.805439532 0.240354463 0.183934450
0.836685777 0.242631152 0.191271156
0.873624086 0.247438431 0.194307208
0.912207127 0.249083161 0.197343171
0.959013224 0.246046782 0.196078002
0.083744675 0.164326161 0.118785322
0.102466621 0.164326161 0.121062614
0.118152618 0.165211767 0.118153065
0.139658153 0.166983008 0.118912160
0.152561933 0.170018718 0.124604613
0.177229941 0.168754101 0.125489995
0.198229164 0.170777842 0.125489995
0.223276705 0.171663314 0.127134711
0.245288000 0.176976219 0.129411995
0.269576043 0.174952477 0.129411995
0.290449053 0.178114995 0.129791126
0.314231366 0.184187323 0.132574096
0.337002128 0.190259323 0.132953838
0.364453018 0.193169162 0.136369050
0.383681417 0.197217152 0.140417576
0.412017971 0.200759158 0.142061993
0.441619188 0.208095998 0.146363169
0.475648105 0.214168161 0.146995589
0.507274032 0.217837140 0.150031820
0.539405584 0.223656163 0.154838666
0.570778131 0.227830410 0.161416739
0.598102272 0.231878147 0.159392998
0.626312196 0.235167503 0.159772500
0.664642751 0.241998911 0.170778170
0.699557304 0.246553019 0.176091120
0.731688797 0.249335676 0.176344484
0.766603291 0.246300057 0.174320102
0.804554045 0.250095159 0.181910276
0.835673451 0.254775465 0.189753145
0.871347249 0.257052422 0.200379208
0.911701322 0.262239397 0.201644614
0.959519148 0.259961993 0.198608324
0.077292554 0.191271096 0.130171001
0.093231939 0.191271096 0.126755148
0.105882004 0.190891549 0.120176770
0.124857321 0.191650540 0.118152767
0.154079542 0.191271096 0.121569000
0.172296315 0.194307491 0.124604613
0.191271454 0.197722778 0.126249000
0.214927301 0.197469711 0.127134711
0.243390456 0.195951998 0.129032448
0.267678469 0.198987618 0.129032448
0.282606184 0.199493647 0.128020123
0.302466989 0.202783063 0.129917547
0.329032272 0.208096549 0.135609999
0.359393001 0.213915512 0.141682059
0.386843830 0.214042008 0.147754833
0.415433496 0.215560004 0.146616191
0.443516999 0.218975350 0.146616191
0.469196588 0.227450699 0.149272978
0.505629420 0.233523503 0.152308598
0.534471810 0.239595562 0.154079556
0.563693881 0.243390352 0.159013182
0.595066547 0.247058541 0.165085450
0.628589451 0.253130525 0.165338472
0.665022254 0.256419897 0.174193904
0.698798299 0.259076744 0.178747699
0.731562316 0.261733323 0.179759681
0.763947129 0.264895618 0.177735940
0.806451857 0.261859983 0.180771545
0.838709474 0.265655011 0.186084539
0.874762595 0.268185019 0.195951626
0.914358199 0.269070506 0.207337081
0.956862986 0.272106111 0.204301462
0.068184935 0.215559870 0.136243001
0.089437321 0.215559870 0.130171001
0.101075165 0.213409096 0.126755163
0.117014319 0.214673921 0.129031926
0.141935557 0.218595475 0.136748612
0.163187951 0.215559870 0.121569000
0.186464071 0.221125931 0.129664600
0.208095759 0.221758157 0.130676702
0.230866224 0.220240086 0.128652900
0.252498090 0.223276377 0.125996068
0.282605797 0.226312727 0.137634054
0.303858340 0.226818800 0.137128264
0.329032272 0.227830932 0.137887299
0.359393001 0.229095891 0.141682059
0.389752954 0.232131511 0.147754833
0.412396848 0.241871983 0.146616191
0.439721495 0.245919988 0.146616191
0.468437552 0.248703077 0.149020001
0.496521026 0.254775882 0.149272993
0.530170441 0.260847926 0.160657957
0.560657501 0.263124943 0.165085182
0.592030168 0.264642745 0.168121055
0.625553071 0.268310934 0.168374076
0.661985874 0.274382919 0.174446866
0.693864584 0.275395006 0.178747699
0.727514327 0.275901049 0.181783676
0.763947129 0.277419120 0.183807939
0.806451857 0.283112377 0.186843544
0.840986788 0.280076116 0.189879835
0.879190266 0.280329019 0.193421707
0.919418216 0.281214625 0.200252667
0.956862986 0.284250855 0.207337067
0.061606999 0.239847988 0.137254998
0.085389063 0.237318322 0.138772681
0.098039456 0.241619319 0.137001678
0.108412318 0.240986645 0.134345159
0.128399760 0.243769646 0.138646320
0.156103939 0.242884263 0.134218931
0.184946001 0.242378324 0.134218678
0.204300702 0.243516609 0.136748716
0.224541187 0.242757499 0.134471998
0.247564822 0.247565120 0.133206829
0.272485405 0.248071179 0.137127995
0.302846193 0.249083310 0.143200263
0.329032272 0.251360327 0.142315000
0.358634025 0.254396290 0.143706322
0.382163286 0.257431895 0.145224512
0.410120100 0.262871295 0.151296675
0.436179698 0.270208508 0.153193995
0.467172861 0.271853238 0.157242253
0.498292327 0.276028246 0.159140006
0.531182706 0.279569983 0.160152018
0.564579070 0.283744723 0.168500990
0.595572293 0.284377307 0.173181310
0.627450824 0.285895109 0.176217318
0.661479831 0.289563298 0.177482486
0.695635259 0.293358594 0.181277961
0.731814981 0.295002967 0.184313640
0.769512832 0.296141326 0.187349737
0.803921521 0.298165590 0.190385863
0.843517125 0.298798174 0.193421513
0.876913488 0.299304217 0.198229119
0.914484560 0.300948709 0.201138645
0.949272692 0.303984672 0.205313325
0.048956588 0.265781105 0.143832996
0.069956012 0.262745082 0.141935334
0.090069778 0.266160697 0.141176000
0.102972999 0.267172694 0.141176000
0.118153095 0.266413718 0.139278829
0.148513868 0.266413718 0.140543997
0.173940718 0.266413718 0.141429394
0.201011717 0.268058419 0.144465417
0.219228089 0.266540021 0.142188698
0.244402274 0.271726966 0.142188698
0.268690705 0.271979988 0.145097822
0.295382500 0.273624688 0.144844979
0.322327644 0.274763048 0.149019718
0.351170361 0.279822975 0.150284663
0.376597404 0.281467259 0.151675999
0.404301077 0.286906719 0.153193995
0.434661865 0.291460901 0.157748193
0.465781540 0.294497102 0.163693711
0.499178022 0.297533244 0.167741954
0.530929685 0.298924625 0.166350290
0.564326406 0.301960737 0.168500990
0.597722828 0.304997116 0.172548994
0.628969014 0.305882692 0.177355990
0.663883686 0.310436487 0.180391997
0.695635259 0.311827987 0.182669282
0.731814981 0.314864039 0.185705319
0.772042871 0.317393690 0.188235000
0.802403569 0.317393690 0.190132737
0.839089036 0.315749407 0.193168879
0.876660407 0.317520201 0.196331024
0.915370047 0.319670975 0.205945790
0.953320682 0.321947694 0.210499987
0.028462909 0.292347014 0.153700098
0.047438581 0.288551718 0.148387000
0.070841573 0.291967094 0.144465417
0.094623893 0.295256168 0.142694190
0.112460449 0.289563656 0.143073648
0.140923679 0.289184123 0.146109939
0.162935227 0.289184123 0.146615997
0.188868091 0.289310604 0.147501618
0.212397203 0.293106109 0.149020001
0.239721596 0.296141714 0.149020001
0.264136642 0.297027111 0.151170224
0.291208267 0.299051374 0.152435258
0.317014545 0.301328540 0.151297003
0.339531958 0.304364145 0.157621965
0.370904714 0.304870069 0.161669582
0.399747074 0.308918178 0.162302002
0.430866390 0.312713295 0.163820192
0.464263529 0.317014664 0.166224003
0.497660011 0.320303321 0.172042996
0.528273046 0.320556283 0.171283826
0.561290145 0.321694940 0.171283826
0.594687045 0.325490206 0.174066991
0.628336430 0.328400075 0.174319983
0.665401816 0.333207101 0.180391997
0.698039114 0.335483998 0.183428183
0.731814981 0.336116433 0.186464414
0.770272076 0.339152157 0.188994095
0.800885737 0.339405179 0.188994095
0.838836133 0.336748838 0.193168923
0.873750329 0.337254971 0.196963951
0.912333667 0.339405179 0.199873209
0.963946939 0.339405179 0.218089998
0.001138516 0.316635042 0.156736493
0.022390895 0.310563028 0.153700098
0.052118789 0.313219517 0.150537774
0.085009173 0.318026692 0.148766965
0.115496054 0.319924474 0.149146423
0.130676448 0.316888094 0.152182028
0.149019673 0.316508532 0.152687997
0.177229911 0.314863831 0.152687997
0.209361568 0.314357728 0.152055621
0.230613977 0.320430517 0.149020016
0.255028486 0.323466122 0.149020016
0.283365011 0.326375782 0.153194487
0.311321974 0.328273505 0.156609997
0.336495548 0.328652978 0.157621965
0.372928292 0.331688553 0.166729569
0.399494112 0.334598303 0.168374002
0.427071482 0.336243004 0.169892192
0.458190739 0.338267088 0.172295988
0.491587967 0.347375482 0.172295988
0.522201061 0.347881496 0.175332353
0.556356490 0.347881496 0.176217958
0.591650665 0.350032002 0.177356347
0.625300050 0.355724484 0.180391982
0.664769292 0.355724514 0.186463997
0.699557304 0.358254194 0.187981993
0.734218776 0.359771997 0.189500198
0.770272076 0.360404551 0.192030489
0.803668439 0.363440931 0.192030489
0.847564936 0.361037165 0.200000316
0.883870840 0.361543238 0.207084462
0.918026149 0.363693982 0.211258978
0.960910559 0.363693982 0.212018013
0.000000000 0.340923756 0.159772128
0.006704520 0.343579888 0.156736478
0.030107681 0.341808856 0.153700098
0.059962004 0.343832880 0.153194293
0.091713779 0.344844997 0.155598015
0.122074805 0.344338953 0.161163941
0.147375196 0.343832880 0.159139559
0.170018986 0.343832880 0.160404712
0.199114352 0.343579829 0.160910785
0.224667758 0.347501844 0.157874614
0.248829991 0.347754866 0.163567126
0.277166486 0.348766744 0.161543399
0.307526976 0.350917220 0.161543369
0.335610032 0.352688015 0.159772128
0.364072919 0.353067458 0.160910577
0.390891701 0.360910654 0.162808001
0.422770321 0.363440871 0.168880373
0.457937717 0.364073455 0.176091284
0.491334945 0.368627846 0.178368002
0.524731398 0.372169495 0.178368002
0.557115555 0.374193728 0.181277856
0.592536271 0.375205874 0.184313983
0.627830327 0.377356350 0.189120874
0.661732912 0.380138993 0.189626873
0.696647406 0.380138993 0.191144869
0.731435418 0.379759550 0.189753190
0.768880248 0.379253745 0.190765202
0.809487402 0.384693295 0.197975993
0.840227664 0.385072857 0.200632840
0.879190505 0.382289529 0.205692768
0.917141020 0.382162988 0.210626125
0.963693857 0.382162988 0.214674130
0.000000000 0.367236257 0.160784006
0.002024004 0.372296095 0.157748386
0.006831307 0.371157259 0.160784483
0.037444916 0.368627250 0.162808418
0.070461556 0.368247777 0.166224152
0.103858292 0.373181492 0.165717736
0.140291333 0.369133502 0.168247938
0.165970981 0.370777786 0.165211543
0.191777200 0.371157259 0.168247923
0.220366761 0.372928470 0.169007018
0.244781479 0.373054981 0.166602999
0.269070238 0.373054981 0.170651257
0.299430996 0.375331968 0.169892639
0.329538286 0.379253268 0.168627471
0.356862664 0.381024510 0.166856259
0.391903579 0.382163048 0.168880507
0.420746177 0.388235450 0.168880507
0.457305133 0.388741493 0.176470995
0.489310682 0.390386224 0.178115308
0.524731398 0.395446151 0.184439987
0.556230426 0.396584511 0.182542741
0.591524363 0.398482263 0.185325861
0.628969014 0.398608744 0.190132737
0.664263189 0.401644349 0.190132737
0.697659552 0.402403265 0.194180742
0.735230505 0.405186236 0.196964085
0.772422314 0.405060053 0.197343513
0.810372829 0.409614235 0.204933703
0.842251658 0.410373241 0.204680577
0.879696310 0.408602029 0.207716957
0.916635215 0.409107864 0.210752651
0.960658014 0.412523508 0.215685993
0.001138644 0.394560635 0.165338293
0.000000000 0.398355633 0.163441017
0.001012130 0.401391506 0.162302345
0.011258876 0.398228645 0.166223884
0.050347812 0.392156631 0.174952805
0.084503293 0.397469908 0.171916410
0.121821679 0.398481995 0.173434317
0.158760339 0.397343576 0.173181564
0.186843634 0.398861200 0.168627188
0.218342975 0.398481637 0.172802314
0.239468634 0.400758922 0.172928542
0.266033858 0.400758922 0.174066901
0.292599648 0.400758922 0.174825996
0.322960436 0.406324923 0.177609354
0.351170391 0.408475697 0.175458580
0.388108760 0.409108281 0.178368151
0.425679803 0.411764830 0.181024998
0.458443761 0.414168626 0.181024998
0.488804609 0.414168626 0.181024998
0.523592710 0.418595970 0.185958296
0.557368815 0.422011644 0.189753085
0.588741481 0.423023522 0.187729344
0.627703905 0.423150003 0.190512002
0.663124800 0.425173730 0.190512002
0.699557304 0.425932646 0.192789003
0.734851301 0.427577287 0.196584061
0.776850045 0.432637274 0.203162789
0.811511397 0.435041070 0.209867358
0.845667303 0.436559290 0.210246816
0.879696310 0.434788078 0.210752562
0.921315551 0.433522880 0.213788956
0.958001375 0.442125291 0.216824636
0.003668968 0.422138065 0.176976994
0.001391612 0.422644049 0.177482992
0.000253032 0.425933063 0.172928482
0.006072000 0.428715914 0.169386029
0.026565095 0.425806046 0.169639051
0.062997870 0.419734061 0.175711825
0.101201668 0.423276067 0.179759711
0.138519689 0.427450716 0.179000676
0.177229241 0.428969026 0.174952939
0.216698423 0.425932616 0.165844560
0.234408826 0.431372732 0.173940867
0.259962052 0.433650017 0.180518985
0.290069312 0.433903009 0.183428392
0.320683092 0.433903009 0.181151032
0.351043820 0.433903009 0.181151032
0.387602746 0.433650017 0.185198992
0.425553381 0.436432987 0.189500153
0.460721135 0.441239983 0.192157000
0.491081953 0.441239983 0.192157000
0.524731398 0.443769664 0.192409962
0.558127701 0.446805775 0.194054261
0.591524124 0.449841917 0.196331039
0.625047028 0.452877551 0.196331039
0.658570647 0.453004062 0.196331039
0.696268260 0.453004062 0.196331039
0.734345317 0.454648703 0.196837038
0.771284044 0.456926048 0.197343111
0.810752392 0.456926048 0.206451491
0.849715412 0.459582835 0.210752800
0.885642111 0.459329814 0.214041770
0.921568573 0.457558632 0.216824561
0.961037040 0.460595042 0.219860956
0.000632584 0.452498823 0.183048993
0.006704584 0.458570808 0.189120993
0.004427768 0.454775810 0.183175221
0.002024255 0.455028653 0.178494409
0.008349111 0.456419826 0.178494409
0.044781886 0.456166804 0.178747445
0.098924980 0.455154806 0.187349901
0.137381405 0.456419826 0.185325712
0.169639200 0.456293494 0.179000676
0.201518059 0.453257740 0.174952924
0.235167444 0.456040353 0.180392414
0.264769316 0.459709257 0.183048993
0.295256466 0.462112755 0.184313998
0.323719442 0.464262962 0.184187412
0.357115805 0.464262962 0.190259412
0.385072768 0.461859763 0.187855601
0.419481397 0.462492198 0.188235000
0.454649150 0.465527982 0.189500153
0.485009968 0.465527982 0.192157000
0.523719370 0.465527982 0.194939643
0.558127701 0.468058139 0.195445582
0.591524124 0.471094251 0.197090134
0.625047028 0.474129885 0.199367419
0.661479831 0.477166295 0.199367419
0.697280169 0.477292806 0.199367419
0.734345317 0.480075806 0.202150404
0.771284044 0.483997464 0.205439478
0.810752392 0.481214792 0.203415871
0.844908476 0.483870953 0.212523565
0.879570127 0.485135972 0.218595549
0.917394161 0.483617991 0.222263992
0.964073420 0.481847376 0.222896576
0.000000000 0.487665981 0.181910187
0.001265004 0.488931000 0.190385997
0.003036004 0.486400992 0.190006226
0.001518196 0.485388994 0.186464161
0.001138547 0.488804370 0.187982261
0.019355079 0.486780584 0.190005988
0.080708355 0.481973588 0.190385520
0.130170807 0.483617872 0.192915916
0.163567200 0.485135883 0.187602803
0.193928003 0.485389262 0.186211467
0.232004866 0.488171935 0.189500183
0.261353254 0.487160057 0.189500451
0.296268314 0.488298774 0.189120993
0.328906000 0.489816576 0.189626992
0.360151589 0.489816576 0.195698991
0.393548578 0.492219806 0.196963996
0.419354767 0.487666011 0.190891609
0.452877879 0.489942759 0.190132573
0.488551974 0.497026771 0.196710959
0.522454381 0.494623601 0.194939643
0.558127701 0.496520847 0.197975740
0.591524124 0.499557108 0.198481813
0.625047028 0.502466619 0.200252995
0.661479831 0.503225684 0.204806998
0.700189829 0.506262064 0.207084283
0.736748755 0.506388605 0.207210809
0.772675395 0.509930551 0.210752755
0.808349192 0.510689378 0.211511642
0.847311676 0.512966752 0.211891145
0.884250343 0.516002357 0.219227970
0.918911994 0.517520368 0.223528996
0.959899008 0.517520785 0.223528996
0.001518192 0.519544184 0.186463997
0.000000000 0.519544184 0.189500391
0.000000000 0.518279195 0.191524416
0.000000000 0.513472378 0.192283183
0.000000000 0.518026412 0.194433987
0.005692745 0.516129076 0.194054261
0.058317639 0.513599157 0.194560200
0.113472208 0.509424448 0.195951521
0.158254102 0.511701167 0.194433898
0.193927988 0.513978422 0.195192993
0.229980871 0.517014503 0.198102504
0.265907437 0.519038260 0.198608458
0.294370472 0.517140985 0.196711197
0.331689030 0.516888022 0.196205139
0.360784173 0.515623152 0.197216809
0.393548220 0.518026352 0.200000003
0.425427169 0.519544184 0.201518193
0.450980306 0.514737189 0.193674818
0.487792939 0.523339152 0.199240968
0.523213208 0.524604499 0.200253025
0.558127701 0.526881635 0.201011732
0.593548357 0.528905392 0.204048127
0.628083348 0.531309187 0.204554200
0.664515793 0.531309187 0.207843199
0.703225851 0.533586442 0.208602101
0.738519967 0.535231173 0.211638495
0.775205195 0.535737097 0.214295074
0.810626268 0.538772702 0.221378922
0.847817957 0.540290773 0.220240191
0.885768116 0.541808963 0.219227970
0.927007794 0.544844806 0.225300208
0.962934971 0.547881186 0.226565376
0.003289425 0.548133731 0.197343156
0.000885613 0.546868742 0.194307372
0.000000000 0.546236157 0.194054574
0.000000001 0.546868682 0.196584567
0.000758999 0.543833077 0.201138586
0.001264990 0.543580115 0.195066571
0.043643404 0.543580115 0.194054574
0.098545268 0.542567968 0.195066437
0.143706307 0.540923119 0.197469682
0.195319489 0.540923119 0.200506076
0.230739877 0.542567968 0.202909872
0.266160518 0.544971466 0.203922004
0.300316304 0.547501147 0.203289434
0.331183016 0.547501147 0.204048470
0.359645814 0.544844925 0.199873313
0.390512377 0.546615899 0.198481813
0.423655778 0.548133731 0.202783182
0.453384131 0.547501147 0.203922004
0.483744979 0.547501147 0.200885609
0.519038618 0.550284505 0.202783361
0.556103468 0.554585576 0.205819264
0.592915773 0.558633566 0.207590148
0.632258415 0.558633566 0.210373506
0.668690562 0.558633566 0.209867448
0.707400262 0.560910821 0.210120291
0.743959546 0.563820541 0.210499674
0.775837660 0.562808514 0.213535935
0.815306664 0.565464675 0.228210285
0.852118969 0.566476524 0.228083596
0.889816463 0.565844119 0.226312354
0.926375210 0.567994714 0.225300208
0.971916437 0.571031153 0.231372997
0.000253039 0.581530929 0.203415945
0.000253033 0.575458944 0.200379550
0.000000000 0.572043180 0.201644778
0.000000001 0.573054969 0.205692962
0.000759002 0.577229559 0.210246980
0.006830993 0.574193895 0.204174981
0.032637626 0.573940992 0.203162983
0.083365105 0.573940992 0.203162983
0.140291139 0.574446797 0.203415960
0.183175474 0.577355981 0.203542471
0.223149866 0.574446857 0.203668982
0.260088503 0.573940992 0.203922018
0.294244289 0.575332344 0.202783376
0.325111002 0.577862024 0.201012075
0.361542970 0.577862024 0.210120454
0.390006423 0.580012798 0.203542143
0.422390938 0.581530929 0.204554185
0.456419736 0.580898345 0.209994003
0.483744949 0.577862024 0.203922004
0.516888380 0.580645382 0.203668967
0.554332674 0.583681285 0.205819264
0.592536271 0.585958064 0.206831142
0.629222035 0.585958064 0.204301506
0.665654838 0.585958064 0.201265112
0.704364240 0.588235319 0.207590327
0.742441297 0.592663050 0.214294955
0.778874040 0.596204996 0.219607934
0.818342388 0.590133011 0.222643539
0.855154634 0.592789173 0.224035054
0.895129383 0.592030287 0.225553244
0.934471548 0.592789590 0.228083566
0.968879998 0.601392031 0.231372997
0.005566004 0.606577992 0.206704646
0.000000002 0.608855426 0.203668967
0.000000000 0.607084394 0.202783361
0.001265161 0.605945706 0.207716838
0.002403809 0.607843161 0.214168206
0.001264996 0.604806960 0.210500002
0.019987315 0.606831372 0.212017685
0.067678735 0.605439663 0.210626364
0.129158825 0.604301035 0.209488004
0.179759637 0.605312884 0.209488004
0.222137868 0.605312943 0.209488004
0.257558227 0.606325269 0.209488004
0.292093575 0.605945766 0.207211018
0.324352026 0.605945349 0.203036323
0.358254313 0.611005425 0.207084060
0.394686967 0.608602226 0.206578448
0.426186174 0.610879183 0.202783361
0.460088491 0.612144053 0.206198990
0.489563912 0.611258447 0.204428002
0.519671023 0.611005425 0.201138645
0.556862831 0.610246778 0.204933643
0.596331477 0.613535881 0.209867001
0.634535015 0.618849099 0.212397158
0.670967817 0.618849099 0.214674458
0.705123246 0.618849099 0.211638078
0.743579984 0.619987726 0.214547649
0.781404376 0.622264743 0.217330694
0.818595409 0.620746732 0.220366895
0.860720634 0.625300705 0.223402515
0.895635545 0.624920905 0.227071434
0.935104549 0.624541402 0.229348749
0.974193692 0.631752014 0.228589639
0.005945744 0.640354216 0.211638004
0.001771000 0.632005155 0.206704646
0.001897740 0.636685729 0.209614247
0.000632579 0.636685729 0.208349407
0.002024260 0.636685729 0.213788748
0.000506065 0.635167480 0.212270945
0.004427589 0.637191832 0.210499674
0.056926064 0.638583481 0.216824710
0.118153192 0.637318134 0.214042008
0.170525014 0.638456464 0.211765006
0.213535741 0.638456464 0.213662252
0.257558227 0.636685729 0.213662252
0.293231934 0.638583481 0.212523907
0.327894002 0.636559248 0.207969964
0.359645635 0.639342248 0.211005569
0.391650856 0.640101314 0.209234804
0.428083628 0.640101254 0.206198812
0.463124543 0.642504454 0.207084253
0.497280240 0.642504454 0.209614247
0.523845792 0.644402206 0.208728626
0.559898496 0.644402206 0.207589984
0.597343624 0.642378449 0.211638004
0.634788215 0.648577213 0.215685993
0.669449806 0.650348008 0.216951162
0.709298015 0.650348008 0.219228446
