Assets/EldamarStudio/100 Retro LUTs Pack/LUTs/cube/Judy LUT.cube
LUT_3D_SIZE 5
DOMAIN_MIN 0.000000 0.000000 0.000000
DOMAIN_MAX 0.903226 0.903226 0.903226
0.098039001 0.098039001 0.105881996
0.231119692 0.119291708 0.123213284
0.387729377 0.152308583 0.132700577
0.596458256 0.202023998 0.152055874
0.842378438 0.227450997 0.185704991
0.048956588 0.265781105 0.143832996
0.201011717 0.268058419 0.144465417
0.376597404 0.281467259 0.151675999
0.597722828 0.304997116 0.172548994
0.839089036 0.315749407 0.193168879
0.000632584 0.452498823 0.183048993
0.137381405 0.456419826 0.185325712
0.357115805 0.464262962 0.190259412
0.591524124 0.471094251 0.197090134
0.844908476 0.483870953 0.212523565
0.002909872 0.674762964 0.214674130
0.038709801 0.668944001 0.209740579
0.363314092 0.671980143 0.216065705
0.602403224 0.676786959 0.216698125
0.860341430 0.682732284 0.228842661
0.000000000 0.905123413 0.236685991
0.037444972 0.909044743 0.244149119
0.377356231 0.910942197 0.245793834
0.639595270 0.913219452 0.246046871
0.901328564 0.908918619 0.247059003
0.072486013 0.113724999 0.276533991
0.202656418 0.134345278 0.274256706
0.369133532 0.180139109 0.276913673
0.589879811 0.216698125 0.294497281
0.832510948 0.239595115 0.305629700
0.020493304 0.264136404 0.272612393
0.169006720 0.275901407 0.270335704
0.356736124 0.290322423 0.283111989
0.578494430 0.307906419 0.291587412
0.831245780 0.321315706 0.304996878
0.004933705 0.453763396 0.292599678
0.124857582 0.454775512 0.292220414
0.348893106 0.455408096 0.291587412
0.583048522 0.473370969 0.299430549
0.843011022 0.485768825 0.310815871
0.001012128 0.667046249 0.308665574
0.041619096 0.667046249 0.301708102
0.360025078 0.672232866 0.311195403
0.601391435 0.671220720 0.311195582
0.853130758 0.683997273 0.319417953
0.000000000 0.905755758 0.328272820
0.032258224 0.910309613 0.326248854
0.381024510 0.910942614 0.333080292
0.643263936 0.912207365 0.332827389
0.898291826 0.908918619 0.330803424
0.003289416 0.139910996 0.451866239
0.183428124 0.160152003 0.458317399
0.363566995 0.190259412 0.449841797
0.579759359 0.223908707 0.458697110
0.835167348 0.239216000 0.474003375
0.002277292 0.287033409 0.445287794
0.151043415 0.283111989 0.443643093
0.348513424 0.294876397 0.444275677
0.576217234 0.308538973 0.453763396
0.831246018 0.328526109 0.475015670
0.009867410 0.445919991 0.448576808
0.080708295 0.453763843 0.443516701
0.350537837 0.465527952 0.449209362
0.577482700 0.476660401 0.458317399
0.838456750 0.491081536 0.479317069
0.001012128 0.665275574 0.464010268
0.035420548 0.667046249 0.469070256
0.358759940 0.666034102 0.468817413
0.596458256 0.669956148 0.471094102
0.858190835 0.686907113 0.483871222
0.006577994 0.906388581 0.489057809
0.034535099 0.907653570 0.482859254
0.387982219 0.906388462 0.494370788
0.644275784 0.909297705 0.496647537
0.896014929 0.910309732 0.497659564
0.001012128 0.180518985 0.648450375
0.144465402 0.193928123 0.662745118
0.371790081 0.213156417 0.649335861
0.585705101 0.231372997 0.649335980
0.840860307 0.242884293 0.659455955
0.002277292 0.299810290 0.644402146
0.121568568 0.307653666 0.656419992
0.366603106 0.310562968 0.648070872
0.591903806 0.318405837 0.650980115
0.838456750 0.333459824 0.661480188
0.007463868 0.476027817 0.644528925
0.045034669 0.477039963 0.648830056
0.356482953 0.481973797 0.650095284
0.592915952 0.479316801 0.649968386
0.841113150 0.496268213 0.662744939
0.002023998 0.672865272 0.649335980
0.016951405 0.668311238 0.648323715
0.359139383 0.672232866 0.655534565
0.606325269 0.677799106 0.663124263
0.866919875 0.681720138 0.670335174
0.000000000 0.907020748 0.687160075
0.087033235 0.903731823 0.685515523
0.398102492 0.906388581 0.686021447
0.634155333 0.906388044 0.677799106
0.893105507 0.910562873 0.691334605
0.000000000 0.231498823 0.893358767
0.071727104 0.239595115 0.891207933
0.385199219 0.243896410 0.886021316
0.631498933 0.256293654 0.884882569
0.876407623 0.255028814 0.886780620
0.000000000 0.336748987 0.885768473
0.048324086 0.332827389 0.889942765
0.379000515 0.341302812 0.883744478
0.630234122 0.342947423 0.886780620
0.879696488 0.339658529 0.888298512
0.000632584 0.510056853 0.886780620
0.051233381 0.508412302 0.886401057
0.385325342 0.516002178 0.888171732
0.630866528 0.512713611 0.885768473
0.885641575 0.506134987 0.886780620
0.000000000 0.708285749 0.887792468
0.035800263 0.704617083 0.891714036
0.375838101 0.706894279 0.891713917
0.637065232 0.701707959 0.889690101
0.886527300 0.695129812 0.889057636
0.003922001 0.920682907 0.895888746
0.034535099 0.917899907 0.885515451
0.386084586 0.921442211 0.891334355
0.650854051 0.915875852 0.891714096
0.891966760 0.911574781 0.893358767
