Assets/EldamarStudio/100 Retro LUTs Pack/LUTs/cube/Julie LUT.cube
LUT_3D_SIZE 8
DOMAIN_MIN 0.000000 0.000000 0.000000
DOMAIN_MAX 0.903226 0.903226 0.903226
0.121569000 0.105881996 0.109803997
0.162681550 0.114104547 0.114484094
0.238330007 0.122327901 0.129411995
0.317773640 0.118785642 0.130550355
0.412144393 0.133965805 0.142694190
0.515116751 0.152814999 0.160658002
0.648576856 0.181024998 0.185578987
0.797975540 0.201391667 0.204047829
0.148260906 0.146995544 0.124730997
0.177989006 0.149779007 0.125869542
0.235547438 0.150917456 0.130170897
0.309171647 0.158760369 0.134851098
0.402403653 0.168880552 0.148260817
0.504996896 0.185705096 0.163819999
0.636812270 0.212017834 0.180771545
0.785452545 0.236938819 0.205692545
0.169386089 0.199873090 0.136369184
0.183048546 0.200632080 0.142694190
0.225679994 0.199873090 0.142694190
0.302846551 0.208855450 0.143073738
0.394939989 0.223276183 0.156736106
0.503225744 0.250347823 0.172422469
0.638962626 0.275774986 0.192030281
0.795698643 0.304744095 0.220998988
0.195572644 0.275268644 0.168626994
0.211638108 0.274889201 0.161922649
0.251486182 0.277672559 0.161037445
0.303225994 0.276913643 0.158001363
0.389374197 0.295256197 0.175205544
0.495762259 0.321821392 0.184186995
0.625173867 0.358253926 0.205692649
0.788488626 0.385578603 0.224667981
0.220240191 0.382289559 0.185831800
0.238836363 0.382289559 0.187729448
0.275016069 0.380771399 0.185705096
0.331815422 0.382669032 0.189753190
0.397976190 0.383807391 0.195192993
0.493864536 0.404553950 0.198355287
0.626691997 0.446426272 0.213282809
0.787096620 0.488424808 0.245667338
0.235167995 0.527007759 0.217583731
0.250600755 0.530676723 0.221125796
0.298797995 0.528526485 0.217457250
0.365591526 0.530550241 0.221505255
0.443010926 0.532068014 0.226565376
0.524731457 0.536369443 0.223276466
0.639342070 0.559139729 0.237065256
0.799240768 0.608096182 0.272865623
0.211511731 0.691334546 0.245414287
0.234787822 0.696521282 0.264010012
0.298798084 0.696900845 0.260720998
0.374952346 0.698545575 0.264642566
0.462112665 0.700822234 0.261733294
0.564705610 0.700189829 0.266160280
0.673371315 0.704111218 0.276407540
0.810879290 0.727767050 0.300442338
0.253889799 0.866034269 0.375711441
0.283112109 0.872485638 0.371030957
0.338266790 0.872485638 0.373181581
0.419860780 0.876533806 0.374319762
0.511701524 0.877672434 0.379632741
0.627071381 0.880075753 0.388614595
0.727894008 0.879949152 0.400759041
0.855534434 0.881467640 0.408348918
0.145477548 0.118405998 0.150537997
0.166603550 0.114484094 0.150537997
0.220240191 0.127387539 0.158760458
0.279696286 0.142314643 0.171283737
0.369386643 0.152435452 0.184186995
0.481846988 0.172422469 0.206325009
0.619987249 0.192789003 0.219860822
0.771410286 0.209614441 0.249968082
0.149779007 0.149779007 0.150538012
0.181151003 0.146995544 0.157621995
0.215560094 0.154838547 0.165464997
0.280202538 0.163820207 0.170524538
0.366350532 0.177988991 0.186211541
0.475522161 0.193548098 0.204174742
0.605818987 0.217457548 0.221758083
0.756483316 0.239468828 0.244402379
0.181151003 0.189247549 0.163820103
0.187729448 0.191650644 0.170524642
0.223782524 0.189247549 0.161416993
0.281340986 0.204933554 0.175585091
0.365464836 0.226059541 0.190385908
0.477925271 0.246046990 0.208096460
0.611258984 0.272232622 0.226818547
0.774699152 0.303099394 0.251233339
0.197849646 0.259203196 0.185325637
0.210752904 0.263251185 0.188109010
0.243643090 0.262365282 0.188488543
0.296142101 0.269829541 0.190386102
0.370525062 0.285515606 0.197849631
0.472485811 0.310562819 0.214674190
0.607716560 0.346869200 0.228716090
0.765211821 0.384060830 0.258190930
0.224288091 0.363440990 0.207337350
0.237950549 0.364705831 0.217836887
0.275521725 0.369386524 0.213915095
0.323592275 0.371789753 0.215939552
0.387476623 0.367741853 0.215559900
0.477292925 0.394813299 0.220999092
0.612903118 0.438962907 0.245793641
0.775585175 0.480581820 0.271094382
0.233016998 0.511448264 0.242631540
0.257179171 0.509424508 0.243263528
0.296268106 0.516002357 0.243516997
0.359772295 0.516761482 0.244149446
0.432764024 0.520809472 0.248450086
0.514990687 0.524225056 0.249082997
0.629221797 0.550917149 0.262112737
0.790512204 0.600252748 0.293611646
0.213535726 0.676786959 0.278178096
0.240860090 0.683997154 0.280075848
0.296900749 0.683997035 0.286274552
0.370525002 0.687160015 0.288045287
0.458064467 0.688677788 0.289689988
0.555724204 0.692599714 0.293611556
0.664769232 0.693738341 0.299810290
0.794686735 0.718405783 0.324225187
0.261986047 0.858190596 0.395445764
0.288045466 0.866540074 0.392915726
0.341176331 0.870208859 0.395445764
0.417963237 0.870335519 0.395825624
0.516634941 0.869829416 0.410119951
0.619354665 0.874003768 0.410626113
0.727767348 0.877292871 0.422264487
0.856166720 0.878937602 0.439721704
0.146615997 0.125489995 0.221758187
0.182289541 0.126249000 0.219860643
0.229728088 0.131688893 0.207716897
0.284123629 0.146236643 0.212397203
0.360405087 0.163819999 0.229601383
0.460214704 0.183048636 0.257684976
0.585831463 0.202150568 0.282732576
0.748639703 0.225680083 0.316382080
0.169386089 0.158760458 0.203795001
0.190132648 0.161543101 0.197469994
0.216319010 0.162302107 0.202277094
0.267173082 0.171283737 0.211638093
0.351929069 0.190512195 0.228462741
0.447691619 0.208096355 0.255913854
0.574446499 0.226059541 0.284503281
0.741050005 0.249462232 0.314863801
0.179506987 0.194434091 0.207716912
0.197975650 0.199493647 0.201391175
0.236686081 0.213156089 0.214674100
0.278178215 0.213915080 0.218216538
0.351043284 0.228842273 0.236685887
0.450474471 0.249588743 0.261353731
0.581657290 0.274256974 0.289057553
0.753826618 0.306641340 0.322833568
0.208855450 0.261732996 0.232004985
0.226565287 0.260467827 0.226818532
0.253889978 0.261226714 0.227577627
0.295003444 0.267931998 0.235041186
0.361163974 0.280455291 0.244781733
0.451739371 0.307400525 0.267425746
0.586084902 0.341935337 0.292220294
0.748892963 0.382922471 0.330550075
0.234408796 0.353320390 0.259329259
0.248323992 0.351676285 0.262871712
0.280581981 0.357242197 0.264895976
0.321694821 0.357621819 0.262112617
0.376217186 0.359519273 0.260088354
0.466793358 0.386084586 0.279696286
0.599114478 0.429981172 0.300948888
0.758380771 0.482099921 0.338393152
0.247438356 0.491460711 0.299051344
0.267046452 0.496900916 0.301328540
0.302720010 0.496394575 0.300063193
0.356609881 0.497659951 0.301960826
0.424288630 0.505123258 0.303225875
0.501581192 0.508286119 0.306261986
0.617836773 0.540543735 0.322327644
0.779000521 0.598734915 0.364832073
0.227577701 0.667172551 0.340670198
0.248703301 0.668564260 0.348007649
0.301075369 0.672612369 0.346995562
0.370651364 0.672232866 0.345477372
0.453510404 0.676533759 0.354712069
0.546616077 0.679569542 0.356230348
0.651486516 0.688298345 0.361543357
0.785578609 0.712586641 0.388361543
0.284882873 0.857305348 0.447311878
0.310942501 0.857558608 0.446932137
0.360531151 0.862744808 0.451612741
0.433776259 0.861479938 0.456167012
0.522201180 0.866160750 0.458823442
0.620493293 0.868690550 0.458950073
0.724098802 0.872738957 0.472612113
0.848956585 0.875774682 0.485388845
0.156356648 0.131688997 0.312207639
0.188867897 0.138772905 0.305123538
0.245793641 0.143073738 0.295762539
0.295382977 0.152435362 0.283618003
0.364705831 0.165338188 0.289816171
0.456673086 0.186211258 0.318152964
0.581910253 0.206831291 0.352055639
0.739278793 0.234282181 0.393801451
0.183428094 0.172042727 0.282858998
0.207084015 0.174446553 0.286021203
0.240607098 0.178368449 0.276154637
0.283238649 0.179507002 0.271094263
0.353320390 0.189247444 0.286780179
0.448197305 0.211638093 0.316128731
0.568880260 0.233523279 0.352561563
0.726755202 0.258443981 0.390892088
0.200252637 0.221125990 0.280582070
0.215560004 0.217837095 0.270968080
0.252371997 0.220619738 0.269829512
0.291587919 0.222517177 0.271853268
0.353826731 0.232637286 0.291461021
0.446173608 0.253889978 0.319291502
0.566730022 0.283618003 0.357242167
0.724351346 0.320430279 0.402530074
0.216318995 0.264010280 0.278557628
0.238709643 0.265148640 0.278052002
0.267678648 0.274636626 0.291081578
0.323971927 0.301581293 0.311701268
0.370651186 0.297280639 0.314864069
0.447691619 0.318026364 0.337634385
0.565211535 0.353194296 0.368374646
0.727893770 0.389247268 0.410120130
0.245161369 0.350917190 0.310183257
0.260215104 0.354965091 0.313092738
0.289184093 0.359266639 0.324098647
0.331562161 0.367489189 0.325110465
0.380391836 0.365844190 0.329411626
0.461353362 0.388867944 0.347374916
0.584313571 0.430740118 0.380771577
0.743832886 0.484124005 0.427577287
0.264769256 0.482479393 0.364452869
0.276028007 0.487160116 0.364705652
0.308918297 0.486653715 0.370904535
0.356483370 0.489690006 0.369639277
0.420746356 0.494117469 0.377988636
0.492346644 0.497280478 0.377229750
0.606577992 0.534345031 0.399747014
0.763314426 0.596204758 0.448576629
0.254395902 0.654269218 0.418722630
0.273244768 0.659709096 0.424794644
0.316255361 0.659709096 0.426818371
0.380645245 0.663251281 0.428336561
0.455028176 0.668311238 0.428969264
0.546616137 0.669449508 0.430234104
0.641998827 0.680708170 0.443516612
0.779886067 0.711068749 0.468564302
0.321694791 0.849335730 0.518785596
0.344844937 0.856040597 0.527893543
0.389246970 0.854395807 0.528019965
0.454143226 0.854522586 0.523719430
0.534345329 0.857431769 0.524478376
0.627830327 0.860214829 0.528905571
0.728652656 0.865907729 0.539278924
0.844402194 0.871347189 0.550284445
0.181024805 0.150537804 0.433902383
0.209993899 0.158380806 0.432763845
0.269703001 0.157495201 0.421379060
0.329411626 0.166603357 0.407589912
0.394940197 0.179506987 0.401897192
0.464136720 0.188108996 0.400252998
0.584187567 0.210752696 0.438456774
0.738013923 0.239342138 0.488045365
0.200379550 0.193168536 0.392283171
0.222517386 0.191650748 0.404174477
0.264516413 0.195066288 0.395066649
0.322833270 0.201517999 0.392156810
0.379127264 0.201391190 0.382795632
0.448450625 0.212776557 0.393928200
0.574826181 0.233523101 0.433902591
0.729791164 0.264263004 0.479569733
0.219607994 0.241240084 0.383048296
0.240354553 0.245540738 0.376343906
0.271094084 0.243643299 0.373561144
0.313346088 0.249209195 0.378368199
0.368248045 0.249968290 0.375964373
0.446553171 0.262492090 0.390133113
0.570145488 0.289184302 0.437824368
0.728652775 0.325743258 0.496015191
0.230866641 0.297280639 0.376723468
0.247311741 0.299177974 0.379886389
0.284123808 0.302340269 0.379506707
0.327008009 0.310183257 0.382542610
0.376470536 0.310183257 0.383807480
0.450221270 0.328652740 0.399241179
0.570145369 0.358380824 0.441998929
0.722707212 0.405060083 0.498418719
0.243769795 0.361163974 0.381404191
0.265148908 0.363820553 0.379632771
0.293105900 0.368248045 0.386970282
0.342061609 0.384187013 0.404933393
0.426945001 0.426059365 0.448071182
0.482226700 0.417077720 0.441745371
0.586717486 0.444908470 0.465401471
0.738013923 0.498671651 0.514611006
0.262365550 0.483617753 0.441492736
0.279569745 0.484756261 0.442883909
0.313978553 0.489436954 0.441745669
0.368753821 0.500442564 0.455534428
0.429727703 0.504743934 0.460594535
0.495888263 0.508159459 0.466539949
0.607084095 0.546995640 0.488425016
0.756736338 0.601391375 0.534471989
0.259835541 0.654522359 0.498165578
0.283491462 0.658950031 0.501581073
0.331435889 0.656166673 0.510689497
0.391271353 0.657811344 0.516128898
0.464516461 0.665528238 0.517014265
0.544212282 0.665654778 0.514990628
0.641998827 0.674130380 0.519924164
0.777608633 0.715622783 0.559645891
0.362681985 0.845161378 0.586969972
0.381783426 0.846679389 0.598608196
0.415053874 0.848070621 0.598734796
0.474635988 0.849715352 0.595572114
0.548007607 0.851739228 0.599873602
0.634535432 0.857558489 0.602783084
0.734598041 0.861859262 0.612397134
0.842757583 0.866919577 0.620999157
0.201897740 0.176343992 0.575585485
0.231246188 0.176723540 0.574193299
0.290702015 0.180265993 0.571789980
0.355597466 0.188108996 0.556862593
0.440227479 0.197596192 0.550664246
0.509045005 0.199746996 0.536495447
0.588994265 0.212017536 0.539278746
0.740290701 0.243263826 0.585705400
0.206957817 0.217078000 0.547121942
0.240354449 0.211511806 0.544339001
0.289563566 0.213915080 0.545730650
0.354079545 0.219860643 0.540670156
0.425426990 0.220493540 0.536116123
0.499304205 0.227956995 0.523465931
0.579000890 0.234155566 0.526502132
0.734092414 0.263757169 0.575964451
0.226944730 0.276534081 0.535230815
0.246046886 0.277039826 0.539531648
0.289943099 0.275775105 0.533586085
0.353320479 0.274509639 0.527008474
0.419861048 0.281340986 0.519670844
0.487160087 0.278052092 0.511321962
0.574446738 0.290954918 0.522960484
0.735989630 0.326502085 0.585072577
0.236179635 0.339025885 0.522960365
0.260594666 0.343832999 0.524225235
0.298924744 0.341049641 0.514358163
0.354585558 0.341049641 0.508918464
0.414800733 0.343073905 0.508286059
0.477672458 0.345730722 0.509297729
0.570398092 0.360278189 0.524857759
0.725616634 0.407337099 0.586211264
0.250853986 0.411132157 0.514611185
0.264516234 0.419227928 0.514990509
0.305629075 0.413788825 0.512460709
0.358001173 0.420240521 0.518406153
0.427071184 0.429475129 0.523719430
0.491081268 0.429475129 0.531815469
0.594433606 0.456166923 0.553700209
0.737128079 0.504996836 0.598861516
0.257052273 0.503099203 0.520809472
0.272612542 0.498671651 0.523845494
0.313219339 0.503099203 0.532827258
0.369512737 0.504996479 0.532574475
0.447311997 0.526375651 0.553826630
0.548513472 0.569765687 0.589626729
0.627703846 0.577988744 0.593674719
0.761669517 0.617204368 0.627577364
0.262744993 0.650348008 0.588867545
0.283491462 0.651612997 0.580898464
0.331941754 0.652118504 0.587096751
0.395572275 0.655660987 0.586590588
0.478431195 0.668437839 0.602277160
0.562302172 0.676154256 0.607843518
0.647438586 0.680708289 0.611258745
0.780265450 0.724478126 0.641619384
0.366350442 0.840354502 0.661859334
0.388488054 0.843010783 0.657558680
0.426944792 0.841745675 0.665401757
0.494117647 0.842631578 0.670335472
0.569260061 0.846173406 0.674256623
0.649588585 0.850221395 0.680202365
0.738013566 0.859456003 0.685135782
0.841745615 0.864642620 0.697280347
0.234914273 0.213029996 0.725363553
0.261353552 0.212776542 0.724730968
0.321948379 0.215433180 0.723845363
0.394560367 0.222011641 0.718026638
0.484123886 0.228715986 0.707273483
0.570651770 0.234534830 0.695635259
0.657052219 0.236558989 0.686148047
0.754838586 0.245919973 0.683744550
0.239721984 0.246173546 0.704364300
0.269702703 0.245667562 0.715369999
0.318406016 0.247944340 0.703099251
0.391651064 0.252245367 0.702972651
0.478051841 0.257684976 0.700189650
0.568248034 0.261227012 0.691966772
0.650853574 0.263503820 0.675015569
0.745730460 0.267298877 0.668184757
0.243770003 0.314737380 0.693105578
0.269576102 0.314863890 0.703984737
0.324351370 0.318532467 0.695509136
0.390891969 0.316761643 0.690069318
0.469829172 0.319544584 0.686148167
0.558380723 0.321441919 0.679316819
0.641998827 0.325869381 0.674383521
0.747880697 0.334218562 0.675015748
0.265148640 0.394180894 0.682226539
0.289816380 0.394940019 0.676660538
0.333965629 0.395698816 0.679822743
0.393548608 0.400885552 0.675015807
0.468184561 0.399241000 0.669323146
0.547754884 0.397723287 0.669197083
0.631372452 0.400379628 0.663251221
0.740923166 0.413662016 0.671600044
0.275775015 0.475268751 0.664769530
0.294876516 0.479949474 0.675142527
0.339784980 0.482226372 0.667172790
0.401012063 0.487539560 0.669702709
0.472991467 0.486274242 0.667299271
0.551170468 0.486907274 0.665654778
0.630360365 0.486147970 0.660215139
0.743706286 0.512081206 0.679443061
0.281087995 0.578242004 0.675142586
0.302466691 0.579886198 0.678431511
0.346995473 0.578873992 0.676280975
0.408349097 0.577356040 0.670461535
0.481467485 0.583554745 0.674256563
0.564199746 0.591903746 0.674762964
0.646553040 0.597469568 0.672485828
0.769133389 0.632510781 0.706641376
0.282606274 0.671726584 0.672738791
0.297280550 0.669829309 0.672232866
0.344465256 0.671726584 0.679822743
0.406451583 0.673371255 0.674383581
0.487918973 0.678810656 0.676913440
0.585198998 0.694244027 0.688678026
0.703099549 0.731562257 0.720809519
0.802783012 0.751296639 0.733965576
0.374826014 0.842125177 0.738140345
0.395066112 0.839848459 0.730044007
0.434535146 0.838330269 0.742188394
0.499303937 0.840986788 0.744212210
0.576596797 0.846173346 0.743706048
0.664389789 0.851106882 0.754206300
0.756103814 0.858696699 0.767742097
0.847311795 0.864642560 0.768500924
0.281214654 0.281340778 0.864515781
0.305249542 0.277799249 0.868437767
0.363441080 0.282099903 0.867425740
0.434408814 0.289057612 0.860720992
0.527513981 0.298418760 0.856546223
0.623782396 0.309550703 0.848323643
0.727894008 0.321568310 0.845667422
0.837191582 0.336369634 0.840986788
0.288172245 0.306767642 0.860215187
0.307779968 0.307147205 0.849588752
0.362934828 0.313346088 0.858570576
0.436938465 0.320809603 0.856925786
0.525110841 0.329790980 0.851486564
0.623402834 0.338772923 0.849082828
0.723972082 0.344971538 0.839089036
0.828969061 0.354459345 0.834155321
0.312334061 0.387349725 0.850853682
0.338519901 0.388108730 0.853510082
0.382795632 0.389373779 0.849968612
0.447185457 0.394939721 0.850347936
0.533206701 0.397216976 0.845667362
0.626565576 0.406957716 0.844149411
0.726249278 0.411132067 0.840480685
0.832510710 0.420619786 0.837697625
0.349905252 0.478178442 0.841745555
0.366603196 0.482732743 0.839974701
0.407843173 0.483997256 0.839974761
0.470588446 0.486274451 0.843263805
0.543706119 0.486274451 0.837444663
0.628716052 0.488298535 0.834155619
0.720050395 0.491461217 0.831878364
0.821125746 0.496900439 0.828209996
0.366729766 0.571536660 0.830992997
0.395192623 0.576596975 0.839848459
0.432257950 0.580139220 0.833902657
0.486780405 0.582036793 0.831498802
0.553952932 0.580898166 0.826312542
0.636559486 0.585072756 0.832004845
0.726249218 0.580898166 0.827830553
0.824794173 0.587855816 0.824920893
0.393168867 0.670967519 0.832257986
0.408855051 0.668311119 0.833776057
0.443390101 0.675015688 0.836053193
0.499683678 0.675521672 0.832637548
0.572928607 0.680455327 0.831498802
0.652751505 0.679569602 0.830613434
0.737634301 0.679190040 0.829474926
0.825426579 0.682732522 0.829854369
0.398228884 0.762681842 0.836685419
0.419228286 0.765591323 0.833902776
0.453510284 0.761163652 0.835546911
0.510183215 0.767488658 0.832510829
0.584946096 0.764326513 0.834914327
0.663883567 0.768880546 0.832510650
0.748893023 0.774066806 0.833396375
0.833523095 0.777103066 0.836559057
0.432004750 0.864769399 0.845034599
0.459203005 0.864009976 0.841366053
0.491840690 0.863377392 0.849462330
0.540290534 0.862238765 0.841113567
0.608475685 0.866034210 0.837191582
0.692726076 0.869196653 0.838962495
0.779380262 0.874383450 0.851233304
0.879063725 0.890701950 0.873877585
