Assets/EldamarStudio/100 Retro LUTs Pack/LUTs/cube/Julie LUT.cube
DOMAIN_MIN 0 0 0
DOMAIN_MAX 1 1 1
LUT_3D_SIZE 32
0.121569000 0.105881996 0.109803997
0.121569000 0.105881996 0.103732005
0.132321224 0.105881996 0.106261998
0.147501156 0.108411998 0.111068837
0.162681550 0.114104547 0.114484094
0.177861929 0.117140934 0.120556869
0.198102325 0.120177321 0.126628995
0.219354704 0.121569000 0.129411995
0.238330007 0.122327901 0.129411995
0.250474006 0.125363514 0.129411995
0.277166605 0.122580871 0.129411995
0.298418999 0.119544744 0.129411995
0.317773640 0.118785642 0.130550355
0.339026034 0.122074999 0.133586034
0.360278398 0.128146991 0.136622414
0.386337787 0.129411995 0.139658198
0.412144393 0.133965805 0.142694190
0.436432958 0.142441154 0.146362990
0.460721046 0.148513943 0.152435005
0.487792373 0.149020001 0.155724362
0.515116751 0.152814999 0.160658002
0.544465363 0.159898862 0.166730002
0.577988923 0.168880016 0.172675505
0.614421010 0.174952805 0.175711900
0.648576856 0.181024998 0.185578987
0.683364928 0.185705319 0.192157000
0.719797075 0.189246997 0.192662939
0.756229818 0.195318997 0.195698544
0.797975540 0.201391667 0.204047829
0.840480328 0.211005956 0.216698185
0.882985175 0.220493376 0.230107591
0.925490022 0.223528996 0.239216000
0.127640992 0.111953996 0.109803997
0.136748612 0.105881996 0.109804004
0.136748612 0.112333775 0.112333998
0.150031164 0.116255544 0.119671158
0.167994544 0.120177224 0.125110775
0.177861929 0.123212934 0.120556869
0.198102325 0.126249313 0.124098673
0.217710406 0.127640992 0.126375601
0.236053288 0.127640992 0.125616699
0.250474006 0.128399909 0.123340003
0.274256736 0.131435513 0.129159003
0.295382619 0.130676612 0.129411995
0.314737231 0.129790992 0.129411995
0.335989624 0.130676612 0.130297378
0.357241988 0.131182611 0.130550414
0.378494382 0.134851426 0.135989994
0.404553801 0.138519987 0.138140380
0.430992931 0.145477384 0.140290990
0.457685441 0.151549563 0.146363020
0.487539411 0.157621607 0.155218363
0.515116751 0.160025358 0.156863004
0.543453276 0.164958999 0.160658002
0.575079083 0.172042891 0.166856512
0.614421010 0.181024805 0.175711900
0.650853574 0.187096998 0.178747699
0.686400950 0.193168983 0.187223271
0.722833514 0.198355392 0.193168998
0.759266257 0.204427391 0.198734939
0.795699000 0.205186397 0.204427391
0.835673451 0.215812802 0.213156193
0.876913190 0.225679994 0.224920973
0.919418037 0.226565391 0.236179605
0.131562218 0.122327544 0.111954227
0.138519615 0.118405774 0.111954227
0.145477548 0.120935775 0.116255775
0.149272382 0.124984160 0.118532613
0.166982546 0.126249447 0.123339772
0.183174923 0.129285067 0.122580998
0.200253099 0.132321313 0.121948451
0.216571763 0.132068276 0.121695064
0.234535322 0.132321313 0.123466089
0.252498299 0.133712992 0.125996485
0.272105962 0.136622116 0.129538223
0.292346746 0.137633994 0.131562218
0.312839746 0.136495635 0.131562218
0.335104018 0.135989770 0.131562218
0.356356382 0.139784768 0.131562218
0.377608776 0.142188579 0.134218991
0.400379390 0.145224571 0.138772801
0.426438719 0.150663987 0.141935363
0.452245384 0.156736016 0.151043788
0.480202764 0.162808016 0.153447360
0.510562718 0.168880478 0.158760265
0.539152265 0.172169641 0.161037222
0.569892526 0.177229494 0.167235732
0.609360933 0.186337903 0.176344126
0.644402325 0.191018224 0.183048695
0.682226360 0.199873552 0.184692994
0.719418108 0.206957713 0.192030355
0.755850852 0.211384997 0.201391771
0.798734844 0.214294776 0.201012000
0.835167587 0.223149955 0.214167953
0.875142157 0.234788150 0.224414811
0.917647004 0.236053005 0.235293999
0.138393313 0.134471998 0.117520161
0.140670165 0.133965924 0.117520161
0.148007542 0.133586153 0.116761386
0.157875150 0.138393313 0.122833841
0.166603327 0.134978056 0.119418003
0.183428094 0.135357052 0.119797774
0.202150479 0.139658481 0.121569000
0.219608158 0.140670598 0.123719454
0.232511058 0.139152229 0.122201063
0.252751321 0.142188489 0.130297318
0.269828975 0.142694443 0.131056279
0.290575504 0.146236330 0.133332998
0.309930652 0.147374690 0.134471640
0.333839178 0.145098031 0.135104164
0.355091542 0.150158152 0.137128159
0.378873944 0.152561814 0.139531970
0.400379390 0.156862959 0.140037969
0.424667954 0.159266159 0.143073753
0.448956043 0.164073184 0.153320953
0.477292925 0.170145169 0.158127844
0.503985167 0.176217303 0.161290258
0.536369145 0.182289824 0.164326131
0.567362368 0.185831502 0.170145154
0.604554117 0.194939911 0.178114906
0.639468670 0.199494034 0.182416007
0.675648451 0.205439165 0.189500168
0.714105010 0.216065899 0.190512165
0.749778867 0.219101697 0.201138720
0.792915881 0.224667981 0.203795165
0.836938322 0.230993167 0.209361106
0.874256551 0.244402587 0.225806132
0.916381836 0.248197317 0.235293999
0.148260906 0.146995544 0.124730997
0.147501603 0.149652392 0.126249000
0.151929229 0.148766771 0.122706994
0.163188159 0.147881165 0.120556548
0.177989006 0.149779007 0.125869542
0.184061006 0.143706232 0.119797543
0.199494004 0.148134097 0.121315770
0.216951311 0.150917456 0.125237450
0.235547438 0.150917456 0.130170897
0.250727057 0.153953075 0.133206517
0.265907407 0.151929334 0.131562322
0.286400944 0.154206455 0.132194743
0.309171647 0.158760369 0.134851098
0.330424041 0.161796033 0.138140514
0.351676375 0.164832413 0.144212544
0.377356231 0.166603550 0.147501811
0.402403653 0.168880552 0.148260817
0.423908949 0.174446538 0.146110043
0.448197037 0.174446553 0.149146438
0.478431284 0.180012554 0.157748207
0.504996896 0.185705096 0.163819999
0.532574534 0.191777095 0.169639125
0.568880022 0.197975576 0.172675505
0.602277160 0.207083911 0.178494543
0.636812270 0.212017834 0.180771545
0.672232628 0.217077866 0.184946120
0.711448193 0.225932598 0.194307551
0.744845271 0.228968993 0.200379550
0.785452545 0.236938819 0.205692545
0.829728067 0.244275972 0.213915199
0.873877108 0.250854045 0.223908976
0.913345575 0.259962440 0.236053005
0.142188132 0.162175938 0.118658997
0.157368526 0.162175938 0.130803004
0.158760011 0.162681997 0.132321000
0.165338382 0.162175938 0.130044162
0.177988991 0.161922991 0.128905937
0.190133005 0.155851007 0.128905922
0.201265007 0.162428543 0.130423605
0.214420989 0.166097060 0.131815061
0.230613321 0.165338159 0.132827058
0.253763437 0.163061455 0.133206517
0.268943787 0.166097060 0.139151990
0.286147922 0.166097060 0.139658064
0.305376351 0.167109057 0.140164003
0.324352026 0.167868033 0.141176119
0.345604390 0.170904413 0.147248894
0.369259983 0.178747803 0.148513943
0.395572245 0.181783929 0.150537804
0.420619637 0.184060916 0.151929006
0.442125022 0.189626947 0.152182043
0.474763066 0.195192948 0.160784423
0.501960933 0.199367672 0.162302211
0.528273344 0.203921869 0.164832130
0.559772432 0.210120350 0.172675505
0.593168855 0.219227970 0.175711900
0.633396626 0.226059571 0.181530938
0.670208633 0.230234250 0.187982246
0.705629230 0.235293999 0.197596192
0.744845271 0.244149387 0.209487930
0.780897915 0.249841928 0.210246935
0.823655725 0.256419986 0.218342900
0.868311167 0.262491971 0.229980975
0.910309911 0.269070059 0.242125005
0.156356648 0.172296315 0.127766997
0.158886716 0.172296315 0.129790992
0.167615324 0.174446538 0.135483772
0.170904309 0.174825996 0.134598151
0.179759681 0.174825996 0.131941676
0.187602684 0.173054993 0.131941676
0.202277005 0.174573317 0.134471998
0.216065705 0.177102923 0.134218603
0.229854420 0.176217318 0.134850994
0.248829991 0.174952477 0.138393000
0.264389873 0.182795778 0.136622310
0.283618242 0.181783378 0.142694324
0.304617316 0.182415962 0.143706322
0.325616747 0.183807641 0.143706322
0.344592392 0.184566736 0.145224512
0.373054981 0.190006316 0.151296675
0.397596389 0.197469994 0.154585674
0.424541444 0.200758994 0.158633590
0.451486647 0.206831008 0.160531342
0.476280749 0.212902993 0.166350350
0.507780135 0.218975469 0.171663731
0.534345448 0.223656312 0.172928631
0.563441038 0.229728311 0.180265799
0.599241257 0.236432746 0.183301583
0.634914875 0.243263647 0.188614681
0.676913202 0.247944668 0.193295360
0.713725150 0.252498627 0.200126395
0.749146283 0.263630778 0.210246891
0.791018546 0.267551988 0.214294672
0.830992937 0.273624420 0.221379086
0.873118281 0.281467617 0.232637689
0.912333667 0.290828645 0.243137002
0.166350290 0.184693277 0.133332998
0.169639707 0.187982693 0.136621997
0.169007003 0.188488632 0.138772771
0.175078988 0.187729090 0.139278829
0.182289541 0.187729090 0.137381092
0.192156702 0.190259412 0.139911413
0.202530041 0.187855601 0.140797019
0.212776706 0.189247280 0.138899282
0.227957100 0.188488185 0.135863096
0.243137494 0.190259412 0.139278710
0.261606872 0.194054574 0.139911160
0.280835241 0.196711153 0.139658287
0.302087635 0.195951775 0.144591928
0.325869709 0.198988035 0.145351037
0.346869111 0.200379699 0.146742716
0.371410698 0.203541979 0.149904996
0.398734719 0.209613979 0.157495201
0.424288422 0.216318563 0.164326280
0.454649270 0.223402709 0.169386670
0.477799028 0.229474694 0.168627292
0.507526696 0.233902469 0.174446732
0.537887514 0.240987122 0.177482858
0.566097498 0.247691691 0.182922274
0.601012111 0.253763705 0.187476099
0.640733838 0.259835690 0.191144720
0.677166581 0.265907705 0.197216704
0.718658745 0.270209074 0.202023998
0.754332542 0.281214684 0.212270737
0.795698881 0.287033558 0.217710152
0.838203609 0.293484688 0.224414691
0.878937483 0.298671871 0.235673875
0.915369749 0.308539003 0.244781718
0.169386089 0.199873090 0.136369184
0.176217765 0.205186769 0.140164092
0.174320221 0.206198901 0.144085869
0.176596984 0.206704766 0.145351022
0.183048546 0.200632080 0.142694190
0.197469935 0.205186769 0.148007870
0.207590327 0.202656448 0.148260906
0.215812907 0.199114203 0.144971684
0.225679994 0.199873090 0.142694190
0.240860403 0.205945864 0.139658570
0.260341793 0.206957996 0.142441213
0.280076146 0.207716912 0.141935095
0.302846551 0.208855450 0.143073738
0.323845983 0.212397128 0.146110058
0.347122073 0.216445521 0.149146318
0.371410489 0.219481289 0.152182296
0.394939989 0.223276183 0.156736106
0.419860542 0.229348183 0.165211901
0.450094849 0.238330066 0.174193755
0.475142479 0.245414212 0.172422469
0.503225744 0.250347823 0.172422469
0.534851134 0.253890038 0.177482858
0.565464914 0.262871921 0.180771500
0.599493921 0.268944085 0.187476099
0.638962626 0.275774986 0.192030281
0.678684235 0.282606095 0.194939986
0.715117037 0.288678110 0.201012000
0.754332364 0.297533423 0.212649986
0.795698643 0.304744095 0.220998988
0.838962317 0.310309947 0.227324203
0.881973267 0.320682794 0.238709494
0.918406069 0.323719203 0.247817904
0.172422484 0.215053499 0.148513973
0.181530878 0.218089893 0.145477578
0.177609220 0.216951236 0.147122264
0.177609012 0.217836514 0.148893490
0.189120546 0.221884474 0.148766965
0.198228925 0.215812489 0.148766965
0.207590327 0.215306520 0.146489680
0.216698289 0.213409215 0.141935512
0.228715599 0.212017894 0.139658585
0.249967992 0.215053484 0.148766965
0.265148371 0.218216389 0.151549608
0.280581772 0.221125752 0.148513481
0.300569147 0.224035174 0.146110132
0.326881588 0.227577537 0.149146453
0.345098346 0.236685917 0.152182072
0.368374467 0.240733698 0.155218333
0.391144693 0.243769690 0.158254296
0.413788527 0.247564971 0.162175506
0.441112965 0.253636986 0.168247521
0.474130571 0.262618840 0.174446747
0.505123436 0.269702971 0.176217958
0.534598112 0.274636358 0.177482858
0.562428534 0.278051525 0.180771500
0.598861337 0.284124315 0.189879909
0.637444854 0.292473167 0.196584493
0.675648451 0.301454633 0.199746996
0.712080657 0.309930474 0.201012000
0.748513401 0.316002518 0.207084000
0.787729442 0.324857831 0.218721986
0.830866575 0.328526497 0.225300208
0.876280785 0.333333582 0.233016968
0.921442449 0.348007977 0.250853509
0.178368002 0.230233863 0.146110132
0.178747520 0.233270258 0.154712483
0.187855899 0.234155864 0.147375107
0.188361704 0.231878579 0.144844964
0.195192546 0.233016878 0.145097807
0.204300940 0.237064868 0.157748133
0.213409305 0.233523190 0.152688131
0.224161997 0.234788030 0.152561724
0.235293865 0.235040992 0.151043773
0.250094473 0.235926390 0.151549608
0.265527874 0.238962740 0.151929125
0.280708253 0.237950608 0.150917262
0.295888633 0.239215508 0.148007870
0.315876007 0.242504865 0.149778962
0.339405090 0.248956412 0.158127576
0.360025048 0.253257811 0.161163807
0.385325670 0.259329557 0.162681997
0.411258817 0.265780985 0.166223854
0.440859973 0.271853000 0.176849872
0.470967740 0.277925700 0.177355871
0.498545080 0.286907107 0.179380119
0.527893484 0.292979121 0.182416245
0.559392869 0.296268225 0.189373866
0.595825672 0.305122942 0.195698917
0.629981160 0.311195701 0.195698708
0.666793466 0.318279743 0.201264799
0.703225851 0.326881945 0.206831008
0.739657998 0.340164751 0.212902993
0.781403780 0.343579918 0.221631825
0.828209758 0.352182180 0.231752068
0.873371184 0.357368857 0.237950861
0.912840128 0.366476983 0.248070866
0.186464250 0.249462247 0.157241985
0.186464250 0.250474393 0.156230137
0.188867509 0.255407989 0.158507228
0.197975904 0.252877980 0.153193995
0.202909261 0.249841794 0.151675805
0.210372925 0.254269511 0.160278201
0.221505567 0.256799310 0.161796257
0.230613530 0.253763705 0.155724257
0.242378175 0.256040424 0.158381000
0.254522502 0.257305264 0.159139767
0.267552137 0.258190870 0.156989008
0.282732517 0.257179260 0.154965252
0.300189912 0.255281508 0.151929349
0.316888243 0.257432222 0.151549742
0.334092259 0.261732996 0.158886582
0.362049311 0.269449800 0.167235807
0.383301705 0.272486180 0.170272186
0.408981949 0.280581921 0.171410680
0.436559021 0.288045257 0.179380000
0.466919750 0.294117451 0.180391997
0.497280002 0.302087486 0.184186995
0.521821260 0.310183257 0.184439987
0.552308738 0.314610958 0.190512240
0.588741541 0.325616360 0.198482007
0.626945019 0.334471554 0.203794971
0.663124740 0.340543956 0.199367270
0.701202154 0.346110046 0.205313087
0.740670502 0.355218410 0.212903261
0.782416165 0.365844399 0.223655820
0.821378410 0.370651215 0.229222208
0.869955480 0.379506588 0.241366595
0.909803987 0.386717260 0.253131241
0.195572644 0.275268644 0.168626994
0.195572644 0.275268644 0.164831996
0.197722867 0.276154280 0.160784006
0.203288808 0.280581653 0.161922649
0.211638108 0.274889201 0.161922649
0.216950998 0.276407570 0.164199948
0.226944998 0.278304964 0.165844351
0.240860566 0.279190361 0.164832354
0.251486182 0.277672559 0.161037445
0.264010310 0.280708164 0.166729987
0.273877621 0.281973273 0.164073139
0.288045585 0.279949278 0.163314253
0.303225994 0.276913643 0.158001363
0.323972374 0.277166605 0.155471042
0.337001979 0.280202210 0.160657644
0.363567591 0.286906779 0.167994797
0.389374197 0.295256197 0.175205544
0.411891550 0.298292577 0.177609354
0.436685681 0.306388289 0.180139035
0.464263111 0.313851625 0.183807641
0.495762259 0.321821392 0.184186995
0.526122272 0.329917639 0.189247131
0.551296473 0.336116135 0.189626634
0.588741481 0.347248286 0.197722912
0.625173867 0.358253926 0.205692649
0.665780962 0.364832252 0.209614009
0.704238057 0.371916264 0.206072062
0.744845212 0.376850069 0.215180442
0.788488626 0.385578603 0.224667981
0.830866516 0.397596240 0.237191841
0.869069815 0.403668284 0.243769988
0.914358020 0.412523627 0.264516354
0.204174966 0.307653040 0.168880031
0.203668967 0.307906061 0.168880031
0.206325263 0.305755764 0.165085033
0.212144166 0.304743916 0.162808210
0.220746487 0.307526559 0.165465042
0.223782092 0.304490924 0.165465042
0.231625319 0.303732038 0.167741731
0.246173397 0.304238021 0.170145065
0.262871921 0.304237992 0.169386089
0.278051525 0.307273597 0.172422484
0.285262734 0.310309887 0.169892162
0.297406793 0.309297800 0.170651257
0.312586635 0.306767642 0.169892386
0.327514052 0.304238021 0.162049040
0.342694432 0.307273626 0.165085420
0.368627608 0.312460035 0.170018986
0.394434184 0.319544196 0.175332025
0.416951537 0.327893615 0.180897996
0.444276005 0.330930024 0.180898011
0.469070047 0.339025676 0.188488320
0.499051183 0.348133773 0.190765262
0.531436026 0.356483072 0.189753130
0.562049031 0.362808049 0.192789510
0.601391733 0.372042924 0.198735043
0.636812270 0.383175075 0.206831291
0.674130261 0.391903728 0.213156313
0.715623081 0.396205038 0.216951028
0.749019444 0.408349037 0.226059407
0.792789459 0.415686071 0.233017027
0.837824106 0.426565230 0.246173352
0.882226169 0.439342022 0.262745380
0.924731016 0.445414007 0.277925014
0.207210585 0.328905374 0.171916410
0.201138586 0.331941783 0.171916410
0.207084358 0.330044031 0.171916410
0.216192424 0.327008128 0.171916574
0.226944998 0.325996280 0.174573407
0.232890472 0.328778893 0.174573407
0.238456413 0.325743318 0.174573407
0.255028397 0.328273386 0.181783825
0.273497999 0.330044389 0.184566736
0.281087935 0.325490355 0.172422484
0.296268284 0.328525931 0.172548994
0.309551239 0.327514231 0.171916410
0.324731171 0.326755196 0.172548994
0.339658052 0.328525990 0.171157405
0.351802796 0.331562370 0.177229404
0.366983205 0.334598005 0.177861989
0.388362169 0.338266581 0.177609190
0.410879552 0.343832970 0.179000825
0.438204020 0.352182359 0.186969995
0.465528399 0.355218023 0.186969995
0.496015161 0.363314152 0.192662582
0.528399885 0.372422546 0.195825130
0.559013426 0.381024808 0.198861510
0.595446229 0.393168837 0.201897904
0.634788215 0.402403682 0.207843423
0.672991633 0.413535804 0.213156313
0.713092804 0.423276484 0.216697991
0.752055824 0.432637781 0.223023027
0.793422043 0.444781780 0.234788239
0.834788084 0.453889996 0.249209359
0.875521541 0.464263171 0.263883561
0.915622592 0.472738385 0.271853030
0.212650001 0.354964793 0.179759800
0.213788792 0.350790381 0.172548994
0.216318786 0.349525750 0.172548994
0.225174159 0.351549447 0.176344156
0.234661803 0.353067547 0.180898443
0.236685812 0.352055669 0.178874195
0.249968603 0.357242107 0.181277990
0.256040603 0.354206085 0.179633275
0.273498088 0.357242078 0.186464190
0.284503818 0.356103778 0.182795495
0.299304068 0.353952914 0.179759800
0.312460721 0.354964793 0.181783542
0.328399986 0.353446990 0.182162985
0.344844818 0.355217814 0.182162985
0.359139800 0.358254194 0.183933988
0.373687804 0.356482983 0.187602803
0.391904205 0.358000785 0.187602803
0.412523955 0.361416548 0.186717406
0.434535205 0.370524943 0.192283034
0.464263380 0.376470417 0.193041995
0.495382756 0.383301526 0.196837470
0.528779149 0.393421769 0.201897472
0.560657740 0.403921485 0.204933509
0.594813824 0.413788795 0.207969904
0.626691997 0.423656046 0.208728999
0.667172492 0.434155762 0.215939313
0.708159149 0.446299791 0.222517118
0.749525487 0.457305402 0.232384592
0.791650832 0.461859792 0.241365835
0.837697506 0.477545738 0.255281389
0.877292573 0.488551587 0.269322991
0.913725019 0.497659594 0.275395006
0.220240191 0.382289559 0.185831800
0.221758381 0.379253566 0.181277603
0.225427181 0.375331938 0.178620994
0.230234027 0.374826342 0.179886162
0.238836363 0.382289559 0.187729448
0.242251992 0.380392313 0.186970055
0.254902303 0.380392194 0.188994318
0.268184990 0.383048683 0.188741282
0.275016069 0.380771399 0.185705096
0.288678467 0.383048683 0.189500183
0.302340329 0.384819508 0.188361868
0.318532318 0.383807391 0.187855929
0.331815422 0.382669032 0.189753190
0.349145979 0.382289559 0.189500153
0.363061219 0.384060800 0.188235000
0.379759789 0.383807749 0.189120620
0.397976190 0.383807391 0.195192993
0.419228554 0.383807391 0.195192993
0.438330203 0.390259147 0.197343230
0.464642555 0.395066381 0.194560200
0.493864536 0.404553950 0.198355287
0.528273106 0.414674193 0.204427809
0.562048972 0.426818192 0.208095998
0.594054520 0.437318295 0.212523714
0.626691997 0.446426272 0.213282809
0.661226988 0.456926316 0.217457473
0.702593207 0.469576329 0.225553244
0.743073642 0.482732177 0.234661892
0.787096620 0.488424808 0.245667338
0.834661484 0.495762110 0.256799191
0.880581737 0.513092816 0.272865206
0.915243208 0.523466170 0.281467378
0.228715986 0.409614533 0.189499989
0.229348555 0.410246968 0.190132573
0.230866760 0.408728749 0.190132573
0.235167816 0.406957716 0.190132588
0.238203526 0.409993976 0.193168968
0.246805921 0.410246968 0.196204647
0.259709328 0.408981800 0.197975755
0.272612423 0.406957537 0.197722867
0.285895079 0.406957537 0.196584091
0.295003474 0.406957537 0.193548471
0.307653546 0.412144125 0.193421990
0.322580576 0.414168119 0.194686979
0.340923190 0.414294600 0.194686979
0.356356561 0.411511958 0.194686979
0.369259566 0.411511958 0.192030147
0.384946167 0.411511958 0.190132573
0.404048175 0.412397325 0.192789197
0.424035549 0.414168119 0.200632587
0.445288002 0.414168119 0.200632572
0.469955593 0.416951329 0.196963966
0.496141285 0.423782557 0.197849572
0.524604261 0.435926557 0.202023998
0.561037004 0.448070556 0.207969517
0.592409849 0.460215360 0.213535592
0.625679851 0.470082253 0.216318578
0.661226988 0.481846869 0.219860658
0.700696051 0.493485451 0.229474992
0.737254560 0.508412123 0.232890859
0.780391872 0.516255140 0.243263960
0.828209937 0.525363326 0.255407959
0.877545953 0.534977734 0.268690586
0.917014420 0.550158143 0.286907434
0.234788001 0.436939001 0.195572019
0.237824380 0.439974606 0.198608413
0.238456964 0.440607041 0.199240983
0.242504835 0.439089179 0.197975829
0.250347525 0.437318444 0.196204603
0.253383934 0.440354079 0.199240983
0.261986315 0.443137378 0.197216660
0.271600306 0.442378283 0.194686770
0.283238232 0.440354019 0.193927974
0.301075518 0.440354019 0.199620500
0.316002876 0.443263888 0.199494034
0.328906000 0.444528997 0.203542024
0.344971657 0.445667356 0.206831023
0.365464985 0.447944075 0.206831023
0.383680940 0.447944075 0.206831023
0.396584600 0.447944075 0.201771006
0.412270993 0.447944075 0.199240997
0.430107594 0.447564632 0.200632587
0.445288032 0.444528997 0.203668982
0.472106397 0.447311640 0.206451625
0.499177724 0.450347781 0.208728760
0.526502132 0.457179010 0.209993854
0.554965019 0.469323039 0.207969546
0.591397822 0.481467813 0.211005926
0.627324581 0.491334736 0.216571972
0.663504303 0.504617333 0.222137958
0.700696051 0.520809948 0.229475006
0.740164399 0.529917598 0.241619006
0.779379725 0.539531827 0.250347853
0.822896600 0.551929176 0.261479974
0.868943572 0.564832568 0.274509579
0.913978040 0.574446976 0.289943069
0.232511356 0.492093384 0.209993362
0.229981035 0.489563704 0.207463756
0.239468649 0.490449101 0.210499585
0.244528636 0.490449101 0.212397173
0.252118528 0.488931209 0.212017715
0.259961933 0.487159848 0.207843304
0.270588011 0.487665772 0.210879028
0.283238351 0.487160087 0.208349079
0.296141446 0.485642016 0.206831276
0.312334001 0.487665772 0.210878998
0.327640891 0.487792253 0.216698021
0.342821240 0.488804400 0.214674264
0.358001351 0.488804400 0.216192365
0.376850009 0.489942759 0.215939328
0.390006006 0.489942759 0.213409007
0.413029611 0.489942759 0.218216002
0.431246191 0.491460949 0.213662028
0.450094938 0.492093533 0.210499585
0.465275407 0.489057362 0.209234983
0.486021727 0.491587758 0.212270647
0.509551108 0.494623363 0.219101742
0.536116302 0.498671651 0.223909140
0.565338016 0.507147551 0.224541724
0.596457839 0.516634822 0.224921271
0.635167897 0.526502311 0.225680366
0.674889266 0.538393378 0.233523339
0.714610815 0.554206431 0.242884427
0.754079759 0.565591276 0.252751708
0.793548107 0.577355683 0.256925881
0.834787726 0.588361800 0.269323200
0.881973147 0.600759149 0.284250349
0.933206379 0.609867036 0.301328003
0.235167995 0.527007759 0.217583731
0.232131600 0.527767122 0.216445386
0.232258007 0.532574475 0.217710227
0.243137166 0.531309307 0.219480991
0.250600755 0.530676723 0.221125796
0.261226922 0.529158533 0.216571987
0.274762750 0.528652489 0.219987407
0.283617735 0.530297220 0.219734013
0.298797995 0.528526485 0.217457250
0.315116733 0.530423760 0.219354510
0.330297112 0.532447457 0.223402724
0.349272490 0.530550241 0.223402515
0.365591526 0.530550241 0.221505255
0.383554757 0.530803204 0.221505255
0.397343457 0.532447457 0.220113575
0.417204320 0.530550241 0.220492989
0.443010926 0.532068014 0.226565376
0.464389712 0.534471691 0.223276466
0.480835021 0.532700479 0.221505687
0.499683619 0.533333063 0.218342647
0.524731457 0.536369443 0.223276466
0.546995699 0.538393199 0.227324471
0.575458229 0.542568207 0.227830544
0.604047835 0.548133850 0.231372997
0.639342070 0.559139729 0.237065256
