Assets/EldamarStudio/100 Retro LUTs Pack/LUTs/cube/Julie LUT.cube
LUT_3D_SIZE 5
DOMAIN_MIN 0.000000 0.000000 0.000000
DOMAIN_MAX 0.903226 0.903226 0.903226
0.121569000 0.105881996 0.109803997
0.219354704 0.121569000 0.129411995
0.360278398 0.128146991 0.136622414
0.544465363 0.159898862 0.166730002
0.797975540 0.201391667 0.204047829
0.166350290 0.184693277 0.133332998
0.212776706 0.189247280 0.138899282
0.346869111 0.200379699 0.146742716
0.537887514 0.240987122 0.177482858
0.795698881 0.287033558 0.217710152
0.207210585 0.328905374 0.171916410
0.255028397 0.328273386 0.181783825
0.351802796 0.331562370 0.177229404
0.528399885 0.372422546 0.195825130
0.793422043 0.444781780 0.234788239
0.234155878 0.556356370 0.223655999
0.285641998 0.568754017 0.226818413
0.403795272 0.573307991 0.225553259
0.561163962 0.578874290 0.232384861
0.801517725 0.635167778 0.278937697
0.253889799 0.866034269 0.375711441
0.320050776 0.873750746 0.367109597
0.463250756 0.874383152 0.374319762
0.652118742 0.879063725 0.392662585
0.855534434 0.881467640 0.408348918
0.145098001 0.127767280 0.204300702
0.213788986 0.131688714 0.194813415
0.318406403 0.151043832 0.204301119
0.495382547 0.190891996 0.253383696
0.755471170 0.223908871 0.296900660
0.171916410 0.180771694 0.190259412
0.224541694 0.194180980 0.201011717
0.313219398 0.206957698 0.217077985
0.489184409 0.243263841 0.248450562
0.758380711 0.289689988 0.303099692
0.219987273 0.302086979 0.222896993
0.256293416 0.306008965 0.235041112
0.335104108 0.313851982 0.234408692
0.500695705 0.355724394 0.264136583
0.763946772 0.434281945 0.315243423
0.238836288 0.541302800 0.287412703
0.284756690 0.546489537 0.288424999
0.395319104 0.544591963 0.296900839
0.544085979 0.556356549 0.301454842
0.783301771 0.630866528 0.349904984
0.279822737 0.859076321 0.433396637
0.343579799 0.863250911 0.435420632
0.473750979 0.866919875 0.441998869
0.647311926 0.873750746 0.453130931
0.847691417 0.876027703 0.470967531
0.174573407 0.143832996 0.373434365
0.234408692 0.150031701 0.351170391
0.340670377 0.160784006 0.328905404
0.487286270 0.192536280 0.364958674
0.737128139 0.236053407 0.441492379
0.209867403 0.217709988 0.332574099
0.243516698 0.218722701 0.322074652
0.326248974 0.221631989 0.321062386
0.470841408 0.246173277 0.359392673
0.727134705 0.304743946 0.445034683
0.230740413 0.309297562 0.327640384
0.269702673 0.316508383 0.331182688
0.368753940 0.359013408 0.377988815
0.490196258 0.369133532 0.389753401
0.732574582 0.444781780 0.465022206
0.260468304 0.515117109 0.403162688
0.306514710 0.526249111 0.418848544
0.400506258 0.533712983 0.427071393
0.521948278 0.539025843 0.428083539
0.766982734 0.627324641 0.500442326
0.338393331 0.847058952 0.555976927
0.386211157 0.850600898 0.560784280
0.495256007 0.847564757 0.560531318
0.651486158 0.858443856 0.570018947
0.834534764 0.873245001 0.581530333
0.207969993 0.182415992 0.617078125
0.281846851 0.189626589 0.613535643
0.410752803 0.200758994 0.596837521
0.543453217 0.210879132 0.571916401
0.744085729 0.243263826 0.610246658
0.226185843 0.265401572 0.579759538
0.282858700 0.268438131 0.578114867
0.395572245 0.271726698 0.572928667
0.525869250 0.276281118 0.557621539
0.739531875 0.314610958 0.605313182
0.244781718 0.389120668 0.563440740
0.294497281 0.394054353 0.562175989
0.398861408 0.397975951 0.558254540
0.522959948 0.397343099 0.551043510
0.738519728 0.460847348 0.618468940
0.254016131 0.542568088 0.558254063
0.301075280 0.543832898 0.566982865
0.409993827 0.553067386 0.575837970
0.578874290 0.610246241 0.620999396
0.772548676 0.652119279 0.655660927
0.368880302 0.838583291 0.688930929
0.419354618 0.844781816 0.682100058
0.533206761 0.843011022 0.687666059
0.677419066 0.848703265 0.699177742
0.840227544 0.864642620 0.713978529
0.281214654 0.281340778 0.864515781
0.344718516 0.281340778 0.864895642
0.475395381 0.295129359 0.859962165
0.648576796 0.312839925 0.849588573
0.837191582 0.336369634 0.840986788
0.306767821 0.365085185 0.851865888
0.362049490 0.371916473 0.851486564
0.490195930 0.374572903 0.846932173
0.653383851 0.392283082 0.846932411
0.830739558 0.402150482 0.837191582
0.369766027 0.530550182 0.840986609
0.416824758 0.533839166 0.841746032
0.516129136 0.536495805 0.839848459
0.656419933 0.542694449 0.832637131
0.822896600 0.544971168 0.830107093
0.391397744 0.695003092 0.827956617
0.434535027 0.695256054 0.835294127
0.537760794 0.698924780 0.832890451
0.677039802 0.701580942 0.830613434
0.823908746 0.708791733 0.828336477
0.432004750 0.864769399 0.845034599
0.478178263 0.862365305 0.845667422
0.569259584 0.863377452 0.843137145
0.712713361 0.870208919 0.840986788
0.879063725 0.890701950 0.873877585
