Assets/EldamarStudio/100 Retro LUTs Pack/LUTs/cube/Karen LUT.cube
LUT_3D_SIZE 5
DOMAIN_MIN 0.000000 0.000000 0.000000
DOMAIN_MAX 0.903226 0.903226 0.903226
0.000000000 0.039216001 0.074510001
0.205312982 0.080075711 0.084630288
0.438076973 0.109171413 0.098039001
0.661100268 0.154964998 0.128526121
0.890575767 0.198734835 0.176596820
0.000000000 0.258950412 0.110815704
0.182795703 0.257937700 0.112460412
0.423403114 0.271979988 0.123213284
0.662745118 0.287033588 0.148387000
0.880834639 0.314863682 0.183680996
0.000000000 0.479317218 0.154332832
0.164199397 0.475395411 0.151676416
0.415938944 0.475395381 0.154965416
0.643137515 0.488172114 0.176217690
0.884756327 0.499556988 0.200000003
0.000000000 0.690575242 0.195193127
0.174699396 0.696394980 0.198987871
0.420872927 0.698039532 0.203036129
0.649335980 0.694497287 0.205945998
0.870461762 0.709803939 0.227577820
0.123339772 0.912839949 0.268184811
0.255913794 0.917393804 0.276407659
0.456546634 0.918152928 0.273370981
0.669070065 0.918026805 0.282858938
0.885515451 0.914104819 0.295761973
0.000000000 0.072865292 0.257937700
0.195825696 0.088298410 0.249082997
0.419481128 0.139910996 0.264136821
0.644149303 0.195825547 0.282479405
0.876280785 0.235420823 0.303478807
0.003922000 0.252751678 0.248450413
0.183428109 0.265148699 0.257937700
0.409360975 0.280202687 0.267425835
0.643137157 0.301454842 0.290575713
0.872359455 0.330550343 0.304996699
0.000000000 0.467172712 0.269070089
0.179886416 0.473118097 0.275901377
0.411005676 0.476027817 0.281467259
0.636938810 0.485515684 0.288298428
0.873624623 0.504869938 0.308665395
0.005566131 0.691461146 0.307273805
0.200506255 0.693485141 0.307020694
0.424794525 0.693738282 0.302087247
0.642505109 0.697027266 0.305629700
0.873624444 0.709803939 0.324983984
0.183807641 0.913598776 0.351928979
0.284629792 0.917014718 0.353193820
0.469576210 0.915117145 0.358380616
0.669702649 0.919038475 0.361669660
0.883111894 0.917141020 0.363946676
0.000000000 0.103351980 0.450474381
0.214168116 0.123592824 0.448576838
0.427703798 0.158253998 0.440733820
0.647058725 0.203036278 0.446552396
0.872992039 0.258949965 0.466919810
0.000000000 0.284123689 0.439089090
0.209360957 0.287033409 0.434788376
0.420113683 0.290954977 0.437065095
0.640227854 0.313219398 0.447944254
0.870082498 0.349145979 0.470081955
0.003289416 0.472738385 0.450601220
0.202403694 0.467172682 0.437444806
0.423782796 0.487160206 0.447944403
0.637950540 0.493991107 0.458064526
0.864515901 0.521189332 0.470082253
0.107780121 0.688551247 0.460341811
0.249842003 0.693485379 0.455661029
0.440101385 0.688551247 0.455408305
0.648703396 0.691207826 0.466540098
0.870714903 0.710815787 0.479949206
0.267805189 0.910816193 0.493738383
0.340543926 0.908285797 0.497280121
0.497659564 0.912207365 0.501581371
0.685388863 0.911574781 0.505123079
0.890701830 0.920050323 0.513472199
0.115875989 0.159898862 0.645414293
0.254395992 0.173307836 0.639468968
0.458443820 0.197849125 0.639468968
0.663124263 0.230487123 0.635547280
0.882226467 0.267805248 0.642125368
0.139658689 0.308918685 0.636938393
0.262618691 0.311954558 0.630613148
0.457052797 0.321062416 0.633902550
0.659203291 0.331182688 0.633270025
0.876027763 0.361037225 0.640101373
0.154712126 0.498292387 0.631625414
0.271094114 0.498924404 0.632637501
0.462745070 0.506135404 0.628463268
0.655660987 0.509424269 0.629095674
0.868058085 0.529664755 0.640480697
0.172802001 0.693485141 0.617204368
0.274762988 0.691840351 0.623908818
0.459455967 0.695383132 0.628083527
0.669956148 0.702340245 0.641492963
0.880581796 0.714990139 0.644402146
0.288425118 0.916381896 0.651992440
0.370271981 0.914737403 0.653763413
0.521568656 0.909297705 0.654142737
0.704996943 0.910562932 0.659708798
0.895635486 0.907526910 0.661986113
0.251233637 0.239468634 0.836938620
0.331941694 0.244655117 0.838582873
0.505629241 0.260974228 0.838962317
0.702087104 0.283491701 0.837318063
0.914231598 0.311321825 0.829095662
0.272232771 0.355471373 0.837697804
0.349019676 0.359645665 0.835673809
0.511448383 0.367235690 0.836938381
0.709297657 0.380265534 0.833396494
0.902466595 0.396963984 0.831751823
0.318026781 0.540797055 0.828463197
0.390891910 0.545097947 0.830107570
0.533080399 0.545350969 0.829221785
0.711827695 0.550284624 0.833016992
0.907021046 0.556483209 0.827198207
0.332574099 0.731056273 0.826818645
0.395572573 0.725489974 0.825427055
0.537634671 0.727767229 0.824920952
0.714864254 0.732321441 0.825300455
0.906135261 0.732068121 0.826565623
0.344212621 0.920682907 0.818722606
0.405945659 0.919038713 0.824794650
0.544845164 0.914864182 0.825806439
0.723213196 0.914484620 0.825173974
0.914231598 0.916761637 0.825173974
