Assets/EldamarStudio/100 Retro LUTs Pack/LUTs/cube/Karen LUT.cube
LUT_3D_SIZE 8
DOMAIN_MIN 0.000000 0.000000 0.000000
DOMAIN_MAX 0.903226 0.903226 0.903226
0.000000000 0.039216001 0.074510001
0.106135547 0.059962451 0.082732551
0.234155178 0.083112098 0.085388996
0.378368288 0.100315996 0.095256351
0.500569344 0.119797379 0.108917996
0.630739987 0.148892999 0.127514258
0.758380830 0.171537280 0.149652004
0.890575767 0.198734835 0.176596820
0.000000000 0.176344082 0.093738452
0.075901091 0.172042638 0.094117999
0.228336632 0.173560724 0.095256448
0.370271713 0.188108906 0.109424353
0.494750023 0.197849542 0.118785545
0.627197921 0.210752994 0.133965999
0.758001268 0.232005283 0.155218288
0.886401057 0.246805996 0.178494841
0.000000000 0.293106109 0.119924091
0.043010995 0.293485552 0.112460546
0.216192096 0.286780268 0.122327901
0.355724186 0.295003563 0.119164996
0.487286180 0.302466899 0.132447988
0.624794722 0.309044927 0.149652094
0.757621706 0.325996310 0.166097090
0.884882867 0.338140339 0.186464086
0.002783356 0.412523627 0.135609999
0.013915188 0.410878927 0.139658004
0.210752904 0.415686637 0.146615997
0.343074292 0.416951269 0.139532000
0.482985616 0.418089628 0.155597553
0.612270832 0.425932646 0.163820088
0.744971573 0.437191576 0.177735284
0.882605970 0.444528818 0.201011837
0.001518192 0.541555941 0.166856378
0.007210638 0.544212520 0.165338188
0.202783182 0.535863221 0.165212095
0.342694640 0.537128568 0.166603357
0.480329156 0.538267195 0.176470995
0.606071830 0.542947173 0.180391997
0.741808832 0.549272418 0.194307193
0.879190207 0.561416984 0.209361196
0.000000000 0.660214722 0.186084732
0.012271089 0.668437660 0.195825472
0.216698453 0.661986470 0.193168640
0.346489519 0.667931736 0.191144899
0.483365178 0.671600223 0.195572451
0.614927471 0.664136708 0.201897740
0.744592011 0.670334995 0.209614247
0.871726871 0.681720436 0.224035561
0.000000000 0.789120853 0.222517282
0.087033823 0.785578847 0.228589728
0.230740279 0.788994551 0.221632093
0.366097629 0.791397572 0.226439282
0.491967082 0.789753318 0.225680187
0.615053475 0.791397572 0.228463024
0.744971573 0.792030573 0.232637569
0.876660347 0.801897705 0.245034844
0.123339772 0.912839949 0.268184811
0.177482873 0.918279290 0.266413808
0.278431177 0.919417739 0.277419806
0.399747103 0.916761637 0.274509639
0.513345778 0.915243447 0.270967782
0.639215529 0.916002572 0.283870816
0.761416495 0.916761637 0.284250349
0.885515451 0.914104819 0.295761973
0.000000000 0.063124545 0.176723540
0.094750091 0.067805447 0.178747982
0.236179635 0.092093550 0.180265993
0.358001262 0.124604903 0.190891549
0.483365178 0.147754639 0.195952088
0.622137964 0.170018986 0.211764812
0.750537276 0.191650838 0.218342543
0.885388911 0.217836991 0.237950549
0.000000000 0.167741999 0.165338099
0.074762546 0.175964549 0.180265993
0.217330739 0.178241521 0.187349990
0.352181822 0.195572540 0.190891638
0.489310533 0.206451550 0.198229089
0.620493293 0.220999286 0.210752994
0.752434969 0.242504552 0.226059541
0.883744299 0.262492061 0.241619229
0.003542452 0.286780179 0.187729537
0.046047091 0.288424999 0.189626992
0.218216553 0.289943188 0.197975546
0.345856786 0.294624001 0.196711004
0.479443192 0.306388170 0.204174638
0.610626221 0.316128761 0.212397099
0.745477736 0.333459824 0.223276094
0.878558040 0.343073785 0.237444699
0.002656643 0.410626173 0.198988095
0.020872992 0.414168626 0.203795195
0.206324741 0.414548069 0.203415558
0.341935635 0.412903190 0.207337454
0.474763095 0.416065991 0.215939552
0.606704772 0.428589463 0.221378624
0.746236742 0.436812013 0.232764184
0.878684402 0.447817892 0.248956546
0.004807003 0.538267195 0.224667743
0.013915188 0.536369562 0.219101548
0.209993809 0.538646638 0.216698453
0.349778742 0.542314947 0.224161983
0.482985646 0.538267195 0.223402888
0.605186701 0.539026201 0.224161893
0.743200660 0.550790608 0.239089191
0.877798975 0.561290205 0.251992255
0.000379548 0.660594285 0.235926807
0.037824079 0.666034460 0.240101531
0.222517192 0.661227286 0.241113544
0.354459018 0.663630605 0.239848182
0.482606113 0.662871599 0.237824455
0.606704891 0.664389610 0.239721805
0.742314816 0.670334995 0.249209091
0.874256730 0.678810835 0.263251364
0.003921710 0.782415867 0.269196540
0.107020818 0.787476540 0.261606544
0.239595085 0.787855983 0.259456277
0.365338534 0.792536199 0.263377815
0.495129555 0.786970198 0.264136910
0.619228005 0.787349641 0.268311530
0.744971573 0.791651011 0.273750514
0.874004066 0.795066357 0.276786804
0.146362603 0.915117204 0.305249542
0.200252891 0.917141080 0.314105004
0.287539810 0.916382074 0.305629194
0.400885254 0.915117204 0.306135267
0.517900109 0.914231598 0.305249870
0.633523464 0.919038296 0.310942173
0.755471051 0.920303464 0.314231098
0.885894895 0.914104819 0.324098647
0.000000000 0.071347095 0.285262108
0.094370641 0.082353003 0.285641640
0.221632093 0.104237907 0.272612095
0.358760267 0.124984354 0.288424999
0.481088102 0.159898803 0.289184093
0.609234750 0.188741088 0.301454842
0.744338989 0.217077896 0.312713295
0.874762774 0.240986824 0.329032183
0.000000001 0.178241625 0.278937191
0.080202542 0.181024984 0.286148012
0.219355091 0.186084628 0.278178126
0.350158185 0.204174638 0.284123659
0.479949623 0.219354898 0.295129627
0.609867036 0.238962993 0.304870307
0.749398828 0.257431924 0.316255510
0.883997440 0.277419388 0.324730903
0.003922000 0.289184093 0.274257034
0.053131092 0.293485552 0.274636567
0.213029996 0.297786206 0.286780298
0.341935635 0.298545182 0.288424999
0.471600175 0.317393959 0.294623882
0.605186701 0.329538405 0.306767851
0.740290642 0.340164065 0.316508204
0.874130368 0.354585946 0.330297351
0.007463548 0.407463282 0.290702194
0.058570188 0.412144184 0.289563626
0.224414736 0.408601910 0.292726457
0.342694730 0.414548069 0.294624001
0.474383563 0.415686429 0.299304187
0.601138830 0.429348379 0.305629194
0.741176367 0.443137348 0.316508293
0.875268936 0.453257442 0.326881826
0.000000000 0.541555941 0.295382977
0.067805275 0.530803025 0.304111153
0.218469381 0.537508130 0.301581264
0.348133922 0.536369562 0.304364562
0.477925390 0.536749005 0.304111183
0.601644278 0.539026201 0.310815722
0.738772571 0.551676095 0.319038272
0.874256730 0.562807977 0.331436008
0.000000004 0.662871540 0.316128761
0.090701826 0.662112474 0.320050746
0.235673562 0.658064485 0.318405718
0.361164093 0.657305360 0.318658769
0.486527264 0.661353350 0.317773610
0.606325388 0.662112474 0.319291651
0.737254620 0.668058217 0.325996190
0.871094584 0.680455685 0.339152157
0.067046262 0.787602603 0.340038002
0.148513556 0.788994431 0.337254643
0.261353374 0.788361788 0.339405358
0.380265743 0.788614929 0.340543807
0.500442624 0.787349701 0.337508082
0.621631861 0.788235545 0.342441171
0.744971573 0.792283416 0.345604092
0.874130368 0.799241126 0.350410908
0.199746802 0.910815895 0.370145261
0.228336453 0.910057068 0.364579558
0.314484239 0.915496767 0.368374318
0.416445374 0.912460566 0.370524794
0.526755095 0.916761637 0.375585109
0.639848471 0.917014718 0.379633009
0.762808502 0.915496767 0.381404161
0.883617759 0.918658853 0.380138993
0.000000000 0.081846647 0.399620295
0.102972642 0.099557094 0.397722632
0.237318099 0.113599092 0.391903996
0.357621640 0.133965999 0.391144991
0.485768378 0.164958641 0.393801630
0.613409460 0.189626992 0.391651005
0.739911139 0.221378639 0.403541982
0.872359455 0.254775465 0.418975443
0.002783356 0.196331546 0.393422097
0.099430896 0.194307193 0.378873825
0.232637271 0.198608637 0.391145110
0.354838282 0.207210556 0.390259206
0.477545857 0.226059631 0.389879644
0.602782905 0.246046901 0.391651005
0.739911139 0.267552257 0.407843083
0.873118341 0.295003444 0.418342650
0.008728907 0.304870099 0.384693265
0.095509194 0.302087545 0.385199547
0.225173727 0.304870099 0.388741285
0.354458839 0.307906181 0.378368288
0.475142539 0.320556283 0.393422008
0.597216904 0.330677092 0.396837533
0.731688857 0.353826731 0.409740567
0.868058205 0.370271832 0.422390908
0.002783356 0.406957626 0.382795632
0.086021289 0.408222377 0.382036746
0.227577642 0.415306985 0.389120698
0.350917310 0.425932646 0.389500290
0.477166384 0.423529446 0.391397625
0.601264715 0.436812013 0.402403623
0.730929852 0.450600982 0.409740567
0.865654409 0.462745100 0.419228286
0.005060354 0.533965707 0.402024090
0.111828089 0.531561911 0.393801540
0.238836184 0.536369503 0.399367541
0.355976820 0.536749005 0.393295258
0.476660550 0.536749005 0.394054174
0.605312824 0.544971406 0.408728749
0.737254620 0.557115436 0.415306985
0.865654647 0.567236185 0.421631992
0.066034369 0.656166732 0.402656466
0.148766279 0.657305479 0.405186266
0.258696944 0.655407786 0.406198710
0.367236167 0.658950090 0.409108281
0.493611366 0.659329593 0.412271082
0.610246599 0.662112474 0.414927542
0.736242652 0.666666448 0.417836815
0.869323134 0.681720436 0.432384551
0.157874897 0.779126942 0.430360258
0.208728358 0.785958350 0.430233985
0.288045585 0.783934116 0.419101894
0.395319283 0.784693182 0.423782289
0.507906556 0.785452247 0.430486917
0.626438975 0.787856042 0.430992991
0.742188215 0.790891945 0.434408933
0.867299139 0.797975838 0.436306298
0.251486599 0.915243447 0.458949625
0.281594038 0.909171164 0.453889728
0.342441529 0.915496767 0.454016536
0.437950611 0.913978577 0.459076464
0.539911211 0.914231598 0.458444089
0.653889716 0.915116906 0.459455818
0.767235875 0.913599133 0.462871671
0.891334414 0.918026805 0.464389831
0.007590186 0.112839997 0.499303967
0.122074284 0.128525987 0.503478706
0.254649192 0.140164286 0.504743993
0.379127294 0.157495201 0.502719820
0.495129555 0.176217183 0.495129585
0.614927471 0.197470188 0.492472708
0.742694259 0.226439282 0.506135464
0.873497784 0.263250977 0.515243351
0.020620082 0.215560004 0.499937177
0.136243075 0.212397188 0.499557614
0.255787551 0.214674085 0.501075506
0.365718067 0.227324188 0.499937087
0.493611366 0.230739728 0.492726386
0.613788903 0.249715447 0.497153848
0.745730340 0.272738993 0.504996777
0.875774801 0.298165530 0.515496373
0.045794085 0.318153083 0.496015191
0.135610536 0.320556283 0.494117528
0.251359999 0.317267478 0.489690214
0.369007081 0.322074294 0.490954816
0.482606083 0.325996310 0.489057362
0.606325388 0.334598094 0.490828514
0.738772631 0.354206175 0.505376160
0.868437767 0.376091182 0.514990449
0.033522919 0.421884805 0.485262632
0.138140440 0.423909009 0.487286359
0.252245396 0.425427079 0.490069628
0.372422606 0.432511091 0.494496971
0.484503537 0.431372732 0.490069628
0.609487474 0.440733641 0.496394724
0.736369491 0.456419915 0.508538961
0.867678761 0.473497897 0.522580385
0.042631373 0.536748946 0.493611366
0.144465744 0.533206820 0.488551527
0.253004283 0.538393259 0.491334289
0.369259924 0.537128568 0.496015191
0.500569344 0.550031543 0.507780194
0.610626042 0.551928937 0.505376339
0.738140285 0.562555254 0.513345897
0.865907490 0.574446142 0.525996149
0.109550722 0.658190966 0.507400453
0.170271829 0.659709156 0.496900976
0.272106320 0.656166911 0.501075506
0.388488263 0.659709156 0.505503178
0.499430716 0.661606908 0.507400632
0.612144232 0.662112474 0.511069000
0.741808712 0.673497915 0.518279612
0.869576395 0.683112025 0.531688750
0.193928078 0.785325348 0.520303488
0.239088818 0.783048928 0.515875936
0.316382259 0.780392051 0.516382098
0.417963535 0.783048928 0.521441758
0.520936251 0.787476540 0.520177186
0.631246328 0.784187555 0.519797444
0.749652088 0.786717474 0.526375651
0.876154423 0.796710849 0.530297220
0.278431624 0.909171283 0.540290773
0.307400137 0.912839949 0.538520038
0.370398283 0.909550726 0.541176498
0.458823442 0.909930170 0.540037811
0.552814603 0.910056949 0.541556001
0.661859751 0.913346052 0.546868920
0.771663249 0.914104819 0.543706357
0.891966760 0.917014539 0.545097828
0.095635727 0.148766473 0.617077768
0.163946629 0.158254191 0.616698325
0.276154429 0.168500990 0.611891329
0.390891910 0.179380089 0.616445601
0.510056973 0.199367538 0.608096063
0.628715754 0.217330739 0.611258447
0.752055526 0.234282285 0.603668451
0.881467640 0.266793132 0.617077768
0.103099078 0.224920899 0.605060041
0.175332084 0.228842288 0.603794932
0.272991836 0.234661639 0.610752881
0.393168986 0.239721999 0.612017512
0.509550869 0.251865834 0.609234691
0.630233884 0.264895976 0.605312765
0.747375190 0.275395334 0.604048014
0.872865558 0.306641519 0.611005485
0.127261281 0.334218860 0.608349144
0.185578793 0.332574546 0.609360933
0.274003983 0.334977746 0.609360754
0.389247298 0.336622566 0.604174376
0.509677470 0.341682196 0.604680598
0.625553608 0.345097929 0.605692506
0.744592011 0.358886898 0.605819106
0.874003947 0.380012661 0.613029778
0.132447720 0.440354288 0.603035748
0.189753532 0.438709587 0.601771057
0.285895228 0.441492647 0.600126326
0.391651005 0.447438359 0.600379407
0.506894171 0.447817802 0.600000143
0.618469179 0.450221509 0.596963942
0.737128556 0.459582657 0.602150500
0.870335281 0.480328888 0.613282740
0.141808718 0.545730472 0.604047954
0.198861271 0.550410986 0.598228753
0.287792742 0.550790608 0.597849369
0.397217095 0.555218160 0.596331418
0.509677470 0.560657918 0.598987937
0.619987249 0.560657918 0.602909565
0.742441714 0.566982687 0.607336998
0.869323075 0.580518603 0.622896910
0.146489725 0.662112474 0.585831702
0.197090268 0.661606908 0.588235319
0.286654085 0.663251102 0.594054341
0.397975892 0.665275395 0.597469687
0.513598919 0.667552233 0.601517737
0.630487502 0.671979725 0.609108210
0.752055526 0.677798986 0.616571724
0.877545655 0.686400890 0.620619953
0.216571853 0.786717474 0.606704473
0.255534708 0.785452247 0.608096063
0.332068175 0.784693241 0.608349085
0.428715914 0.786337912 0.617204487
0.531056464 0.787096977 0.619607747
0.645161331 0.787729084 0.615812540
0.760278046 0.789753318 0.623276472
0.884250283 0.797975838 0.627830446
0.281593800 0.915116966 0.630486667
0.320430309 0.913345873 0.632764161
0.377356172 0.912713468 0.632257998
0.469955564 0.911448240 0.631499112
0.569765866 0.912460625 0.634028912
0.674636364 0.911574781 0.634914637
0.783807933 0.912460506 0.638456762
0.894117653 0.909804046 0.640227854
0.171157569 0.189499989 0.724730968
0.220872790 0.193168551 0.724478006
0.309298009 0.202909291 0.724604487
0.416571558 0.214168355 0.724224925
0.531941712 0.224794194 0.723213136
0.650980473 0.240480989 0.722833693
0.764579535 0.257811278 0.716255546
0.891334593 0.274256706 0.715243280
0.179126993 0.253257811 0.726628721
0.227324098 0.254269540 0.731308997
0.311574876 0.260594755 0.722327411
0.420240432 0.266793460 0.725616336
0.530676901 0.273371190 0.726881623
0.650600970 0.285262465 0.724351525
0.764958978 0.295382798 0.712966561
0.887918890 0.309044808 0.720430076
0.200885460 0.351043671 0.723212957
0.243896335 0.349272668 0.722327411
0.320303470 0.355851114 0.720936060
0.422138005 0.359139651 0.720936060
0.531056345 0.363567173 0.722454071
0.646299660 0.367488980 0.718152761
0.766856313 0.376850367 0.719165266
0.879443467 0.386717528 0.712586999
0.218848556 0.461859912 0.715243578
0.255407810 0.461480200 0.709930360
0.332700372 0.462239087 0.714990556
0.430486917 0.467425913 0.713472664
0.536495745 0.467299134 0.714231730
0.644655406 0.470968008 0.713472605
0.760657549 0.474762976 0.714611292
0.880202472 0.483364969 0.714484453
0.226945177 0.564832389 0.714484513
0.264136821 0.568500757 0.715243518
0.339026093 0.570398271 0.712081194
0.434282035 0.571284115 0.710689545
0.542062163 0.574320078 0.707527220
0.645540774 0.578368187 0.714231491
0.755977392 0.575838089 0.710057259
0.877292871 0.582163393 0.718152881
0.234155521 0.674257040 0.709803939
0.271220624 0.678178489 0.709804296
0.347248822 0.680961370 0.711574793
0.439089209 0.677419543 0.713219464
0.543706238 0.681594014 0.711195767
0.651360035 0.682099998 0.714863837
0.762302279 0.678937435 0.712333977
0.882479191 0.690575361 0.720050573
0.243390277 0.793674827 0.701201558
0.276407272 0.785831869 0.706768274
0.346110374 0.787476599 0.708412528
0.439468563 0.788614929 0.710689545
0.545983434 0.788235486 0.713851988
0.654649019 0.787476599 0.715875983
0.772422493 0.795319557 0.720176995
0.895509183 0.798229098 0.719670773
0.315369934 0.913852036 0.708539009
0.346615970 0.913219512 0.718785524
0.396837443 0.910056949 0.721062601
0.481973648 0.910309613 0.725743115
0.580265522 0.915243566 0.730550289
0.688045382 0.909298062 0.727513790
0.793801069 0.909298062 0.731056213
0.901074946 0.912839949 0.733333528
0.251233637 0.239468634 0.836938620
0.281847268 0.238456517 0.835673809
0.354712069 0.247438163 0.842378139
0.453763425 0.254902005 0.842251658
0.562807977 0.267046183 0.839594781
0.676027536 0.278431624 0.837571025
0.797975838 0.294876814 0.839594781
0.914231598 0.311321825 0.829095662
0.259456098 0.290069789 0.839089036
0.289436966 0.286274821 0.833143771
0.362934828 0.290195912 0.837824285
0.456166923 0.299557537 0.836179554
0.564199984 0.308159322 0.843010724
0.675395608 0.321821660 0.839594781
0.793674827 0.333712965 0.832510948
0.910563171 0.344592273 0.829854667
0.282605976 0.377735823 0.834914744
0.304870307 0.384693086 0.833776057
0.371790051 0.384693086 0.832384706
0.463630736 0.387349933 0.834535182
0.564705729 0.391271263 0.836305857
0.677925348 0.398987919 0.830360472
0.792789578 0.405692756 0.830993116
0.905755699 0.417963356 0.833269775
0.309424400 0.492093801 0.830107808
0.337760895 0.490828753 0.835547149
0.392662823 0.491208285 0.834788024
0.476027668 0.493864805 0.833522975
0.576090932 0.497786105 0.829221785
0.682732522 0.500569224 0.832131624
0.792915761 0.503352404 0.832890451
0.902340412 0.511195421 0.830360830
0.323212951 0.592915833 0.823402762
0.346236765 0.594433725 0.833649337
0.409487545 0.596710980 0.830613613
0.492979109 0.601011992 0.828969121
0.588867962 0.600505769 0.827830791
0.687792540 0.603541911 0.831625700
0.794054389 0.603289127 0.826186061
0.902593136 0.606072187 0.826692164
0.327260762 0.702719629 0.828589678
0.352561593 0.699304223 0.825553656
0.409740806 0.698924661 0.828462899
0.489437163 0.701328456 0.829728067
0.584946156 0.702719629 0.825806320
0.688551486 0.703984797 0.826565623
0.796584547 0.707906663 0.826438725
0.905629516 0.704743683 0.826565623
0.340544224 0.815939128 0.830866516
0.360657603 0.807842970 0.825174093
0.414547861 0.807337046 0.826186001
0.494244248 0.809740663 0.824415147
0.586970270 0.807590008 0.823023200
0.690069199 0.807463408 0.824541390
0.799367309 0.808728278 0.827830791
0.911195278 0.807590246 0.828969002
0.344212621 0.920682907 0.818722606
0.368754268 0.919038296 0.822011650
0.420619786 0.918026805 0.825300455
0.499810249 0.917014539 0.823908806
0.587096810 0.917014539 0.821252584
0.696394682 0.915496767 0.823402703
0.801391482 0.915117204 0.826565623
0.914231598 0.916761637 0.825173974
