Assets/EldamarStudio/100 Retro LUTs Pack/LUTs/cube/Karen LUT.cube
DOMAIN_MIN 0 0 0
DOMAIN_MAX 1 1 1
LUT_3D_SIZE 32
0.000000000 0.039216001 0.074510001
0.006072000 0.048323616 0.074510001
0.018595772 0.055281550 0.072359227
0.051486477 0.058823999 0.074383162
0.106135547 0.059962451 0.082732551
0.139531940 0.069070064 0.085768931
0.175458640 0.075648002 0.086274996
0.205312982 0.080075711 0.084630288
0.234155178 0.083112098 0.085388996
0.276659995 0.086148486 0.097532995
0.310436606 0.092093997 0.092220001
0.343833238 0.096141741 0.092220254
0.378368288 0.100315996 0.095256351
0.413789004 0.106135026 0.098039001
0.438076973 0.109171413 0.098039001
0.467172593 0.112207189 0.102845997
0.500569344 0.119797379 0.108917996
0.535104513 0.130676985 0.114357576
0.562429070 0.136749014 0.117393978
0.598102748 0.142821014 0.125996351
0.630739987 0.148892999 0.127514258
0.661100268 0.154964998 0.128526121
0.691587448 0.160910517 0.137507990
0.724983931 0.163946912 0.143580005
0.758380830 0.171537280 0.149652004
0.793168962 0.179253981 0.157115668
0.829095185 0.185831934 0.165211946
0.862492323 0.194939539 0.168247536
0.890575767 0.198734835 0.176596820
0.923213363 0.203541979 0.182163209
0.957874954 0.209613994 0.186084986
0.988234997 0.215685993 0.192157000
0.000000000 0.075648770 0.074510001
0.003036387 0.072612390 0.077545613
0.022011384 0.081720546 0.079696387
0.051233318 0.084883228 0.079696387
0.097406708 0.083870992 0.083112001
0.133459941 0.090322450 0.088804543
0.166856319 0.099430703 0.091840930
0.201138303 0.102719769 0.085768588
0.232637197 0.105123378 0.081593715
0.270588011 0.110436484 0.091461003
0.304363877 0.113472871 0.100695871
0.337760955 0.117394120 0.095256388
0.371157646 0.121568382 0.095256351
0.405439645 0.127134383 0.098545000
0.438076973 0.127387404 0.104111001
0.464768767 0.130423799 0.101707816
0.497532934 0.134977773 0.108918384
0.533965707 0.142820984 0.117393963
0.568501055 0.148892999 0.120430358
0.595825374 0.152182370 0.126249388
0.627704084 0.158001393 0.131309256
0.660088658 0.164073393 0.132574126
0.694623888 0.170271888 0.137634501
0.728020310 0.179127291 0.146616399
0.763693929 0.184440389 0.152688399
0.795066655 0.191397980 0.158760384
0.825553477 0.196964055 0.165211946
0.856420338 0.201012313 0.168247536
0.889816761 0.204806939 0.173940659
0.917900145 0.213155955 0.175585166
0.949652195 0.221758217 0.179633200
0.982163012 0.227830768 0.192157000
0.000000000 0.105629772 0.076660231
0.000885613 0.104744159 0.077545613
0.018975774 0.103858545 0.080581777
0.044528931 0.111701772 0.083618164
0.084503539 0.112080991 0.084503770
0.133333087 0.116381772 0.087033771
0.167236090 0.120683089 0.086274549
0.198987752 0.124857768 0.089310937
0.232637197 0.124857768 0.085009456
0.269069999 0.128146768 0.094117485
0.304743648 0.133459866 0.098924875
0.338140011 0.136496261 0.101961002
0.370398521 0.138393551 0.098419003
0.402530074 0.142441541 0.100189775
0.434029132 0.146236554 0.102466770
0.469070315 0.150790587 0.107779808
0.497912526 0.152308777 0.107779801
0.531815112 0.156483203 0.116761379
0.565212011 0.161037013 0.121315978
0.599747121 0.168627352 0.127135009
0.627071500 0.171663731 0.129411995
0.657179296 0.177482769 0.133206770
0.691334963 0.183554769 0.137760982
0.726755142 0.190638915 0.148893133
0.758127749 0.199620783 0.153574005
0.791777492 0.204301089 0.159645990
0.820873082 0.209108055 0.165211946
0.852878094 0.212144449 0.168247536
0.888045788 0.217330933 0.171789885
0.923213363 0.222137749 0.183175400
0.951676369 0.232637361 0.185072765
0.982542753 0.239975005 0.196457997
0.000000000 0.138014153 0.083491325
0.000000000 0.134219006 0.082226165
0.007084226 0.135484159 0.081846938
0.044023000 0.136748999 0.086148165
0.073624477 0.141682550 0.088425450
0.127767101 0.142947376 0.087539837
0.166476965 0.147248477 0.087539844
0.199494138 0.147374988 0.086527713
0.232890338 0.148893178 0.089563899
0.270335168 0.149905324 0.097659521
0.304237574 0.153194323 0.099683709
0.339911252 0.158507422 0.104491003
0.369892269 0.161543518 0.103352360
0.400253028 0.161923036 0.103478871
0.431625634 0.166983157 0.104491003
0.465528250 0.170525163 0.109297998
0.500190139 0.176091164 0.112586960
0.531182706 0.176091164 0.116887726
0.562175989 0.178494364 0.123592936
0.596837580 0.184566677 0.127135009
0.628842771 0.191144899 0.131941989
0.658191144 0.194181025 0.132953852
0.688931286 0.200126499 0.138899341
0.724224985 0.207337171 0.149905011
0.757368684 0.213156447 0.155218288
0.790259123 0.219481468 0.160910830
0.819607973 0.222517207 0.167488918
0.850727439 0.225553602 0.172042698
0.886780620 0.231246144 0.172548994
0.921948195 0.238583297 0.178874180
0.957495451 0.242884323 0.193168983
0.985578835 0.250854164 0.200000003
0.000000000 0.176344082 0.093738452
0.000379548 0.167235702 0.091461159
0.000000000 0.166729867 0.088045768
0.022390867 0.169765934 0.089943446
0.075901091 0.172042638 0.094117999
0.121442243 0.169007033 0.091081612
0.159393087 0.173181534 0.093485318
0.193801701 0.174699366 0.093738452
0.228336632 0.173560724 0.095256448
0.270841449 0.179633498 0.098292068
0.303225547 0.180265993 0.098797999
0.337254494 0.183554977 0.103731707
0.370271713 0.188108906 0.109424353
0.395319521 0.191144586 0.107147060
0.428715914 0.194180965 0.110309958
0.461732775 0.195572540 0.114990540
0.494750023 0.197849542 0.118785545
0.528146982 0.203036100 0.119544566
0.561543465 0.203036100 0.128652960
0.595319390 0.206198901 0.130171001
0.627197921 0.210752994 0.133965999
0.657811701 0.216192409 0.138646409
0.691208005 0.219228044 0.141682059
0.724604487 0.227830455 0.150284454
0.758001268 0.232005283 0.155218288
0.792030513 0.235420868 0.160657868
0.828336120 0.238456607 0.169765607
0.852624893 0.241493002 0.178873986
0.886401057 0.246805996 0.178494841
0.921442151 0.254269660 0.180392429
0.954838574 0.261480540 0.187855974
0.988234997 0.261480540 0.200000003
0.000000000 0.206704870 0.090702064
0.003036387 0.197596475 0.093738452
0.001265161 0.197090641 0.089310929
0.021505479 0.200126708 0.092599832
0.072865479 0.202403411 0.103225611
0.118405856 0.199367806 0.094117999
0.156356692 0.201391548 0.098671935
0.189500466 0.203288943 0.096015289
0.221126094 0.203541964 0.092979163
0.255661070 0.206957906 0.101328455
0.298165798 0.210120052 0.104364060
0.332574159 0.210625991 0.104869999
0.366476625 0.211637989 0.108665064
0.398355156 0.212396964 0.113219067
0.431752294 0.215433344 0.119291827
0.462744892 0.220872924 0.120050937
0.493611366 0.222896934 0.124098927
0.525110602 0.224541515 0.127893925
0.558507025 0.227324873 0.128652975
0.594686747 0.232890859 0.134978011
0.628715694 0.236559197 0.140037999
0.659582436 0.241112992 0.144086003
0.688172400 0.246552438 0.144718453
0.721568882 0.249588847 0.147754848
0.754965186 0.251359940 0.154079944
0.786970317 0.254648983 0.159645990
0.819860995 0.259709001 0.166730002
0.858696878 0.262745380 0.175838381
0.885641813 0.265781105 0.182289928
0.919797361 0.271093994 0.185072765
0.954838574 0.277672261 0.190385655
0.988234997 0.282732934 0.200000003
0.000000000 0.229475319 0.100315996
0.000506065 0.227957249 0.100822061
0.005692677 0.227450863 0.099557452
0.016445158 0.230487168 0.097659841
0.058696993 0.232384637 0.106640995
0.112839930 0.227198258 0.108285613
0.150790647 0.229222000 0.101707675
0.188867688 0.232258037 0.102846391
0.222643957 0.233143643 0.099304318
0.256040841 0.234408811 0.106641479
0.290575743 0.237444445 0.109930128
0.324983984 0.238456309 0.112966254
0.360151589 0.240733594 0.114610963
0.396078378 0.243516952 0.118785642
0.427198231 0.244276047 0.120303832
0.465401769 0.247311831 0.128779188
0.496141702 0.250221312 0.127640873
0.527134895 0.250853896 0.131309405
0.560531378 0.253890276 0.137001678
0.594180703 0.257179022 0.137507677
0.630613446 0.261353731 0.141682416
0.662618458 0.264389515 0.147121996
0.690196157 0.268943340 0.150158003
0.723592579 0.274383545 0.150790587
0.754712224 0.277419358 0.156103685
0.787855625 0.279064000 0.163567349
0.818848729 0.283491552 0.170777991
0.850221097 0.286527425 0.177862123
0.881593823 0.292093486 0.179253668
0.912460148 0.295129538 0.187096879
0.949904859 0.300442636 0.194307297
0.988234997 0.306515008 0.205060005
0.000000000 0.258950412 0.110815704
0.000000000 0.258950412 0.107526705
0.002656711 0.257811636 0.107020766
0.017583869 0.260847569 0.105249994
0.048323803 0.262745321 0.106767707
0.104743801 0.256672978 0.107779711
0.148007646 0.259835780 0.115243413
0.182795703 0.257937700 0.112460412
0.221505195 0.260974079 0.109424606
0.255787760 0.261859715 0.112839997
0.290828884 0.263124555 0.117646828
0.323845685 0.265781105 0.115749255
0.354205996 0.266919464 0.117647000
0.391651034 0.271979988 0.120430291
0.423403114 0.271979988 0.123213284
0.457685053 0.274383605 0.127134904
0.494117469 0.277419209 0.134724706
0.525237322 0.278178275 0.132700995
0.558634043 0.281214684 0.138772756
0.593675137 0.280961335 0.142820716
0.627324462 0.283997446 0.146362737
0.662745118 0.287033588 0.148387000
0.691587448 0.290322214 0.153193995
0.724983931 0.297912806 0.156230003
0.757748246 0.301708132 0.160784006
0.786717355 0.306135416 0.164072990
0.819607794 0.308918685 0.172422349
0.849209130 0.310815960 0.179632992
0.880834639 0.314863682 0.183680996
0.916255593 0.317520201 0.190638900
0.947880983 0.321441978 0.197090700
0.986590743 0.327513993 0.206198722
0.000000000 0.293106109 0.119924091
0.001517998 0.292347014 0.115370095
0.001391678 0.291714400 0.109803997
0.013030061 0.291967273 0.112839997
0.043010995 0.293485552 0.112460546
0.096900761 0.287033319 0.106768094
0.143706650 0.290322751 0.115370221
0.182036802 0.291334867 0.120809905
0.216192096 0.286780268 0.122327901
0.252624899 0.289816678 0.119291522
0.289057642 0.291461200 0.124225095
0.323466152 0.292726368 0.123719096
0.355724186 0.295003563 0.119164996
0.386337936 0.298039168 0.119418025
0.419734299 0.298545092 0.124984086
0.454648882 0.300189793 0.127893806
0.487286180 0.302466899 0.132447988
0.520682693 0.305502683 0.138519987
0.554079950 0.308539093 0.138773009
0.589500666 0.307526737 0.144339010
0.624794722 0.309044927 0.149652094
0.657432258 0.311322182 0.155218095
0.690955043 0.314231306 0.155218095
0.724983931 0.321442097 0.160025105
0.757621706 0.325996310 0.166097090
0.789753556 0.328906000 0.169386089
0.818090081 0.334472090 0.170398086
0.851486504 0.334725112 0.179253444
0.884882867 0.338140339 0.186464086
0.920303464 0.340164095 0.194560319
0.958507597 0.343453258 0.203922004
0.985832036 0.349525273 0.203922004
0.000000002 0.320430517 0.129032478
0.006071997 0.317394137 0.129032478
0.003288999 0.318785816 0.118026711
0.008981671 0.322834015 0.114863999
0.033902593 0.326881945 0.124604546
0.082479373 0.317773581 0.121568941
0.133839473 0.318912327 0.123466156
0.176850408 0.320430517 0.122074522
0.213156477 0.320177466 0.119291522
0.249588490 0.320177495 0.125363514
0.286021233 0.326123029 0.128146857
0.320429742 0.327894002 0.129285485
0.352687776 0.328020513 0.127893835
0.383301526 0.328399956 0.125490025
0.416697890 0.331435561 0.128526405
0.454901904 0.331941485 0.129285485
0.489563465 0.332068026 0.132447988
0.520682693 0.332827091 0.138519987
0.554079950 0.335863501 0.144592017
0.587476432 0.338899165 0.150411010
0.622897029 0.343580008 0.154585734
0.657179296 0.347501993 0.158760488
0.687919438 0.347628474 0.164326489
0.724351466 0.347628474 0.164326489
0.756103516 0.350284725 0.169133484
0.787982166 0.351929039 0.172422484
0.821125686 0.352688104 0.173434481
0.854522824 0.355724454 0.179506481
0.887919247 0.361290514 0.188361824
0.921315610 0.365464777 0.195572466
0.955850720 0.371030718 0.201012120
0.991903961 0.382922441 0.203922004
0.002909871 0.350663990 0.123593003
0.000253002 0.347628355 0.120683134
0.002024001 0.351043761 0.122833908
0.000000000 0.351043880 0.117267713
0.015812770 0.350158304 0.121568546
0.082099862 0.351169944 0.133712932
0.128146961 0.349651873 0.120556682
0.172422707 0.350663990 0.122960001
0.210120320 0.351423085 0.124225095
0.246552899 0.353573859 0.128146857
0.282985598 0.353573889 0.128399864
0.319417864 0.353573620 0.131435737
0.353699923 0.353826642 0.133459762
0.385831863 0.355597883 0.133965835
0.416571379 0.355977327 0.131688535
0.449968398 0.356609732 0.137128115
0.485389173 0.358127534 0.138140127
0.518405974 0.360151470 0.142061695
0.554079950 0.363187850 0.150411010
0.587476432 0.369006872 0.153700367
0.620872736 0.370271742 0.159645870
0.654269397 0.372295976 0.161669880
0.684756637 0.372422516 0.162175640
0.718405962 0.375205874 0.170524999
0.750284553 0.375205874 0.168247715
0.783428311 0.379000753 0.173813790
0.819860995 0.382542670 0.179380000
0.860468268 0.385578424 0.185451984
0.885894954 0.388614833 0.188867837
0.916761518 0.392663091 0.199240968
0.949019551 0.394813597 0.204933614
0.983428121 0.398861855 0.203922004
0.003922000 0.381024510 0.127640739
0.000885613 0.382036895 0.126628608
0.000000000 0.379380256 0.129917502
0.002529999 0.381657094 0.131688729
0.011258634 0.377482533 0.129411533
0.074509799 0.380518585 0.134724930
0.126122698 0.381024510 0.136748672
0.171663851 0.382669210 0.131435692
0.211132258 0.383048743 0.134851158
0.247564733 0.384819984 0.135357216
0.279949456 0.384946495 0.135483727
0.312334269 0.386970252 0.133460000
0.348766565 0.383934140 0.135357261
0.382796019 0.384946495 0.137001961
0.413155973 0.384946495 0.133965582
0.449968398 0.386970252 0.144212246
0.481846988 0.386970252 0.148766443
0.514737487 0.389500082 0.149904937
0.549778998 0.392536491 0.156229973
0.583428442 0.396331251 0.157748103
0.614927471 0.398608238 0.160784483
0.648197353 0.399620354 0.165717870
0.679696500 0.400758982 0.164831996
0.713092923 0.403794885 0.168247640
0.748260558 0.408602506 0.176343963
0.781404316 0.407210827 0.177482232
0.817331076 0.410373241 0.185451984
0.855281591 0.411891073 0.191523999
0.885895252 0.418975323 0.194939822
0.917267144 0.418469280 0.199746966
0.948133886 0.422770590 0.210499600
0.980391979 0.426186234 0.212017983
0.002783356 0.412523627 0.135609999
0.002024257 0.413283020 0.135609999
0.000000000 0.414294839 0.137633994
0.001391646 0.413535774 0.138898998
0.013915188 0.410878927 0.139658004
0.071600161 0.413156211 0.138899297
0.121694997 0.411385268 0.140923321
0.167488828 0.411891341 0.142820716
0.210752904 0.415686637 0.146615997
0.247185022 0.416445643 0.144718155
0.281214356 0.415306985 0.143453285
0.311574876 0.416192353 0.142567903
0.343074292 0.416951269 0.139532000
0.379254043 0.414421588 0.140037999
0.410499603 0.415306985 0.139658228
0.446932405 0.416571826 0.145350799
0.482985616 0.418089628 0.155597553
0.513345778 0.418722212 0.157368943
0.546236932 0.421758622 0.159392700
0.580771744 0.424794286 0.164199650
0.612270832 0.425932646 0.163820088
0.643643498 0.426944762 0.167868614
0.677039862 0.429981142 0.171030760
0.710436523 0.433017015 0.172042638
0.744971573 0.437191576 0.177735284
0.781404316 0.440227956 0.185451984
0.817331076 0.438203722 0.191018060
0.850727439 0.438836277 0.196457639
0.882605970 0.444528818 0.201011837
0.915369868 0.448830068 0.205818981
0.948260188 0.449335873 0.209234625
0.978115022 0.458444268 0.217330992
0.000000000 0.445920080 0.142188057
0.002783355 0.442884415 0.141935036
0.002024258 0.444402277 0.142441034
0.001012129 0.446679175 0.139405042
0.010879574 0.449589074 0.134851038
0.068563960 0.449589074 0.140923038
0.118911639 0.444276035 0.143959358
0.164199397 0.442505032 0.145857036
0.205692187 0.443011016 0.146615997
0.242124990 0.449083030 0.152687997
0.280708581 0.446679205 0.150790840
0.314610988 0.445920080 0.149778962
0.345856905 0.445034683 0.148640394
0.379507005 0.441999018 0.145857036
0.412903339 0.445034623 0.151929036
0.448450595 0.445920080 0.153700039
0.483112156 0.445920080 0.156230032
0.515876114 0.446299642 0.160404548
0.546236992 0.449336052 0.157368943
0.581910014 0.452371716 0.167741969
0.614800513 0.453763098 0.171157315
0.646173179 0.454775155 0.170904219
0.679569483 0.457558542 0.176597476
0.712966681 0.460341930 0.179380134
0.746363282 0.463377744 0.184946001
0.781404316 0.465275079 0.190765023
0.817584097 0.465781093 0.196584061
0.850980461 0.468817443 0.199620456
0.884123743 0.471600205 0.204806998
0.917267144 0.475142241 0.211132020
0.948766172 0.479443640 0.214800611
0.973055005 0.488552034 0.211765006
0.000000000 0.479317218 0.154332832
0.000000000 0.476280838 0.151296437
0.002783358 0.479696363 0.155344412
0.002024255 0.480075777 0.152561411
0.007843222 0.477039933 0.143959418
0.065528348 0.479949802 0.150031418
0.118152738 0.472359508 0.148513734
0.164199397 0.475395411 0.151676416
0.206704184 0.480455399 0.154206321
0.248196974 0.476407409 0.152687997
0.278810740 0.476660401 0.158760011
0.315117091 0.478052080 0.158886582
0.348007709 0.479317218 0.157748222
0.379507005 0.478431761 0.154965416
0.415938944 0.475395381 0.154965416
0.449335963 0.478431612 0.161037415
0.481846988 0.479317218 0.162808418
0.512839735 0.479317218 0.163440853
0.543200612 0.479696780 0.160404563
0.576344013 0.482732445 0.165717587
0.610373199 0.485768557 0.173055053
0.643137515 0.488172114 0.176217690
0.676533878 0.490954906 0.179633096
0.709930360 0.487919301 0.176597476
0.743326843 0.490702122 0.183934122
0.779506564 0.493738085 0.189626679
0.817837119 0.496141732 0.193801418
0.854016840 0.499177426 0.199620456
0.884756327 0.499556988 0.200000003
0.915749371 0.505502582 0.206578210
0.947627962 0.511575043 0.212397426
0.979126990 0.515876412 0.211765006
0.000000000 0.512713730 0.159266204
0.000000000 0.507274210 0.161037415
0.002150774 0.502086997 0.158001035
0.002656839 0.509677291 0.160784006
0.007210638 0.510816038 0.155470997
0.064895801 0.509803891 0.161542997
0.112713322 0.512334228 0.157621518
0.161037117 0.503225863 0.154585913
0.202782989 0.508538783 0.159898996
0.241998807 0.509044766 0.165085301
0.280075729 0.508791745 0.165970802
0.310436517 0.506768048 0.163946807
0.346110284 0.506768167 0.163187817
0.379254043 0.505756021 0.161669999
0.413535774 0.507021189 0.161669999
0.449968398 0.506388605 0.168880790
0.481846988 0.509424567 0.170398608
0.512207150 0.510309935 0.168880433
0.542568028 0.510309935 0.165844053
0.575711429 0.510689437 0.173560813
0.609108210 0.515622795 0.175837800
0.642505109 0.519165099 0.179886326
0.675774992 0.521948099 0.182922289
0.706894040 0.518911898 0.184440091
0.740290999 0.520430267 0.188235193
0.773687422 0.523465931 0.194433674
0.810120285 0.526502013 0.197975993
0.844655275 0.529538155 0.204047993
0.882985711 0.532321393 0.204806998
0.911574900 0.534092188 0.208348975
0.943074226 0.538393438 0.214168191
0.977988780 0.538393795 0.214168191
0.001518192 0.541555941 0.166856378
0.004554189 0.538519979 0.169892386
0.000632582 0.533966064 0.167109415
0.002403808 0.534218431 0.165338188
0.007210638 0.544212520 0.165338188
0.064895801 0.541176438 0.169133186
0.120050505 0.540164292 0.168121189
0.158001110 0.541176498 0.168247715
0.202783182 0.535863221 0.165212095
0.240733981 0.541935146 0.173561186
0.274003863 0.537634373 0.171030805
0.313472509 0.540164471 0.171536997
0.342694640 0.537128568 0.166603357
0.378241867 0.534598231 0.166476846
0.414168179 0.537634611 0.167741999
0.446932405 0.538267195 0.168880418
0.480329156 0.538267195 0.176470995
0.510689139 0.540670395 0.174699605
0.541049838 0.540670395 0.173434228
0.572675407 0.540670395 0.175458550
0.606071830 0.542947173 0.180391997
0.641492963 0.548007309 0.183428124
0.675901473 0.551043689 0.187602982
0.707653165 0.550790608 0.192030296
0.741808832 0.549272418 0.194307193
0.773814321 0.550917149 0.198987871
0.807590187 0.554332435 0.202024132
0.841998398 0.558380604 0.207084000
0.879190207 0.561416984 0.209361196
0.913093150 0.562935174 0.208348989
0.941303194 0.566856384 0.218848586
0.976471007 0.565718174 0.223276183
0.003922000 0.568374097 0.176470995
0.008096433 0.567109108 0.180139199
0.005945802 0.565591276 0.176091000
0.000000001 0.566982985 0.173181579
0.007210639 0.574952126 0.172802031
0.064895801 0.572169483 0.172548994
0.121948086 0.569133401 0.172548994
0.170018822 0.567109108 0.174573004
0.203415602 0.567362130 0.179633096
0.245920405 0.573434114 0.176597476
0.275142461 0.567488968 0.173181400
0.310689509 0.566603541 0.172548831
0.349399209 0.571157515 0.174572915
0.376976579 0.568627119 0.171536595
0.415306389 0.571663558 0.173813984
0.447564602 0.571031153 0.172042757
0.477925390 0.571031153 0.172928363
0.508285940 0.571031153 0.177735999
0.538646102 0.571031153 0.180771619
0.569639325 0.571663558 0.178874344
0.602529883 0.572295964 0.179633245
0.636685371 0.575331688 0.183428124
0.675901473 0.578368068 0.192157000
0.709297895 0.581404448 0.197217017
0.744338989 0.581151247 0.200000003
0.778621316 0.580139101 0.201391682
0.809993982 0.580139101 0.204934001
0.846425951 0.585958123 0.208096117
0.880961180 0.589373767 0.211132258
0.915749371 0.591271520 0.212523773
0.944845021 0.591777503 0.212144032
0.975205839 0.597849548 0.233396441
0.003921997 0.604806960 0.176470995
0.000885615 0.598734975 0.182543010
0.002909806 0.597470045 0.177609205
0.002403806 0.599747002 0.173814178
0.007210642 0.605313003 0.175838426
0.064895801 0.605313003 0.172802046
0.112460323 0.602530360 0.172549009
0.160910442 0.599494219 0.172549009
0.206451237 0.597470045 0.173814103
0.248956025 0.597723007 0.176597491
0.282732636 0.600885868 0.182290003
0.315623194 0.598861754 0.183301941
0.350917280 0.600000024 0.184693322
0.386084974 0.605059981 0.186717004
0.416444927 0.608096421 0.183681384
0.447564602 0.603922009 0.181151167
0.477925390 0.601392031 0.181151167
0.508285940 0.601392031 0.183808014
0.538646102 0.601392031 0.183808014
0.571790099 0.604174674 0.184060976
0.606831431 0.603162766 0.185705274
0.641999066 0.602656841 0.188741148
0.675901473 0.605692565 0.192157000
0.709297895 0.608728945 0.192157015
0.742694259 0.611764789 0.197217003
0.776344001 0.614294648 0.201391682
0.809993982 0.616571963 0.204934016
0.846425951 0.616571963 0.211006001
0.874889433 0.619734168 0.214168116
0.910057068 0.622770309 0.218975008
0.944338977 0.624668002 0.222516999
0.969133019 0.625174046 0.224288046
0.001138643 0.632890344 0.179253638
0.003668969 0.632384360 0.188109010
0.000632583 0.630613387 0.189880013
0.002403804 0.633143365 0.185199201
0.010373447 0.637697399 0.185578659
0.070461810 0.632890344 0.189753070
0.120556645 0.632890344 0.186717331
0.169639453 0.630107760 0.184819654
0.214800715 0.628589630 0.183681011
0.249208987 0.630613387 0.184693143
0.282985598 0.636305869 0.182290003
0.312334239 0.635294318 0.184313998
0.346489608 0.634535074 0.186590999
0.383807689 0.638203442 0.190512359
0.411637962 0.636179805 0.184946418
0.449209392 0.641619384 0.189120993
0.479190558 0.637065411 0.188741356
0.510183513 0.635167837 0.189880013
0.546995461 0.637318015 0.189880013
0.577356100 0.634535432 0.195446014
0.608855426 0.637570977 0.193548277
0.642505109 0.638330162 0.193801016
0.675901473 0.641113162 0.195192665
0.709297895 0.638835907 0.200506359
0.742694259 0.641872287 0.200506359
0.776090980 0.644908428 0.205566347
0.809488058 0.647944689 0.209993958
0.843643308 0.650221407 0.213788643
0.874762952 0.650221407 0.217204481
0.905756116 0.653130949 0.220240116
0.942315221 0.656167090 0.227956593
0.974193692 0.658064425 0.237444371
0.000000000 0.660214722 0.186084732
0.003036387 0.664010167 0.193295389
0.001771226 0.658317447 0.195951998
0.001265161 0.662112594 0.197217166
0.012271089 0.668437660 0.195825472
0.076027855 0.666919470 0.198861480
0.126628637 0.664010167 0.197343320
0.168627396 0.664010167 0.195951998
0.216698453 0.661986470 0.193168640
0.251612753 0.663883686 0.192029998
0.282985598 0.666034222 0.189120874
0.318026483 0.669829011 0.190006256
0.346489519 0.667931736 0.191144899
0.383428037 0.669702470 0.195951998
0.415686160 0.666666865 0.193168998
0.446932405 0.667046487 0.191018254
0.483365178 0.671600223 0.195572451
0.511448562 0.667299330 0.195951998
0.545857012 0.667805254 0.195951998
0.584566772 0.667172790 0.197723001
0.614927471 0.664136708 0.201897740
0.645287991 0.667172611 0.199873477
0.677545726 0.670208931 0.199873477
0.707400143 0.670714498 0.202403814
0.744592011 0.670334995 0.209614247
