Assets/EldamarStudio/100 Retro LUTs Pack/LUTs/cube/Kathy LUT.cube
LUT_3D_SIZE 8
DOMAIN_MIN 0.000000 0.000000 0.000000
DOMAIN_MAX 0.903226 0.903226 0.903226
0.133332998 0.117647000 0.082353003
0.156736091 0.118405998 0.090954997
0.273498118 0.116887905 0.104364000
0.403035909 0.116002284 0.107020639
0.553953171 0.146362990 0.122201189
0.687665761 0.203668475 0.162681744
0.807083964 0.260720998 0.227071270
0.918026805 0.336242795 0.311448634
0.161163554 0.155977100 0.094117999
0.192030102 0.155597553 0.086274996
0.286400765 0.175585091 0.098418549
0.408981264 0.179000542 0.101834096
0.542947352 0.213535547 0.137128085
0.677798986 0.253510535 0.182416186
0.800505817 0.299936801 0.241872072
0.910815775 0.363820225 0.321315825
0.214800999 0.244529098 0.119924091
0.236306548 0.235420629 0.108538643
0.297786206 0.246047080 0.115243196
0.412523627 0.275015980 0.134345531
0.544591963 0.311069012 0.167488992
0.673877478 0.339279026 0.217204332
0.797722995 0.380012661 0.277925372
0.915622652 0.432763904 0.362807989
0.285894990 0.355976909 0.175458282
0.304744005 0.359898627 0.178621098
0.352181733 0.365338653 0.173434541
0.434408635 0.372802258 0.165970996
0.551549435 0.406578243 0.214927450
0.671473563 0.439595371 0.272106618
0.794180930 0.467552274 0.331941575
0.900821984 0.516508400 0.405439645
0.376217186 0.495129555 0.255914181
0.392030746 0.500316620 0.269450009
0.435673386 0.499051183 0.268691093
0.485388726 0.506514728 0.255914181
0.575079381 0.511701167 0.258317381
0.683238268 0.535863221 0.320936173
0.793801546 0.565717995 0.390765399
0.895888448 0.606957853 0.465781122
0.493484974 0.627071500 0.382036716
0.498292059 0.633522868 0.390133172
0.531562090 0.633522809 0.394307643
0.572043061 0.629981101 0.389500201
0.637697697 0.633143246 0.384819895
0.718911707 0.636559188 0.385452211
0.816192329 0.658697009 0.449841738
0.911321998 0.697659791 0.524098754
0.608728290 0.742062271 0.506768286
0.624794722 0.746362805 0.518785715
0.638330281 0.745857179 0.515243292
0.672106266 0.751043618 0.520809293
0.713725269 0.747375190 0.513725460
0.774446547 0.755724013 0.511322260
0.841366231 0.758380830 0.525996506
0.925490260 0.780771434 0.576344252
0.749525607 0.865780950 0.650221407
0.754079819 0.870715022 0.637064755
0.765970826 0.873497605 0.643516779
0.790638447 0.875015616 0.651233256
0.821378946 0.877545655 0.654395819
0.860341430 0.879949689 0.660974026
0.905502796 0.885768473 0.656166613
0.963820577 0.889310598 0.667172670
0.138014004 0.118785545 0.103478998
0.175205544 0.118026547 0.107779540
0.261353552 0.134471536 0.124984451
0.362682104 0.159519449 0.148007199
0.498165369 0.190765545 0.172675535
0.647944272 0.236559093 0.217710078
0.777356267 0.293232024 0.273244768
0.898671329 0.358633637 0.352941066
0.162681550 0.147375003 0.112839989
0.194433987 0.155597553 0.120303541
0.258190721 0.175205544 0.132448003
0.370271713 0.193168551 0.150031552
0.502593458 0.233143538 0.184946179
0.637697458 0.272612095 0.230234087
0.774193525 0.321821570 0.281847000
0.891461074 0.382289648 0.356862605
0.219481096 0.226059541 0.152055889
0.246173099 0.229601189 0.147754550
0.283618182 0.235041186 0.138266638
0.382668912 0.267931998 0.177862078
0.512839794 0.311448514 0.212270886
0.648450613 0.345097840 0.253257751
0.775205553 0.390891999 0.317393899
0.895129681 0.444402218 0.392536193
0.293358654 0.342188358 0.202403635
0.309424192 0.341808826 0.202783078
0.347374707 0.347374797 0.196458176
0.421505272 0.363441080 0.197343186
0.537887514 0.399873644 0.246299833
0.660088718 0.433649749 0.303099394
0.774572909 0.476281077 0.356609792
0.888171792 0.522833824 0.427451134
0.380012274 0.478304833 0.287033737
0.396078646 0.488424808 0.290575385
0.431245923 0.487286180 0.290575385
0.486527383 0.497153848 0.286274552
0.569133818 0.497912824 0.282732189
0.676533937 0.531562090 0.339911252
0.782416105 0.565591455 0.412650168
0.890196145 0.610246897 0.485894978
0.491967171 0.621379197 0.406451255
0.501075327 0.620493293 0.405059993
0.529538274 0.626438737 0.405945748
0.570272386 0.622390926 0.402403474
0.634282112 0.628715813 0.403289199
0.711068749 0.628715694 0.405945718
0.803921342 0.661353230 0.456040740
0.904237568 0.699683666 0.535610497
0.615053535 0.740037978 0.521441996
0.627071559 0.740417540 0.525996149
0.640480638 0.740796983 0.526249051
0.669702649 0.744212508 0.526881635
0.714611173 0.746362805 0.525490284
0.771410644 0.753320694 0.527008295
0.840733826 0.754585385 0.537508011
0.923845649 0.778241396 0.581910253
0.752308488 0.862239063 0.646552861
0.759266019 0.869702637 0.651739359
0.767109275 0.867678761 0.650094926
0.789373636 0.869576395 0.653510451
0.822011232 0.870967805 0.660594761
0.859202802 0.875774801 0.660594523
0.913219690 0.880202472 0.662365317
0.965085447 0.887666225 0.664389312
0.149778903 0.130929992 0.165971190
0.192030087 0.126249090 0.171537101
0.260974199 0.138772994 0.173181191
0.360910624 0.162934989 0.197090447
0.478684306 0.207589984 0.238077193
0.612270832 0.267172903 0.289816380
0.746742547 0.333712995 0.347881198
0.870714724 0.403288960 0.418089628
0.193295449 0.164579093 0.156736106
0.208475992 0.172042638 0.154332995
0.257052183 0.180265993 0.167235658
0.349399298 0.209234998 0.203668192
0.472738802 0.249588639 0.250347763
0.609108150 0.299304307 0.298924625
0.746362984 0.357115597 0.353953272
0.872738540 0.420999259 0.425427079
0.239848197 0.232764095 0.191018194
0.267299116 0.242884189 0.202529639
0.295382977 0.254649192 0.206072196
0.372169346 0.275775075 0.229475081
0.485009283 0.315749288 0.270967990
0.616318882 0.361543357 0.324604839
0.745224357 0.411258578 0.377356082
0.868690729 0.469575912 0.445034921
0.309551090 0.337508261 0.246932641
0.323592275 0.343074292 0.252498627
0.353699833 0.348133802 0.260847390
0.415559739 0.359519184 0.258696735
0.519418240 0.393928170 0.303732097
0.638583362 0.439721704 0.353573740
0.752182245 0.485262662 0.410752714
0.869323075 0.538140178 0.475774705
0.402024090 0.475522190 0.334345400
0.405819178 0.474763095 0.338393182
0.440354288 0.481088072 0.341555983
0.483365059 0.482985646 0.331688732
0.559392393 0.495256066 0.340038002
0.661227345 0.531182528 0.385199368
0.770272017 0.570524991 0.456673265
0.880076170 0.621252179 0.519291341
0.507653356 0.614294589 0.436685830
0.515749633 0.614674151 0.442757845
0.538646638 0.615306675 0.443769753
0.576217711 0.618343115 0.444402099
0.630740166 0.622896969 0.435799927
0.708286107 0.627071738 0.444908381
0.795698941 0.655787349 0.497406662
0.896900773 0.702340364 0.563946605
0.618975461 0.733333409 0.540544093
0.625426829 0.733712971 0.540923715
0.645414352 0.734977722 0.549019456
0.674383521 0.739658475 0.552561641
0.712840259 0.741935313 0.552814543
0.768627226 0.746616304 0.547880828
0.837065279 0.758380830 0.562302291
0.916382074 0.779885828 0.606451452
0.756609499 0.861100554 0.671600401
0.756356478 0.866034091 0.662239015
0.769259632 0.863377571 0.669829130
0.792536438 0.868437767 0.671220660
0.821378887 0.866919577 0.670461714
0.855407715 0.874889433 0.674762785
0.905376256 0.880202472 0.678178310
0.956736028 0.887412906 0.688804686
0.169259995 0.122707352 0.297659993
0.222643897 0.125363901 0.287918627
0.289563566 0.150917456 0.266287267
0.357621640 0.172042638 0.262365282
0.483365178 0.224920988 0.307780057
0.614294589 0.272232741 0.356862605
0.730297267 0.348766655 0.413156211
0.845035017 0.441998571 0.484376997
0.212017536 0.186464101 0.253763378
0.241366088 0.189247549 0.239088908
0.286780179 0.198229089 0.249462634
0.354458839 0.216318995 0.264389724
0.473497719 0.258190930 0.309803814
0.598987877 0.310562819 0.360278189
0.725490212 0.378368258 0.425300360
0.837823987 0.461732924 0.492726266
0.257052183 0.258190751 0.258317381
0.280581981 0.266034573 0.265907735
0.322074383 0.275395572 0.277292997
0.383554637 0.299304098 0.291334361
0.486147732 0.329791099 0.337128609
0.597469747 0.382289469 0.384566575
0.719544649 0.442631096 0.445540547
0.842378139 0.505755842 0.509930432
0.314484626 0.353699923 0.310562640
0.349019647 0.363061547 0.327007920
0.395319551 0.389753550 0.344971746
0.434408635 0.386843592 0.350410908
0.512334228 0.414800823 0.379759461
0.623276770 0.453510374 0.422643751
0.737001896 0.505629361 0.479822636
0.851359785 0.559772313 0.528526366
0.415559739 0.482732385 0.399114609
0.430486917 0.482606083 0.402276903
0.462365389 0.485388815 0.405060291
0.495635808 0.489310563 0.405819267
0.564073145 0.502593637 0.415053368
0.649209619 0.537887454 0.455155075
0.755724013 0.581783891 0.513598919
0.863757014 0.633017182 0.565211713
0.522707045 0.611132443 0.488804460
0.535104334 0.607337177 0.491967171
0.554332733 0.613156199 0.492346764
0.586084485 0.615812600 0.489690006
0.631625295 0.616951227 0.490701944
0.698671579 0.629854321 0.498165429
0.788614988 0.663251042 0.548387110
0.888551533 0.707400560 0.605819106
0.629474878 0.729285538 0.581277549
0.645161211 0.730297267 0.578494608
0.655408025 0.730550230 0.577735543
0.682226539 0.733712912 0.587982237
0.719924271 0.740923643 0.585072398
0.766982734 0.745477676 0.586717248
0.833523273 0.753320634 0.591903925
0.914990783 0.786590815 0.644402027
0.752055645 0.862238765 0.685009420
0.759392738 0.860720992 0.683870971
0.777103126 0.863504291 0.691461027
0.796078622 0.865780950 0.691714168
0.824035466 0.865275145 0.697027087
0.861479759 0.869955957 0.697406709
0.903478682 0.882605970 0.700063229
0.960657418 0.887033582 0.712333977
0.213914990 0.153573811 0.420620173
0.254395723 0.160278440 0.407337368
0.325996101 0.179380089 0.403289258
0.403415382 0.201770842 0.388108820
0.480961382 0.227198184 0.387729377
0.609614253 0.290954709 0.435293943
0.731815457 0.361796379 0.475522190
0.851486564 0.454143137 0.536495805
0.250727385 0.223402888 0.379000366
0.282479525 0.220113993 0.379633367
0.331815511 0.229095533 0.376217812
0.395951837 0.244402170 0.372043073
0.470714569 0.270335078 0.379886359
0.604807377 0.322327644 0.433270067
0.725869715 0.392283291 0.481720388
0.842251658 0.475015789 0.537254632
0.293105900 0.293738276 0.362555265
0.314231277 0.298545212 0.367615551
0.357369095 0.305503070 0.368880302
0.411005735 0.317646921 0.375205398
0.488171995 0.343200266 0.401897371
0.604553819 0.392030448 0.449209511
0.716129065 0.454269469 0.502087355
0.833902657 0.529158831 0.558127999
0.350663841 0.377861828 0.395066828
0.369007111 0.385452271 0.399873644
0.411637813 0.404174358 0.417457283
0.471220821 0.424161822 0.430486828
0.527640581 0.441745460 0.447311968
0.621631742 0.477799088 0.486401170
0.725995839 0.530676723 0.536116064
0.835420489 0.581657052 0.584819913
0.441113204 0.489689976 0.445667386
0.464262933 0.495129555 0.464136750
0.495129347 0.513219178 0.484250188
0.541049719 0.530423522 0.494749993
0.583807349 0.532827377 0.499051183
0.652624965 0.561037421 0.519418180
0.748260319 0.593801379 0.560278416
0.855281770 0.647437990 0.618216217
0.555217922 0.615559936 0.539911509
0.566477180 0.614421308 0.546869338
0.579506814 0.618595958 0.542947352
0.606451511 0.624920845 0.548766792
0.637065351 0.629980922 0.546489537
0.698165476 0.638203859 0.554712355
0.784819782 0.671853244 0.598987877
0.881847084 0.715749502 0.646299660
0.646173477 0.730297267 0.618216217
0.661353469 0.728652537 0.617583811
0.674636364 0.734977722 0.618975282
0.691081583 0.733712912 0.625173986
0.723972082 0.740290582 0.622770369
0.768627226 0.743073821 0.625933230
0.830613554 0.760657728 0.636179507
0.912460506 0.790512383 0.680708230
0.763820648 0.855281413 0.717520595
0.765211821 0.862238765 0.715622962
0.777735591 0.860467911 0.714484215
0.798734725 0.864136338 0.719418049
0.828842342 0.865780950 0.728146970
0.860214949 0.874383509 0.725490034
0.902593255 0.882605970 0.736242712
0.959392726 0.887665927 0.748134136
0.260467738 0.199746996 0.540670455
0.301581264 0.206451729 0.543579996
0.367489070 0.220872983 0.536116242
0.446552873 0.243137524 0.526628733
0.532700658 0.269702941 0.516634822
0.614927471 0.299557239 0.507273734
0.741935253 0.374067008 0.549652040
0.850727499 0.461606771 0.590638638
0.297280341 0.259962082 0.513852000
0.323592454 0.259329289 0.518152714
0.375205338 0.269450009 0.519291341
0.450853825 0.289057374 0.508665681
0.523972273 0.304996729 0.505882442
0.613662004 0.332447737 0.511575162
0.730044305 0.401644349 0.546615958
0.847564876 0.484376997 0.599493861
0.343959451 0.343200177 0.503225744
0.358886898 0.346489668 0.499936730
0.406957835 0.350917190 0.499304205
0.464516282 0.360657722 0.502466857
0.527893603 0.376343906 0.503984809
0.613156199 0.401012063 0.511701643
0.722706795 0.462112367 0.560784280
0.841492534 0.535736740 0.616445541
0.388994366 0.428336471 0.503478467
0.408475816 0.428842723 0.507147610
0.449968606 0.439721733 0.510816097
0.497027010 0.449209630 0.507147610
0.555471241 0.462112367 0.516508698
0.633017302 0.488045365 0.539658368
0.725110650 0.538519979 0.578874409
0.840227902 0.596584618 0.632004797
0.469955653 0.523339570 0.533333242
0.480455637 0.522833943 0.530676961
0.513598800 0.533459425 0.537760973
0.566223860 0.552814841 0.557874501
0.618089437 0.567995012 0.573561013
0.669955671 0.586084723 0.583681166
0.754585445 0.617457390 0.615812600
0.848070741 0.668690741 0.664389849
0.560151458 0.622896969 0.579759479
0.572295904 0.622897029 0.584440112
0.600632787 0.632004857 0.594180763
0.640986502 0.644528747 0.612650335
0.680581927 0.654269457 0.618722558
0.717014432 0.662112534 0.626818478
0.788614750 0.692219734 0.653004766
0.877292812 0.726375520 0.688551426
0.677166104 0.730550289 0.661226988
0.682479262 0.732574522 0.653510094
0.696394563 0.736875057 0.664136529
0.715243340 0.740038037 0.670967877
0.739658237 0.745857179 0.674130321
0.778115034 0.751422942 0.677419722
0.829601288 0.764452577 0.682099819
0.908538997 0.802277148 0.734851301
0.781910002 0.856546640 0.754332840
0.788488328 0.859835684 0.756356657
0.795319438 0.862618506 0.757874906
0.808854878 0.863250911 0.759013534
0.831372321 0.870082200 0.761922657
0.860974073 0.874256730 0.762302458
0.900569081 0.879822910 0.770651519
0.955850661 0.889563799 0.785578549
0.325743258 0.264642566 0.674383581
0.356356561 0.267046273 0.667552292
0.419987202 0.280329168 0.669196308
0.502213955 0.306135267 0.664263308
0.591271460 0.337381363 0.652498305
0.676027536 0.364959300 0.648450732
0.760657549 0.396964282 0.638456523
0.859202802 0.474509925 0.660973847
0.353067547 0.317900091 0.656673253
0.376850098 0.319923818 0.650853574
0.431119621 0.328905374 0.659329712
0.508032620 0.346869081 0.651359856
0.595319450 0.373561084 0.648197114
0.676786780 0.397343755 0.641999006
0.756609499 0.423529565 0.633143663
0.851486564 0.496647626 0.663251042
0.409740567 0.404301375 0.647185385
0.426818371 0.408855289 0.641745567
0.464389384 0.411891192 0.638330460
0.528020263 0.425174356 0.639721930
0.602530003 0.440101057 0.632131398
0.674130321 0.456040710 0.633270025
0.751170218 0.478431433 0.635167539
0.850980520 0.544971406 0.666666627
0.464263290 0.495003253 0.632384598
0.475015908 0.495382786 0.627703846
0.512713671 0.501201570 0.632890522
0.561163604 0.506767929 0.632384956
0.617204487 0.517267764 0.631751895
0.676786661 0.531056166 0.634155631
0.751675904 0.552182257 0.646805882
0.845667303 0.605566204 0.680328906
0.518405974 0.567868352 0.636685729
0.531056464 0.576976776 0.643896163
0.562555254 0.583554506 0.637444615
0.601391554 0.586843550 0.644022465
0.649462461 0.596078277 0.645540655
0.701454878 0.604427755 0.645161092
0.768500566 0.628463149 0.669070482
0.859329343 0.672232866 0.704996526
0.593927979 0.655787468 0.659582257
0.594307423 0.661227226 0.659709275
0.621252358 0.662745357 0.663630605
0.654522717 0.667931676 0.667046249
0.702087283 0.682732463 0.677799165
0.745603979 0.690702021 0.683364987
0.803668678 0.714484453 0.705882251
0.883238375 0.750284433 0.745857179
0.679949284 0.742694259 0.701201558
0.683744252 0.742694259 0.697406530
0.702087164 0.744338989 0.704237700
0.730929554 0.751043618 0.710689247
0.766223609 0.761669874 0.725490034
0.807969332 0.777229309 0.739658594
0.846932530 0.792030573 0.752182007
0.914610982 0.819354951 0.779885828
0.789753318 0.860215187 0.780138731
0.794813216 0.857305408 0.791397929
0.799746871 0.864136338 0.791144788
0.824667990 0.865274966 0.799746871
0.849588871 0.873245060 0.810879111
0.869955957 0.877545655 0.816951275
0.902845979 0.886021674 0.817330778
0.946869016 0.900063217 0.835040927
0.422643602 0.355976939 0.805692732
0.438456655 0.360530913 0.796584606
0.489057720 0.374952555 0.800505579
0.565085292 0.393548638 0.788867831
0.655534327 0.427197784 0.787223399
0.749146223 0.456293643 0.786211014
0.830487251 0.488172084 0.775711417
0.909044743 0.516761601 0.769259751
0.442757487 0.403542161 0.788108647
0.464009881 0.400126636 0.791777372
0.507147491 0.416824579 0.790765047
0.580012798 0.432764232 0.784819603
0.661100626 0.457938135 0.782669187
0.745350897 0.485009491 0.778621078
0.824794233 0.507400334 0.769133449
0.903099477 0.537128568 0.765464902
0.494244069 0.483871043 0.775205672
0.512966454 0.488298595 0.783934355
0.551423132 0.493232042 0.787855506
0.608475685 0.506261885 0.779000580
0.677925050 0.520936072 0.777102947
0.753193974 0.539911151 0.772295713
0.826059043 0.558380425 0.767741621
0.893864512 0.576090991 0.766603589
0.549778402 0.570777833 0.765085399
0.566350460 0.570145249 0.772548974
0.591650784 0.574573040 0.768753946
0.635926604 0.583428442 0.769133568
0.697280467 0.591777086 0.765717983
0.757368684 0.603795290 0.768374503
0.825300217 0.614547849 0.768500805
0.893358707 0.632131398 0.770018637
0.594560266 0.643643141 0.768754184
0.610246658 0.645160973 0.772169352
0.633270085 0.648829997 0.771916270
0.668564081 0.650853634 0.768880248
0.716381967 0.657305658 0.766476750
0.771157265 0.668184519 0.768121421
0.829221964 0.676027656 0.770777643
0.889563560 0.694370806 0.783934355
0.656672895 0.721441925 0.774319768
0.664009988 0.722706795 0.780518770
0.678684294 0.725743234 0.777735472
0.708665490 0.725110590 0.775964677
0.749778450 0.729285419 0.783048630
0.791903794 0.736369550 0.784692764
0.848450482 0.744212568 0.787855506
0.911195397 0.759898543 0.805312932
0.719797492 0.798228621 0.793801308
0.732068360 0.796710789 0.795066357
0.739152133 0.797469735 0.799367309
0.761416733 0.803288817 0.802403152
0.790385842 0.802656591 0.801011801
0.832510829 0.815939069 0.811005890
0.869576156 0.819987059 0.820240259
0.925110877 0.843137503 0.842757583
0.798987806 0.873624623 0.829095602
0.799494088 0.877925217 0.838077188
0.813535631 0.874383509 0.835167527
0.830486953 0.877672434 0.839848459
0.849209547 0.880075991 0.848703206
0.882605791 0.890575826 0.858696997
0.916888237 0.904996574 0.874636173
0.957115650 0.916761637 0.893358707
