Assets/EldamarStudio/100 Retro LUTs Pack/LUTs/cube/Kathy LUT.cube
DOMAIN_MIN 0 0 0
DOMAIN_MAX 1 1 1
LUT_3D_SIZE 32
0.133332998 0.117647000 0.082353003
0.139404997 0.114610612 0.082353003
0.136875004 0.115875773 0.082353003
0.139658153 0.117647000 0.084883004
0.156736091 0.118405998 0.090954997
0.187096864 0.124477997 0.097027004
0.217457637 0.122960322 0.103098996
0.246173695 0.119924292 0.105881996
0.273498118 0.116887905 0.104364000
0.300822526 0.113851517 0.098292008
0.339784861 0.113724999 0.106767870
0.371157259 0.113724999 0.107779741
0.403035909 0.116002284 0.107020639
0.441999018 0.121821970 0.109550968
0.475395381 0.124857575 0.106514581
0.516002595 0.132700801 0.113092795
0.553953171 0.146362990 0.122201189
0.587982118 0.163946569 0.131309405
0.624414980 0.179126978 0.140417039
0.658064425 0.191524014 0.155091375
0.687665761 0.203668475 0.162681744
0.714990139 0.215812996 0.170778006
0.742567539 0.228083491 0.189120486
0.775964677 0.243263900 0.210372895
0.807083964 0.260720998 0.227071270
0.836053014 0.278937340 0.245034635
0.863378048 0.297153980 0.266287059
0.890702426 0.315369993 0.287539423
0.918026805 0.336242795 0.311448634
0.947121918 0.357495159 0.335736930
0.975711167 0.379633188 0.361796170
1.000000000 0.403921992 0.392156988
0.142441392 0.111575000 0.076281004
0.127260998 0.123718992 0.091461390
0.137634009 0.116381615 0.085009620
0.149525315 0.117140934 0.087412998
0.170398384 0.121442385 0.096267998
0.190132484 0.127514392 0.097027004
0.217963576 0.131056070 0.108158998
0.251106977 0.127387613 0.105376005
0.281846821 0.123718992 0.100569099
0.306894511 0.122959897 0.101328388
0.334218860 0.125743255 0.101075388
0.369133234 0.129917771 0.103732005
0.403035909 0.131941766 0.103984743
0.442505032 0.134472027 0.107020639
0.481467366 0.143074349 0.109550968
0.517267585 0.148513764 0.116129182
0.552435338 0.156989187 0.122201189
0.584313869 0.169386134 0.130170733
0.618342996 0.182163373 0.146489814
0.654775739 0.202909753 0.155597433
0.684630096 0.213915020 0.170271739
0.712966323 0.224920869 0.180898011
0.742314517 0.237065375 0.195066005
0.769892693 0.249335900 0.213409290
0.803289235 0.266793013 0.230107665
0.833016992 0.285009325 0.248071045
0.860341668 0.304237992 0.269323468
0.887666047 0.327513963 0.290575802
0.917647243 0.337760806 0.309171349
0.943579912 0.359266371 0.334471762
0.971410155 0.380898386 0.361796170
1.000000000 0.400885612 0.392156988
0.134345219 0.118405998 0.080961771
0.138519615 0.119797774 0.091840617
0.140543774 0.121188998 0.087666228
0.156482935 0.119670935 0.086148165
0.179506540 0.127388000 0.095888771
0.199493766 0.137002006 0.095888771
0.218848959 0.138393447 0.101707771
0.251106977 0.139784768 0.108918056
0.284503192 0.135483682 0.102339998
0.308791995 0.134092003 0.103984699
0.340290874 0.139152646 0.099810228
0.371663243 0.142188519 0.101834483
0.406198263 0.148134008 0.103099354
0.444149315 0.150411040 0.106135026
0.479823142 0.155724421 0.109171413
0.514737546 0.166729987 0.119165018
0.548133969 0.174320191 0.128273413
0.581024528 0.184060529 0.133206755
0.618975222 0.196204945 0.145351171
0.648703754 0.208096370 0.159519434
0.679443777 0.221758738 0.168627515
0.707780004 0.232890412 0.182289764
0.738393009 0.246299714 0.194813266
0.771789968 0.260468006 0.215053812
0.799367487 0.275015771 0.235294268
0.829980850 0.291840434 0.251865983
0.857811391 0.308792055 0.272359312
0.886780441 0.328146756 0.293611646
0.912460625 0.347754598 0.312207729
0.939278901 0.367488921 0.337507695
0.966223598 0.389500588 0.365211546
0.997849226 0.406451792 0.394307226
0.136875153 0.134345159 0.088804998
0.143959150 0.131309554 0.092852615
0.151422933 0.129538551 0.095762163
0.164326161 0.129032165 0.083618164
0.185958087 0.137381539 0.092346996
0.208096102 0.146869168 0.094117999
0.230613634 0.151423156 0.096648000
0.251106977 0.153953165 0.101075284
0.286780298 0.154712260 0.104111090
0.312587142 0.152687997 0.104617149
0.343074024 0.154585734 0.098798156
0.375205249 0.157368898 0.098798096
0.409740269 0.163820162 0.104111485
0.445667058 0.170145169 0.107906193
0.478052050 0.174193412 0.112966575
0.511448562 0.183175161 0.121947989
0.545857131 0.192536190 0.131309032
0.577482283 0.202277139 0.141049981
0.618722141 0.214421347 0.148387179
0.648577094 0.225047529 0.161543369
0.677166581 0.232890725 0.175458744
0.706514955 0.243010998 0.185578987
0.737127960 0.257811159 0.197849497
0.771283805 0.271853238 0.216824904
0.800885260 0.287033260 0.236812115
0.829474807 0.300948799 0.256673157
0.855787218 0.317141205 0.275395244
0.883870900 0.333839595 0.296647578
0.912713468 0.351802647 0.316508651
0.935736895 0.374066979 0.335484058
0.962681592 0.398735017 0.366729707
0.996078014 0.414295018 0.394813150
0.161163554 0.155977100 0.094117999
0.162302107 0.153320923 0.092220157
0.164832324 0.152435541 0.095509231
0.174573094 0.152941391 0.097280450
0.192030102 0.155597553 0.086274996
0.216318876 0.158633947 0.092347004
0.242378324 0.164579555 0.094117999
0.265907526 0.170272008 0.096141838
0.286400765 0.175585091 0.098418549
0.319797933 0.178621486 0.101454929
0.347375333 0.176976666 0.097280450
0.376723528 0.175585091 0.097659737
0.408981264 0.179000542 0.101834096
0.445161015 0.191397578 0.111195512
0.475648254 0.197849095 0.120430410
0.509171307 0.205565900 0.128399730
0.542947352 0.213535547 0.137128085
0.579380095 0.220872685 0.143706143
0.615812957 0.233017504 0.155850947
0.647059202 0.244402558 0.168374553
0.677798986 0.253510535 0.182416186
0.708412111 0.261227101 0.196963996
0.741808534 0.273371100 0.209108025
0.772422373 0.285515785 0.224035457
0.800505817 0.299936801 0.241872072
0.829221725 0.313345790 0.259708762
0.858444095 0.326629072 0.279190511
0.879696429 0.347881436 0.300442874
0.910815775 0.363820225 0.321315825
0.937887192 0.382542253 0.340164632
0.961543143 0.403668165 0.359899104
0.994939566 0.421884984 0.393295527
0.164199948 0.180265874 0.094117999
0.173308328 0.180265874 0.100189999
0.178747863 0.179759935 0.093991160
0.190639094 0.178494766 0.091714062
0.210246876 0.176849931 0.089310609
0.222390875 0.176849931 0.086274996
0.244149327 0.184946314 0.092346996
0.269702703 0.190259218 0.097406998
0.293991029 0.193801090 0.100695841
0.316761553 0.196837485 0.098418556
0.344338953 0.202782989 0.104364060
0.373687565 0.201265186 0.108412057
0.405186564 0.201012224 0.111700997
0.439089030 0.206577972 0.114231125
0.472485363 0.221758336 0.126375884
0.510183454 0.225806683 0.128399998
0.542568147 0.232890680 0.137508124
0.573308110 0.242125079 0.149272859
0.609740973 0.254269868 0.155850947
0.643390357 0.260847926 0.170778364
0.676280737 0.271726906 0.185452193
0.707147121 0.281847060 0.200632185
0.735736549 0.291587830 0.215180010
0.769133747 0.303731859 0.227324814
0.797470212 0.318153292 0.246806204
0.826185882 0.330550164 0.264769167
0.855534136 0.341682196 0.282479137
0.879696429 0.360025436 0.309550494
0.906261802 0.375964820 0.328146726
0.934598148 0.394687057 0.350410938
0.960025191 0.416824818 0.374066859
0.985831976 0.440100998 0.402403921
0.184946001 0.202024326 0.101707675
0.188994393 0.202024326 0.102719672
0.191651002 0.202024326 0.104490675
0.199494004 0.202024326 0.099051155
0.216192216 0.200253099 0.097406775
0.230487004 0.198102325 0.094370611
0.250221312 0.198102325 0.096395001
0.273118407 0.207210705 0.099178001
0.299557418 0.212017536 0.103478998
0.324351847 0.215053484 0.105755843
0.351423204 0.223529324 0.108917996
0.376723319 0.225553319 0.112966254
0.407210588 0.227577642 0.119670965
0.440354317 0.233649641 0.124604605
0.471473366 0.241998732 0.134471506
0.509677351 0.252372116 0.144212484
0.546110153 0.258697122 0.149146199
0.575458527 0.267804891 0.161037579
0.606198668 0.278051943 0.169007331
0.642378390 0.287160307 0.183428049
0.677672446 0.293232322 0.194813415
0.709677458 0.303099453 0.208728448
0.737128317 0.312334299 0.224035293
0.768121719 0.324478328 0.240986481
0.801518261 0.336622328 0.257685244
0.827956915 0.350157976 0.277292967
0.855028093 0.361922443 0.294117451
0.879316866 0.380139202 0.315370053
0.908792138 0.395699143 0.342314959
0.934345245 0.412650257 0.362302482
0.960025191 0.434029192 0.384060621
0.984314024 0.458317637 0.406451672
0.202656418 0.223276705 0.110815704
0.207337096 0.219987705 0.110815704
0.209866986 0.224920988 0.110815704
0.212397307 0.219860986 0.107020542
0.224541411 0.219101995 0.103984833
0.240986630 0.219860762 0.103478767
0.253004313 0.224288404 0.103858314
0.274256706 0.220999405 0.106894284
0.299304396 0.229348689 0.104617387
0.326628834 0.233269930 0.106262006
0.353953183 0.242125273 0.116002545
0.382542700 0.248450413 0.120682955
0.410246313 0.250727415 0.125996053
0.443390340 0.259329736 0.134851336
0.473750651 0.266793400 0.142567992
0.509677351 0.276913494 0.150031522
0.544591963 0.284503698 0.160657704
0.577229381 0.293484986 0.169892579
0.605566025 0.302593380 0.179000974
0.641239703 0.310057074 0.193675071
0.674383461 0.317267716 0.208348721
0.710815966 0.326375842 0.219481111
0.740037799 0.336749166 0.234661490
0.768880844 0.347375005 0.251359701
0.799873531 0.356230408 0.267931581
0.830486894 0.368374377 0.288930953
0.856040120 0.381530404 0.308159053
0.882605851 0.399746895 0.327514172
0.913851917 0.415306807 0.350411057
0.935736895 0.428968936 0.375838161
0.960025191 0.449841797 0.397090584
0.984314024 0.474889696 0.416065693
0.214800999 0.244529098 0.119924091
0.219354987 0.239975095 0.118406095
0.224035308 0.242378429 0.118406102
0.229095325 0.246426091 0.116888031
0.236306548 0.235420629 0.108538643
0.254143119 0.240354195 0.110815935
0.264516175 0.247438326 0.112839997
0.275015801 0.250601113 0.112207390
0.297786206 0.246047080 0.115243196
0.325110614 0.252119094 0.106135584
0.352434963 0.261859834 0.117267773
0.380265415 0.268943995 0.127134994
0.412523627 0.275015980 0.134345531
0.445667058 0.281341016 0.143453151
0.476027817 0.290449381 0.150031731
0.509677529 0.301202089 0.156862989
0.544591963 0.311069012 0.167488992
0.574952126 0.317141145 0.179633141
0.605313003 0.326123059 0.188868076
0.641239703 0.333966076 0.202783361
0.673877478 0.339279026 0.217204332
0.704743981 0.347628236 0.231625304
0.740922987 0.362302572 0.246679172
0.768880606 0.370145202 0.261227012
0.797722995 0.380012661 0.277925372
0.825932741 0.388108999 0.296521157
0.853763103 0.400253117 0.319797188
0.884123802 0.417963177 0.340796530
0.915622652 0.432763904 0.362807989
0.945224166 0.446932137 0.385831386
0.960025191 0.463503808 0.409234583
0.984314024 0.490828991 0.430487007
0.226945013 0.265781522 0.129032478
0.226945013 0.265781522 0.122960486
0.231499001 0.265528530 0.121442497
0.238709658 0.267172843 0.121442497
0.248450562 0.268817067 0.120683432
0.263630927 0.265781462 0.117647052
0.278937817 0.268184692 0.122454010
0.288804948 0.271473736 0.121695019
0.300822586 0.273371518 0.118279591
0.328147024 0.273371488 0.121315971
0.355471373 0.285262495 0.123845622
0.380771458 0.293231994 0.131435767
0.409866780 0.299304008 0.140417635
0.445667058 0.305629045 0.149525926
0.476027817 0.314737409 0.158633545
0.506388605 0.323845804 0.167615309
0.540037990 0.333080292 0.181150988
0.574952126 0.341429174 0.197849140
0.605313003 0.347501963 0.209993944
0.641239703 0.359266490 0.222011492
0.673877478 0.365464777 0.234281987
0.704237998 0.371663302 0.246552750
0.734851003 0.383554965 0.258823931
0.765211821 0.386590600 0.270967960
0.793168843 0.401265055 0.290069759
0.819228351 0.414800823 0.311069131
0.844655514 0.424541146 0.331941962
0.875015497 0.436685890 0.350157946
0.902719319 0.449082941 0.373814136
0.939151824 0.463124692 0.397975892
0.971663237 0.481720567 0.421378583
0.984314024 0.509045005 0.442631006
0.239088997 0.292852879 0.132321119
0.247817874 0.289942980 0.132068127
0.252118856 0.298545003 0.136748895
0.259456038 0.297786146 0.136495993
0.267805338 0.294623762 0.134345546
0.272865057 0.299177796 0.141429812
0.290575773 0.296141565 0.140923738
0.306135714 0.298418581 0.142947733
0.319038868 0.300695866 0.139405549
0.339911491 0.300695866 0.135989606
0.358507007 0.300695866 0.136116132
0.389879882 0.310816109 0.141176507
0.417963386 0.318912089 0.149399221
0.448829889 0.327007890 0.158254132
0.481846809 0.336116254 0.164705575
0.509803772 0.340417683 0.176217601
0.542694509 0.353067845 0.188868061
0.577861965 0.365717739 0.205060139
0.608222902 0.371789932 0.219481081
0.635800242 0.380645335 0.228842482
0.669955730 0.388867855 0.242757738
0.702340245 0.394939899 0.254902005
0.734218478 0.405060351 0.265275508
0.756229937 0.413661957 0.280202866
0.788867950 0.423529446 0.296900839
0.818848848 0.437697828 0.318911970
0.847691298 0.447817743 0.340670198
0.880455732 0.455154896 0.356482983
0.905502737 0.472612619 0.382668763
0.927260816 0.487033486 0.407210499
0.957115293 0.503099203 0.430613458
0.981404126 0.524351835 0.451865852
0.259329498 0.322200984 0.151549235
0.268437892 0.319165111 0.149525508
0.269323260 0.322833478 0.151928753
0.276660413 0.329917490 0.158507153
0.286148250 0.324225247 0.155850783
0.294117570 0.327008247 0.161670178
0.303731889 0.329538435 0.163188249
0.320303530 0.328146756 0.158254549
0.335483819 0.329285413 0.155598000
0.352434993 0.328020245 0.149525553
0.374699503 0.332068235 0.151296258
0.394939750 0.334092498 0.149272501
0.427198291 0.343200594 0.155344993
0.455408275 0.352055311 0.163314268
0.485262632 0.359392911 0.169386253
0.515875757 0.369766057 0.188361853
0.543200135 0.374320239 0.202024058
0.576217473 0.389247239 0.215939313
0.605187058 0.398102224 0.228336319
0.638836086 0.406957597 0.244022861
0.666160941 0.412270963 0.255028486
0.698292255 0.417204380 0.269070238
0.730803013 0.424288511 0.279569983
0.761543155 0.433396608 0.296647638
0.789879799 0.444781572 0.314105242
0.819101930 0.456925958 0.330929905
0.847691059 0.469070137 0.352308512
0.878051817 0.478178501 0.369006664
0.903478980 0.492852360 0.388741314
0.929538131 0.507527113 0.414294451
0.951169789 0.523339510 0.437697589
0.980391979 0.541556001 0.458950013
0.285894990 0.355976909 0.175458282
0.292726398 0.352941036 0.173561022
0.295509487 0.355218261 0.174825877
0.295256168 0.359898627 0.175584808
0.304744005 0.359898627 0.178621098
0.316888005 0.359898627 0.181657284
0.324225307 0.361290306 0.179886341
0.335483909 0.363820642 0.179506928
0.352181733 0.365338653 0.173434541
0.368121117 0.363440782 0.168501005
0.390891731 0.365717918 0.170018762
0.412017882 0.368627548 0.167868257
0.434408635 0.372802258 0.165970996
0.464263409 0.381656915 0.172042996
0.490702391 0.387729466 0.178114980
0.521568596 0.397470266 0.194054589
0.551549435 0.406578243 0.214927450
0.580138803 0.412650257 0.230107203
0.608475983 0.423782289 0.240227640
0.643010676 0.433143646 0.257685065
0.671473563 0.439595371 0.272106618
0.698798478 0.444655508 0.285262495
0.729031980 0.448197126 0.297659487
0.763440788 0.457305521 0.314863622
0.794180930 0.467552274 0.331941575
0.822896957 0.479696274 0.352182299
0.847691059 0.491334349 0.368374705
0.875015438 0.502846539 0.387223244
0.900821984 0.516508400 0.405439645
0.925743103 0.532194436 0.428336561
0.953067541 0.543453574 0.449968219
0.980391979 0.560910642 0.470714629
0.315496027 0.395193040 0.194180995
0.318026423 0.392156661 0.193928033
0.321568817 0.392915845 0.195319280
0.325110853 0.396457881 0.196584195
0.328526080 0.398861080 0.194307491
0.340670079 0.398861080 0.197343096
0.345983326 0.398355097 0.192536071
0.353700042 0.400505722 0.192409784
0.367615163 0.403795004 0.194433957
0.388867557 0.409867018 0.197469577
0.409613937 0.407463878 0.197596058
0.429095536 0.406199008 0.193548083
0.449083030 0.408476025 0.190006033
0.473371029 0.414801091 0.190259054
0.497659773 0.420873076 0.196331054
0.528652787 0.428842783 0.206704602
0.561037302 0.436432987 0.221632034
0.591524541 0.442504972 0.238456562
0.624921024 0.448576987 0.253637016
0.657811463 0.457179397 0.272612065
0.684123755 0.464643002 0.287286431
0.707400143 0.471473902 0.300442874
0.734597981 0.480708033 0.315622509
0.764705777 0.489942938 0.330802917
0.792789340 0.499051273 0.346489310
0.820113719 0.509551048 0.365844339
0.847185075 0.521189094 0.389121085
0.874509454 0.530297399 0.410373449
0.901833832 0.541809022 0.429222047
0.927640378 0.557242036 0.451486170
0.952814579 0.573813617 0.476533592
0.980139017 0.582922041 0.491714001
0.336748391 0.431625783 0.218468964
0.333712786 0.428589404 0.215433359
0.340544194 0.425553560 0.210879400
0.348387241 0.428842664 0.211764827
0.355470955 0.435167342 0.215559855
0.358886838 0.432258219 0.218595460
0.371030807 0.427198231 0.211511731
0.379633099 0.430613488 0.216192529
0.390891880 0.436179370 0.222770721
0.407084316 0.437191397 0.215686336
0.422517687 0.437444389 0.215812817
0.443011105 0.434788227 0.211764827
0.462492406 0.435800403 0.209108174
0.482479393 0.442125440 0.211511433
0.506767333 0.451233834 0.214547813
0.533459961 0.454902023 0.220619813
0.566603363 0.460720986 0.232511178
0.599873245 0.466792971 0.246426404
0.627957404 0.472864956 0.253637016
0.655787766 0.478937685 0.282732725
0.684377134 0.487539649 0.301075041
0.710436523 0.495002985 0.315622687
0.737634361 0.501960456 0.330802888
0.761922419 0.514105201 0.345983326
0.789753437 0.523339510 0.365717679
0.817078054 0.533839345 0.387096703
0.843896389 0.545477748 0.409867465
0.868437409 0.554585397 0.425553828
0.895761788 0.563693762 0.446806192
0.923086107 0.576976538 0.462112784
0.949778378 0.594560385 0.482732385
0.977103412 0.613282800 0.509929955
0.358000785 0.463250965 0.233143598
0.354965180 0.465022206 0.237318173
0.369133532 0.459835619 0.238583013
0.370398790 0.461606950 0.238330290
0.371916622 0.468437850 0.242125481
0.381024718 0.461353719 0.235040858
0.389247596 0.467805564 0.242378116
0.403035879 0.463377863 0.239848495
0.415180057 0.466413498 0.247438684
0.430360466 0.464768767 0.241619304
0.440733850 0.469576389 0.238835976
0.453889966 0.471600115 0.232764244
0.472865492 0.470461756 0.228589788
0.491587788 0.473244816 0.230360553
0.515875757 0.473751187 0.233396396
0.540164411 0.482858986 0.234028980
0.569006979 0.485894978 0.240100980
0.601770699 0.491713971 0.253889740
0.629095972 0.499556780 0.268817008
0.654016554 0.503225684 0.287539721
0.683238626 0.513092935 0.310309976
0.711069107 0.521694779 0.327008039
0.738393486 0.527766824 0.343706578
0.764958799 0.535357594 0.361163706
0.789247334 0.542947829 0.374066800
0.819228649 0.554712236 0.397722602
0.848070979 0.566350698 0.420999318
0.872358978 0.571663320 0.434282422
0.892093599 0.587982416 0.452372015
0.924731135 0.600632370 0.477166355
0.950411022 0.615812540 0.495129585
0.971663356 0.634028971 0.520935774
0.376217186 0.495129555 0.255914181
0.380771786 0.495129585 0.261986166
0.378241569 0.496268392 0.261353612
0.398229122 0.492726386 0.263124377
0.392030746 0.500316620 0.269450009
0.405313373 0.495762259 0.266413480
0.411891311 0.494244307 0.262871712
0.421252668 0.501328468 0.267172903
0.435673386 0.499051183 0.268691093
0.450094670 0.496773869 0.265654713
0.460973829 0.499430716 0.264136523
0.472106367 0.503479064 0.261606455
0.485388726 0.506514728 0.255914181
0.503478825 0.506388187 0.255661160
0.526501954 0.502087414 0.256166756
0.549272418 0.505629539 0.259835571
0.575079381 0.511701167 0.258317381
0.604806900 0.514737546 0.265654355
0.632131994 0.522074401 0.284250170
0.656673074 0.527134597 0.299683511
0.683238268 0.535863221 0.320936173
0.714611173 0.545983195 0.338140309
0.742694676 0.552181721 0.355850965
0.767236054 0.559645772 0.374066979
0.793801546 0.565717995 0.390765399
0.819481671 0.573181629 0.407084018
0.850095034 0.587602973 0.432131439
0.872358978 0.593674719 0.445288092
0.895888448 0.606957853 0.465781122
0.918659151 0.624921143 0.481720150
0.952435374 0.637444377 0.509044588
0.970145166 0.650727153 0.531561971
0.394560128 0.527893960 0.288678139
0.406704724 0.524857759 0.294750124
0.402909577 0.526122749 0.290954977
0.401517868 0.528526545 0.289943129
0.417457551 0.528526545 0.289943129
0.431372911 0.531309187 0.301075131
0.438330233 0.528020144 0.296774298
0.444022685 0.527261138 0.291967541
0.453890145 0.531815112 0.291208446
0.466034144 0.531815112 0.288172066
0.478178144 0.531815112 0.288678139
0.490322500 0.533206761 0.288678139
0.504870474 0.536242902 0.289310545
0.519797146 0.539025545 0.289057583
0.539910972 0.533712506 0.286021292
0.560530961 0.534218729 0.288931161
0.582921982 0.537254930 0.290449351
0.610246956 0.539658129 0.288678139
0.637571454 0.542694509 0.300822169
0.663377643 0.549146116 0.312333584
0.688930750 0.557115555 0.329538047
0.717646778 0.567868114 0.352055699
0.750664413 0.573813677 0.367615551
0.772422910 0.581910074 0.386843562
0.796964288 0.588741183 0.404427558
0.823656082 0.597469807 0.424668193
0.850474536 0.606578112 0.444908500
0.868943572 0.618595541 0.460088849
0.894496799 0.630107641 0.482605934
0.920682788 0.645161510 0.501075089
0.943959594 0.661100507 0.516381741
0.971284032 0.667172551 0.543706179
0.424921006 0.558254063 0.319038987
0.437064976 0.555218458 0.325110972
0.436306030 0.556483269 0.318279445
0.436053157 0.559519231 0.316761374
0.444782019 0.561923027 0.326376021
0.444782019 0.561923027 0.326376021
0.456167042 0.562175989 0.324857682
0.464262992 0.561670005 0.321315765
0.472106218 0.562175989 0.318532914
0.484250963 0.562175989 0.315496534
0.496394962 0.562175989 0.318279892
0.508539021 0.562175989 0.319038987
0.524098694 0.563567400 0.320177346
0.544085979 0.566350043 0.322454035
0.556229949 0.566350043 0.319418430
0.573940575 0.565843999 0.318785936
0.592409968 0.567615271 0.317773819
0.613282621 0.570019007 0.316002578
0.640607059 0.570019007 0.319038957
0.670714796 0.578621387 0.328399599
0.696774006 0.583681285 0.339658469
0.723339260 0.589500189 0.355851144
0.753700078 0.598102570 0.376723975
0.777988851 0.601138949 0.401012003
0.799747288 0.606958032 0.417963296
0.822896957 0.617204666 0.437571347
0.847438157 0.630866945 0.460088938
0.871726871 0.639974535 0.475268513
0.895508945 0.649335802 0.495761842
0.921821117 0.662239194 0.515496373
0.946236253 0.676786959 0.534092486
0.965211987 0.688425004 0.555850983
0.460847765 0.599746764 0.357748389
0.464642376 0.596711159 0.358254373
0.470335126 0.597976029 0.362176150
0.468690753 0.599746764 0.358254462
0.473244905 0.600505948 0.362808764
0.480455756 0.598102748 0.362808764
0.482985437 0.600632429 0.365338415
0.494370371 0.600885391 0.362808436
0.504996479 0.600126505 0.359772652
0.519164979 0.598102748 0.356736243
0.525743067 0.603668749 0.356736273
0.537887573 0.599620759 0.355724126
0.550031722 0.598102748 0.353826672
0.565844417 0.599494100 0.353320748
0.580518723 0.602023721 0.352814823
0.597469747 0.602023721 0.352182388
0.615686417 0.603541911 0.353700191
0.634535313 0.604680717 0.351928979
0.657558739 0.600379765 0.346363336
0.682099760 0.603162408 0.349399030
0.708665490 0.612270713 0.366097122
0.732953727 0.618089736 0.380898267
0.759645522 0.625300348 0.396711349
0.786590517 0.630992949 0.415686399
0.810879230 0.634029329 0.430866361
0.834029317 0.642378330 0.448323667
0.857811809 0.655155063 0.470208794
0.879823208 0.664263308 0.487666249
0.904111326 0.673371553 0.508159518
0.930170476 0.684250712 0.531182647
0.956609547 0.699304342 0.554965198
0.978621364 0.715243340 0.581910372
0.493484974 0.627071500 0.382036716
0.492726088 0.627830386 0.387729466
0.499557227 0.627197981 0.391777486
0.498798132 0.632763863 0.391018718
0.498292059 0.633522868 0.390133172
0.505882680 0.627450943 0.391650975
0.515623152 0.637065172 0.396078408
0.521948159 0.633522749 0.395825446
0.531562090 0.633522809 0.394307643
0.542188227 0.632764220 0.393548250
0.552434742 0.634661734 0.391524464
0.558760226 0.632637739 0.391397953
0.572043061 0.629981101 0.389500201
0.585198998 0.630993009 0.387729436
0.600379348 0.634029031 0.389373720
0.617963493 0.634661436 0.389373720
0.637697697 0.633143246 0.384819895
0.655661285 0.635420561 0.386337608
0.674383700 0.633143723 0.382289678
0.696520984 0.633523107 0.378621101
0.718911707 0.636559188 0.385452211
0.743200481 0.642631471 0.402656347
0.767235696 0.647058964 0.413915247
0.789246917 0.654901743 0.428589731
0.816192329 0.658697009 0.449841738
