Assets/EldamarStudio/100 Retro LUTs Pack/LUTs/cube/Kathy LUT.cube
LUT_3D_SIZE 5
DOMAIN_MIN 0.000000 0.000000 0.000000
DOMAIN_MAX 0.903226 0.903226 0.903226
0.133332998 0.117647000 0.082353003
0.246173695 0.119924292 0.105881996
0.475395381 0.124857575 0.106514581
0.714990139 0.215812996 0.170778006
0.918026805 0.336242795 0.311448634
0.202656418 0.223276705 0.110815704
0.274256706 0.220999405 0.106894284
0.473750651 0.266793400 0.142567992
0.710815966 0.326375842 0.219481111
0.913851917 0.415306807 0.350411057
0.336748391 0.431625783 0.218468964
0.379633099 0.430613488 0.216192529
0.506767333 0.451233834 0.214547813
0.710436523 0.495002985 0.315622687
0.895761788 0.563693762 0.446806192
0.521821260 0.651360273 0.406325251
0.549272835 0.666919649 0.426185966
0.619607508 0.662365675 0.424161702
0.751296222 0.667932153 0.423909277
0.915369987 0.720935941 0.540796816
0.749525607 0.865780950 0.650221407
0.757368565 0.871726751 0.643516779
0.801012218 0.873624444 0.653384030
0.874256611 0.881467640 0.661226928
0.963820577 0.889310598 0.667172670
0.151296720 0.131688714 0.152309000
0.238962710 0.132700995 0.154964983
0.414294660 0.187349707 0.201770693
0.656799555 0.278304696 0.287792563
0.880834758 0.391144633 0.402656674
0.221631989 0.209234416 0.164452702
0.270335704 0.224288389 0.184060693
0.426692098 0.274003804 0.231878683
0.657811403 0.348892957 0.308665425
0.879063904 0.449588656 0.425806373
0.344591975 0.406704813 0.278937101
0.382163107 0.416571379 0.279570103
0.489437103 0.432890803 0.281214386
0.680328906 0.495635390 0.381910384
0.884377122 0.576470375 0.490575641
0.528653145 0.645414293 0.456167132
0.555850804 0.649968386 0.461732864
0.621884823 0.651612699 0.456546813
0.743453264 0.662998259 0.461100847
0.902972519 0.723592818 0.563440800
0.755344629 0.867425740 0.665022373
0.768753707 0.862871468 0.664769053
0.800379634 0.870335221 0.665148318
0.871600091 0.877925396 0.675268948
0.960783899 0.888677776 0.686780572
0.193547994 0.135357410 0.355091393
0.290322393 0.158254415 0.339152515
0.417836398 0.196837410 0.323086828
0.642125368 0.298292428 0.401897550
0.844149232 0.445414215 0.502846241
0.265148699 0.255028397 0.306767374
0.317140967 0.264516115 0.309677124
0.423402667 0.293611377 0.333586365
0.629727840 0.379633129 0.417583942
0.835041225 0.505882025 0.533333361
0.381277382 0.420493424 0.383934200
0.430233955 0.440733403 0.411005676
0.510056853 0.460974365 0.428336352
0.656167150 0.516255498 0.486906916
0.850727320 0.604933202 0.569006741
0.554585695 0.641745746 0.531309128
0.583301663 0.639468789 0.542441547
0.631372571 0.647691548 0.534977734
0.729791284 0.661732852 0.546742201
0.889057636 0.729411960 0.636938334
0.758633733 0.857305348 0.701074779
0.772928655 0.859582543 0.700442791
0.806198359 0.868437648 0.705629408
0.874256611 0.874636352 0.711828053
0.951296329 0.893358767 0.729285181
0.276660264 0.213915259 0.573055267
0.360658139 0.227957115 0.570271850
0.505249560 0.272738844 0.558507264
0.650348127 0.322833389 0.539658248
0.854016602 0.466413617 0.609867096
0.346236706 0.333586246 0.548007429
0.395319700 0.343073934 0.546869218
0.512080967 0.366603523 0.539531827
0.646805823 0.400253236 0.536242962
0.846805871 0.524857819 0.623782396
0.439341962 0.484250546 0.537634730
0.478684574 0.496015131 0.550664246
0.565338075 0.520556390 0.559772372
0.675774634 0.549019635 0.583934188
0.843263805 0.630993187 0.655281842
0.588488221 0.652245104 0.612144291
0.622137725 0.656799555 0.614927590
0.684250534 0.677419305 0.642504573
0.748387098 0.693485141 0.656167150
0.885388792 0.750410914 0.713092923
0.788994133 0.853763342 0.758127511
0.799873650 0.859582603 0.770019054
0.823908806 0.866793096 0.770019054
0.872359276 0.877292931 0.772422612
0.953320622 0.891334593 0.797975779
0.422643602 0.355976939 0.805692732
0.473877490 0.370651484 0.798228860
0.611511350 0.406957805 0.789373994
0.773687780 0.466413617 0.777355790
0.909044743 0.516761601 0.769259751
0.478810638 0.463124752 0.779759467
0.526881635 0.470714509 0.789120674
0.633396506 0.493864834 0.776976347
0.768880188 0.531815350 0.771789730
0.897912741 0.563440621 0.766856313
0.580897748 0.604300737 0.768374205
0.603668630 0.612776756 0.766476750
0.680202663 0.624668002 0.765844166
0.785072505 0.640227497 0.768121302
0.892599344 0.662492156 0.770398438
0.669070244 0.743453443 0.779633164
0.690322638 0.742188573 0.787349820
0.738899231 0.743200123 0.784819603
0.812144101 0.756609797 0.788994133
0.912966430 0.782416105 0.810625911
0.798987806 0.873624623 0.829095602
0.806957543 0.872359455 0.831372619
0.839594960 0.879570007 0.847564578
0.890955031 0.895129800 0.859961927
0.957115650 0.916761637 0.893358707
