Assets/EldamarStudio/100 Retro LUTs Pack/LUTs/cube/Kelly LUT.cube
DOMAIN_MIN 0 0 0
DOMAIN_MAX 1 1 1
LUT_3D_SIZE 32
0.098039001 0.070588000 0.047059000
0.104111001 0.070588000 0.044022612
0.123086542 0.074889004 0.047437999
0.148640156 0.079696164 0.053510323
0.175205544 0.082732551 0.059203450
0.196457937 0.085768931 0.062239062
0.227830321 0.086274996 0.072865002
0.257937700 0.082985580 0.076786712
0.285262108 0.076913007 0.074510001
0.312586516 0.070840999 0.074510008
0.339911610 0.073497869 0.080329001
0.377356499 0.072485745 0.086401001
0.420999616 0.069449648 0.092473000
0.466793060 0.065654933 0.098798029
0.515369773 0.053510174 0.107906409
0.561543345 0.031752020 0.109803997
0.614674330 0.015053811 0.115875989
0.674130082 0.006578009 0.126754984
0.728778958 0.000506000 0.132827014
0.780645132 0.000000000 0.144465715
0.828463197 0.000000000 0.152814999
0.871980131 0.000000000 0.160910994
0.911827981 0.000252992 0.173687473
0.960404813 0.006325001 0.201011911
0.986211002 0.003289004 0.216950998
0.997469664 0.012523632 0.227703661
1.000000000 0.048450246 0.240354121
1.000000000 0.127387717 0.270714879
1.000000000 0.198355377 0.295761943
0.998228788 0.259329289 0.327134341
0.996963620 0.317520350 0.364452779
1.000000000 0.384314001 0.403921992
0.110183001 0.076660000 0.044022612
0.101075396 0.082732774 0.050094616
0.124351382 0.084883004 0.053510550
0.147880942 0.090069383 0.057052772
0.170272097 0.094497003 0.058444452
0.199494332 0.094876550 0.056167062
0.223276392 0.095382616 0.069323316
0.251865685 0.093738325 0.075395390
0.281467199 0.089816682 0.076028004
0.315622926 0.086021386 0.080582008
0.348766267 0.088678256 0.086401001
0.382416129 0.089690387 0.092473000
0.421758533 0.086527772 0.097406641
0.464010417 0.081341319 0.101581387
0.515369773 0.074762560 0.107906409
0.563946605 0.060215205 0.114610992
0.616192222 0.036306202 0.120430186
0.674130082 0.016824603 0.131688952
0.728778958 0.003542384 0.144971788
0.780645132 0.000253031 0.151043773
0.828463197 0.000000000 0.158886999
0.872991979 0.000000000 0.165971130
0.914610624 0.000000000 0.176344365
0.957368374 0.000253002 0.194939911
0.985451877 0.004048288 0.210878998
0.997469664 0.028083650 0.228589311
0.998987973 0.076280959 0.247944459
0.993928015 0.142568111 0.270714879
0.996584237 0.208222777 0.301074922
0.998734832 0.270208448 0.331435561
0.997343421 0.327893347 0.365717947
0.993928015 0.390385985 0.400885612
0.111574769 0.087033547 0.047437999
0.111068614 0.090954997 0.051359776
0.119164996 0.094877005 0.055281550
0.146995321 0.099177778 0.061353996
0.169260100 0.104111224 0.063504450
0.203162864 0.102339998 0.064010061
0.222011775 0.106641002 0.065401547
0.247944489 0.104996711 0.072359227
0.276786864 0.103478901 0.075395420
0.311827987 0.103225514 0.084250778
0.349651873 0.103858091 0.086021774
0.383048743 0.106894478 0.092093766
0.422770381 0.107020997 0.100442767
0.465022296 0.102972999 0.106767997
0.514737368 0.096900716 0.112839997
0.570398390 0.083617821 0.121062763
0.615939140 0.069956005 0.127134770
0.672359049 0.047691181 0.134345412
0.733079970 0.030992948 0.143453434
0.780645132 0.011891417 0.150285020
0.830360472 0.001265041 0.160152003
0.877166510 0.000000000 0.170778006
0.921441793 0.000000000 0.183048740
0.955850542 0.000000000 0.191145003
0.984566271 0.028083287 0.211258769
0.996078014 0.051992271 0.224794418
0.997849226 0.104617186 0.247312054
0.995066226 0.161796287 0.271853417
0.996963918 0.216951385 0.298924685
0.998228788 0.277166516 0.339911073
0.997343421 0.335736692 0.370777965
0.990006208 0.396458000 0.397849232
0.116129160 0.102973156 0.054775160
0.119164765 0.100948773 0.056546383
0.127007768 0.105249770 0.060847610
0.142188147 0.109550998 0.061353996
0.166856378 0.114863992 0.067805447
0.200632542 0.112713218 0.072612062
0.225680158 0.117267162 0.071853161
0.246173695 0.120935865 0.073118001
0.276534110 0.118659154 0.074636191
0.310942501 0.121188842 0.085768968
0.347627848 0.121315323 0.088804998
0.384313583 0.123339251 0.091587834
0.422264755 0.125237003 0.101075478
0.468311220 0.124730997 0.112839997
0.517899752 0.118658997 0.118911996
0.569892228 0.111701362 0.123592637
0.625047505 0.100569159 0.128652826
0.670082211 0.088425174 0.135989815
0.734345138 0.071473517 0.140923053
0.784187257 0.052751459 0.148007557
0.830360472 0.036685746 0.159139991
0.875901103 0.024541480 0.170272127
0.923465848 0.024541462 0.187349632
0.958380640 0.029095476 0.192662746
0.984187186 0.052371904 0.209361106
0.997343183 0.087159753 0.229095638
0.997343183 0.134724602 0.246300057
0.997343183 0.184060618 0.273624420
0.998734832 0.233143404 0.299683601
0.998734832 0.289563656 0.335610300
0.999620438 0.344592303 0.379759550
0.992030144 0.403795153 0.399873137
0.129791453 0.123086996 0.063883543
0.133206621 0.114737608 0.063883543
0.138013542 0.116002545 0.067805000
0.147880703 0.121694997 0.070461608
0.164199546 0.127387539 0.068184994
0.191523939 0.127387539 0.077292614
0.221758187 0.132827088 0.077419318
0.248450413 0.136875257 0.075774841
0.275395572 0.139532000 0.079949193
0.314863980 0.139532000 0.086021975
0.348892868 0.139532000 0.092093997
0.384313494 0.141935289 0.096900739
0.424920917 0.143832549 0.103352092
0.470209062 0.144085586 0.117520481
0.521441936 0.138393089 0.123465993
0.571789563 0.137128085 0.125489995
0.623782158 0.134851098 0.127387539
0.678052068 0.127514109 0.128019974
0.732700944 0.115370072 0.140164018
0.784567118 0.104364529 0.149525359
0.833523273 0.094876900 0.162428737
0.876280665 0.087160088 0.175585121
0.915622592 0.081720591 0.185072973
0.957621336 0.093611635 0.194939658
0.986843526 0.113346107 0.212776363
0.999620438 0.138646722 0.232257769
1.000000000 0.167362660 0.252372056
1.000000000 0.209867403 0.279696435
0.999240994 0.254269302 0.304364055
0.998608351 0.307526737 0.337128013
0.996584058 0.364706159 0.374446571
0.999620438 0.413283020 0.407842994
0.132827058 0.135231003 0.072991937
0.138899058 0.132194608 0.072991937
0.142314777 0.132447764 0.075142168
0.150917098 0.135989770 0.077418998
0.167235941 0.139531553 0.077292614
0.191523939 0.142567933 0.080329001
0.223908961 0.150158256 0.086906932
0.250221640 0.153826877 0.081594005
0.274257004 0.155091837 0.077293038
0.305755585 0.157747999 0.086021975
0.342314810 0.157747999 0.092093997
0.378241509 0.161795989 0.100189731
0.420366913 0.165084928 0.107147001
0.470209062 0.165337965 0.114484094
0.512713790 0.168374345 0.117520481
0.568753719 0.167488858 0.123465993
0.624920547 0.167488858 0.133080184
0.680834770 0.163946882 0.141935349
0.732700944 0.151802868 0.140164018
0.784567118 0.148007512 0.149525359
0.838077426 0.143453673 0.162428737
0.884124041 0.139405668 0.175585121
0.918658972 0.136369362 0.185072973
0.955091774 0.145477772 0.203289002
0.985705197 0.157368779 0.219987497
0.998608351 0.177103251 0.237318158
0.997090101 0.203415930 0.255534172
1.000000000 0.237191796 0.285768420
0.994687021 0.277039677 0.310436636
0.996710956 0.324604452 0.341808766
0.998608351 0.376850158 0.376976252
0.996584058 0.425427020 0.407842994
0.148513645 0.152435005 0.089690000
0.146995321 0.149399251 0.087160319
0.150917098 0.150663868 0.089310549
0.157748327 0.152435005 0.089816481
0.171283990 0.153826326 0.087792642
0.186969995 0.154711947 0.084377252
0.211258635 0.162808314 0.084883317
0.244655356 0.168627709 0.087666318
0.273244858 0.172549307 0.084377222
0.307147354 0.180898160 0.093485162
0.343327045 0.181024641 0.099683672
0.383807808 0.183048382 0.105755672
0.424667954 0.188614607 0.110941999
0.473244727 0.191903964 0.114484027
0.520303488 0.197217062 0.122074410
0.574826062 0.202656627 0.129917800
0.629474819 0.201391444 0.136116311
0.685768425 0.199746892 0.147627980
0.743074000 0.193295628 0.154079378
0.794687092 0.186970606 0.159645349
0.842504680 0.187729225 0.168753728
0.888172030 0.185958460 0.179632992
0.921695292 0.183175445 0.187476173
0.958127499 0.187476233 0.203289002
0.983174980 0.201138601 0.223782271
0.998861313 0.217710286 0.243643314
0.998608351 0.241872445 0.263124377
0.999620438 0.273245037 0.291460842
0.999747038 0.309424073 0.321568638
0.997217000 0.352434874 0.351170123
0.998229027 0.402530074 0.385957867
0.993548334 0.452751637 0.417962998
0.160152003 0.169006705 0.104616992
0.162049308 0.169260085 0.101581380
0.160025060 0.170524925 0.096268229
0.164326608 0.172295704 0.100569002
0.176091164 0.172675252 0.099430829
0.189499989 0.173940405 0.097153984
0.208475634 0.170019031 0.091208287
0.236053407 0.185705408 0.091208287
0.268690705 0.190259591 0.093485385
0.303352267 0.201517984 0.102593228
0.344718724 0.205312982 0.108791701
0.385199487 0.210626140 0.113219410
0.428842634 0.213662043 0.117014416
0.475142062 0.219734699 0.117520414
0.526501775 0.228589699 0.125237122
0.577356100 0.231372684 0.132700801
0.636559069 0.235926881 0.140290990
0.689184070 0.234408528 0.146362990
0.747880995 0.233396649 0.156483024
0.796964109 0.230866671 0.167994723
0.843137443 0.227198362 0.174319729
0.886653841 0.230233967 0.185452119
0.921821773 0.228716195 0.194180697
0.962808371 0.231752217 0.213915318
0.986211002 0.238962680 0.232004970
0.997722745 0.258317351 0.253257364
0.999493957 0.279822767 0.274003685
0.998355269 0.306767851 0.297912419
1.000000000 0.342441320 0.329538316
0.998355269 0.380897969 0.360025138
0.999240875 0.426438957 0.394307166
0.995445967 0.476533979 0.428462714
0.170019105 0.184946194 0.115243196
0.173055083 0.185705304 0.112966485
0.174952418 0.191018417 0.108665317
0.173434228 0.194307193 0.104364097
0.180265993 0.194307193 0.109297641
0.195066258 0.196964040 0.111575030
0.211258635 0.190386087 0.104490779
0.235294297 0.191018686 0.099557005
0.265655071 0.209994003 0.101075001
0.296015114 0.219101608 0.110183388
0.341682613 0.229095176 0.117900088
0.385199487 0.236432344 0.121189252
0.428842634 0.243263736 0.123086996
0.475142062 0.247312129 0.123339966
0.529790819 0.259962171 0.128905892
0.584187150 0.264769107 0.136496082
0.635800362 0.267046183 0.142568082
0.694623709 0.269449979 0.147375092
0.749146044 0.272359133 0.153194115
0.796963990 0.272612095 0.168374360
0.839848459 0.271473736 0.177861989
0.881341100 0.269702971 0.188488111
0.920430005 0.272738606 0.203542009
0.962808669 0.275775015 0.225300819
0.988614976 0.283365160 0.246552989
1.000000000 0.293991268 0.265401751
1.000000000 0.318785369 0.287160099
0.997216642 0.340543687 0.305882096
0.997975767 0.374319762 0.337381363
0.998228788 0.411764652 0.369007021
0.996963620 0.453004628 0.402656257
1.000000000 0.498545080 0.439089090
0.191271499 0.203162983 0.121315986
0.185199484 0.197090209 0.121315986
0.188235477 0.204301074 0.123339720
0.190132812 0.213535979 0.124604493
0.189373627 0.218595982 0.124478042
0.201518402 0.218595982 0.121442430
0.213788956 0.218722492 0.113599174
0.234408692 0.218216494 0.107779786
0.262618691 0.222138017 0.107147008
0.292979509 0.234282017 0.113219008
0.340797216 0.255028337 0.125237256
0.385199487 0.265527993 0.129032478
0.428842634 0.270588160 0.129158989
0.475142062 0.274636537 0.129411966
0.529790819 0.289816916 0.132447571
0.594054163 0.300063193 0.142821118
0.650980353 0.307273507 0.151676476
0.700695634 0.311954021 0.156483486
0.752308965 0.311954021 0.156483516
0.804047883 0.312080503 0.173434496
0.847817719 0.312080503 0.183933988
0.887413085 0.311954021 0.195066124
0.926501989 0.312207013 0.215686008
0.956862807 0.315243423 0.227830812
0.981024742 0.327387780 0.249588981
0.995192945 0.339405656 0.270841330
1.000000000 0.352182537 0.290196478
1.000000000 0.379506886 0.314484477
0.997216642 0.411891252 0.346489251
0.996204555 0.447185338 0.378114879
0.996963620 0.486401081 0.412017673
1.000000000 0.531941473 0.454269469
0.206704870 0.224288866 0.139026001
0.191904008 0.229854837 0.139026001
0.196584761 0.230233833 0.139026001
0.202150717 0.236306161 0.138772711
0.204680413 0.241492867 0.137887090
0.219354868 0.251612842 0.142441809
0.223909318 0.249083176 0.134345546
0.241492853 0.248703733 0.130170867
0.266793191 0.249462634 0.126122743
0.292852998 0.255154878 0.119291745
0.331941873 0.273118615 0.128272861
0.384566635 0.292346746 0.136369109
0.431752056 0.304237753 0.138140127
0.477798909 0.312586874 0.138393164
0.529790819 0.317141294 0.141429454
0.591650367 0.332321674 0.144465685
0.651865900 0.340923607 0.155092001
0.705123365 0.345730603 0.163946986
0.761290133 0.345730603 0.168501019
0.807337224 0.351296604 0.176850349
0.853004336 0.353446871 0.192789599
0.892473280 0.353446871 0.203921735
0.929791331 0.351802617 0.219481349
0.962934852 0.357621640 0.239974797
0.986464262 0.362934709 0.263504267
0.996584356 0.376217514 0.287033498
0.997596204 0.390385926 0.307274044
1.000000000 0.412903309 0.329158843
1.000000000 0.440227628 0.356103629
0.997216642 0.474889219 0.388993979
0.996963620 0.509551048 0.424035192
1.000000000 0.544971704 0.466539979
0.217836738 0.253637224 0.159266248
0.212776601 0.257684976 0.161290497
0.208728492 0.263630986 0.159266248
0.216572046 0.269196600 0.156736255
0.219607964 0.274130225 0.153699949
0.224920928 0.282985240 0.158127606
0.242125317 0.286527544 0.157621652
0.251739681 0.283491522 0.150157988
0.274130344 0.282353073 0.147881001
0.297154009 0.282859027 0.138266981
0.331941843 0.292346716 0.138393641
0.379506767 0.314610988 0.143453240
0.436432540 0.333965629 0.148386896
0.486907095 0.348513275 0.149272516
0.538519919 0.355091661 0.150537670
0.595698893 0.363694042 0.157621533
0.656419694 0.377356231 0.163693935
0.711575031 0.383807808 0.174066991
0.767868519 0.385199487 0.180139005
0.810373068 0.388741225 0.188994348
0.852118731 0.391018242 0.201897725
0.891461134 0.393927634 0.216065973
0.926755488 0.393295497 0.228589475
0.960151911 0.399367481 0.249841899
0.988488257 0.403415740 0.275648266
1.000000000 0.413662046 0.296014965
0.998102248 0.429348379 0.316381902
0.999620438 0.449082941 0.340670675
1.000000000 0.475648314 0.371284038
0.998228788 0.502972662 0.403921574
0.996963620 0.538646460 0.438456684
1.000000000 0.571284235 0.478684515
0.231498629 0.292726278 0.179379985
0.229221642 0.294623524 0.181277737
0.229221642 0.299810171 0.182289869
0.232890308 0.304870784 0.182542637
0.238583535 0.313598931 0.176470637
0.237065330 0.319670916 0.177229345
0.250853956 0.324351609 0.175458282
0.271094352 0.327514201 0.172169298
0.287792742 0.325996011 0.166856200
0.309045166 0.323719412 0.161163643
0.338519871 0.324857622 0.158001512
0.380645096 0.336242914 0.155597731
0.436812282 0.361669570 0.162049279
0.497280091 0.382668942 0.164832637
0.550664186 0.394433677 0.164832637
0.607084394 0.405819058 0.170904472
0.661353767 0.411891252 0.177735195
0.717140734 0.422770262 0.186211154
0.770778298 0.426312625 0.192283303
0.816066027 0.430486917 0.204553992
0.853257358 0.430486917 0.215180382
0.892725766 0.432510912 0.232384771
0.926249325 0.435800254 0.245287776
0.958633900 0.441872269 0.266540170
0.982922256 0.447944582 0.288930893
1.000000000 0.454269588 0.313851893
0.999493957 0.469449341 0.329031914
0.998861372 0.487033546 0.356989324
1.000000000 0.510942459 0.389627069
0.999367416 0.539405406 0.421378970
0.997216642 0.568500876 0.457811564
1.000000000 0.604680657 0.494244337
0.252245009 0.341050029 0.198608071
0.246932074 0.341050029 0.198355094
0.245667070 0.345351070 0.200252846
0.248450160 0.350917220 0.204554066
0.256546497 0.353827059 0.209108070
0.259582877 0.359899044 0.203036070
0.269703031 0.366983056 0.197976068
0.287286729 0.372296095 0.191651031
0.308539122 0.377609134 0.184819937
0.329791546 0.380645514 0.181783542
0.354459047 0.375458360 0.179759905
0.389879525 0.376217604 0.174699575
0.439341962 0.389247656 0.174699277
0.503352106 0.415813088 0.186085030
0.561037183 0.434029043 0.186085030
0.618469357 0.450347841 0.190638989
0.671853364 0.458697021 0.195192859
0.719924092 0.459962070 0.199114189
0.768500984 0.466034085 0.205186993
0.819608092 0.471600115 0.221632004
0.860594690 0.472485781 0.234661728
0.895256162 0.472233057 0.247565165
0.934345007 0.478178561 0.268943995
0.964705825 0.484124064 0.290322900
0.983934283 0.491967320 0.309551030
0.994939983 0.501834393 0.330803305
0.999746978 0.511954129 0.355851024
0.996710598 0.527134478 0.386211008
0.998734832 0.546615839 0.418469459
1.000000000 0.573181391 0.449336141
1.000000000 0.603668630 0.479316980
1.000000000 0.637065053 0.515749037
0.267425418 0.386590362 0.228968799
0.270461798 0.386590362 0.225933194
0.273750812 0.390891910 0.225680232
0.274762660 0.399494201 0.228842810
0.274635971 0.408222795 0.233396813
0.274762481 0.408475786 0.227324814
0.280329198 0.424667776 0.231372818
0.299178094 0.428842485 0.226692110
0.323719501 0.429222107 0.215180293
0.344971925 0.432257861 0.196963921
0.374952406 0.432384372 0.205566287
0.404047906 0.425047487 0.202024400
0.444908321 0.428210169 0.199367583
0.500316501 0.446173042 0.204301029
0.567109227 0.464389801 0.207337409
0.622390568 0.485009611 0.209740579
0.676154137 0.498924583 0.213409171
0.725237131 0.505502522 0.217710391
0.768500984 0.511575222 0.226439342
0.817077756 0.512081206 0.235294059
0.862492085 0.515243471 0.250094712
0.899051309 0.517014503 0.265022218
0.931309402 0.520683229 0.284124374
0.961669385 0.523718894 0.308412433
0.982922137 0.527387679 0.329791248
0.994939983 0.538646340 0.353193998
1.000000000 0.554458797 0.379886031
0.999746978 0.569639206 0.407463372
0.999367416 0.579506576 0.432511032
1.000000000 0.603542149 0.467552096
1.000000000 0.632131755 0.503605127
1.000000000 0.658317387 0.540037811
0.294623584 0.439342171 0.252118796
0.290449172 0.444149196 0.263504177
0.284882993 0.444149196 0.251866013
0.290955156 0.450980723 0.253130972
0.293232054 0.461986393 0.258443981
0.295255780 0.470082372 0.256419986
0.302719623 0.478051543 0.262871802
0.315369964 0.489689976 0.260721087
0.340417475 0.488931268 0.253130883
0.364959300 0.488677919 0.241745904
0.397343576 0.488804400 0.232763842
0.427704096 0.484756380 0.229728237
0.460341573 0.478304952 0.223276779
0.505629301 0.485894620 0.222517565
0.561669767 0.501960576 0.225553408
0.626059353 0.524984360 0.230992988
0.677672148 0.540164351 0.235546783
0.727767110 0.549272120 0.240733549
0.773813963 0.557115734 0.249841958
0.819481552 0.552814782 0.261353433
0.862365544 0.558507502 0.276154250
0.899304152 0.559519351 0.290828586
0.928399682 0.558381021 0.306514978
0.961036980 0.561416686 0.330803603
0.975458264 0.569006860 0.352814853
0.991903841 0.576470494 0.378241539
1.000000000 0.591650546 0.406071931
1.000000000 0.604933202 0.431499004
1.000000000 0.614800572 0.460974216
1.000000000 0.638076901 0.490575701
0.998229027 0.664642572 0.527008176
0.995193005 0.684376776 0.561922789
0.323466182 0.493991345 0.283997357
0.324984372 0.500063360 0.288551569
0.310689598 0.503352582 0.286780596
0.310436368 0.505882561 0.281720221
0.319418192 0.515117347 0.287665755
0.323592454 0.527261376 0.288804382
0.331688702 0.538393259 0.291840523
0.347248554 0.547374725 0.298671663
0.364705652 0.551170230 0.291081458
0.388994664 0.548133910 0.288045853
0.416066051 0.548007369 0.277798802
0.451992482 0.546995401 0.266160607
0.485768616 0.540923417 0.259329706
0.522833288 0.537254572 0.252878129
0.569386363 0.543579817 0.248323768
0.624541521 0.558380783 0.253763169
0.683744550 0.581151366 0.261353374
0.731056333 0.588993967 0.268057942
0.777862191 0.596331179 0.277166367
0.822138071 0.597596586 0.289057404
0.863883734 0.596458077 0.304996461
0.898292243 0.603542209 0.323213249
0.924731195 0.599367678 0.336622357
0.951169908 0.602403700 0.358127803
0.973940492 0.606957436 0.381657481
0.984440207 0.616065800 0.405692816
0.997975945 0.627577424 0.435420454
1.000000000 0.638709545 0.460721076
0.998481810 0.651233375 0.485768616
0.995445788 0.669955552 0.519418299
0.998102367 0.698924363 0.551929355
0.995193005 0.714737177 0.584693372
0.352055550 0.549905062 0.327134699
0.362428904 0.555344641 0.322327673
0.353826910 0.559266269 0.316255540
0.343327105 0.563567638 0.313978553
0.354712099 0.570019126 0.322327137
0.360784113 0.581910074 0.325363457
0.370018870 0.592156708 0.327134699
0.384440213 0.603288829 0.329158694
0.405439615 0.611891150 0.334851176
0.420620024 0.608854771 0.331815571
0.442251951 0.607463241 0.322327673
0.472485751 0.607463241 0.313093096
0.510689378 0.606451273 0.301834464
0.549398720 0.600632250 0.298798084
0.587729216 0.594939649 0.285135686
0.633649826 0.595825315 0.281087548
0.686780810 0.609740734 0.288677722
0.740164518 0.628463089 0.299683690
0.782669365 0.631498754 0.308792114
0.822644174 0.637950838 0.321315527
0.861986160 0.640228093 0.336622119
0.896394670 0.641240001 0.352940798
0.920556903 0.644149125 0.371284038
0.939279020 0.646679461 0.390006125
0.960784376 0.649082839 0.412776679
0.980771959 0.654269159 0.439089149
0.992409945 0.663883507 0.465401590
0.998608410 0.673118353 0.492472947
0.996078193 0.686274767 0.515116930
0.993800998 0.704237878 0.543326914
0.989626586 0.726755142 0.575458586
0.998735011 0.744971156 0.605819404
0.385452062 0.610625982 0.372675985
0.400632411 0.613662362 0.372675985
0.402403802 0.616951168 0.367868423
0.397849798 0.621252358 0.363061190
0.397217035 0.627704382 0.361796409
0.403289020 0.636811972 0.364832044
0.414421022 0.641113281 0.370398670
0.427956760 0.649841964 0.372675985
0.445161104 0.660974085 0.374699980
0.466160536 0.669576466 0.380392492
0.490069777 0.663630903 0.368627280
0.514104962 0.662112892 0.362808347
0.543073893 0.662112892 0.354459375
0.576723933 0.661353886 0.341302991
0.607083976 0.658317506 0.338266611
0.643010616 0.645414174 0.319797248
0.689816415 0.647438169 0.316002220
0.743200123 0.661859572 0.327008158
0.791777074 0.670967996 0.345224977
0.823149800 0.679570317 0.359898686
0.856419742 0.682732999 0.374825746
0.887286246 0.683744848 0.388235152
0.911448479 0.686653972 0.398608506
0.932700932 0.686653972 0.419860929
0.951422989 0.686906993 0.443137556
0.970145404 0.689942956 0.470208943
0.986337960 0.697279990 0.498798072
0.995445490 0.709423959 0.520050406
0.991018057 0.718658805 0.544465661
0.992282987 0.730044007 0.570272148
0.994686663 0.744971216 0.595699012
0.992662966 0.763187945 0.614927113
0.457811832 0.668564081 0.415433735
0.453510135 0.671600521 0.415433735
0.460088521 0.674636364 0.417583972
0.462112755 0.678937078 0.417204261
0.464010119 0.684250414 0.417584091
0.465275109 0.686147809 0.418216527
0.473877430 0.695256054 0.426312149
0.485768467 0.700442731 0.429348409
0.499810219 0.709550798 0.432384610
0.517014563 0.718659222 0.442505121
0.541176140 0.718785703 0.433902740
0.559392691 0.716761708 0.423782229
0.580265403 0.716761708 0.419228405
0.606325090 0.716255724 0.410626441
0.631625772 0.710689723 0.397470057
0.664389551 0.702846348 0.387223482
0.700442731 0.692979097 0.374699444
0.746236444 0.699936688 0.378114909
0.794813395 0.715496361 0.392030686
0.826692104 0.721821427 0.399114758
0.857052386 0.723339796 0.414294809
0.886527240 0.722454369 0.429475218
0.910436511 0.723592699 0.442378581
0.926375926 0.723592699 0.458317280
0.947628260 0.723592699 0.484123647
0.963567376 0.723592699 0.507526696
0.976470709 0.727387786 0.532194436
0.981024921 0.737255037 0.553446829
0.990132511 0.746742189 0.580012858
0.990006208 0.757621765 0.599114478
0.995066345 0.769766092 0.620619655
0.997722983 0.784187376 0.640733361
0.524225473 0.716761470 0.465528458
0.525743127 0.721695125 0.465528458
0.522327185 0.720936477 0.467678696
0.522833586 0.723972082 0.470714629
0.527767181 0.729411483 0.473371446
0.533839166 0.732447445 0.473371446
0.539531767 0.736242771 0.471473873
0.548640192 0.745351195 0.480581462
0.562808335 0.751676202 0.485894620
0.580265641 0.759645939 0.500316381
0.592789233 0.761922717 0.495888591
0.607210457 0.763820469 0.486780673
0.620113850 0.760404825 0.476533651
0.639089227 0.758380711 0.471220762
0.666666508 0.757242441 0.462618768
0.686780572 0.746868908 0.449842185
0.718659103 0.743832886 0.439215988
0.751802683 0.737634480 0.433396339
0.790259302 0.743200481 0.439215690
0.829728007 0.757874429 0.449589193
0.860088766 0.758254230 0.457558453
0.883364916 0.755218327 0.470714867
0.902972996 0.754459262 0.484250695
0.919924200 0.756230474 0.501201570
0.935863554 0.756230474 0.519797444
