Assets/EldamarStudio/100 Retro LUTs Pack/LUTs/cube/Kelly LUT.cube
LUT_3D_SIZE 8
DOMAIN_MIN 0.000000 0.000000 0.000000
DOMAIN_MAX 0.903226 0.903226 0.903226
0.098039001 0.070588000 0.047059000
0.175205544 0.082732551 0.059203450
0.285262108 0.076913007 0.074510001
0.420999616 0.069449648 0.092473000
0.614674330 0.015053811 0.115875989
0.828463197 0.000000000 0.152814999
0.986211002 0.003289004 0.216950998
1.000000000 0.198355377 0.295761943
0.129791453 0.123086996 0.063883543
0.164199546 0.127387539 0.068184994
0.275395572 0.139532000 0.079949193
0.424920917 0.143832549 0.103352092
0.623782158 0.134851098 0.127387539
0.833523273 0.094876900 0.162428737
0.986843526 0.113346107 0.212776363
0.999240994 0.254269302 0.304364055
0.170019105 0.184946194 0.115243196
0.180265993 0.194307193 0.109297641
0.265655071 0.209994003 0.101075001
0.428842634 0.243263736 0.123086996
0.635800362 0.267046183 0.142568082
0.839848459 0.271473736 0.177861989
0.988614976 0.283365160 0.246552989
0.997975767 0.374319762 0.337381363
0.231498629 0.292726278 0.179379985
0.238583535 0.313598931 0.176470637
0.287792742 0.325996011 0.166856200
0.436812282 0.361669570 0.162049279
0.661353767 0.411891252 0.177735195
0.853257358 0.430486917 0.215180382
0.982922256 0.447944582 0.288930893
1.000000000 0.510942459 0.389627069
0.323466182 0.493991345 0.283997357
0.319418192 0.515117347 0.287665755
0.364705652 0.551170230 0.291081458
0.485768616 0.540923417 0.259329706
0.683744550 0.581151366 0.261353374
0.863883734 0.596458077 0.304996461
0.973940492 0.606957436 0.381657481
0.998481810 0.651233375 0.485768616
0.524225473 0.716761470 0.465528458
0.527767181 0.729411483 0.473371446
0.562808335 0.751676202 0.485894620
0.620113850 0.760404825 0.476533651
0.718659103 0.743832886 0.439215988
0.860088766 0.758254230 0.457558453
0.935863554 0.756230474 0.519797444
0.978747904 0.772169590 0.603921413
0.750158131 0.839468241 0.654142976
0.760025263 0.843137264 0.650221288
0.772422373 0.850348055 0.667299449
0.802023888 0.861226916 0.676533878
0.818722248 0.856040478 0.661480129
0.853637159 0.845161080 0.643643558
0.917267323 0.850601315 0.661606848
0.953953445 0.851992249 0.697153389
0.867045820 0.890322804 0.758380830
0.869829416 0.892599523 0.754585624
0.875648081 0.895383000 0.758253992
0.889183760 0.896774173 0.758380830
0.896268010 0.897912800 0.767615795
0.904364228 0.900569201 0.768753767
0.926754951 0.896142006 0.754458785
0.939911187 0.895509005 0.762428582
0.118785545 0.099556997 0.084250547
0.149778992 0.094497450 0.082732551
0.248450190 0.095256448 0.085389093
0.390133172 0.104996905 0.096394897
0.583048820 0.099304356 0.117520384
0.814167976 0.028210074 0.158127800
0.979126990 0.019734368 0.212017268
0.999620438 0.215180397 0.295761943
0.130550444 0.114863545 0.071726546
0.162681550 0.119923994 0.095256448
0.226059541 0.135989636 0.092093542
0.386211306 0.155218095 0.104617447
0.592789590 0.162681744 0.132574201
0.815559626 0.146236554 0.156609997
0.981910288 0.146110356 0.212396815
0.995192707 0.261479974 0.302719355
0.176343992 0.162175998 0.113599092
0.187729552 0.173940092 0.123466447
0.234282091 0.187602639 0.121062547
0.390385836 0.236179739 0.125364006
0.614295006 0.270588517 0.133839190
0.827577412 0.279696196 0.168627635
0.980645061 0.293864638 0.235799924
0.999620497 0.379506230 0.333206415
0.246679276 0.268564194 0.180391908
0.253890067 0.280708641 0.186337978
0.283111840 0.304996729 0.183175281
0.404680461 0.341303170 0.175078645
0.641745865 0.411511809 0.177355841
0.841745794 0.433649540 0.203036010
0.981277525 0.450727612 0.278431296
0.999620438 0.505882144 0.384187341
0.340290725 0.457179338 0.287286192
0.342441708 0.476786584 0.296394765
0.370524883 0.519797444 0.303732097
0.471347272 0.521315515 0.271979719
0.674763024 0.570525050 0.262744814
0.844528615 0.593801260 0.296015024
0.967109442 0.607210457 0.375458568
1.000000000 0.651233077 0.479696125
0.534598291 0.693864644 0.467931628
0.534218729 0.705376029 0.475521743
0.564453244 0.731182694 0.481593907
0.613915086 0.752182484 0.483997196
0.704490781 0.742314816 0.439721733
0.854395986 0.750158191 0.454649180
0.935863554 0.752687991 0.517394125
0.978368342 0.774320185 0.600253105
0.756989121 0.831878722 0.652498305
0.757748127 0.840480983 0.652751267
0.771536708 0.844149351 0.661100388
0.802909315 0.851865947 0.678810894
0.815306842 0.854901910 0.659076810
0.857178748 0.848703504 0.647564650
0.918911994 0.849209547 0.655661047
0.948766351 0.848956585 0.689563692
0.882479787 0.886400819 0.758380830
0.881340802 0.890954792 0.752055705
0.877040267 0.890955031 0.750917256
0.884630024 0.899051428 0.765464842
0.894117534 0.897786260 0.761036932
0.906261861 0.898924589 0.755344391
0.922201037 0.896901011 0.756103516
0.947501540 0.895256221 0.759139776
0.136369184 0.134850994 0.138646096
0.135610089 0.127387539 0.132827550
0.203795090 0.115243189 0.126122996
0.348133802 0.137634352 0.156230554
0.493358552 0.115369909 0.159139901
0.770272076 0.077798910 0.159266204
0.972422540 0.107146993 0.207337171
0.997343183 0.229348600 0.294496775
0.150158450 0.150917456 0.115117088
0.168627098 0.143453196 0.106894545
0.199873194 0.141049996 0.127766982
0.316508293 0.159519449 0.149652004
0.475648016 0.155597642 0.157115534
0.757368565 0.169765741 0.169260085
0.963820457 0.183934271 0.210120022
0.998102248 0.273371577 0.296141475
0.163061097 0.171663180 0.119038090
0.179886431 0.171283633 0.120303549
0.243643075 0.206072196 0.168501109
0.308665186 0.204047844 0.152308628
0.503478646 0.238204077 0.177103177
0.778874040 0.276913434 0.185199350
0.972549260 0.309424460 0.231498986
1.000000000 0.379632890 0.334092140
0.225553274 0.241619542 0.173813999
0.250347733 0.241999090 0.181657195
0.285895169 0.281593740 0.203162625
0.344212621 0.298292279 0.203288630
0.545224190 0.359392494 0.215686426
0.799999952 0.421758622 0.223529637
0.970018923 0.450727612 0.277672261
1.000000000 0.507020831 0.383807480
0.336116195 0.407843262 0.278684288
0.349652022 0.415306807 0.292093277
0.388361573 0.451612651 0.306009173
0.437191814 0.484503448 0.309550822
0.599746644 0.520683229 0.291967273
0.815813005 0.583934009 0.312586933
0.962049186 0.606325269 0.373814046
1.000000000 0.650348067 0.477419049
0.516381860 0.653763354 0.461733371
0.541682541 0.658443868 0.471347213
0.567994893 0.686401129 0.486907184
0.622644007 0.731688559 0.507526875
0.691461325 0.721821725 0.466287345
0.838330150 0.739531517 0.463504195
0.933080316 0.754206181 0.516635180
0.979886234 0.775079131 0.601518154
0.747121751 0.817457497 0.648450375
0.766856372 0.819861174 0.651739419
0.778621256 0.831625283 0.665148437
0.791903615 0.844908476 0.675268710
0.817077756 0.848956406 0.672865391
0.851992488 0.840227365 0.641619146
0.913472414 0.849083126 0.651486576
0.949652076 0.850601196 0.693864465
0.872106135 0.889563739 0.754079580
0.877040207 0.884630024 0.757748127
0.873877168 0.892093539 0.758506954
0.885642231 0.895509005 0.759645998
0.898545206 0.895509005 0.762934983
0.903099179 0.897406697 0.760404766
0.915243804 0.897280157 0.759392500
0.946489692 0.894244134 0.757115662
0.148513645 0.179379985 0.218595996
0.148892999 0.176723644 0.219734639
0.194813550 0.156736106 0.206324920
0.293738276 0.146868646 0.206324920
0.535989821 0.179506898 0.277292997
0.711448073 0.122833543 0.262744933
0.889183939 0.031625565 0.251106620
0.996964037 0.213282928 0.295002967
0.168247551 0.196204737 0.205692634
0.163820207 0.200632200 0.186337993
0.212397099 0.180139184 0.184440538
0.272865534 0.177103087 0.190259188
0.494876564 0.209234804 0.258064628
0.673624456 0.173308000 0.256546527
0.887412846 0.124098368 0.254269361
1.000000000 0.262238950 0.300569355
0.181909993 0.226818636 0.199620277
0.195572451 0.220493644 0.190385982
0.229221627 0.213915080 0.173814088
0.279570073 0.216192111 0.190638736
0.438456565 0.247944534 0.238077283
0.610246658 0.229980841 0.235673472
0.892220140 0.274763197 0.276154369
0.992536247 0.376344264 0.336369425
0.208475992 0.258444279 0.201264992
0.229221627 0.249462634 0.194939986
0.261733115 0.252245277 0.193801537
0.362175912 0.323466271 0.263503909
0.439721704 0.305503070 0.244781822
0.654902220 0.361669451 0.271220714
0.909677505 0.425679564 0.320303619
0.998734832 0.502972603 0.385578632
0.297659904 0.351549566 0.264010191
0.319671094 0.348387182 0.259835482
0.352055728 0.373940617 0.282352746
0.440480709 0.444275886 0.333965719
0.523339987 0.467425555 0.328020185
0.723592639 0.529411674 0.354585379
0.917773426 0.595192730 0.407084197
0.998734832 0.644528687 0.482859045
0.454016566 0.589753211 0.424415201
0.486907184 0.599746644 0.435167551
0.534977853 0.618848920 0.457938284
0.614168108 0.662365556 0.500948429
0.667552054 0.698545456 0.506388307
0.789373815 0.715622783 0.499810219
0.909171522 0.745477855 0.538899183
0.978621364 0.768247783 0.595698655
0.716002464 0.799241006 0.633396626
0.726755321 0.798861742 0.638583183
0.756989300 0.806325197 0.650853574
0.792030573 0.823782265 0.673750877
0.822011352 0.843010724 0.687160075
0.844529033 0.835926771 0.659456015
0.911069036 0.845034957 0.667046189
0.945856929 0.850601315 0.689942777
0.862997949 0.883112013 0.750663936
0.869955778 0.878051996 0.748386979
0.881973565 0.884377122 0.761163771
0.889816463 0.889184177 0.762302101
0.898418784 0.895762384 0.770778000
0.904364228 0.898292243 0.767742038
0.917393982 0.896901011 0.754965127
0.946236610 0.898544967 0.759898603
0.158380806 0.248323992 0.339784980
0.162049472 0.247058839 0.331941366
0.178115100 0.237191379 0.318659186
0.290575475 0.206451550 0.321441919
0.433902383 0.188867807 0.324984372
0.761163652 0.260341644 0.430993110
0.933206737 0.243010744 0.422770560
0.997596204 0.298039168 0.405945510
0.178368345 0.265528083 0.319291443
0.175078824 0.275016189 0.312334150
0.214674205 0.267552465 0.305376261
0.293485373 0.229474977 0.300948828
0.409867018 0.219354987 0.306641549
0.737507820 0.299683571 0.424161732
0.905376017 0.274509460 0.415180385
0.992915988 0.309298009 0.404301196
0.201517999 0.297533184 0.301454991
0.194686741 0.303225964 0.292726249
0.252371907 0.281088084 0.267678559
0.307526708 0.269450009 0.275648296
0.390638649 0.266287267 0.284250200
0.679949045 0.349905372 0.393927902
0.861606479 0.328652561 0.398102254
0.990006149 0.359265894 0.398102462
0.217710346 0.338520020 0.305123627
0.224035278 0.340670288 0.295129359
0.286021173 0.317520738 0.275268823
0.333586186 0.319418192 0.275901616
0.416191995 0.339026272 0.307400435
0.615053892 0.387981892 0.371283978
0.794813573 0.369006902 0.358000904
0.988740981 0.466666907 0.429601431
0.259456217 0.400126576 0.319291353
0.285136193 0.379253715 0.302466840
0.321189076 0.370398283 0.299937010
0.375079155 0.380897909 0.306514740
0.531688571 0.494244158 0.410373360
0.616318643 0.469449937 0.375584930
0.838836551 0.536242604 0.428969264
0.989500165 0.625553370 0.508918345
0.376723558 0.525237441 0.390512288
0.399494171 0.523971975 0.396710664
0.447564930 0.527767062 0.401138753
0.530550182 0.563567638 0.440860361
0.648703396 0.653763413 0.527134955
0.731056213 0.674256444 0.519797504
0.872865319 0.722960413 0.558633745
0.962175786 0.765464842 0.612523854
0.631878376 0.765464544 0.598228633
0.655913830 0.764579356 0.595825672
0.688804686 0.773181379 0.613788545
0.748260319 0.786970258 0.642884493
0.806198478 0.817330718 0.684630036
0.842504799 0.832384348 0.686653852
0.893611431 0.837065041 0.679822743
0.942694664 0.851360261 0.702213705
0.843390286 0.872991800 0.737887502
0.848197281 0.876407385 0.742694557
0.854775608 0.878304780 0.739405394
0.876786888 0.878431320 0.751549602
0.894749820 0.886274636 0.768880665
0.904617250 0.900442541 0.768753767
0.913851798 0.897027075 0.764326215
0.942947626 0.895762324 0.763820291
0.137254998 0.350410730 0.497153461
0.137254998 0.346489727 0.489184469
0.144845262 0.345730633 0.485388964
0.228968889 0.295888484 0.475395203
0.448703557 0.265907735 0.489690006
0.641745985 0.242883995 0.483238190
0.912586868 0.410879105 0.584566712
0.998102248 0.512587070 0.585199416
0.152182192 0.368753999 0.477039933
0.158254474 0.370777726 0.471979618
0.158633739 0.371536821 0.466034204
0.279949307 0.325616479 0.451359838
0.433396608 0.289563268 0.468184650
0.619608045 0.274004161 0.471094280
0.901834488 0.437697977 0.572801828
0.998734832 0.519291520 0.581151187
0.203415349 0.406704754 0.454269201
0.197216645 0.406578183 0.445034891
0.206072211 0.396837473 0.445540458
0.332953870 0.375332028 0.421884745
0.431878626 0.347248822 0.435041338
0.589753270 0.340290844 0.453510076
0.872865379 0.507273614 0.577103198
0.991144955 0.558127284 0.586211324
0.227197900 0.451612860 0.445667118
0.228462830 0.449968338 0.444149196
0.256040663 0.439342201 0.423908949
0.360278249 0.416318566 0.393927813
0.444275826 0.408095926 0.408728778
0.573687434 0.411258608 0.433523327
0.839721560 0.567235827 0.565085232
0.964073181 0.578114808 0.570651531
0.268690735 0.514737904 0.459709197
0.262618631 0.514737785 0.460468113
0.328399897 0.500948429 0.448450565
0.402656376 0.474256635 0.405692816
0.485009819 0.475142479 0.417077482
0.607084155 0.521188915 0.471599996
0.804933608 0.591271400 0.538267016
0.934218466 0.591270983 0.540544093
0.320683450 0.591271460 0.481467456
0.338646710 0.587350011 0.479822457
0.394180894 0.574952304 0.465654433
0.471726745 0.557748199 0.456673086
0.551296711 0.568247676 0.466919690
0.707147717 0.673624456 0.563946486
0.800759077 0.667299509 0.551423192
0.941049933 0.736495674 0.624667645
0.527514160 0.724098802 0.571283877
0.538772643 0.723719120 0.574952304
0.578241765 0.723845780 0.571283758
0.641366303 0.728652954 0.585578501
0.731056213 0.755850554 0.623276532
0.828210294 0.812650263 0.692979038
0.868564308 0.821758509 0.687919259
0.924731195 0.844149232 0.706008792
0.818975389 0.860973895 0.723212957
0.822011352 0.860088646 0.726375341
0.818975389 0.865780771 0.727134466
0.842251599 0.868184805 0.738899410
0.872865319 0.875268817 0.752434909
0.905376077 0.889816523 0.770145833
0.911954045 0.896141887 0.776596785
0.938140213 0.895762086 0.771789670
0.251739830 0.484503269 0.670461535
0.246805787 0.484123826 0.667805254
0.238456637 0.479063660 0.662745118
0.229348466 0.467046201 0.652624905
0.384946257 0.398482263 0.667931855
0.629221916 0.366097569 0.674509525
0.840354502 0.365844548 0.672738791
0.975331962 0.601517916 0.692346811
0.251865834 0.491840303 0.661227286
0.249209091 0.493737996 0.663883746
0.247311831 0.488551289 0.654016316
0.269070029 0.489816636 0.645034909
0.404174805 0.424414814 0.657558501
0.629728198 0.400252819 0.659961820
0.835167587 0.398734629 0.661353827
0.962934971 0.615433395 0.693864286
0.286148012 0.533206522 0.647185385
0.288551211 0.535104096 0.645160973
0.288045347 0.530044317 0.639848232
0.322201252 0.525237262 0.626565397
0.458443940 0.489057630 0.625679612
0.627324581 0.468943864 0.638330102
0.812144518 0.469323337 0.649968326
0.948513567 0.668690324 0.693105698
0.340290815 0.577608824 0.625806510
0.342441469 0.579253554 0.628969312
0.335484087 0.578494668 0.616571784
0.377482623 0.573054850 0.600632489
0.527134895 0.569133461 0.598355174
0.630992830 0.541176319 0.619607925
0.785958171 0.548513591 0.628589511
0.930929720 0.719544649 0.702466607
0.401517928 0.643769443 0.621631742
0.400000006 0.642125189 0.624920726
0.395951807 0.638203740 0.618342519
0.426945120 0.627071381 0.614927053
0.555850327 0.611385584 0.583175242
0.645540774 0.616824567 0.602782786
0.779506445 0.628463089 0.625553548
0.923845768 0.770525038 0.708791912
0.492219985 0.708539009 0.639595091
0.491840541 0.711954474 0.643769562
0.485642254 0.711448133 0.639848292
0.509044886 0.700822473 0.622896910
0.601770937 0.678051710 0.611131907
0.684756279 0.672232807 0.594687045
0.793927789 0.723086536 0.646932542
0.904364228 0.781530857 0.701201618
0.588615119 0.774067283 0.658064544
0.580898106 0.772042990 0.658443987
0.585452199 0.770777822 0.654775560
0.604047775 0.764579535 0.654269218
0.677672327 0.753320873 0.642884433
0.743326485 0.750537217 0.639089584
0.832258344 0.804807246 0.691081285
0.907273531 0.815180361 0.708918273
0.776849866 0.843642890 0.709298015
0.779253542 0.848703623 0.724351764
0.778747678 0.848070979 0.719924152
0.790006340 0.853130817 0.720682919
0.822264314 0.854269624 0.725490212
0.871094108 0.860341787 0.749525487
0.909298003 0.885894954 0.778241336
0.930929780 0.894497275 0.777355731
0.560657501 0.663377464 0.764958918
0.559266210 0.661985755 0.763566971
0.552688360 0.663377464 0.762302101
0.539784729 0.651865780 0.762049139
0.532827020 0.628715992 0.758507311
0.626312315 0.580012441 0.775711894
0.784946144 0.556230247 0.785072803
0.940037966 0.594307184 0.779506624
0.548766375 0.660847425 0.770777762
0.547121704 0.657178998 0.763566971
0.546362758 0.653890073 0.761543214
0.533712447 0.652371824 0.759772003
0.541935503 0.629728019 0.761922896
0.628969312 0.591271162 0.770651519
0.785072803 0.576217413 0.775585055
0.929664671 0.610246897 0.772675514
0.568753719 0.679190457 0.762175739
0.569259584 0.684630036 0.759012878
0.563820243 0.683111787 0.758886874
0.559772372 0.676787019 0.756862581
0.603289187 0.680834711 0.753067613
0.677798867 0.648829699 0.762555122
0.791903853 0.637064874 0.765211940
0.925616860 0.658443809 0.767362475
0.604301095 0.716128767 0.755344629
0.605312884 0.713092804 0.750031829
0.602023721 0.713852108 0.750031352
0.596204996 0.713725209 0.751802564
0.635040939 0.718912423 0.747880995
0.705629230 0.706261516 0.743200660
0.807463586 0.696521044 0.755344391
0.915749192 0.708412588 0.752561569
0.645161510 0.753699958 0.741808593
0.650473952 0.756356776 0.743073940
0.650094807 0.754079759 0.747248590
0.643516541 0.748386919 0.741682589
0.651233375 0.751296401 0.733206809
0.758001149 0.759392977 0.735483646
0.817836881 0.751296401 0.744592071
0.900695741 0.759519339 0.754459143
0.706641555 0.802403450 0.745477796
0.707780004 0.801138639 0.744212687
0.712966383 0.796457648 0.749398947
0.705123186 0.794939816 0.743580103
0.694750011 0.791018367 0.745603979
0.765338480 0.793548465 0.733080506
0.829981029 0.801518083 0.740164697
0.896900773 0.809740663 0.750663936
0.769765794 0.839721501 0.753573477
0.770398498 0.836179674 0.749272645
0.766856134 0.837065279 0.748893082
0.764073372 0.834282041 0.746110201
0.752308607 0.833396733 0.744465351
0.791271508 0.831119418 0.743706346
0.839974701 0.825679839 0.735990047
0.898165882 0.846679330 0.764073312
0.821378767 0.865654767 0.764832139
0.823782325 0.871220589 0.765464783
0.828462899 0.868816972 0.759139538
0.826818228 0.869575799 0.764958918
0.824920654 0.866539836 0.760151803
0.839974523 0.865780771 0.759898782
0.877672255 0.866919577 0.759392381
0.913978636 0.876027763 0.767615795
