Assets/EldamarStudio/100 Retro LUTs Pack/LUTs/cube/Kelly LUT.cube
LUT_3D_SIZE 5
DOMAIN_MIN 0.000000 0.000000 0.000000
DOMAIN_MAX 0.903226 0.903226 0.903226
0.098039001 0.070588000 0.047059000
0.257937700 0.082985580 0.076786712
0.515369773 0.053510174 0.107906409
0.871980131 0.000000000 0.160910994
1.000000000 0.198355377 0.295761943
0.160152003 0.169006705 0.104616992
0.236053407 0.185705408 0.091208287
0.526501775 0.228589699 0.125237122
0.886653841 0.230233967 0.185452119
1.000000000 0.342441320 0.329538316
0.267425418 0.386590362 0.228968799
0.299178094 0.428842485 0.226692110
0.567109227 0.464389801 0.207337409
0.899051309 0.517014503 0.265022218
0.999367416 0.579506576 0.432511032
0.584946275 0.757242262 0.519165099
0.613408983 0.777735710 0.527134776
0.703858256 0.791777372 0.522833645
0.884377003 0.785579145 0.517267406
0.969386399 0.797975957 0.629981220
0.867045820 0.890322804 0.758380830
0.874383092 0.895888865 0.755217969
0.891713798 0.898166001 0.766350627
0.908159316 0.897533119 0.762681603
0.939911187 0.895509005 0.762428582
0.137887001 0.124224991 0.124224991
0.188614711 0.106894284 0.114737704
0.413029939 0.120935991 0.138013989
0.844908237 0.086654127 0.162555307
0.998355269 0.227830440 0.298038930
0.156230003 0.152687699 0.109170996
0.214800686 0.181783408 0.141935408
0.409108490 0.206957698 0.152688116
0.856040716 0.256419808 0.180139273
0.998734832 0.353826463 0.323718876
0.281214386 0.325363666 0.226312399
0.323086798 0.354838490 0.243011102
0.485642046 0.408855200 0.234155402
0.878304839 0.517646909 0.260468245
0.997343421 0.585199296 0.432004750
0.597596347 0.709171116 0.512839854
0.623149991 0.740291238 0.535483479
0.696647763 0.775837958 0.541682363
0.879316866 0.782036662 0.518153250
0.969259977 0.797090232 0.627324641
0.875395238 0.890575886 0.755091846
0.875142276 0.892346680 0.763566971
0.894876957 0.895888865 0.759266078
0.907906175 0.895888865 0.759392500
0.944465399 0.896521151 0.760910809
0.153573588 0.212523401 0.271473378
0.172295704 0.200758994 0.259329677
0.361036986 0.173940822 0.257684976
0.799241066 0.168121383 0.351549655
1.000000000 0.198102564 0.325742960
0.185704991 0.252751261 0.246299684
0.220366985 0.239974409 0.223023385
0.328272969 0.225933105 0.231246114
0.708665073 0.252751529 0.316508412
0.998735011 0.324098587 0.351929218
0.232763991 0.325742930 0.246552393
0.279190391 0.301201671 0.239721701
0.453257382 0.402909786 0.336875379
0.686780393 0.421884805 0.333965927
0.998102367 0.571789622 0.448197186
0.480328828 0.619861007 0.456293553
0.534218788 0.633902848 0.477419138
0.678684413 0.705376565 0.558380783
0.808855295 0.745477736 0.551423252
0.965717733 0.793168783 0.632257938
0.851233780 0.877925396 0.743959665
0.861733258 0.876913309 0.743959367
0.889690220 0.892346382 0.768880844
0.910942137 0.893232226 0.763946533
0.950410962 0.896900952 0.766983211
0.143326998 0.379759401 0.542694390
0.138266861 0.374826252 0.535484016
0.309677482 0.303225726 0.537128210
0.702467203 0.261100233 0.537887275
0.993547976 0.572296143 0.628209949
0.184440255 0.423149824 0.515243530
0.184060708 0.424162120 0.501707852
0.363693655 0.378494531 0.487413079
0.655534685 0.348386943 0.507400334
0.980771363 0.609234512 0.630486965
0.261353701 0.510563135 0.499557376
0.258317411 0.513851941 0.484124243
0.432384372 0.475268960 0.434155375
0.633902490 0.495256245 0.497280389
0.946995676 0.645920515 0.614800692
0.372296363 0.638836384 0.527008355
0.403541833 0.634914398 0.528652728
0.538519919 0.609361410 0.512587130
0.741556287 0.714105248 0.600379288
0.929917514 0.758253992 0.648197055
0.804553986 0.857432127 0.718658924
0.817963362 0.858696938 0.726881623
0.843516767 0.865275145 0.736875355
0.907147050 0.890069544 0.772169828
0.935104132 0.893991113 0.772801936
0.560657501 0.663377464 0.764958918
0.553447187 0.661100447 0.761036932
0.533206522 0.650347590 0.762302101
0.660214901 0.573940396 0.769892514
0.940037966 0.594307184 0.779506624
0.563440502 0.674130321 0.767235935
0.559519231 0.673497915 0.761669934
0.550031364 0.666287363 0.761037230
0.688425124 0.633649290 0.763061225
0.925616801 0.644781709 0.772422552
0.633016765 0.740417600 0.754585683
0.628083110 0.732574165 0.747375250
0.610752642 0.732574403 0.744085968
0.750158191 0.733586311 0.741809070
0.905502379 0.739785016 0.752561390
0.722327590 0.814041615 0.746742606
0.728905559 0.811385095 0.745351076
0.709677279 0.802276969 0.742441475
0.785072923 0.801391661 0.735357523
0.898671448 0.820873082 0.756736100
0.821378767 0.865654767 0.764832139
0.826185703 0.869829118 0.766223788
0.823403001 0.867678404 0.764326394
0.851865947 0.865274966 0.757368684
0.913978636 0.876027763 0.767615795
