Assets/EldamarStudio/100 Retro LUTs Pack/LUTs/cube/Kenneth LUT.cube
DOMAIN_MIN 0 0 0
DOMAIN_MAX 1 1 1
LUT_3D_SIZE 32
0.109803997 0.054901998 0.011765000
0.115875997 0.051865615 0.011765000
0.117647000 0.050980002 0.011765000
0.117647000 0.050980002 0.011765000
0.117647000 0.050980002 0.011765000
0.117647000 0.050980002 0.011765000
0.120177321 0.053510323 0.014294676
0.123213284 0.054901998 0.015686000
0.126249090 0.055661097 0.016445095
0.129285485 0.058697488 0.019481482
0.132321119 0.061733127 0.016698129
0.135357261 0.064769253 0.017710255
0.139532000 0.068944000 0.019608000
0.145603999 0.074762970 0.019860968
0.151675999 0.077798583 0.022896579
0.160151809 0.085641801 0.030739799
0.169260189 0.090195999 0.035294000
0.178368405 0.092093565 0.037191570
0.187476039 0.101201974 0.046299972
0.191018358 0.104743645 0.049841650
0.199746996 0.111574732 0.052877739
0.209867001 0.119670995 0.056925997
0.216318488 0.125742987 0.063124500
0.231498897 0.131815001 0.072232902
0.244401991 0.142441571 0.083617993
0.256546319 0.154585987 0.095761977
0.268691003 0.166730002 0.107906125
0.280835003 0.178873986 0.120050892
0.298291981 0.196331635 0.137507960
0.318279147 0.216319159 0.153953180
0.339531571 0.240227953 0.174446568
0.360783994 0.270588011 0.207843006
0.112839609 0.048829999 0.008728613
0.106767610 0.057938386 0.011765000
0.108538613 0.052751224 0.009614226
0.113598935 0.052245162 0.011258612
0.120683387 0.054016385 0.014800613
0.120683387 0.054016385 0.014800613
0.120683387 0.054016385 0.014800613
0.124857992 0.056546707 0.014041712
0.128526390 0.057938386 0.014168385
0.129285485 0.058697488 0.019481484
0.135230988 0.064642996 0.019608000
0.138393134 0.067805126 0.020746127
0.143706262 0.070841253 0.024920901
0.151423037 0.075015999 0.028463356
0.154712394 0.080834970 0.025932964
0.163187578 0.081467390 0.026565386
0.172295809 0.088678196 0.033776190
0.180771604 0.094497383 0.039595380
0.187476054 0.101201981 0.046299972
0.199367717 0.110309653 0.049841650
0.203162655 0.113851734 0.056672737
0.210879132 0.120683126 0.064010121
0.219354883 0.128779382 0.072232887
0.234535292 0.134851396 0.081341282
0.245161086 0.143200681 0.085895091
0.257937640 0.155977294 0.097153649
0.271726727 0.169765741 0.110942379
0.283871382 0.181910381 0.123086497
0.298671544 0.196711197 0.137887418
0.320050389 0.218089923 0.159266382
0.340796977 0.243263796 0.180898353
0.357748389 0.273624390 0.207843006
0.118026547 0.049209226 0.005692774
0.116255552 0.056167386 0.008728613
0.112333775 0.056673225 0.007464001
0.114863776 0.053130776 0.006957613
0.124098770 0.055281546 0.012523548
0.125870004 0.057052772 0.017836774
0.125870004 0.057052772 0.013535774
0.125870004 0.057052772 0.013535774
0.130170897 0.059582904 0.012523904
0.131562218 0.060974229 0.017204229
0.137381211 0.066793226 0.021758227
0.143453732 0.068817228 0.023782482
0.147754550 0.074003644 0.025679775
0.155850738 0.078811005 0.029475259
0.162681639 0.081087999 0.030234359
0.168374732 0.086654000 0.033902772
0.175964534 0.089690000 0.035420578
0.184440181 0.097533219 0.042631220
0.192030013 0.103605233 0.048703235
0.199367717 0.110309653 0.054143198
0.207717001 0.117520481 0.059076544
0.215053901 0.121821769 0.067931637
0.226439238 0.129791468 0.076786742
0.237571135 0.137887225 0.081847131
0.250348240 0.148387283 0.092852712
0.260847509 0.156103984 0.098671667
0.274762779 0.168500766 0.111827992
0.286907136 0.180645108 0.123971984
0.303858131 0.197596803 0.140923575
0.322580159 0.219861150 0.161416695
0.344718426 0.247185335 0.184819803
0.361164004 0.278811008 0.207843006
0.124099001 0.050980002 0.007716838
0.122833841 0.055787612 0.009487612
0.123213388 0.057938386 0.008222774
0.120177001 0.054901998 0.005186839
0.126628548 0.055281546 0.009360999
0.131435931 0.058317933 0.019354774
0.131941989 0.061353996 0.017078001
0.133206829 0.062618837 0.015559838
0.133965924 0.063377932 0.014800936
0.137001678 0.066413686 0.016824679
0.141682312 0.069829158 0.020240162
0.146489352 0.073118001 0.024288096
0.152561843 0.075395286 0.028463127
0.159139901 0.083871134 0.028969130
0.169259891 0.084883004 0.032005254
0.174699441 0.088425159 0.036179997
0.180771828 0.094497159 0.041998968
0.186843827 0.100569151 0.045667153
0.195319057 0.106641166 0.051739171
0.204174712 0.113978326 0.059076712
0.208981842 0.118785322 0.063883834
0.215053841 0.124857843 0.067931838
0.229601681 0.131056339 0.076407015
0.242125273 0.140164271 0.082859069
0.252245575 0.150284573 0.091460995
0.263124794 0.160910830 0.102213666
0.276280940 0.167994976 0.112334058
0.289943159 0.180139154 0.125237152
0.307400137 0.198861629 0.140164465
0.326122165 0.219861150 0.160657927
0.347374588 0.248956561 0.182289600
0.365970850 0.282353014 0.202783003
0.130171001 0.051739097 0.016445000
0.127514154 0.055154931 0.016065547
0.128399774 0.057811771 0.014294773
0.129664823 0.059076838 0.012017838
0.127387553 0.056419998 0.008602000
0.136495933 0.059456386 0.020745998
0.138772994 0.065022446 0.021378774
0.140037835 0.069070287 0.021252289
0.142694101 0.071726546 0.023149548
0.145730495 0.074762933 0.020113934
0.149525866 0.074889451 0.020367000
0.152941287 0.077292837 0.022390837
0.156356558 0.080708288 0.025806289
0.162428558 0.086780995 0.031879000
0.174320281 0.089943126 0.035041124
0.179633200 0.093358800 0.038456801
0.183807537 0.097533450 0.042631447
0.190259084 0.103605442 0.048703540
0.196331114 0.109677464 0.054775558
0.207969725 0.118912362 0.063251361
0.214421257 0.124225251 0.068564259
0.219607532 0.128272995 0.071726546
0.225806043 0.134471506 0.072106048
0.243263811 0.143579915 0.083997808
0.254649282 0.152688295 0.093864702
0.264136851 0.162175864 0.103352211
0.274003565 0.171789572 0.112334058
0.292220324 0.183934331 0.127514422
0.310056955 0.203289241 0.140417516
0.328652471 0.224541619 0.157874703
0.348133683 0.248197556 0.178494588
0.369386107 0.281594008 0.193674996
0.136243001 0.057811871 0.022516999
0.136243001 0.063883871 0.019481387
0.135736927 0.065148935 0.019101935
0.137507841 0.066919841 0.019860838
0.139531553 0.068563998 0.020746000
0.142567933 0.068563998 0.014673999
0.149146006 0.074130058 0.021757999
0.150916994 0.076913066 0.023023065
0.151422933 0.077418998 0.023529001
0.151802495 0.077798545 0.023149550
0.160657883 0.077925064 0.025932934
0.166729987 0.081973575 0.028463256
0.170018926 0.085262865 0.030360872
0.171536922 0.086780995 0.031879000
0.177608922 0.092852995 0.037950993
0.184693053 0.098418929 0.043516930
0.188741192 0.102466807 0.047564805
0.193548515 0.106641062 0.051739220
0.202403888 0.112713076 0.057811942
0.214041874 0.124351777 0.063883938
0.220493257 0.130297258 0.068564259
0.227577120 0.134344995 0.073624127
0.240986437 0.140543506 0.081214443
0.250094831 0.149651915 0.090322845
0.260721266 0.158760294 0.099936694
0.271220982 0.169259980 0.110436335
0.282858938 0.180897921 0.121062934
0.295255959 0.193041950 0.127514422
0.310815901 0.207842872 0.142694801
0.330044150 0.227577224 0.160911098
0.351676106 0.249715254 0.183048904
0.375458896 0.275521994 0.205819011
0.144845322 0.068944000 0.020999324
0.147375003 0.072485670 0.023023065
0.147375003 0.074256673 0.022137677
0.147375003 0.074256673 0.022137677
0.149145871 0.076027550 0.023908548
0.152182266 0.078178324 0.024288321
0.160277992 0.078178324 0.025806645
0.164705709 0.082606032 0.030233933
0.166350409 0.084250547 0.031878419
0.168121636 0.086021319 0.033649646
0.169260189 0.086021319 0.034029193
0.174320057 0.088045575 0.037065059
0.179885998 0.093612000 0.040101320
0.183174998 0.096647970 0.041745964
0.189246997 0.100442670 0.045540668
0.195319608 0.106514670 0.051613282
0.201391637 0.112587065 0.057685316
0.206072316 0.117267631 0.062365636
0.213282973 0.123339653 0.068437941
0.220114008 0.129917711 0.074510008
0.232257992 0.136369258 0.076787002
0.238203317 0.140417263 0.080202319
0.248576492 0.146616116 0.087792501
0.257684886 0.155723915 0.096900910
0.271347284 0.169386283 0.110563278
0.280961663 0.179000661 0.120176949
0.292473257 0.190512389 0.130676731
0.306640983 0.204680637 0.138772994
0.323972136 0.222011134 0.155344471
0.344465256 0.242504701 0.175838053
0.367362201 0.268943578 0.198735192
0.391651005 0.299809992 0.223023638
0.160531700 0.081087992 0.027830701
0.156989321 0.077545613 0.024288321
0.161163703 0.081720419 0.028462704
0.161163703 0.081720419 0.028462704
0.161163703 0.081720419 0.028083254
0.162934929 0.083491646 0.028589644
0.169386372 0.087286703 0.034914605
0.173560709 0.085642003 0.033017289
0.176597089 0.089437284 0.036812000
0.179633483 0.093358517 0.040733777
0.181404278 0.095129706 0.042504996
0.185072735 0.097153537 0.044528738
0.188108638 0.100189924 0.045287643
0.193674698 0.105755992 0.047564998
0.199746698 0.110183284 0.051992286
0.204174608 0.113978408 0.055787608
0.213282987 0.118532218 0.061859995
0.219607979 0.124478281 0.067931987
0.225680009 0.130550295 0.074004009
0.231752008 0.136622280 0.080076009
0.238329977 0.142441675 0.085641995
0.249462128 0.147501290 0.088678122
0.256419688 0.154206276 0.095509179
0.267045885 0.161796093 0.104617193
0.279063970 0.175458282 0.113346279
0.292852670 0.189247325 0.127134979
0.303226054 0.199620634 0.137507781
0.318405956 0.214800730 0.148893148
0.336242646 0.232637659 0.165970653
0.356356621 0.256040365 0.184440091
0.381530285 0.283871174 0.209614292
0.406578004 0.320303410 0.234661996
0.177229896 0.090955094 0.039216001
0.169639707 0.085641809 0.033143610
0.169007003 0.085009456 0.032511096
0.174066991 0.090069897 0.037571095
0.174825996 0.089690447 0.037571095
0.175585002 0.089310996 0.034914937
0.179126993 0.093611903 0.038203776
0.182669088 0.095509291 0.042884003
0.184187099 0.094749995 0.039848190
0.187223494 0.100822002 0.045920193
0.190259323 0.104743965 0.047564872
0.193801194 0.107020929 0.049841840
0.200252637 0.110056639 0.052877646
0.203035995 0.112839997 0.050094999
0.208095998 0.117899992 0.055154990
0.212523714 0.122327700 0.059582703
0.217836991 0.125363901 0.063377999
0.229348570 0.129664660 0.070082568
0.235547110 0.135863200 0.076281108
0.241619110 0.141935185 0.082353108
0.249209091 0.147248387 0.088425092
0.256293237 0.154332966 0.093991026
0.265401602 0.163440600 0.103099406
0.276913196 0.170145199 0.112207197
0.289057583 0.182289362 0.120556481
0.301201969 0.196078226 0.129412070
0.314357996 0.209235027 0.142568082
0.329791337 0.224667728 0.158001423
0.349146068 0.243263721 0.175079048
0.369133234 0.266793251 0.194813311
0.392156661 0.294497192 0.214168474
0.419481099 0.330929995 0.241492897
0.180265531 0.093991488 0.039216008
0.177229911 0.100063488 0.042251617
0.173940718 0.099051207 0.040480781
0.175079003 0.100189522 0.041619491
0.180898011 0.104870066 0.046679489
0.186970010 0.101834461 0.046679489
0.187729016 0.103984684 0.041493014
0.189626724 0.105502523 0.044275779
0.193295494 0.106894009 0.051992200
0.199367508 0.112966016 0.058064971
0.202403888 0.119038753 0.055408102
0.203415990 0.120936491 0.054649007
0.207084328 0.122201324 0.057052489
0.215180010 0.124983996 0.062239006
0.215180010 0.124983996 0.062239006
0.220239997 0.130043983 0.067299001
0.224667713 0.134471714 0.071726717
0.229348585 0.138773069 0.076154582
0.238456994 0.147881463 0.085262977
0.244655520 0.154079974 0.091461495
0.254522502 0.158254236 0.097533487
0.265401632 0.163440660 0.102593362
0.274509996 0.172548980 0.106135026
0.283618391 0.181657404 0.115243435
0.295129985 0.192915976 0.126628488
0.307273984 0.205186471 0.138519868
0.320430011 0.218342647 0.151676491
0.338645995 0.236559406 0.169892460
0.362049162 0.257305771 0.185325816
0.384313643 0.281973630 0.205945417
0.407337040 0.309298038 0.229095101
0.434661478 0.337002009 0.250600517
0.192029998 0.105756000 0.050853997
0.191903517 0.103099123 0.048070613
0.191018134 0.107020900 0.051106773
0.191271171 0.108032711 0.052119158
0.195319414 0.112080544 0.056167319
0.198861748 0.114104927 0.058696996
0.199873745 0.111068681 0.056167319
0.203162745 0.114990413 0.057052866
0.207463771 0.118279643 0.061859645
0.211384982 0.122200869 0.061480094
0.214547873 0.125363737 0.064642996
0.217583746 0.129411742 0.065654613
0.221884772 0.130297124 0.067678638
0.230486900 0.131562024 0.071220838
0.233143747 0.134218872 0.068563998
0.237950742 0.139025867 0.073370993
0.245540917 0.146616071 0.083997190
0.251360148 0.152435288 0.092599578
0.255913973 0.156989112 0.097153969
0.262239009 0.163314134 0.103478998
0.268310994 0.169386595 0.109550998
0.276407242 0.174446732 0.113599002
0.283871323 0.181783855 0.115116850
0.298545033 0.193674907 0.127007902
0.309930712 0.205059990 0.138393566
0.322074831 0.217204332 0.150537729
0.335230857 0.231372729 0.163188070
0.353446841 0.254395872 0.179000854
0.366350532 0.272612631 0.202529818
0.389626771 0.295382798 0.223782375
0.414674193 0.323339581 0.246299714
0.444022864 0.354711980 0.265527874
0.208222508 0.113851994 0.060974251
0.210246250 0.114864118 0.057937864
0.210246250 0.114105023 0.061226770
0.210246250 0.114611089 0.064263150
0.211764529 0.116887800 0.066160992
0.211511940 0.123213187 0.064263321
0.218090251 0.123213187 0.066287056
0.219734535 0.123465799 0.066540442
0.224668086 0.128399834 0.071473897
0.227704018 0.131435767 0.070967510
0.230739862 0.134471595 0.073750861
0.233776242 0.137507990 0.076787248
0.236811846 0.140543893 0.079822861
0.243896037 0.141935512 0.083111987
0.248703659 0.146742672 0.085388832
0.254143238 0.152182251 0.089563236
0.258697063 0.156736061 0.094117433
0.266160727 0.164199889 0.105376244
0.270588040 0.168627560 0.109803975
0.276407510 0.174446523 0.115622997
0.282479525 0.180518508 0.117899984
0.289563388 0.187603116 0.124731123
0.296774238 0.194813728 0.128146753
0.308159351 0.205060005 0.138393521
0.323086560 0.219228253 0.152561307
0.335230947 0.231372222 0.164706051
0.348387122 0.244528860 0.177862242
0.366603494 0.265781224 0.194560438
0.385578901 0.288804382 0.211638197
0.404807180 0.310563117 0.235926628
0.429095447 0.334851205 0.260215223
0.457179248 0.364832014 0.280708253
0.226438984 0.124477990 0.071220994
0.229474902 0.127514377 0.070461892
0.231498629 0.129538640 0.072738640
0.230360284 0.128273472 0.075268805
0.230360284 0.125616640 0.077925645
0.228083581 0.132447928 0.073371641
0.232890666 0.135104641 0.074889317
0.238709927 0.136748925 0.077925347
0.242504641 0.140543640 0.080202639
0.245920479 0.143959478 0.082858808
0.248956412 0.146995410 0.085894868
0.251992255 0.150031254 0.088931255
0.256166995 0.154206276 0.093105987
0.259202659 0.157242596 0.096141607
0.264389813 0.162428990 0.101327993
0.270461977 0.168500990 0.107400283
0.276154429 0.174193442 0.113092825
0.279190212 0.177229226 0.116129056
0.284756303 0.182795942 0.121695004
0.291967064 0.190006644 0.128905639
0.298039645 0.196078628 0.135736629
0.305123508 0.203162760 0.138772756
0.314357638 0.212397620 0.147754624
0.324478179 0.222517386 0.155850902
0.337001920 0.235040903 0.168374330
0.353067607 0.251106888 0.184439957
0.366223782 0.264768839 0.196584627
0.384440541 0.283617884 0.213535622
0.406451792 0.307147205 0.232511088
0.428336561 0.333712667 0.254143029
0.453510225 0.360657841 0.277546227
0.478051990 0.385704935 0.301581293
0.244402036 0.142441034 0.083618037
0.247691393 0.145730391 0.086907379
0.250221282 0.148260772 0.088931225
0.250980169 0.149019867 0.090196125
0.248830035 0.146869034 0.087539963
0.248830035 0.146869034 0.087539963
0.251106739 0.149146318 0.090322673
0.254142702 0.152182341 0.092852704
0.257685035 0.155724034 0.095889032
0.263757020 0.161796033 0.095889032
0.266919881 0.164958909 0.098798163
0.269955754 0.167994767 0.101834290
0.274130017 0.172169238 0.106009029
0.280202031 0.178242028 0.112081029
0.283238441 0.181277648 0.115116641
0.288931042 0.186464027 0.120556600
0.294750065 0.192283049 0.126376018
0.300442606 0.197975621 0.132068485
0.303479016 0.201012015 0.135104120
0.311827719 0.209867358 0.143200353
0.319291502 0.217331022 0.153953031
0.326375902 0.224415153 0.165085167
0.335610032 0.233776495 0.174067020
0.347754836 0.246047005 0.180139035
0.360152006 0.258444011 0.191018045
0.374573052 0.273624331 0.205945328
0.392789155 0.292094022 0.223656058
0.411005914 0.313345641 0.235800058
0.434281975 0.337001681 0.258317679
0.457052231 0.364832342 0.283618152
0.481087655 0.395572573 0.309930623
0.508412063 0.428969026 0.331183046
0.259582400 0.157621413 0.098798409
0.265654415 0.163693398 0.104870394
0.264642775 0.162681758 0.099557206
0.264136821 0.162175998 0.099303998
0.264263391 0.162302420 0.102719560
0.270082384 0.168121397 0.102719560
0.270082384 0.168121397 0.107779562
0.272359103 0.170398697 0.108285688
0.275395066 0.173434719 0.109551087
0.278937429 0.176976398 0.117141396
0.282100290 0.180139273 0.120050520
0.285136133 0.183175147 0.123086646
0.289310396 0.187349409 0.127261400
0.295382410 0.193421632 0.133333400
0.301454395 0.199494407 0.139405400
0.309297770 0.202530026 0.144844815
0.314737588 0.206198603 0.149399161
0.319038808 0.210499823 0.153700382
0.324731380 0.216192380 0.159392864
0.330550402 0.227577418 0.162428468
0.339152575 0.237191722 0.170524716
0.347628266 0.245667517 0.180265531
0.356862396 0.255028844 0.189247400
0.369007200 0.270208508 0.195319414
0.383428097 0.284756243 0.208222687
0.396584302 0.302087039 0.224161789
0.411005825 0.322201103 0.242378116
0.429221869 0.340670764 0.260088801
0.450094759 0.361923039 0.280202597
0.473750800 0.389120728 0.300316334
0.501834393 0.418595552 0.323972166
0.538772821 0.447184980 0.352435380
0.279569775 0.172801793 0.116381988
0.283238590 0.174066797 0.117646992
0.285009593 0.177988574 0.121568762
0.284756631 0.177988634 0.118532434
0.285894990 0.179126993 0.122706786
0.287918985 0.181150988 0.122706786
0.288930982 0.182162985 0.122959793
0.290575683 0.185451984 0.124098502
0.294370621 0.190006375 0.123339787
0.299051285 0.194687113 0.130803466
0.302087069 0.197722852 0.134092122
0.303099185 0.198734984 0.135103986
0.308032632 0.202529803 0.142314836
0.315369785 0.208601788 0.152181983
0.321441770 0.214674011 0.158253983
0.327513784 0.220746800 0.164326593
0.335104376 0.225300595 0.170398593
0.339026183 0.230487198 0.173687786
0.343326986 0.238329977 0.176217809
0.351802796 0.247564793 0.184313446
0.359772533 0.259708792 0.187349528
0.369892776 0.270335227 0.196457788
0.380518556 0.280961752 0.207084000
0.392662793 0.293864667 0.217710599
0.402530283 0.311321557 0.230613291
0.418848574 0.328020096 0.247185305
0.434535056 0.348260641 0.265907645
0.454648763 0.368374676 0.286021680
0.473118365 0.386843801 0.297279984
0.503225505 0.413409352 0.323845536
0.529158533 0.442884147 0.347248346
0.559518993 0.470208585 0.376090974
0.300822198 0.192536384 0.133080184
0.303858578 0.195572376 0.136116177
0.304744184 0.194686756 0.135230958
0.303479016 0.196457982 0.139532179
0.306008726 0.199240729 0.142820835
0.307147384 0.200379372 0.143959180
0.308665186 0.201897174 0.145477384
0.310309887 0.203668371 0.146868706
0.313346088 0.208981469 0.145351082
0.318658978 0.214295149 0.150664166
0.321821511 0.217457309 0.150790304
0.325869381 0.221505180 0.154838562
0.328146398 0.223782167 0.157115564
0.336369216 0.229601204 0.170145348
0.341176361 0.234408379 0.174952179
0.347248375 0.240480587 0.181024402
0.356356353 0.251107186 0.187097177
0.362428963 0.257179171 0.193169177
0.366350234 0.265401393 0.194940194
0.373434335 0.272991538 0.201771036
0.384060949 0.283997178 0.211637914
0.391145080 0.296141446 0.216698304
0.401771009 0.308286160 0.228336364
0.413915396 0.320430189 0.240480796
0.428336471 0.337128162 0.253383875
0.438836157 0.352561504 0.267172515
0.456799328 0.371537179 0.285136163
0.477039814 0.393801421 0.305376410
0.498671621 0.413915157 0.319038540
0.525996089 0.436179549 0.339025527
0.559772015 0.465654761 0.370271742
0.582289577 0.492979199 0.398861200
0.320809573 0.217457563 0.150158137
0.323213369 0.222264558 0.154965147
0.325996548 0.222517356 0.155850753
0.326628953 0.220113561 0.155344978
0.323592603 0.220872566 0.161037534
0.326122910 0.224161908 0.164073214
0.329158813 0.227197811 0.167109311
0.331562251 0.229601279 0.169512853
0.335231036 0.233270064 0.173181072
0.338266641 0.236306459 0.176217467
0.341302842 0.239342257 0.174699262
0.345097989 0.245034561 0.177735478
0.351170152 0.251106709 0.183807969
0.357242167 0.257178724 0.189879969
0.360657960 0.260594547 0.193295121
0.367362529 0.265401542 0.198734701
0.375205547 0.274762750 0.203541934
0.386717111 0.288678139 0.210246965
0.392789125 0.294750154 0.216318995
0.399493724 0.301454544 0.223023564
0.408096015 0.311954111 0.232890531
0.418469429 0.323465794 0.244022667
0.421884567 0.335610539 0.253004551
0.434029341 0.347754538 0.264136553
0.450095117 0.363820136 0.276913136
0.467425495 0.379885882 0.289057285
0.480581671 0.393042535 0.302214086
0.498798430 0.417077541 0.320430130
0.521062493 0.438076943 0.336622357
0.547501266 0.461100340 0.358254284
0.578494191 0.485642135 0.385452121
0.605819404 0.512966573 0.418848574
0.335990012 0.244782031 0.174446985
0.335990012 0.244782031 0.174446985
0.342694849 0.245288029 0.177103207
0.349779040 0.243769825 0.178368062
0.353953451 0.242125034 0.179253608
0.350917071 0.248197019 0.182290003
0.353447378 0.251486391 0.185325652
0.354838997 0.252878010 0.186717048
0.356610030 0.254649013 0.188488007
0.362555534 0.260594547 0.194433540
0.365591139 0.263630927 0.197469920
0.366603076 0.270714730 0.202023968
0.369386345 0.278431296 0.208096027
0.375459015 0.284503967 0.214168042
0.381531000 0.290575951 0.220240042
0.392156988 0.293991178 0.226059616
0.400758982 0.300316185 0.229095936
0.407969594 0.309930593 0.231499434
0.417077959 0.319039017 0.240607068
0.425933331 0.327893645 0.249462426
0.432890922 0.340543747 0.260215014
0.440480888 0.353447139 0.271347135
0.449209034 0.362935007 0.280328989
0.461353809 0.375079006 0.286401033
0.475775272 0.389500290 0.299810290
0.493991286 0.404933661 0.313345939
0.513978124 0.420367002 0.326502174
0.532194912 0.438582987 0.344718933
0.550410986 0.457305670 0.362934947
0.569133401 0.479316920 0.384440362
0.590385914 0.503605247 0.408981919
0.614927113 0.528146982 0.434029013
0.376217723 0.286021739 0.215433747
0.379000366 0.288804382 0.218216389
0.383301914 0.286654174 0.218216389
0.387982726 0.286021739 0.219354749
0.390639186 0.285262555 0.219734281
0.392409801 0.288930744 0.222770691
0.391903728 0.289942741 0.223276734
0.394687086 0.294370383 0.222770378
0.396584660 0.297406495 0.222390831
0.400632411 0.301454753 0.226439089
0.401011884 0.310183614 0.232384607
0.404048026 0.313219488 0.235420465
0.407084107 0.319670737 0.240733653
0.412903428 0.325490057 0.246553048
0.416445762 0.329032391 0.250094712
0.424920946 0.337508172 0.258570522
0.435167551 0.344338924 0.266540587
0.442504734 0.352814525 0.271600723
0.449462354 0.359772712 0.278558135
0.458570749 0.368880391 0.287665755
0.467679113 0.377988487 0.291081399
0.476660728 0.390385747 0.299683630
0.487666070 0.401391417 0.310689718
0.499810219 0.413536102 0.322074741
0.514231682 0.430234075 0.330424041
0.529412031 0.445920378 0.344592035
0.547375143 0.461606741 0.359139502
0.565591276 0.479822725 0.377356261
0.586464167 0.500695527 0.398229152
0.606577873 0.520809531 0.418342918
0.627577603 0.544085979 0.441619337
0.651866078 0.568374753 0.465907365
0.411132455 0.320935994 0.250347972
0.414168060 0.320177078 0.245794088
0.419354528 0.324604481 0.250474483
0.425426990 0.325363725 0.253004462
0.426312536 0.326249272 0.253130913
0.426312536 0.326249301 0.250094920
0.426818460 0.332447469 0.258190989
0.426818460 0.332447469 0.258190989
0.429601640 0.337254554 0.255407810
0.432637244 0.340290964 0.256167203
0.434661478 0.345350862 0.260214984
0.438583016 0.352308959 0.266160935
0.442757726 0.356483191 0.270335197
0.448829710 0.362555206 0.276407719
0.453510374 0.367235869 0.281088024
0.459456384 0.373181522 0.287033498
0.468563974 0.382289916 0.296141893
0.477039725 0.390765190 0.304617703
0.483111739 0.396837652 0.310689747
0.495762080 0.405692875 0.317647129
0.504870474 0.414800465 0.326755226
0.513978839 0.423908859 0.329791069
0.525237441 0.435167462 0.341049999
0.537381470 0.447311789 0.353194475
0.551802754 0.462112695 0.363061279
