Assets/EldamarStudio/100 Retro LUTs Pack/LUTs/cube/Kenneth LUT.cube
LUT_3D_SIZE 8
DOMAIN_MIN 0.000000 0.000000 0.000000
DOMAIN_MAX 0.903226 0.903226 0.903226
0.109803997 0.054901998 0.011765000
0.117647000 0.050980002 0.011765000
0.126249090 0.055661097 0.016445095
0.139532000 0.068944000 0.019608000
0.169260189 0.090195999 0.035294000
0.199746996 0.111574732 0.052877739
0.244401991 0.142441571 0.083617993
0.298291981 0.196331635 0.137507960
0.130171001 0.051739097 0.016445000
0.127387553 0.056419998 0.008602000
0.142694101 0.071726546 0.023149548
0.156356558 0.080708288 0.025806289
0.183807537 0.097533450 0.042631447
0.214421257 0.124225251 0.068564259
0.254649282 0.152688295 0.093864702
0.310056955 0.203289241 0.140417516
0.177229896 0.090955094 0.039216001
0.174825996 0.089690447 0.037571095
0.184187099 0.094749995 0.039848190
0.200252637 0.110056639 0.052877646
0.217836991 0.125363901 0.063377999
0.249209091 0.147248387 0.088425092
0.289057583 0.182289362 0.120556481
0.349146068 0.243263721 0.175079048
0.226438984 0.124477990 0.071220994
0.230360284 0.125616640 0.077925645
0.242504641 0.140543640 0.080202639
0.256166995 0.154206276 0.093105987
0.276154429 0.174193442 0.113092825
0.298039645 0.196078628 0.135736629
0.337001920 0.235040903 0.168374330
0.406451792 0.307147205 0.232511088
0.300822198 0.192536384 0.133080184
0.306008726 0.199240729 0.142820835
0.313346088 0.208981469 0.145351082
0.328146398 0.223782167 0.157115564
0.356356353 0.251107186 0.187097177
0.384060949 0.283997178 0.211637914
0.428336471 0.337128162 0.253383875
0.498671621 0.413915157 0.319038540
0.411132455 0.320935994 0.250347972
0.426312536 0.326249272 0.253130913
0.429601640 0.337254554 0.255407810
0.442757726 0.356483191 0.270335197
0.468563974 0.382289916 0.296141893
0.504870474 0.414800465 0.326755226
0.551802754 0.462112695 0.363061279
0.614168227 0.531815231 0.425932765
0.569133520 0.485135853 0.385831833
0.580771565 0.492346257 0.388488114
0.591777325 0.497659743 0.398987770
0.604933619 0.510815918 0.412144184
0.622517586 0.528399587 0.430992931
0.643010557 0.554585695 0.450727552
0.668184817 0.580898523 0.476660252
0.713219702 0.623655796 0.529538393
0.743073583 0.659455717 0.574572682
0.752181768 0.666413724 0.565464735
0.754838586 0.673877597 0.577102721
0.769006789 0.682732403 0.588614762
0.782416105 0.693611383 0.599493742
0.797216654 0.718785524 0.624667645
0.823023319 0.742061853 0.647944331
0.843643606 0.770524561 0.681720555
0.117647000 0.050980002 0.019608000
0.118026547 0.050980002 0.011765000
0.133332998 0.062744997 0.022770001
0.152055889 0.074762739 0.028210096
0.172296196 0.093231998 0.035926804
0.208728537 0.121441990 0.057052284
0.248323992 0.146362990 0.087539569
0.299557149 0.198735252 0.139531806
0.130171001 0.058823999 0.012144452
0.141555548 0.067425996 0.012523999
0.146995544 0.069323540 0.023908647
0.161416993 0.084630094 0.030486997
0.188488543 0.100695640 0.043516744
0.217457548 0.126122996 0.063757442
0.255028725 0.152688295 0.093105704
0.302972972 0.201011956 0.141429633
0.174066991 0.087793000 0.036432549
0.172042653 0.094876900 0.036812000
0.186590910 0.093991093 0.045414094
0.197469994 0.110056639 0.053636644
0.218596011 0.127261445 0.064895995
0.250727296 0.148766279 0.089943185
0.285009384 0.182668909 0.123086728
0.349905252 0.244781420 0.178115338
0.226438984 0.125616536 0.071979992
0.227957070 0.134345546 0.072739087
0.236559197 0.142947555 0.086907096
0.255408078 0.153447181 0.094623886
0.272991806 0.170651287 0.109550990
0.295635730 0.193674728 0.131056532
0.336242706 0.231499180 0.164832175
0.391144931 0.296521276 0.216951236
0.296141982 0.195699185 0.129284993
0.301201731 0.198481739 0.135231182
0.311828077 0.207083926 0.140417531
0.328146398 0.222264379 0.155597374
0.350158155 0.248450637 0.176849991
0.377482355 0.282858819 0.203289181
0.422517717 0.327893585 0.248323724
0.493864596 0.405313045 0.312460542
0.408475518 0.314611077 0.238836005
0.418468982 0.321568459 0.242757902
0.420366466 0.334092468 0.250221461
0.436053365 0.349778563 0.263630569
0.463504285 0.377229542 0.291081280
0.497912467 0.410879463 0.318785727
0.544844687 0.457811743 0.363693744
0.619987547 0.525869548 0.430992931
0.566097558 0.471979558 0.372548997
0.576090872 0.476533562 0.386843830
0.585199118 0.491081536 0.392410010
0.596584499 0.503984630 0.409867436
0.614041805 0.523213089 0.429095387
0.634535313 0.545351028 0.446299791
0.664895833 0.571536899 0.473624289
0.699557364 0.613662362 0.518405855
0.746616006 0.661100149 0.575078547
0.755850673 0.665022135 0.567615330
0.753699958 0.667425752 0.575585008
0.765970647 0.677925467 0.585705340
0.781150937 0.693105340 0.598734975
0.792536616 0.713092566 0.618975580
0.820113719 0.736875296 0.649588704
0.842378438 0.766729712 0.683238387
0.118406095 0.051739097 0.012523902
0.114863642 0.048197448 0.008981547
0.134092093 0.063504092 0.022770097
0.156736001 0.077166550 0.031373002
0.183427989 0.097153999 0.043010898
0.210373342 0.124225348 0.059456088
0.256166995 0.154205993 0.093864992
0.307400107 0.205439806 0.145097807
0.132447988 0.059962448 0.005439903
0.138773009 0.060341898 0.016824547
0.152055904 0.075268999 0.021126000
0.168121442 0.091334641 0.036432546
0.190765545 0.110183448 0.051359646
0.220619634 0.130423546 0.067678541
0.259835511 0.159013003 0.099810444
0.312713712 0.208096042 0.136875063
0.174826086 0.089310996 0.032131907
0.175964549 0.089310996 0.034409001
0.187350005 0.097912900 0.043011095
0.203415543 0.113219440 0.058317542
0.224161983 0.133965984 0.076028004
0.257052362 0.155091897 0.096268095
0.289816469 0.187856078 0.127514079
0.351549566 0.249589071 0.182922050
0.223276287 0.131941736 0.075142287
0.230739743 0.137128189 0.081087738
0.242504641 0.140543640 0.081720635
0.258570284 0.155850992 0.097406536
0.276534110 0.173813999 0.113472275
0.299177885 0.197216883 0.134598374
0.343327016 0.238203824 0.170398474
0.395192921 0.303858221 0.225806251
0.298418999 0.197343379 0.123466179
0.301201642 0.198861375 0.137760997
0.310183376 0.208222374 0.146362990
0.326248944 0.224288538 0.157621831
0.346995354 0.248830080 0.176849991
0.379127085 0.283365190 0.204174370
0.423023164 0.331815451 0.251107156
0.493484885 0.402277082 0.311701417
0.416318804 0.320556700 0.241366103
0.415559918 0.323592722 0.243263468
0.430234104 0.332194716 0.252624989
0.435673833 0.349398911 0.263250917
0.463124722 0.376850098 0.290701717
0.495256215 0.408981740 0.318026602
0.547121882 0.455914110 0.364199817
0.618469298 0.524351537 0.428716004
0.561290503 0.470461547 0.374825954
0.575838029 0.479822576 0.379759818
0.580012739 0.489184171 0.395066381
0.592536390 0.501707792 0.407590359
0.609867573 0.520556509 0.423402548
0.633523285 0.540923595 0.446805567
0.663377643 0.569259644 0.475142479
0.699304223 0.612270892 0.518153191
0.738013744 0.658064425 0.562681556
0.742567837 0.658190548 0.558760285
0.750410795 0.666666806 0.570651412
0.761922836 0.675648272 0.581530452
0.776723564 0.691713810 0.594560564
0.792409539 0.709930539 0.616571665
0.819101870 0.737381399 0.645540893
0.835799932 0.767994523 0.675268531
0.121569000 0.052118644 0.012903354
0.126628637 0.056040641 0.011258642
0.134850994 0.064263001 0.019481190
0.157494992 0.079569645 0.025806289
0.188488349 0.101074994 0.046172999
0.214294627 0.124098636 0.065401644
0.257811576 0.155851007 0.097026989
0.314105183 0.212144166 0.151043460
0.143200457 0.061100997 0.008981644
0.141809002 0.067805447 0.020746354
0.151297003 0.077546000 0.021505451
0.170019016 0.092093639 0.034408994
0.197849646 0.110436186 0.054016192
0.230107546 0.130423635 0.070841447
0.269196659 0.167235732 0.108412348
0.321189076 0.217204124 0.149019808
0.169639647 0.092093647 0.031372808
0.183048546 0.095635906 0.041872352
0.192030087 0.104997002 0.050094999
0.205692545 0.118279181 0.061100904
0.235926896 0.135104537 0.080708101
0.258949846 0.156989351 0.098165639
0.299304187 0.197343379 0.130676791
0.358633727 0.258191079 0.190006047
0.227577642 0.133965999 0.077925645
0.240986630 0.139025629 0.079443641
0.246426627 0.144465640 0.085641637
0.260088295 0.158128008 0.099304274
0.281720430 0.174193457 0.118153080
0.302719742 0.200758725 0.134092540
0.345983297 0.244022563 0.177356273
0.402403265 0.312334090 0.231246233
0.305502981 0.202403635 0.134218723
0.307147384 0.205186382 0.144844994
0.319291651 0.211385280 0.151929095
0.331815630 0.225047648 0.165591553
0.352814823 0.250853807 0.184186921
0.384187102 0.286147743 0.207716718
0.425806552 0.334598094 0.253130823
0.495635539 0.408222705 0.316129148
0.413282752 0.320935994 0.239089012
0.416698366 0.322327554 0.246553078
0.427071720 0.337381393 0.256166726
0.440860450 0.354585439 0.264389485
0.465527982 0.379253805 0.291587621
0.499177724 0.414041549 0.323339581
0.547501326 0.456673115 0.361922830
0.620113790 0.525996327 0.428842336
0.562934816 0.475521922 0.377988577
0.573181510 0.481340677 0.382669359
0.581404209 0.487286657 0.390891939
0.594813168 0.504111528 0.404300898
0.615939140 0.521821558 0.425427020
0.637950718 0.543832779 0.447438300
0.663757205 0.573054850 0.472232908
0.709297776 0.619734347 0.523086667
0.740290880 0.657052219 0.565338433
0.743453145 0.658443868 0.560531139
0.752434790 0.666160822 0.573560596
0.761416733 0.676407576 0.580012619
0.773940146 0.687666059 0.593548179
0.794813514 0.710815668 0.616698444
0.816824615 0.733586311 0.646299601
0.841492772 0.768374383 0.681340516
0.124604993 0.056420192 0.014168195
0.130929798 0.060341805 0.018089809
0.142694190 0.072105996 0.025047190
0.159519449 0.085009545 0.028589644
0.191271007 0.104997002 0.050094996
0.222770542 0.128905535 0.075142190
0.264010012 0.162048995 0.103225991
0.317899972 0.215938956 0.154079646
0.147754639 0.070967548 0.017457446
0.149651989 0.074003547 0.019101547
0.165085465 0.082226284 0.029728096
0.179507002 0.093231998 0.041113351
0.201770842 0.114358187 0.057179190
0.236685798 0.135863349 0.076660283
0.270714641 0.168753922 0.106894352
0.319670767 0.220366716 0.153194159
0.185705081 0.099430896 0.042251997
0.190512285 0.103099361 0.049841553
0.198988095 0.105882004 0.052498195
0.212776735 0.120303646 0.063124545
0.236685902 0.134725079 0.080708101
0.262871653 0.160910830 0.095762342
0.301581115 0.199620470 0.134472072
0.361289978 0.260088682 0.191144794
0.239468545 0.132700831 0.081087641
0.233396381 0.139784738 0.083744287
0.241999075 0.147248283 0.083744191
0.264389843 0.161290184 0.095382795
0.283111811 0.174446478 0.116128825
0.312207431 0.207463562 0.144971624
0.348007828 0.245287821 0.183048546
0.407843173 0.307273716 0.230360612
0.299937189 0.205186382 0.139152184
0.310310215 0.205945387 0.140037984
0.314864069 0.220114097 0.155850887
0.332068384 0.230107367 0.163440987
0.353320360 0.255914181 0.187729359
0.378621131 0.292346716 0.209993720
0.432384372 0.336622447 0.257431984
0.498165965 0.406577975 0.313725173
0.420240730 0.323339283 0.244528726
0.424035698 0.326755226 0.246046707
0.425933093 0.339658380 0.253510356
0.441619366 0.355344564 0.269196570
0.465148449 0.378874362 0.292725980
0.500189483 0.410879433 0.318785697
0.550916970 0.459835887 0.364959002
0.612903416 0.526755512 0.422137678
0.565970659 0.475142479 0.376470476
0.574699283 0.478304863 0.383048624
0.582669199 0.490069360 0.395951778
0.595192611 0.503352582 0.406957448
0.616318643 0.522201061 0.426565468
0.636053085 0.544971526 0.446805656
0.664263248 0.574699283 0.477292836
0.712586641 0.626312494 0.532194674
0.732574403 0.651612759 0.554838598
0.740670383 0.655913889 0.557242095
0.745477557 0.662997901 0.566982806
0.758001566 0.671726584 0.577608585
0.772169590 0.687159777 0.589247584
0.789753258 0.711322010 0.615939438
0.817963243 0.734345436 0.648197234
0.845414460 0.765211880 0.682226598
0.137254998 0.066666998 0.015813004
0.139531806 0.068943806 0.018089807
0.152435258 0.077925451 0.023023449
0.171283737 0.087286636 0.033650000
0.197090641 0.109297536 0.054395933
0.228968725 0.133079991 0.076280735
0.267552435 0.165591434 0.106767543
0.319797724 0.217836693 0.155217901
0.156483263 0.074762546 0.018722288
0.154332995 0.080708288 0.030234259
0.167868108 0.085009739 0.030993357
0.185705096 0.097912900 0.043010898
0.205313176 0.117140837 0.062239446
0.237318173 0.141429543 0.080582187
0.268564075 0.172296286 0.110689439
0.326248914 0.219734430 0.154332802
0.191650733 0.105502740 0.044528995
0.193168744 0.104237907 0.051612899
0.204174638 0.114863731 0.062239256
0.215939552 0.125743344 0.064516537
0.236179814 0.143706635 0.081720546
0.269955754 0.165717736 0.108033091
0.304996699 0.199873626 0.133206636
0.366729677 0.261606634 0.194939792
0.237571016 0.141682282 0.080075733
0.241999000 0.146109745 0.085515805
0.254269630 0.152308643 0.095256351
0.265907735 0.161669731 0.103984892
0.285515606 0.183554620 0.120935641
0.309677631 0.207716629 0.145097628
0.349146158 0.245161012 0.180012718
0.404174358 0.307147354 0.238330349
0.310562938 0.208096370 0.136875182
0.317646742 0.209361017 0.152941018
0.324604720 0.220746279 0.154079467
0.337634385 0.233270079 0.166603282
0.358760148 0.254775435 0.188108906
0.386843681 0.286400974 0.215180174
0.424920917 0.333712727 0.253004432
0.488045782 0.399493694 0.310689479
0.414927453 0.328652471 0.246299461
0.417330652 0.331056237 0.247944266
0.428715736 0.342441738 0.258570731
0.442757696 0.356483191 0.270335197
0.470714658 0.378367901 0.290196151
0.502972722 0.406831443 0.316761434
0.545603991 0.455534458 0.363440722
0.601770699 0.513345659 0.413535714
0.564452589 0.470335543 0.376217544
0.567741811 0.476913273 0.381277800
0.580898345 0.486780435 0.388867646
0.591144621 0.497027338 0.399114460
0.605819046 0.518153250 0.418343008
0.633903027 0.540544033 0.443137079
0.663504064 0.569386065 0.475268990
0.712966323 0.622896671 0.531309545
0.731309593 0.646932304 0.564326346
0.736495912 0.652498245 0.555724204
0.739278734 0.656799376 0.560784280
0.751296282 0.666540325 0.571663260
0.767362356 0.681087852 0.586970270
0.784946442 0.702466726 0.610373199
0.813282967 0.732321084 0.638203621
0.841113627 0.768753588 0.681467414
0.150284573 0.077419288 0.022517283
0.153320551 0.078810550 0.023908548
0.166856185 0.085515708 0.032890998
0.183807641 0.097533353 0.042631350
0.205313280 0.115117095 0.055661097
0.236938730 0.141049996 0.083491743
0.274130285 0.172169283 0.108791701
0.329285085 0.223403096 0.156736091
0.171663284 0.086906999 0.026312260
0.173308000 0.087033994 0.032132000
0.180012748 0.093358807 0.038456809
0.195951894 0.107400090 0.052498192
0.212270692 0.123718992 0.065780997
0.246299744 0.148513451 0.088425189
0.278557837 0.175837830 0.113598801
0.327387363 0.225427270 0.162555248
0.196078196 0.108918190 0.046173383
0.202276990 0.113598801 0.057938192
0.206072181 0.120682992 0.059329286
0.227324083 0.129917696 0.069576092
0.247691184 0.148007467 0.088425189
0.271853179 0.169892475 0.111068994
0.310942292 0.208981261 0.142315283
0.364832431 0.266666442 0.194687054
0.246046990 0.144085988 0.085262284
0.246679291 0.149652004 0.085894987
0.257811278 0.155850992 0.097026989
0.269576281 0.167615294 0.108791992
0.289436728 0.187476635 0.124857642
0.317646921 0.212396920 0.152941108
0.357115567 0.252371907 0.185704917
0.405060112 0.309171289 0.233396709
0.314105213 0.211385280 0.144718274
0.320050627 0.213282719 0.156862825
0.322706908 0.220746472 0.154079467
0.334977835 0.233016819 0.166350543
0.352561444 0.252119094 0.180897906
0.386970192 0.287286460 0.213789091
0.426185876 0.334977746 0.254269451
0.481214523 0.392662913 0.304237813
0.426565439 0.335357279 0.254649013
0.429474801 0.343200624 0.260088652
0.437697679 0.351423264 0.265275270
0.450853825 0.359645844 0.274003983
0.463251203 0.380012602 0.287160188
0.493232459 0.403162450 0.311827719
0.540543735 0.449715316 0.351802737
0.596963644 0.503605366 0.402403384
0.558001518 0.467172563 0.368500561
0.571030855 0.473118275 0.380139470
0.571410298 0.480581850 0.381910264
0.586464584 0.492346585 0.393674552
0.601264834 0.510436237 0.411764652
0.626565576 0.532447577 0.433775991
0.654775500 0.565211535 0.467805535
0.701075077 0.617077649 0.516129076
0.729032338 0.640227854 0.552941144
0.730170846 0.641745865 0.542061865
0.734345376 0.650600731 0.556483269
0.745350897 0.659076273 0.564958811
0.762049317 0.673244894 0.579126894
0.777608633 0.698418617 0.600505769
0.807716429 0.726755321 0.632637382
0.841998875 0.766350269 0.683365047
0.171283826 0.085009828 0.034029156
0.167995006 0.089690149 0.034788154
0.183807731 0.097533248 0.042631250
0.200885639 0.108538829 0.054775473
0.226691812 0.128525987 0.076280832
0.256040454 0.154079840 0.098418750
0.298039168 0.190891981 0.128020152
0.351928800 0.252624929 0.177988812
0.183807835 0.093105979 0.039595451
0.180898279 0.100695834 0.037697714
0.193674996 0.103478901 0.048576996
0.206578448 0.116381735 0.054395743
0.227957174 0.136622339 0.074256882
0.263251096 0.161290079 0.101707891
0.302340269 0.199114531 0.132447526
0.354206085 0.253383934 0.188867509
0.209234998 0.119038664 0.056293666
0.214800999 0.122327901 0.061101001
0.218722180 0.128525987 0.065780997
0.235547349 0.139278874 0.078557625
0.258949935 0.156989247 0.098165728
0.290322840 0.188361824 0.125489816
0.331688941 0.229727909 0.163061246
0.390765071 0.289563626 0.220620051
0.247311831 0.145350829 0.083997436
0.252245367 0.154079556 0.091461271
0.262618721 0.160657898 0.101834290
0.276154459 0.174193442 0.115369819
0.298418999 0.192915827 0.130423456
0.325110376 0.226565540 0.160278365
0.368754059 0.271347076 0.200126454
0.424035430 0.333206654 0.250094414
0.313852042 0.213409543 0.142188355
0.321695030 0.218216538 0.154079571
0.321695030 0.219734356 0.153067350
0.331941634 0.229980722 0.163314641
0.355724156 0.253763199 0.187097192
0.390638858 0.295255870 0.217963353
0.435294032 0.345224202 0.258570552
0.495635659 0.409361362 0.317899793
0.437824368 0.351549566 0.263503850
0.442378461 0.356103450 0.268437654
0.446932554 0.356862545 0.269323379
0.448703289 0.362428665 0.274762988
0.452245355 0.365970910 0.278304935
0.490575641 0.398608565 0.312839836
0.541302681 0.447817564 0.357495457
0.598861516 0.508791566 0.414674520
0.588235378 0.494117737 0.395445824
0.597722709 0.500569403 0.400758982
0.596837223 0.506514609 0.408602297
0.604807079 0.514484286 0.416572005
0.614547729 0.524224997 0.426312357
0.628842235 0.534724891 0.436053157
0.654269099 0.560910940 0.455155104
0.702719748 0.619987249 0.515243351
0.740417480 0.651612759 0.554965377
0.742062032 0.653257191 0.561796308
0.745603561 0.656799614 0.562681615
0.753573358 0.667299390 0.573181391
0.764199793 0.677925348 0.583807766
0.779506445 0.693231761 0.601770639
0.806451619 0.720176637 0.628715754
0.843769729 0.768121421 0.680581570
