Assets/EldamarStudio/100 Retro LUTs Pack/LUTs/cube/Kenneth LUT.cube
LUT_3D_SIZE 5
DOMAIN_MIN 0.000000 0.000000 0.000000
DOMAIN_MAX 0.903226 0.903226 0.903226
0.109803997 0.054901998 0.011765000
0.123213284 0.054901998 0.015686000
0.151675999 0.077798583 0.022896579
0.209867001 0.119670995 0.056925997
0.298291981 0.196331635 0.137507960
0.160531700 0.081087992 0.027830701
0.173560709 0.085642003 0.033017289
0.199746698 0.110183284 0.051992286
0.249462128 0.147501290 0.088678122
0.336242646 0.232637659 0.165970653
0.259582400 0.157621413 0.098798409
0.272359103 0.170398697 0.108285688
0.301454395 0.199494407 0.139405400
0.347628266 0.245667517 0.180265531
0.450094759 0.361923039 0.280202597
0.446553111 0.354332387 0.281720132
0.460215122 0.373940378 0.289563388
0.490322381 0.404048085 0.313852102
0.550411105 0.456293374 0.362176120
0.639721632 0.556356788 0.453510225
0.743073583 0.659455717 0.574572682
0.754838586 0.673877597 0.578114867
0.774446607 0.688171625 0.594054580
0.800252914 0.721821606 0.627703905
0.843643606 0.770524561 0.681720555
0.119924292 0.050980002 0.011765000
0.131056279 0.060468286 0.021252289
0.166729987 0.087286703 0.034028992
0.229854703 0.129791275 0.074889131
0.306640983 0.207716525 0.147880971
0.161163703 0.081720419 0.026818417
0.170651421 0.089563996 0.034661997
0.205313414 0.115749411 0.060847826
0.254016727 0.152055711 0.093232282
0.341429561 0.239468798 0.172801808
0.260214984 0.158253998 0.092852995
0.273624271 0.171663702 0.112839691
0.300442696 0.197217122 0.132447705
0.346995682 0.245034948 0.178368121
0.456293494 0.363187760 0.276533902
0.445161521 0.353953242 0.271220714
0.458823532 0.369386524 0.280708432
0.487665951 0.401391506 0.310183406
0.541049898 0.452751666 0.361543536
0.640733898 0.551169932 0.457052946
0.737507820 0.656546295 0.562428832
0.753446937 0.664642572 0.568121433
0.771157146 0.684882998 0.591777325
0.796963692 0.718532503 0.623149872
0.839089096 0.766729712 0.679569840
0.121569000 0.054901998 0.015686000
0.133333415 0.062745422 0.020240422
0.175205827 0.088930994 0.034661576
0.228209987 0.138013989 0.075268999
0.315243810 0.213282809 0.146615803
0.168374285 0.088931412 0.034028992
0.181404278 0.095129706 0.041871995
0.213155985 0.118026704 0.064768992
0.260215014 0.156989411 0.098798156
0.346995503 0.245034918 0.178368092
0.263504416 0.161543414 0.102719560
0.273624271 0.171663702 0.106261700
0.305376381 0.200126827 0.134724990
0.351549536 0.249588519 0.182922274
0.457305342 0.359266192 0.280835032
0.440860391 0.356609643 0.271220684
0.460341543 0.366097540 0.284376949
0.484377116 0.398102373 0.306894213
0.544212282 0.451992661 0.355977237
0.641998947 0.552814603 0.451739252
0.735863149 0.649589002 0.564706028
0.744338751 0.658697009 0.565338612
0.764579177 0.677040040 0.581657052
0.797343433 0.716381729 0.622264445
0.839089215 0.767362118 0.683870971
0.139278993 0.067678869 0.012776870
0.150664285 0.078431003 0.023529001
0.184693277 0.098418713 0.043516703
0.246173128 0.144212127 0.083365127
0.322833508 0.220873088 0.154206097
0.183048993 0.096141577 0.043516867
0.190512434 0.102972701 0.049335700
0.224035114 0.125869706 0.070335127
0.272992134 0.169766128 0.109550707
0.359392673 0.256799519 0.190132767
0.275268555 0.171031117 0.104364112
0.285768807 0.179506704 0.112586826
0.312207252 0.206704825 0.141935408
0.357748389 0.255787402 0.189120665
0.450347930 0.362175941 0.278431475
0.450348109 0.364073128 0.279696137
0.462112397 0.375838131 0.286907136
0.486021668 0.399746805 0.308538675
0.545477271 0.451360226 0.357242256
0.629854381 0.540670097 0.439089060
0.731309593 0.646679282 0.560783923
0.738772750 0.653257430 0.552941144
0.759013355 0.671473920 0.577355921
0.789500415 0.711068749 0.615686536
0.842378497 0.766729712 0.679190576
0.171283826 0.085009828 0.034029156
0.181783989 0.095508985 0.040606987
0.214547813 0.117014416 0.064769410
0.268184990 0.160910994 0.104743831
0.351928800 0.252624929 0.177988812
0.202403694 0.113472536 0.055281539
0.207590118 0.118658699 0.058444038
0.236685827 0.141555712 0.080455415
0.291334689 0.189373955 0.128019944
0.381403923 0.279443622 0.212776631
0.279190421 0.177229404 0.111827567
0.288678259 0.183048576 0.120683119
0.313851982 0.211890981 0.145224825
0.375458807 0.276154220 0.201517984
0.470967799 0.372928649 0.286653787
0.472992003 0.384693235 0.291840404
0.480581969 0.394307554 0.302466989
0.491966844 0.403668642 0.312460542
0.529791296 0.436559290 0.346995384
0.625426888 0.533839226 0.439721644
0.740417480 0.651612759 0.554965377
0.744338691 0.655534446 0.558886409
0.758127987 0.671853125 0.577735186
0.787855744 0.701581061 0.610119879
0.843769729 0.768121421 0.680581570
