Assets/EldamarStudio/100 Retro LUTs Pack/LUTs/cube/Kevin LUT.cube
LUT_3D_SIZE 8
DOMAIN_MIN 0.000000 0.000000 0.000000
DOMAIN_MAX 0.903226 0.903226 0.903226
0.000000000 0.003922000 0.000000000
0.009360999 0.004301451 0.000379548
0.042252000 0.020366903 0.005439999
0.099810347 0.048829637 0.016318996
0.164453194 0.098671801 0.041365996
0.227071464 0.148766473 0.082099989
0.299936980 0.209740564 0.139152572
0.385957956 0.280075938 0.213408947
0.058317542 0.025047095 0.012144452
0.070461996 0.033650000 0.012523999
0.101834089 0.050474547 0.017963096
0.141302735 0.084123738 0.037950546
0.191777378 0.123719186 0.064136796
0.252624929 0.169512928 0.102466986
0.325869262 0.223909289 0.157242268
0.403668821 0.292472810 0.220619962
0.159772098 0.091587901 0.029601190
0.160910651 0.097786188 0.038204093
0.184820101 0.119797193 0.059455998
0.227198094 0.140543744 0.082985193
0.261606365 0.175458282 0.108791903
0.309044838 0.207083836 0.140417352
0.371916264 0.262998283 0.194813073
0.449082792 0.335357010 0.264769018
0.270208985 0.177735284 0.110436283
0.280961543 0.182416171 0.114610732
0.289057285 0.198861271 0.130550280
0.315623283 0.222011656 0.152561277
0.356103599 0.250221640 0.183554620
0.389247268 0.279570013 0.214800730
0.449082613 0.324731261 0.262492210
0.526881397 0.400000066 0.326755285
0.389500380 0.271600187 0.203668192
0.389247179 0.280329198 0.214421362
0.400253296 0.292852283 0.226945177
0.423782200 0.310057163 0.244276181
0.463757187 0.339784980 0.273371160
0.493232369 0.372675389 0.299810201
0.555091441 0.421125472 0.346616268
0.634535015 0.490828633 0.415053785
0.530297220 0.397343725 0.324857473
0.533839285 0.400126457 0.323466182
0.543832898 0.410246551 0.328905553
0.568121254 0.427071720 0.352561712
0.590005994 0.455787271 0.376850098
0.628463268 0.489310473 0.407084465
0.679443061 0.533713043 0.449715316
0.746236444 0.589247286 0.509550631
0.708032846 0.547248244 0.468817264
0.702972531 0.553194106 0.471473843
0.710309744 0.561290324 0.474383354
0.725996554 0.576976538 0.494623572
0.743959248 0.594307482 0.516002536
0.783555031 0.615180135 0.538646281
0.804427564 0.639089584 0.559645832
0.858190775 0.680202067 0.612523675
0.877672434 0.707906425 0.646426558
0.884882569 0.711701632 0.637191594
0.890322447 0.714484453 0.645667493
0.897533119 0.724351585 0.657811463
0.911827803 0.740670323 0.674130201
0.936495781 0.758633614 0.703858435
0.947754502 0.782542706 0.730423689
0.962428629 0.822896540 0.760278344
0.000000000 0.000000000 0.000000000
0.019987451 0.004301451 0.000000000
0.060721450 0.033270452 0.009740545
0.119417638 0.067298993 0.029727997
0.180518642 0.116255537 0.055913735
0.241113275 0.162808284 0.099430799
0.310436726 0.213409454 0.148386836
0.397722960 0.286527634 0.217204124
0.057178997 0.040354453 0.005439999
0.073624097 0.038330093 0.007843000
0.100948989 0.059456095 0.018342547
0.157874554 0.094370544 0.041492999
0.208349198 0.131562203 0.070461892
0.263503999 0.177355930 0.112587184
0.326502234 0.222644016 0.155977130
0.396584779 0.285388798 0.218848616
0.156230554 0.099430993 0.046552643
0.171537101 0.106894545 0.048450094
0.193042636 0.120176740 0.062998451
0.222770721 0.145224631 0.084503189
0.268311411 0.178114831 0.113851734
0.315369844 0.213409349 0.153067634
0.374320060 0.267678559 0.199873537
0.456673086 0.337634176 0.266287208
0.271347523 0.183301896 0.117393993
0.278052002 0.190006644 0.125616640
0.294876754 0.200126529 0.131815642
0.321948200 0.219228283 0.152561277
0.348133802 0.245035082 0.176091179
0.386843562 0.278684169 0.209361017
0.438836128 0.322833717 0.251486748
0.514990211 0.387349933 0.313725561
0.383048564 0.281214178 0.199873537
0.394686997 0.282352865 0.215307176
0.401012182 0.292093396 0.223909184
0.425300390 0.310057163 0.239468560
0.463757157 0.342188179 0.264516205
0.498544961 0.373181522 0.297406554
0.553700387 0.419734389 0.348133922
0.625427008 0.486274630 0.407210350
0.523213208 0.400126457 0.321189016
0.530044258 0.402023822 0.324731469
0.540290773 0.411258936 0.338519931
0.561416566 0.428210169 0.351802826
0.594054043 0.455281734 0.373813808
0.628463209 0.485262483 0.405060172
0.677039742 0.532068312 0.447691470
0.748133957 0.593421817 0.512966216
0.691208124 0.544591844 0.468943834
0.700822234 0.555091798 0.464010537
0.709044755 0.563314259 0.479317009
0.729411900 0.573560894 0.494243920
0.748639941 0.592789292 0.509424508
0.774319887 0.609740853 0.533206582
0.797216535 0.639469028 0.555597842
0.842884541 0.669829011 0.597722650
0.891081274 0.705502868 0.633016825
0.883997142 0.710436463 0.645414114
0.894370317 0.713345885 0.644275665
0.903099477 0.725110292 0.658190548
0.911827803 0.739405215 0.676660240
0.932194769 0.758254468 0.704364181
0.947375000 0.784819484 0.728273392
0.965464890 0.813156366 0.767868102
0.008602096 0.004680903 0.000000000
0.025047095 0.008981547 0.000000000
0.069702998 0.032891002 0.014041901
0.125237092 0.074383192 0.026185742
0.191145092 0.119038284 0.062618896
0.256040454 0.167615384 0.099810250
0.326628268 0.223909184 0.157242179
0.404933572 0.291208059 0.222138047
0.066160545 0.030486997 0.008222548
0.086907096 0.045034643 0.008981547
0.115496539 0.063757449 0.025806190
0.166476741 0.102593087 0.048956450
0.216192186 0.139784843 0.078304999
0.276913613 0.189626813 0.123719096
0.334471792 0.232131720 0.165464818
0.407969326 0.299683809 0.226186261
0.170019105 0.103352092 0.034282088
0.179000646 0.114737548 0.055913646
0.198988095 0.124478094 0.064137094
0.230613738 0.152308732 0.086400643
0.274130076 0.181657195 0.118153088
0.325110555 0.223150089 0.156483084
0.381404161 0.270967990 0.205060273
0.466793060 0.343706548 0.273877174
0.275774986 0.185578987 0.114990279
0.282352716 0.188741177 0.119291537
0.298798561 0.204427287 0.139025643
0.329032272 0.225932628 0.159266636
0.354459018 0.251359969 0.184693277
0.393168986 0.283491284 0.212397009
0.447058767 0.332194835 0.257432193
0.526755273 0.395066351 0.324984193
0.395699084 0.284377068 0.204933360
0.395825624 0.284629732 0.214168549
0.404174298 0.296774298 0.223023176
0.429222196 0.313978195 0.243390173
0.457305491 0.339026093 0.269196361
0.498924524 0.374320090 0.301455081
0.553067565 0.422897100 0.346110195
0.628968954 0.491334617 0.404807091
0.537128389 0.402403355 0.326755226
0.537887275 0.402403384 0.331561923
0.542694569 0.412903190 0.339405596
0.564958811 0.431751937 0.356483191
0.590385497 0.454902172 0.379633278
0.625426769 0.487412721 0.405186713
0.678178370 0.531182945 0.452877909
0.747880995 0.593168795 0.516761363
0.688425303 0.545857012 0.459582388
0.699304461 0.551929295 0.477419376
0.716002345 0.562049389 0.485894740
0.722833514 0.575964510 0.489310265
0.743200541 0.592915773 0.511954248
0.766729832 0.608602166 0.529664934
0.798228800 0.632890284 0.556736529
0.842378378 0.673244894 0.600252628
0.874509811 0.707779586 0.643769741
0.884756207 0.706261873 0.637318015
0.884376585 0.715749621 0.642757595
0.900315881 0.725743175 0.658443928
0.915875912 0.739278793 0.677925348
0.934977770 0.758633614 0.701581359
0.951549590 0.783301592 0.731688797
0.966603458 0.814421475 0.768753529
0.024667645 0.008981644 0.002783356
0.037571095 0.017204095 0.000759096
0.075521648 0.038709544 0.010119998
0.133965999 0.079063997 0.033650000
0.196584389 0.125237182 0.068437539
0.254395992 0.172295988 0.110056736
0.327387273 0.225427285 0.158760279
0.413408935 0.302213967 0.235926792
0.080202542 0.041492999 0.011385452
0.106641188 0.054016188 0.011638094
0.127261460 0.071600445 0.026944740
0.171916634 0.107273899 0.048829731
0.226312280 0.148766294 0.086907089
0.280075938 0.188741088 0.124857530
0.349778742 0.241239697 0.176850095
0.418342948 0.309171349 0.239595249
0.172675654 0.108412452 0.046426449
0.182416186 0.115875997 0.056293190
0.205186188 0.141049996 0.063630737
0.234534740 0.155851007 0.091081649
0.281973273 0.189500198 0.125996083
0.326628476 0.231498823 0.169892296
0.392030358 0.283870906 0.214547887
0.475774705 0.351170093 0.276786625
0.279190630 0.191144988 0.124477990
0.283491194 0.192663088 0.135104552
0.307906181 0.205945373 0.140038088
0.324604630 0.227577642 0.156989634
0.363946646 0.258064657 0.191397637
0.401012272 0.292852461 0.225047633
0.454143286 0.338140249 0.265275270
0.532953918 0.403795242 0.326881409
0.390259027 0.289436758 0.224035174
0.400253206 0.288045287 0.215559736
0.413535565 0.302340209 0.234155372
0.431878835 0.313978195 0.246805817
0.465275377 0.341429383 0.269702733
0.502466798 0.377862006 0.300948709
0.556989253 0.424541265 0.348513484
0.634408474 0.495635629 0.409614056
0.531688571 0.402530074 0.325996131
0.539531589 0.408855170 0.331941575
0.546616256 0.417963237 0.340417296
0.567362130 0.436179370 0.355724096
0.593548477 0.460088730 0.380771726
0.631625772 0.490575612 0.414041579
0.679063737 0.532447577 0.453004420
0.750917017 0.593927920 0.514231324
0.697406948 0.547754586 0.466413647
0.706388474 0.552814543 0.471726656
0.708032846 0.562302291 0.478304565
0.724351525 0.575205624 0.492346257
0.745983064 0.590132833 0.510056973
0.774826169 0.609487414 0.533333421
0.802150309 0.636812270 0.560657561
0.850221336 0.678684354 0.606072307
0.884503245 0.706767797 0.641745806
0.881594062 0.706641257 0.638583243
0.888804376 0.715622544 0.651992559
0.900063097 0.724351585 0.658190548
0.914737582 0.735610425 0.670588076
0.928652763 0.755471110 0.695002735
0.948133945 0.784060538 0.729791403
0.970398486 0.811511397 0.772295773
0.052498192 0.016318802 0.006957998
0.066160545 0.030107547 0.010119998
0.093864992 0.050094999 0.012396996
0.149272457 0.087286547 0.034029447
0.206704184 0.137002185 0.072738990
0.267805189 0.181657180 0.116128922
0.337508261 0.233269989 0.166603565
0.421884805 0.307653159 0.240606979
0.100063175 0.061480545 0.019481095
0.118658736 0.062998347 0.014294736
0.141302720 0.084123835 0.037570998
0.182036728 0.115496539 0.056293286
0.228589386 0.153573990 0.084882833
0.291713715 0.196963936 0.127893731
0.350537628 0.246299744 0.179632917
0.425806522 0.309550792 0.238962501
0.192030296 0.120682999 0.065022096
0.201644629 0.124478087 0.066540189
0.216192096 0.141682088 0.079064004
0.249968186 0.166097194 0.100190096
0.287413269 0.194940180 0.125110283
0.340797067 0.232890815 0.172296077
0.397217095 0.289816469 0.217583984
0.477166355 0.359392762 0.281214714
0.285515428 0.192663088 0.126881897
0.294876844 0.200126633 0.131056443
0.311828107 0.209867179 0.148007184
0.334472060 0.231372714 0.164705828
0.367741823 0.259582847 0.191777170
0.408475816 0.298798442 0.226945072
0.458064556 0.342061967 0.269196570
0.531942070 0.402530074 0.325743079
0.397090167 0.288172185 0.219987378
0.408475816 0.289816171 0.223782390
0.416571468 0.304617286 0.231625468
0.438583165 0.321821481 0.251233190
0.471600175 0.350031555 0.279443145
0.507527173 0.382163197 0.305629432
0.558507323 0.426818460 0.349272281
0.630107522 0.492852598 0.412144005
0.534598231 0.405566275 0.330297261
0.539531708 0.408602268 0.333712816
0.550411344 0.421252370 0.342821091
0.568880081 0.434914738 0.358886927
0.596457720 0.459203094 0.382795453
0.632384717 0.490196049 0.412523657
0.682985425 0.538013518 0.456673086
0.750917196 0.593927681 0.514231503
0.701707840 0.549145937 0.465907544
0.703605235 0.552182198 0.470082194
0.712713361 0.561416626 0.479822755
0.724857926 0.571283817 0.490448892
0.744212210 0.592915714 0.506768286
0.770271838 0.611385107 0.532827139
0.805945694 0.637571394 0.561416626
0.854522407 0.683617651 0.616951466
0.878051877 0.702972591 0.628842175
0.879949272 0.702340245 0.636938870
0.886653781 0.708665609 0.638709784
0.899556994 0.720429957 0.653889716
0.912207246 0.736495733 0.669955552
0.926248968 0.758001506 0.693990827
0.951169908 0.782922149 0.730044127
0.970777571 0.813535690 0.770904362
0.078431003 0.041113257 0.005819256
0.091587991 0.051233541 0.014421255
0.124098636 0.071220897 0.032131903
0.165211990 0.100189991 0.042504635
0.221252441 0.143706456 0.081846930
0.281973451 0.191777468 0.129031986
0.348513275 0.242631271 0.175964281
0.422390789 0.308665603 0.240606785
0.131435990 0.072738990 0.021758091
0.143959552 0.080202542 0.030487191
0.162175804 0.095003337 0.037824541
0.198102280 0.124477990 0.068058282
0.238330022 0.159266531 0.094749995
0.296394736 0.200505987 0.131815344
0.355218023 0.249336019 0.181910008
0.427324504 0.311321944 0.240986556
0.208476007 0.140291005 0.078305095
0.222896636 0.139405295 0.073244989
0.227957070 0.157874733 0.095129736
0.256799370 0.173940286 0.109171450
0.299178064 0.205186382 0.133839086
0.343706459 0.244402170 0.180518642
0.399746925 0.290069610 0.220746368
0.486527711 0.357368618 0.291714042
0.296394646 0.196710721 0.138899639
0.303099275 0.209487632 0.145603999
0.312839717 0.219228178 0.149778724
0.342694551 0.237571120 0.168627635
0.373561054 0.265401542 0.198355734
0.408728480 0.299051255 0.230487004
0.455914021 0.339911282 0.269323021
0.528273284 0.402909547 0.327893555
0.400000393 0.292346746 0.223782390
0.413409352 0.297786027 0.226059377
0.428842723 0.312080830 0.245540723
0.442884147 0.326122642 0.255534619
0.469070375 0.352308333 0.281720370
0.507906616 0.383301735 0.310436428
0.556103706 0.423656195 0.347627997
0.624161720 0.481973588 0.405060112
0.540417492 0.411005467 0.344085932
0.543200731 0.415306896 0.337760895
0.557874739 0.426691979 0.346995801
0.576091051 0.438836187 0.362428457
0.600379705 0.463124692 0.380898088
0.628336191 0.493358463 0.414800465
0.678683996 0.533713043 0.449335754
0.739658296 0.582669497 0.502972782
0.689942956 0.544212580 0.460215271
0.704743743 0.548893094 0.472865373
0.710436463 0.561416626 0.479063660
0.718279421 0.569259763 0.486907184
0.739784956 0.585072756 0.507906556
0.766603351 0.608855307 0.524984002
0.796584547 0.635041475 0.557748020
0.852245092 0.684250534 0.607083917
0.870588362 0.699683785 0.636938751
0.883997440 0.702972591 0.628083408
0.876407385 0.707779765 0.642251790
0.894623220 0.718026400 0.654016256
0.910562932 0.732068360 0.664389610
0.925237000 0.752181768 0.691334307
0.942567885 0.781151056 0.727007866
0.968374491 0.815812647 0.761796355
0.118911989 0.067298993 0.022517283
0.126881987 0.075268999 0.025932809
0.155723989 0.096267991 0.040734001
0.191777289 0.118911989 0.062871635
0.241113186 0.162049189 0.098671801
0.294370562 0.201770738 0.131435692
0.358759969 0.252877980 0.186210990
0.430360794 0.316634774 0.246046796
0.158381000 0.091587991 0.038836259
0.165970564 0.097533256 0.040733997
0.180898085 0.112840094 0.055913832
0.215812832 0.138266742 0.079443447
0.257305413 0.171916455 0.101201825
0.313725442 0.210626274 0.142820820
0.366603553 0.261100531 0.194434032
0.429854542 0.315370083 0.251106948
0.222770095 0.145730197 0.076787099
0.235547543 0.148893014 0.092473000
0.249209180 0.165338188 0.096395098
0.273118556 0.185199559 0.119797282
0.314105004 0.211385280 0.143200278
0.354838371 0.252119184 0.186970279
0.412776560 0.299051225 0.231751993
0.483238637 0.360910743 0.286527455
0.299430937 0.208096281 0.140796989
0.311954439 0.214548096 0.146236464
0.328652561 0.225553364 0.158886895
0.349778622 0.243896633 0.177229643
0.379127294 0.270967960 0.204680637
0.422264457 0.300948620 0.238330007
0.466540277 0.345983535 0.276533931
0.530423820 0.403541893 0.329158813
0.419101983 0.299810469 0.220619991
0.423782378 0.306261986 0.236432374
0.430234015 0.313219339 0.242631361
0.442631096 0.325869560 0.255281270
0.470082372 0.348513365 0.277925372
0.508412182 0.383048654 0.310562938
0.556989193 0.424541146 0.348513544
0.618089616 0.479316890 0.401012182
0.559013188 0.422011256 0.349399000
0.566856265 0.432131648 0.357621729
0.572043002 0.438836038 0.360151738
0.581910491 0.449083030 0.371916264
0.601012111 0.466793180 0.382922351
0.628210187 0.489057422 0.403921455
0.673244715 0.526629031 0.447185457
0.730297267 0.576343894 0.495509237
0.692346275 0.551170290 0.460341275
0.700695872 0.545730591 0.464768797
0.702593446 0.555218339 0.476154357
0.714737654 0.565717936 0.483364910
0.731688738 0.580392301 0.498798192
0.756609559 0.600759268 0.520682991
0.794939816 0.629601300 0.553447545
0.845793486 0.672612548 0.600632489
0.866033912 0.695129275 0.631245792
0.873118579 0.699936628 0.628715575
0.876786888 0.701327980 0.636179566
0.889183998 0.712586880 0.648577034
0.902972698 0.727514148 0.663503945
0.925869584 0.745477617 0.685388803
0.940923631 0.771157622 0.713725567
0.967362165 0.813788414 0.771536827
0.160910830 0.098165818 0.039342143
0.172169656 0.104110986 0.047944240
0.189879820 0.121821828 0.065654986
0.224288434 0.147501826 0.080834813
0.271727175 0.186337799 0.118152976
0.323212892 0.225426883 0.159266144
0.393169254 0.279443264 0.212144271
0.459202766 0.348133951 0.269575804
0.186463997 0.115622543 0.055154830
0.196963832 0.124984153 0.064136982
0.211132452 0.136622444 0.077039629
0.244781628 0.162428647 0.095762335
0.288930982 0.194181189 0.129917979
0.337760985 0.234155372 0.167489097
0.394813538 0.286400974 0.217204243
0.467678666 0.352941215 0.275521994
0.242378324 0.162555352 0.098418847
0.246805817 0.170018792 0.108538732
0.262998253 0.180391923 0.115749173
0.292093754 0.198481724 0.134598091
0.331309080 0.226691917 0.158507243
0.378747731 0.271347433 0.205439627
0.438835919 0.320556641 0.249968618
0.512207508 0.386843741 0.312080890
0.316255450 0.211764827 0.148892999
0.321189284 0.221884817 0.153953254
0.335736632 0.233396381 0.166730091
0.360278457 0.254648805 0.185325652
0.390132785 0.283111811 0.215307087
0.434788287 0.314737260 0.244149268
0.489816695 0.365970820 0.294244051
0.554206252 0.422517240 0.346869290
0.412903011 0.303732038 0.232637376
0.420873195 0.306388199 0.242884189
0.420746297 0.309551090 0.237697646
0.435800016 0.322074383 0.251486391
0.469955534 0.350663841 0.274509817
0.514358044 0.386464000 0.315243423
0.567868352 0.433902562 0.358633459
0.632890642 0.496015191 0.405439347
0.572548866 0.439342380 0.362934798
0.576723814 0.442757845 0.366729826
0.576850355 0.443643302 0.367235899
0.585325539 0.449588895 0.368121475
0.593421876 0.454269290 0.372043192
0.622897029 0.484124005 0.402656555
0.672485709 0.525869966 0.446426451
0.734218776 0.579506576 0.499051273
0.726628542 0.571536958 0.495636016
0.724983990 0.579253554 0.492725790
0.729791343 0.576470435 0.495129526
0.737760544 0.584440351 0.503099382
0.748766422 0.592915714 0.512840033
0.759772599 0.603921354 0.523086548
0.782795787 0.626945019 0.546109796
0.844908237 0.671979606 0.606325090
0.879063725 0.702466667 0.635926425
0.879190505 0.708665311 0.638582826
0.886148095 0.714990497 0.645793676
0.889310181 0.720682919 0.654016197
0.904111266 0.727514148 0.663503945
0.919291794 0.745477676 0.686906517
0.940923572 0.771157622 0.718279541
0.966476798 0.816445231 0.764326215
