Assets/EldamarStudio/100 Retro LUTs Pack/LUTs/cube/Kevin LUT.cube
DOMAIN_MIN 0 0 0
DOMAIN_MAX 1 1 1
LUT_3D_SIZE 32
0.000000000 0.003922000 0.000000000
0.000000000 0.000885613 0.000000000
0.000000000 0.000000000 0.000000000
0.002529999 0.001265161 0.000000000
0.009360999 0.004301451 0.000379548
0.021504998 0.007337064 0.003415935
0.031119321 0.012902999 0.003922000
0.036938708 0.017330708 0.003922000
0.042252000 0.020366903 0.005439999
0.054396011 0.023402520 0.011511999
0.069449872 0.029348742 0.008855130
0.084630251 0.037444737 0.009867257
0.099810347 0.048829637 0.016318996
0.114990033 0.063756995 0.027450999
0.130170405 0.075900987 0.027450999
0.147754595 0.088045605 0.032257996
0.164453194 0.098671801 0.041365996
0.180265978 0.109044559 0.053510144
0.198482022 0.124224976 0.065654941
0.211132005 0.136622012 0.072233006
0.227071464 0.148766473 0.082099989
0.245287985 0.162934989 0.096267991
0.263503999 0.180897981 0.114104502
0.281720817 0.193042010 0.123212904
0.299936980 0.209740564 0.139152572
0.319544643 0.225173980 0.155977294
0.340797067 0.238330126 0.171663120
0.362049431 0.256546885 0.189879879
0.385957956 0.280075938 0.213408947
0.412017584 0.302593172 0.234155402
0.440227956 0.326502174 0.255914181
0.470587999 0.356862992 0.286274999
0.006072000 0.003922000 0.000000000
0.003036387 0.003922000 0.003036387
0.007337387 0.005186613 0.000885613
0.011638386 0.008601999 0.002529999
0.018469386 0.013029613 0.005313001
0.030613385 0.013409063 0.000379548
0.040227707 0.013915000 0.003415935
0.047691382 0.018974997 0.007210997
0.053637095 0.024161806 0.008476003
0.063504398 0.029475298 0.005440005
0.072738513 0.038329903 0.014421126
0.085642122 0.046552867 0.015939256
0.100948989 0.055661026 0.021252643
0.118026420 0.066793382 0.030487388
0.133206800 0.078937374 0.030487388
0.150790378 0.091081381 0.035294380
0.167488813 0.101707801 0.044402380
0.183301747 0.112080947 0.056546371
0.201518416 0.127261370 0.068690568
0.216951042 0.142441764 0.083617978
0.231245726 0.151043773 0.092346735
0.247311741 0.162934989 0.102340251
0.263630480 0.181024492 0.114484005
0.284756422 0.196078405 0.132321298
0.307527155 0.210499674 0.143706381
0.325869679 0.226565644 0.159013271
0.343832672 0.241366386 0.174699381
0.365085036 0.259582490 0.192915499
0.388994247 0.283112228 0.211132258
0.415053546 0.307400316 0.231119320
0.445034772 0.331688553 0.254648805
0.479696393 0.359898597 0.289310604
0.012143999 0.010373225 0.004300999
0.017710386 0.008223000 0.005186613
0.021125998 0.012523999 0.006072226
0.024668001 0.013029613 0.003036161
0.029727997 0.016445000 0.005313226
0.041871998 0.019987000 0.001012001
0.049336094 0.022137772 0.008981547
0.056799769 0.023782484 0.008728936
0.064389773 0.029348549 0.012523904
0.074889489 0.035420977 0.010626228
0.088298678 0.044402126 0.014800901
0.097406283 0.053510249 0.021884769
0.109424509 0.062618643 0.025047643
0.125110775 0.071980000 0.031879000
0.138393402 0.084123984 0.035674002
0.158127755 0.098418765 0.042631224
0.173307776 0.110562764 0.050221413
0.188488126 0.120303571 0.061732985
0.206704944 0.132447973 0.073877022
0.222138196 0.141176596 0.084503368
0.237317786 0.158254206 0.095888734
0.253510237 0.167362481 0.107021123
0.270208746 0.183175266 0.118532531
0.293484896 0.198355675 0.132700801
0.308412552 0.211385280 0.146362990
0.331309646 0.227956966 0.161290318
0.349525541 0.245414346 0.178747773
0.372422189 0.266919762 0.200252756
0.392030418 0.281846851 0.212017640
0.419860691 0.309677571 0.240860343
0.448450178 0.334724724 0.259582520
0.482353002 0.360783994 0.285895020
0.028336318 0.018215999 0.009108162
0.032384384 0.016445225 0.005313001
0.040607154 0.017330838 0.010372999
0.045414321 0.023403162 0.009108162
0.045793772 0.021125773 0.006072451
0.055281159 0.026312159 0.003036065
0.066160642 0.029854484 0.010119998
0.072232991 0.034155708 0.015306550
0.078304991 0.037951000 0.014547838
0.089437008 0.044023007 0.018089518
0.100695707 0.051739287 0.021125870
0.114357889 0.062112253 0.026185995
0.126881450 0.072359286 0.032257996
0.139026120 0.081594124 0.035420872
0.150157988 0.092725985 0.040480990
0.164452776 0.104743794 0.048956510
0.183681309 0.117141150 0.058064189
0.195825309 0.129285142 0.067805141
0.212776944 0.139025971 0.079949334
0.229475200 0.147881016 0.088045523
0.243390560 0.159013301 0.098418735
0.259582341 0.175205305 0.109551124
0.278051972 0.187476486 0.124604985
0.302340031 0.202656910 0.136748999
0.318785429 0.216825157 0.150158152
0.333839655 0.230486959 0.163820311
0.355092078 0.249209061 0.181531057
0.378621131 0.272738725 0.203542143
0.398861647 0.287665993 0.218342811
0.425427049 0.309171200 0.239595175
0.454016328 0.340417653 0.272486031
0.483618170 0.365844309 0.286148161
0.058317542 0.025047095 0.012144452
0.054522160 0.025426548 0.003415613
0.060088318 0.026185546 0.008601999
0.066287152 0.027956773 0.014800613
0.070461996 0.033650000 0.012523999
0.073497608 0.036685612 0.009487612
0.085515313 0.040101320 0.014041547
0.095382541 0.044781994 0.016445000
0.101834089 0.050474547 0.017963096
0.107906096 0.056546550 0.024035100
0.114357546 0.062998086 0.027197869
0.126122341 0.072359085 0.031498995
0.141302735 0.084123738 0.037950546
0.159013510 0.096015483 0.044022545
0.168247670 0.105123110 0.047185414
0.178114891 0.114231341 0.054649249
0.191777378 0.123719186 0.064136796
0.208728984 0.133459970 0.073877141
0.220873028 0.145604014 0.086021937
0.238203555 0.157368571 0.093359001
0.252624929 0.169512928 0.102466986
0.266793549 0.181277990 0.115243569
0.284883052 0.193548501 0.130423948
0.308412105 0.208728909 0.142821014
0.325869262 0.223909289 0.157242268
0.342061758 0.239089385 0.172422662
0.360784501 0.254901618 0.187223524
0.382036865 0.276153982 0.202403888
0.403668821 0.292472810 0.220619962
0.432005137 0.314737141 0.244149148
0.462745190 0.342694223 0.270588189
0.487033993 0.376091450 0.294876993
0.085641928 0.037191868 0.015180064
0.076533549 0.040227480 0.009108065
0.081340708 0.044907935 0.011131998
0.086653933 0.047437936 0.015686000
0.088677987 0.048829611 0.015559612
0.100821987 0.051865995 0.018595999
0.106387928 0.057431929 0.023149932
0.112333700 0.062997997 0.024288226
0.117394023 0.068311095 0.024035193
0.126122862 0.071726941 0.030107876
0.135104001 0.080708802 0.033269998
0.145730436 0.087286860 0.034281999
0.157242224 0.095509224 0.038709641
0.168121114 0.105123095 0.047058932
0.180265889 0.114231475 0.053130925
0.194307670 0.123339735 0.058696993
0.209993869 0.133965924 0.068311058
0.226944968 0.145603985 0.079949141
0.239089012 0.157748014 0.092093945
0.254016370 0.167109370 0.104238003
0.267804921 0.178620920 0.111574993
0.281973302 0.189753190 0.120682999
0.300063431 0.199620500 0.133459553
0.315243840 0.214800909 0.148639962
0.331941575 0.229981273 0.163314283
0.347121656 0.245161653 0.178494647
0.363820136 0.260847867 0.193168998
0.385072500 0.279190361 0.205439493
0.408981711 0.297785908 0.225932851
0.438077122 0.320809156 0.250221133
0.468817204 0.347248197 0.276660204
0.493106008 0.373055071 0.300949007
0.105375998 0.054395996 0.023276320
0.103857934 0.054901931 0.022264319
0.105502866 0.062239092 0.020493317
0.112966642 0.066160642 0.024541482
0.115876086 0.066540092 0.026186094
0.121568315 0.069575936 0.029221933
0.133712962 0.075142637 0.029727999
0.139784962 0.081214637 0.035799995
0.145224541 0.086527541 0.037697319
0.154332474 0.089563489 0.043769646
0.158380762 0.098418869 0.049462769
0.165464640 0.101454996 0.048450384
0.176596999 0.109930634 0.051359959
0.187349379 0.121568635 0.060468286
0.199494153 0.128399730 0.068816990
0.214042112 0.135104313 0.077292800
0.226186126 0.145603999 0.081973508
0.240733564 0.157115579 0.091081627
0.254775345 0.167362332 0.103225946
0.269702703 0.174193367 0.112840332
0.282985300 0.185198992 0.121189311
0.295129299 0.197343260 0.129285321
0.310309678 0.208222821 0.141555816
0.327893913 0.223403230 0.156736225
0.345350981 0.240860313 0.169639319
0.360783964 0.256293654 0.184566647
0.376976371 0.271474063 0.200252995
0.398228735 0.287666291 0.216444984
0.427197963 0.310942292 0.239089116
0.449715495 0.330929488 0.256799489
0.480075896 0.356735885 0.281973273
0.509298027 0.382669002 0.309550673
0.130170405 0.072612405 0.025806291
0.131815106 0.072612405 0.032384705
0.132827252 0.077419475 0.034028992
0.135104537 0.081467539 0.030234154
0.140417546 0.082226537 0.032511450
0.145983472 0.087792471 0.038077060
0.153320625 0.093358636 0.045161411
0.160531700 0.097786278 0.043516699
0.168880612 0.103858478 0.049588703
0.179759204 0.107779935 0.055660710
0.184693277 0.114990570 0.061733026
0.193042397 0.119670987 0.066666737
0.199114397 0.123086631 0.064768992
0.209993437 0.136749029 0.072359316
0.220746532 0.144212693 0.081467271
0.232005075 0.151928976 0.090575509
0.244149476 0.159519181 0.096647508
0.253889680 0.170271695 0.100948855
0.268058002 0.178367972 0.112081014
0.283238351 0.184693009 0.121442355
0.294876695 0.192915693 0.130297273
0.309044689 0.206071824 0.139405400
0.322580189 0.218975484 0.152308494
0.339278817 0.234155908 0.167488888
0.359139681 0.249968693 0.180391997
0.375964344 0.266793370 0.193927646
0.392156750 0.282985628 0.210120052
0.413409114 0.300442696 0.229474679
0.437697589 0.321947932 0.251359612
0.467678875 0.346109867 0.275268883
0.492473274 0.366476685 0.293105662
0.525869727 0.391523987 0.321947694
0.159772098 0.091587901 0.029601190
0.161290497 0.092346996 0.038709775
0.162935004 0.094370902 0.044402421
0.163946927 0.100443028 0.046173252
0.160910651 0.097786188 0.038204093
0.168501034 0.105756029 0.046173252
0.175838187 0.110816091 0.054016549
0.181024805 0.116002478 0.060215291
0.184820101 0.119797193 0.059455998
0.199999720 0.125869974 0.065528005
0.208728835 0.132701099 0.072359093
0.216571987 0.136748835 0.077672191
0.227198094 0.140543744 0.082985193
0.233270094 0.149399102 0.083491191
0.241872415 0.158001408 0.092093505
0.252498358 0.166350275 0.101201892
0.261606365 0.175458282 0.108791903
0.270714611 0.184566662 0.111827672
0.282732129 0.190765217 0.120683074
0.296900541 0.198355213 0.130550355
0.309044838 0.207083836 0.140417352
0.320430160 0.217457116 0.150790319
0.338519663 0.232637480 0.165970698
0.353700101 0.247817904 0.181151107
0.371916264 0.262998283 0.194813073
0.391903639 0.278178662 0.209107846
0.407084078 0.293359071 0.224288255
0.427830428 0.314104736 0.245034620
0.449082792 0.335357010 0.264769018
0.477166355 0.359898388 0.287792385
0.508412540 0.385452151 0.312840044
0.541808963 0.403668165 0.337128073
0.187096506 0.112839535 0.053889982
0.184060872 0.115875915 0.053889982
0.185578719 0.114484243 0.056546789
0.189753011 0.118152857 0.060847975
0.194307059 0.128146976 0.065528490
0.191271454 0.128146976 0.065528490
0.198861822 0.128526494 0.063377656
0.206198990 0.132068500 0.065907530
0.212144494 0.138013974 0.071600012
0.218216509 0.144085988 0.077672020
0.233396843 0.153067887 0.086653881
0.240101248 0.158001244 0.091587745
0.245793656 0.161037147 0.095888972
0.254522502 0.164579511 0.101707980
0.260594487 0.170651495 0.107779965
0.274003804 0.176850006 0.116382286
0.285895169 0.184566692 0.125490293
0.295003384 0.193675071 0.133080065
0.304111034 0.202783480 0.136116475
0.316129208 0.214547992 0.147754505
0.328399956 0.226438969 0.159771994
0.341429621 0.238456488 0.171789750
0.356736451 0.250853479 0.184187472
0.371916890 0.266033918 0.199367881
0.387096673 0.281214297 0.214547664
0.405312628 0.296394646 0.230992809
0.425300062 0.311575055 0.248577043
0.440480441 0.326755434 0.263757408
0.461226821 0.347501755 0.279190779
0.491334349 0.374066859 0.299936891
0.526628613 0.404174179 0.325110555
0.560024977 0.434028983 0.352308482
0.214420870 0.131182745 0.075268872
0.211385250 0.137128264 0.078178734
0.210499868 0.138013870 0.073877193
0.212776572 0.138266906 0.074636288
0.217962965 0.143959865 0.077925451
0.227577686 0.143959865 0.075395130
0.224541426 0.151549548 0.085515767
0.232131690 0.154332712 0.087666027
0.240227968 0.159898967 0.093231961
0.248450726 0.168121725 0.101454735
0.251612842 0.171283871 0.098797873
0.262745261 0.176344261 0.105881989
0.268690735 0.180518746 0.110942408
0.276280880 0.185325831 0.117014870
0.287665844 0.188740999 0.123086862
0.293737859 0.194813609 0.129158854
0.304364175 0.202403545 0.137761191
0.314104974 0.212144136 0.147501722
0.325489908 0.223529845 0.157368854
0.337381601 0.232637525 0.165971234
0.349525869 0.244655475 0.177988738
0.360658020 0.255787611 0.189120859
0.372043341 0.265907377 0.199367851
0.387223035 0.275521785 0.211764902
0.402403414 0.290702134 0.222391278
0.418975204 0.307273835 0.237697706
0.439721793 0.324984074 0.256420046
0.464516163 0.344971418 0.276407421
0.490322500 0.365464777 0.294243991
0.512080908 0.386717141 0.316761285
0.542821050 0.413662046 0.342188179
0.578241706 0.444022864 0.367488861
0.241745755 0.153446972 0.094496988
0.242757618 0.157495245 0.093485378
0.239848495 0.161290497 0.098165944
0.244908497 0.160025328 0.093358338
0.249082759 0.161543533 0.094496988
0.251360118 0.163188249 0.093105309
0.256926179 0.168754190 0.098671377
0.257178783 0.174572796 0.105882436
0.264769167 0.178367987 0.109677248
0.272612751 0.186211213 0.117520466
0.277925611 0.191524625 0.121062376
0.282985508 0.196584508 0.124098241
0.290955245 0.200759247 0.130170524
0.297786266 0.206831247 0.136496216
0.311701506 0.211638078 0.144338980
0.323086470 0.219101846 0.152435228
0.329158485 0.225174233 0.158507228
0.337128252 0.233143494 0.166476965
0.346489251 0.242504939 0.175838009
0.356609702 0.251866162 0.185199365
0.368753970 0.259076506 0.194307730
0.379886150 0.269956112 0.205313116
0.389500499 0.279190511 0.214674234
0.408475608 0.290196151 0.228716001
0.425679535 0.305882275 0.244655535
0.440859914 0.322454333 0.253763556
0.458950043 0.341176569 0.270588040
0.483238399 0.362428933 0.291840434
0.506514788 0.379632771 0.306388497
0.535610378 0.402656376 0.328146458
0.559392810 0.425932825 0.354332447
0.592410028 0.455155015 0.378621250
0.270208985 0.177735284 0.110436283
0.272106230 0.179633021 0.108539023
0.273118407 0.182669401 0.110815994
0.270714968 0.185452461 0.117647119
0.280961543 0.182416171 0.114610732
0.275648624 0.183934569 0.113851637
0.279696643 0.189500630 0.118911639
0.285262555 0.195066556 0.126754984
0.289057285 0.198861271 0.130550280
0.295129985 0.204933271 0.136622265
0.302340627 0.208728731 0.139278650
0.308412641 0.214800984 0.145350620
0.315623283 0.222011656 0.152561277
0.321948260 0.228083640 0.158633992
0.335357398 0.234155625 0.166856214
0.346995622 0.242631435 0.175964445
0.356103599 0.250221640 0.183554620
0.362808198 0.256926209 0.190259188
0.369386286 0.263504267 0.196837291
0.378241628 0.270082355 0.202276990
0.389247268 0.279570013 0.214800730
0.400379419 0.286654145 0.221885130
0.409740746 0.296015501 0.230992779
0.428968906 0.309171647 0.246173203
0.449082613 0.324731261 0.262492210
0.467045933 0.342947304 0.279949576
0.482732266 0.361164123 0.289563268
0.503352046 0.381784052 0.308918059
0.526881397 0.400000066 0.326755285
0.553447008 0.420493007 0.345983565
0.583807826 0.446552813 0.369386226
0.611385286 0.474130273 0.393422008
0.299557060 0.202277035 0.123592995
0.299557060 0.202024072 0.124605000
0.302213758 0.203921810 0.126755282
0.303478867 0.206704900 0.131815225
0.300442576 0.209487543 0.139152482
0.297406942 0.206451938 0.136116087
0.302214056 0.210500002 0.140417069
0.308033019 0.217078000 0.150537446
0.313346058 0.222391024 0.159392998
0.319418073 0.228463024 0.165464997
0.328399867 0.229728028 0.163314193
0.335737020 0.233523056 0.166350067
0.342694640 0.240480676 0.173307672
0.351803035 0.249589071 0.182416067
0.360910624 0.255661041 0.188488066
0.369765818 0.263883829 0.196710840
0.377862036 0.271474034 0.204554051
0.384313554 0.277925581 0.211511597
0.393421948 0.287033975 0.220619991
0.402530342 0.291081697 0.221631989
0.413535982 0.299810052 0.232511058
0.424668133 0.310942203 0.246173128
0.434282482 0.320303530 0.249715492
0.449715167 0.335483909 0.264895916
0.468943328 0.350158274 0.279823244
0.488804311 0.366730034 0.295888990
0.507780075 0.385199159 0.313852042
0.525996029 0.403415918 0.325996041
0.551675797 0.424288809 0.348513663
0.580265403 0.447311968 0.372042984
0.610373199 0.473118186 0.396457642
0.640734017 0.503479004 0.417710066
0.317773819 0.229601383 0.147880971
0.317773819 0.226565778 0.160024971
0.324225038 0.226312816 0.163187727
0.330802977 0.226945400 0.166223973
0.333838940 0.227957278 0.169386715
0.330803305 0.230739921 0.163440436
0.337887704 0.230233967 0.165464699
0.343074083 0.238076970 0.179000512
0.345224470 0.245161057 0.189247295
0.343706816 0.243643403 0.177608982
0.352687925 0.255534410 0.180771858
0.361796230 0.259076655 0.184566811
0.369133383 0.263883829 0.190638825
0.376091003 0.270841420 0.197596446
0.385199368 0.279949784 0.206704825
0.391903788 0.286021799 0.212776810
0.401644379 0.292726368 0.220999599
0.411258399 0.298798382 0.230107799
0.417709947 0.305249929 0.241872370
0.426818341 0.314358324 0.245414048
0.437823981 0.324098796 0.253510445
0.448956132 0.335230947 0.265907675
0.458570480 0.344592273 0.274003476
0.479822874 0.359771907 0.289183855
0.495256096 0.370398253 0.302086979
0.513092816 0.384946287 0.314863890
0.532827020 0.403668880 0.329791486
0.559392393 0.424668282 0.350284785
0.580265164 0.445541173 0.370398611
0.604553759 0.468564302 0.388741553
0.630992949 0.493737936 0.411132395
0.658949971 0.521694958 0.441998810
0.357621759 0.247311801 0.179379791
0.350410968 0.253890157 0.184313595
0.352561742 0.248703778 0.190006375
0.357368588 0.250727803 0.190512419
0.361163586 0.253004789 0.191271529
0.364199698 0.254016668 0.191271529
0.366477102 0.256925792 0.187982112
0.370651782 0.260214806 0.194307491
0.373687565 0.269322962 0.208728805
0.375585258 0.271221071 0.205060095
0.379379898 0.275521785 0.202529848
0.388488024 0.281594038 0.211638495
0.396457791 0.285768807 0.218469590
0.402782828 0.292093754 0.224794552
0.411891192 0.301201582 0.233902380
0.425806582 0.307906777 0.243010759
0.431878597 0.313978761 0.249082774
0.439721584 0.320683181 0.255407989
0.442251563 0.328525960 0.260468006
0.451106936 0.337381333 0.269070268
0.465907574 0.348386973 0.274003595
0.479063600 0.360531241 0.285135984
0.489816308 0.371031255 0.295761794
0.506514668 0.381656885 0.308665514
0.527767062 0.396837085 0.323845297
0.544592083 0.410373122 0.337507427
0.562808394 0.428589761 0.351676136
0.584440053 0.447944403 0.371031195
0.611258388 0.466793597 0.392283559
0.636052728 0.491587937 0.413535923
0.659202993 0.515623212 0.433523357
0.681973636 0.539911568 0.463883787
0.389500380 0.271600187 0.203668192
0.392535985 0.277672589 0.211258769
0.382922173 0.276028186 0.205186769
0.388488233 0.275016189 0.215813160
0.389247179 0.280329198 0.214421362
0.393042177 0.280329198 0.214042127
0.395066321 0.284377068 0.218089864
0.397976190 0.287539184 0.218595877
0.400253296 0.292852283 0.226945177
0.407084376 0.298165977 0.233017176
0.410246491 0.301328510 0.233396694
0.415812433 0.305882454 0.234408692
0.423782200 0.310057163 0.244276181
0.430360258 0.316129178 0.250348181
0.440733790 0.323971957 0.258190960
0.450094998 0.330676615 0.265780985
0.463757187 0.339784980 0.273371160
0.469829172 0.345857143 0.279443175
0.471600175 0.354079604 0.281214178
0.481467336 0.361669749 0.289563537
0.493232369 0.372675389 0.299810201
0.511448383 0.384819388 0.307906181
0.524730921 0.397090495 0.320176691
0.539911270 0.408981472 0.333712786
0.555091441 0.421125472 0.346616268
0.574952483 0.434914529 0.361795872
0.593675256 0.453890175 0.376470327
0.612903357 0.474130183 0.392663091
0.634535015 0.490828633 0.415053785
0.661859334 0.512840331 0.434788346
0.688298404 0.539279163 0.456926137
0.707780182 0.561163962 0.483617991
0.410879523 0.304996520 0.223908693
0.423529148 0.306767941 0.233523309
0.419734299 0.304617524 0.227577776
0.414674550 0.302340537 0.225047722
0.423402727 0.308032990 0.245161548
0.423908710 0.308285952 0.240607530
0.423908710 0.312080950 0.245287806
0.425553232 0.317140996 0.249841690
0.428210080 0.319544226 0.252371967
0.437318474 0.322580636 0.258443981
0.441872239 0.326881826 0.262871832
0.446299702 0.331309557 0.264516532
0.453004122 0.338014126 0.267425954
0.459076136 0.344086111 0.272991955
0.470461816 0.350158095 0.278304935
0.478431523 0.356862515 0.285009533
0.486907125 0.364073128 0.291081548
0.497786105 0.376217097 0.297786117
0.503858149 0.382289886 0.303858101
0.517393708 0.388994545 0.312713474
0.527640402 0.398861527 0.323086530
0.541176498 0.409740537 0.334598124
0.559139609 0.421884567 0.346742123
0.573814034 0.436559051 0.361416459
0.587349534 0.450094700 0.374952525
0.601644278 0.462238878 0.386590868
0.620367050 0.475901604 0.402782619
0.641619384 0.500063121 0.415306866
0.660215080 0.515749395 0.436179519
0.682479262 0.535610378 0.457558364
0.709550738 0.558633924 0.476913512
0.733839571 0.582921982 0.501201570
0.444276035 0.338393003 0.263377935
0.447311640 0.335357398 0.263377935
0.447058797 0.334977984 0.257938266
0.448071182 0.334472001 0.255914181
0.456799954 0.335357428 0.266413987
0.462871939 0.338393092 0.278558016
0.463377953 0.338646024 0.279064000
0.465022236 0.342441469 0.278178275
0.467299014 0.346742928 0.276407033
0.467678547 0.346869469 0.276660025
0.476786911 0.355724096 0.285641879
0.481341243 0.360278279 0.290196300
0.486907303 0.365844667 0.295256317
0.495509028 0.374446958 0.303352028
0.501581013 0.380518943 0.303352028
0.510562897 0.388994157 0.311068833
0.519418180 0.394813180 0.318405986
0.528146982 0.400505960 0.325110555
0.534218967 0.412649959 0.334218949
0.554206371 0.421505392 0.343074322
0.563314199 0.432258010 0.352182209
0.571157217 0.442377985 0.361543119
0.586464107 0.449209034 0.371030957
0.598608851 0.461353779 0.383174986
0.613282740 0.476028234 0.397849262
0.628209710 0.489563912 0.408602029
0.644655108 0.503226101 0.417963088
0.665907502 0.524478436 0.439215422
0.684503734 0.538013995 0.454395860
0.704491198 0.555724204 0.473877132
0.728020549 0.576344013 0.494876593
0.755092025 0.595066011 0.516382039
0.483238399 0.366224080 0.294497013
0.483491361 0.365971148 0.294497013
0.486527532 0.367235959 0.296647787
0.486021727 0.367868364 0.293864727
0.489816815 0.368247926 0.297659814
0.493485034 0.371284157 0.302593023
0.499556988 0.371790081 0.307147354
0.501707733 0.373434365 0.305755675
0.504743874 0.377609104 0.304237455
0.506768107 0.379633367 0.306261748
0.518279612 0.385578871 0.312207222
0.523339510 0.390639007 0.317267627
0.527514338 0.394813746 0.320303738
0.534725130 0.402024359 0.325869381
0.540797114 0.408096343 0.330929369
0.544465303 0.418975353 0.338140160
0.551296413 0.426944733 0.345730364
0.559139609 0.432510942 0.352434933
0.567362428 0.442504734 0.361543328
0.581783712 0.449082732 0.370651722
0.597343385 0.456293374 0.379759610
0.606071949 0.467678517 0.387855619
0.619481564 0.479443222 0.395446181
0.634281814 0.494244188 0.410246372
0.648703277 0.504111648 0.422390938
0.663883388 0.518279672 0.437065363
0.679063737 0.532321095 0.448830009
0.695762157 0.549019456 0.465527773
0.719670713 0.564958811 0.484124005
0.741682410 0.584313750 0.504743636
0.761290371 0.606578350 0.527893543
0.779127002 0.626692116 0.551043749
0.530297220 0.397343725 0.324857473
0.520809472 0.399240971 0.328652471
0.522960246 0.401391685 0.330803245
0.531056285 0.400632441 0.326249301
0.533839285 0.400126457 0.323466182
0.533839285 0.404680669 0.326501817
0.533712447 0.408981711 0.333333045
0.539784431 0.408981711 0.328146726
0.543832898 0.410246551 0.328905553
0.548007905 0.411005944 0.336495966
0.557874739 0.418848723 0.344338745
0.563946962 0.422897011 0.348386973
0.568121254 0.427071720 0.352561712
0.574193716 0.433143735 0.356609464
0.580265701 0.439215750 0.362681448
0.583934426 0.448197454 0.369259506
0.590005994 0.455787271 0.376850098
0.597090065 0.462112278 0.383554578
0.606198490 0.471220672 0.392662704
0.615180075 0.479443461 0.396078348
0.628463268 0.489310473 0.407084465
0.639595032 0.496394575 0.416192085
0.650980532 0.509550929 0.423402995
0.666160524 0.521188915 0.436812311
0.679443061 0.533713043 0.449715316
