Assets/EldamarStudio/100 Retro LUTs Pack/LUTs/cube/Kevin LUT.cube
LUT_3D_SIZE 5
DOMAIN_MIN 0.000000 0.000000 0.000000
DOMAIN_MAX 0.903226 0.903226 0.903226
0.000000000 0.003922000 0.000000000
0.036938708 0.017330708 0.003922000
0.130170405 0.075900987 0.027450999
0.245287985 0.162934989 0.096267991
0.385957956 0.280075938 0.213408947
0.130170405 0.072612405 0.025806291
0.160531700 0.097786278 0.043516699
0.220746532 0.144212693 0.081467271
0.309044689 0.206071824 0.139405400
0.437697589 0.321947932 0.251359612
0.317773819 0.229601383 0.147880971
0.343074083 0.238076970 0.179000512
0.385199368 0.279949784 0.206704825
0.448956132 0.335230947 0.265907675
0.580265164 0.445541173 0.370398611
0.577862144 0.431752235 0.355218232
0.577229321 0.447438240 0.363567382
0.618722260 0.474636108 0.397090226
0.674004138 0.530803144 0.445541263
0.775331914 0.614547968 0.536115944
0.877672434 0.707906425 0.646426558
0.890828431 0.707906425 0.648703277
0.902466774 0.731309414 0.664769292
0.940290630 0.763946772 0.709171593
0.962428629 0.822896540 0.760278344
0.005566289 0.003922000 0.002277292
0.050727699 0.024541706 0.007210997
0.156988978 0.095508993 0.041239992
0.270714998 0.180518985 0.114484258
0.402909815 0.289183795 0.218595788
0.141935408 0.082099698 0.027451001
0.169386402 0.101707697 0.042884700
0.230866402 0.153067827 0.086400978
0.319797397 0.217836976 0.155724257
0.448070794 0.331056207 0.260467798
0.325996101 0.230866820 0.153700411
0.348893076 0.240354121 0.175332397
0.390765101 0.278305113 0.208349109
0.455534488 0.338519692 0.267931700
0.584819615 0.449462205 0.371031046
0.572296262 0.439848542 0.361163974
0.583174944 0.441239506 0.367741823
0.616445422 0.477166116 0.399747223
0.671726823 0.526881397 0.448450536
0.774446309 0.615433037 0.536748767
0.875774741 0.711321712 0.646046698
0.883617759 0.711954296 0.644022882
0.910056710 0.729664683 0.669576347
0.937001765 0.763946772 0.706135452
0.964073420 0.814421415 0.767235696
0.034028992 0.015053578 0.003289416
0.074889697 0.036306284 0.011764999
0.168121397 0.106641397 0.045793995
0.278937548 0.188741535 0.125996292
0.420620054 0.302846402 0.232890651
0.163567394 0.098797984 0.046173692
0.184439987 0.116761275 0.057938114
0.245920390 0.161543399 0.097786278
0.331562430 0.228589267 0.163187966
0.460215062 0.341176510 0.268564522
0.339405388 0.237444401 0.177356213
0.352814674 0.249209389 0.187096402
0.393674791 0.279949844 0.215938970
0.469323099 0.346995682 0.277419209
0.584819615 0.451359779 0.371663600
0.577229559 0.439974546 0.362176120
0.583048522 0.451739520 0.372675389
0.620999575 0.478178382 0.400000095
0.675901115 0.532068551 0.448703229
0.775079072 0.618089616 0.533839047
0.878431141 0.701834202 0.637950838
0.881973326 0.709044993 0.640860319
0.898544788 0.728020191 0.663377583
0.935104489 0.762049437 0.706894279
0.965085626 0.814420998 0.764199555
0.084503256 0.045160998 0.009866998
0.123592570 0.073244579 0.027830286
0.196584120 0.127261266 0.066793412
0.300190002 0.206957862 0.143200263
0.427450925 0.313725680 0.243136913
0.184693277 0.120303564 0.059835281
0.208981529 0.137887567 0.077166565
0.263251096 0.176976681 0.112586826
0.349525690 0.243643552 0.176976711
0.476154208 0.351296812 0.282353073
0.349778801 0.248576656 0.178368270
0.367868274 0.258064538 0.188361824
0.405439824 0.292978942 0.226312399
0.477798522 0.355471253 0.279316813
0.586084604 0.451992214 0.373561054
0.577862144 0.446426123 0.383555144
0.593548536 0.454269528 0.376849830
0.621632159 0.482353121 0.404933244
0.675901055 0.529791296 0.453257233
0.768754125 0.606957674 0.526502252
0.868311286 0.700948775 0.635167599
0.884250462 0.708032846 0.638456583
0.902213871 0.723086476 0.656546295
0.931815088 0.755217910 0.699936569
0.968121469 0.817330897 0.761037230
0.160910830 0.098165818 0.039342143
0.183807820 0.115749568 0.059582662
0.245287389 0.164199561 0.097533397
0.343706131 0.237824112 0.171157107
0.459202766 0.348133951 0.269575804
0.228209823 0.150410831 0.086274579
0.244528830 0.165464818 0.098798141
0.301201671 0.201138690 0.136369273
0.383554965 0.275648296 0.205439821
0.504364371 0.377482623 0.306261778
0.363566995 0.253004581 0.183681414
0.376976520 0.263757288 0.194560111
0.413915396 0.301454395 0.231498986
0.489816397 0.369512826 0.292346388
0.601770759 0.466413349 0.386084616
0.610499561 0.468690962 0.392536253
0.616825104 0.478557944 0.398102552
0.628462851 0.487665951 0.405186534
0.661100447 0.519544363 0.434282273
0.760025024 0.603036225 0.525363803
0.879063725 0.702466667 0.635926425
0.882858574 0.710689485 0.645540655
0.898671567 0.722074747 0.658064604
0.925616503 0.751802623 0.693231821
0.966476798 0.816445231 0.764326215
