Assets/EldamarStudio/100 Retro LUTs Pack/LUTs/cube/Kim LUT.cube
DOMAIN_MIN 0 0 0
DOMAIN_MAX 1 1 1
LUT_3D_SIZE 32
0.058823999 0.078431003 0.094117999
0.061859611 0.081467390 0.097153611
0.075648546 0.086654000 0.104490772
0.091334999 0.091461159 0.111068837
0.104997002 0.094117999 0.114863545
0.129284993 0.094117999 0.123971932
0.153573647 0.101707675 0.130549997
0.179506704 0.102593005 0.133332998
0.203795090 0.098039001 0.132574096
0.218975499 0.098039001 0.129538476
0.245793864 0.098039001 0.132321119
0.275142491 0.098039001 0.139405251
0.304364622 0.099177644 0.149652004
0.331942022 0.101707973 0.161290005
0.362301975 0.098671585 0.167361990
0.402276576 0.102845997 0.175837800
0.444781363 0.105881996 0.184946194
0.490448654 0.103984587 0.194686979
0.548133969 0.094876960 0.206831023
0.597469747 0.091334641 0.216192365
0.651739180 0.078811012 0.223402992
0.708412230 0.063630871 0.231498986
0.762934446 0.054269500 0.243769497
0.814547718 0.039089091 0.258949906
0.861606836 0.033017293 0.267298996
0.907147586 0.042504959 0.280328631
0.950664043 0.069323055 0.301581055
0.984060407 0.108791411 0.322833419
0.996204793 0.158886403 0.338772804
1.000000000 0.208728299 0.361037135
1.000000000 0.259961754 0.386590570
1.000000000 0.317647010 0.407842994
0.064895995 0.081467390 0.094117999
0.058823999 0.087539390 0.097153611
0.072612382 0.090575770 0.106641002
0.090828612 0.095762387 0.115369931
0.108791709 0.100569449 0.121315770
0.138393387 0.103225611 0.133080319
0.147501394 0.100695938 0.134598389
0.172043011 0.106135383 0.133080393
0.199241102 0.105629385 0.131056279
0.218975499 0.101075388 0.132574096
0.242883980 0.103984512 0.135357484
0.274130344 0.108158991 0.144465387
0.305502981 0.110183001 0.154585645
0.335230708 0.111321643 0.164326400
0.368374765 0.113851972 0.170398384
0.410752565 0.113219388 0.178874195
0.453889757 0.114990383 0.187982202
0.498292059 0.114990383 0.197722763
0.551170349 0.113092951 0.209867418
0.606072128 0.103984632 0.222011402
0.655154824 0.098545007 0.229474992
0.707400382 0.085894875 0.236559123
0.759898841 0.072865009 0.246932372
0.811511338 0.066413477 0.265021920
0.863124430 0.062618390 0.277925581
0.908791900 0.071473643 0.286907077
0.950158119 0.095129505 0.301075131
0.981024802 0.127008185 0.319797814
0.995825350 0.166476533 0.343706340
1.000000000 0.218342736 0.365338385
0.999114394 0.272106290 0.392283350
0.996963620 0.329790980 0.419986993
0.070968002 0.084503770 0.104870223
0.060594998 0.092726000 0.099304385
0.073877767 0.096647777 0.102339998
0.090828612 0.100949004 0.115749158
0.108538546 0.106641449 0.124098770
0.133586094 0.109677069 0.130930007
0.152308777 0.109803550 0.137254998
0.169892475 0.110056937 0.138899282
0.198988095 0.114864096 0.135863230
0.223023489 0.112966776 0.137507513
0.247185528 0.113472678 0.140543863
0.275521517 0.112460293 0.147628248
0.309930503 0.118152767 0.160784408
0.342567801 0.120429799 0.171663776
0.375964463 0.123466186 0.177735761
0.414674550 0.126249000 0.181910023
0.458697140 0.127767190 0.192536607
0.503731847 0.126502201 0.201644540
0.556863010 0.121947989 0.210752964
0.609108508 0.117900185 0.220746234
0.663757205 0.108791813 0.232890695
0.714864016 0.103478640 0.240480632
0.767615438 0.093231782 0.249588728
0.819228470 0.087159768 0.261732996
0.866539776 0.092093542 0.281846821
0.911195278 0.100442514 0.293991208
0.951170087 0.121441893 0.305882066
0.984819829 0.148513645 0.325743109
0.992789209 0.188994303 0.344971716
0.999620438 0.233775854 0.374572903
1.000000000 0.286780745 0.399114579
0.998228788 0.341935545 0.425679773
0.073244840 0.095129833 0.116255321
0.064896002 0.100442611 0.108412221
0.071347445 0.106514931 0.111701548
0.090069830 0.108286165 0.110942319
0.106008537 0.113978609 0.125363603
0.127260938 0.117014222 0.130170777
0.151043639 0.118785322 0.133206829
0.171663702 0.120429702 0.140164450
0.197470099 0.124224991 0.143200263
0.223782495 0.127767324 0.143706322
0.249462590 0.125363842 0.146615863
0.280329138 0.127134740 0.151170254
0.310689151 0.127514288 0.159140006
0.347121924 0.133333281 0.173940867
0.382542551 0.136369407 0.183048993
0.420746237 0.139405519 0.187982365
0.461733192 0.139911190 0.193042219
0.506767929 0.142947569 0.205186814
0.561416864 0.136369348 0.212523863
0.615812957 0.131562516 0.222643971
0.668058395 0.127261430 0.232384309
0.722707212 0.120177023 0.245540962
0.777102947 0.117267154 0.254901648
0.827577591 0.113472156 0.261733055
0.877166390 0.117520601 0.277419418
0.919797301 0.125743285 0.297027141
0.955218136 0.146995440 0.311195165
0.990132809 0.174320191 0.333206415
0.996078312 0.212017581 0.351802647
0.996584058 0.258064300 0.377609283
0.999620438 0.309297770 0.410120130
1.000000000 0.361669987 0.432511002
0.070967548 0.115243092 0.122707449
0.068690836 0.115622543 0.117773317
0.073877320 0.118405998 0.122706994
0.084756166 0.122327998 0.128399998
0.099936545 0.123086996 0.124225542
0.121188931 0.126122609 0.133333161
0.149272650 0.129917860 0.134851098
0.175458699 0.132953823 0.138266698
0.197090551 0.135989547 0.146236554
0.218342945 0.142061546 0.149272949
0.245793864 0.138013542 0.152688131
0.278051972 0.139658079 0.156103715
0.312586993 0.145350739 0.160278559
0.343959063 0.151170492 0.167109534
0.383554667 0.154206127 0.182289854
0.424161762 0.157621816 0.189879999
0.465527892 0.158760354 0.196331546
0.510562658 0.155850574 0.203288987
0.565211535 0.158886954 0.215433016
0.621884644 0.154712543 0.227577716
0.676913202 0.150537804 0.238203809
0.729158819 0.147880957 0.248197123
0.783681035 0.145097598 0.263250977
0.832510889 0.145350635 0.267046362
0.882226288 0.149905115 0.278811276
0.927514195 0.157116085 0.295003414
0.965844154 0.166350663 0.314231515
0.996204853 0.202783406 0.338519514
1.000000000 0.238456473 0.357874662
0.998228788 0.281213850 0.382795811
0.996963620 0.332067847 0.413915485
1.000000000 0.389753103 0.444275528
0.074003935 0.127387866 0.131815061
0.077039547 0.130423471 0.134851456
0.081214614 0.126501933 0.132068098
0.089057706 0.126249224 0.134092227
0.099936545 0.129158989 0.136369541
0.115116931 0.135231003 0.145477936
0.138899654 0.143327251 0.146995872
0.165844709 0.148134217 0.145351157
0.191397995 0.150410935 0.146615997
0.215306550 0.151169926 0.152308553
0.245287791 0.157241940 0.158254072
0.273118258 0.159266204 0.163819999
0.304237694 0.162808225 0.169386342
0.337887049 0.166350096 0.176217899
0.380391806 0.169386476 0.191397503
0.427197665 0.174825922 0.196963876
0.472738564 0.180391982 0.203542203
0.519671023 0.182415947 0.212144345
0.574319899 0.177102953 0.221505016
0.626186073 0.180139348 0.233649716
0.684503376 0.177862197 0.245793998
0.740670383 0.175837934 0.255407929
0.792789400 0.175458372 0.263250977
0.844402671 0.178494766 0.275395006
0.888677895 0.183301806 0.286021650
0.928526044 0.193548590 0.300063282
0.962934971 0.208222941 0.317267209
0.996204853 0.230107799 0.341555893
1.000000000 0.261226863 0.363187701
0.998228788 0.299683243 0.387476146
0.996963620 0.346742272 0.417963237
1.000000000 0.401897848 0.453383923
0.077039681 0.137001678 0.138393000
0.080075935 0.140037939 0.141429394
0.083112091 0.143074095 0.144465774
0.088804998 0.140670642 0.144718483
0.097027317 0.142062321 0.147375003
0.110056929 0.143833324 0.150031611
0.127766997 0.149905324 0.149020001
0.153700054 0.157369003 0.152309000
0.181783542 0.162808418 0.154965222
0.209614024 0.168121636 0.162807986
0.234661728 0.171410322 0.163819999
0.265021980 0.171410576 0.167868257
0.296267956 0.176850319 0.174572960
0.331562102 0.184313640 0.181783959
0.371790141 0.189626738 0.187855557
0.409487307 0.192663133 0.198228806
0.459076226 0.197090447 0.204554200
0.508538783 0.201517895 0.213029996
0.563187659 0.201138645 0.220240369
0.617584109 0.200885683 0.232131392
0.671094418 0.203921571 0.242378414
0.727514088 0.202150449 0.252878129
0.779126823 0.200759128 0.260721296
0.830740094 0.203794897 0.272865325
0.880075872 0.206831276 0.289563298
0.923086286 0.215433300 0.304996997
0.959898710 0.230487064 0.320809633
0.993295074 0.251739413 0.337001890
1.000000000 0.275901556 0.356103450
0.998228788 0.313345969 0.384440243
0.996963620 0.355850816 0.415939271
1.000000000 0.403921992 0.452371687
0.085009411 0.151043415 0.157621399
0.083112098 0.152435094 0.150790393
0.089437060 0.157115757 0.153826773
0.091208287 0.158886984 0.155598000
0.097659834 0.158127993 0.156356707
0.111068994 0.155598000 0.151296720
0.123339705 0.162302703 0.158633605
0.149778411 0.166729987 0.160531700
0.176343903 0.173561081 0.161290616
0.204933703 0.182669476 0.163314223
0.231119737 0.185958117 0.170271710
0.261100680 0.191524252 0.173940256
0.293737978 0.191903979 0.179253638
0.330423713 0.202783018 0.188108996
0.369892508 0.210246697 0.192536280
0.411891401 0.213915512 0.198734805
0.455913603 0.216951504 0.206324995
0.508159280 0.220619693 0.215939432
0.562808335 0.224667966 0.224035710
0.619101703 0.228209987 0.230740011
0.673751116 0.228462949 0.244275734
0.727387786 0.231498823 0.254395992
0.778747201 0.230107695 0.264263302
0.827324450 0.234661490 0.276407719
0.873371243 0.237697691 0.293105692
0.919164956 0.244908392 0.309930354
0.959645748 0.258064389 0.327388078
0.991903424 0.278178126 0.340670705
0.997090101 0.303731620 0.358127683
0.999873519 0.333713025 0.383554578
0.997722745 0.376217872 0.415180564
1.000000000 0.418722689 0.449335724
0.094876900 0.170019105 0.182669088
0.088804908 0.169260010 0.168247804
0.092726223 0.171284094 0.164452776
0.100316100 0.177102998 0.168501094
0.100316100 0.177482545 0.167742088
0.113598935 0.172549099 0.156357110
0.125996217 0.176850319 0.163187861
0.143706605 0.181151286 0.171157315
0.177862093 0.186464190 0.177988991
0.202150896 0.195572585 0.162808612
0.230107874 0.201897413 0.170778081
0.260721147 0.208222449 0.180392087
0.295256197 0.216192186 0.187602729
0.332194984 0.222770184 0.196458086
0.372169375 0.232384503 0.202530086
0.419481367 0.238203898 0.207842991
0.467299283 0.240480989 0.212396994
0.518911779 0.244781762 0.219101563
0.573434949 0.250980318 0.231119841
0.630866587 0.257811189 0.237950727
0.685894847 0.260847270 0.246299729
0.739532173 0.261100322 0.260468006
0.791018069 0.264263183 0.272738516
0.837191761 0.270335197 0.285515696
0.881214499 0.274889380 0.300695896
0.920683205 0.282100081 0.316761643
0.961669981 0.295256257 0.334472001
0.992282987 0.313472271 0.350917339
0.996837080 0.338140070 0.370272070
0.996331215 0.370524675 0.393295348
1.000000000 0.405819356 0.424288571
1.000000000 0.448324174 0.451613009
0.097912528 0.191271499 0.191777483
0.091840528 0.188235104 0.179633483
0.094370529 0.185325786 0.173814207
0.101834171 0.187729329 0.176091164
0.109424487 0.195698559 0.182922497
0.109424487 0.198734954 0.176850498
0.125237003 0.198861510 0.175585493
0.141429216 0.197596297 0.174573258
0.162681699 0.198608220 0.174952611
0.199114501 0.210752994 0.184061006
0.229222253 0.225680381 0.183428496
0.259455979 0.234282449 0.192030489
0.292219788 0.240480989 0.202783138
0.329158574 0.247058988 0.211638495
0.371663302 0.259202957 0.217710480
0.426059365 0.268817306 0.221378684
0.478684366 0.273118496 0.223022997
0.528020203 0.275142580 0.225173578
0.579633474 0.284250975 0.234281972
0.636939108 0.293232113 0.249082893
0.690828681 0.298418730 0.258064479
0.742567897 0.300316483 0.266539991
0.794054449 0.300695986 0.278810501
0.842631280 0.306768000 0.293990910
0.888804257 0.312839985 0.306767523
0.927260816 0.321568489 0.319164842
0.958633602 0.334724635 0.334472001
0.992029965 0.352941394 0.364831984
0.998734832 0.373814255 0.389247149
0.996331453 0.405945569 0.411511660
0.994180977 0.445161283 0.436685562
1.000000000 0.484756976 0.469828993
0.103857994 0.203795001 0.200885877
0.109424002 0.209487468 0.200379863
0.103351995 0.206451640 0.190386102
0.107653156 0.208475709 0.190892026
0.116002545 0.216824412 0.198482320
0.118532866 0.219860807 0.194940001
0.126122549 0.217836544 0.193928003
0.144844696 0.219101712 0.192283288
0.164073110 0.220872730 0.190006003
0.189753130 0.228715971 0.192662612
0.226185873 0.237950876 0.198861867
0.258570373 0.253131270 0.200885609
0.294370264 0.264136881 0.209234655
0.335104078 0.273497909 0.217583999
0.380265653 0.277672738 0.218342990
0.434788227 0.292219937 0.229221985
0.490955204 0.303858370 0.235293865
0.543579936 0.310689718 0.240607008
0.597469985 0.317520857 0.251992702
0.651865721 0.323845863 0.255534381
0.705629349 0.332827479 0.268310994
0.757242262 0.336875737 0.278431237
0.808475852 0.337128729 0.290322721
0.851486623 0.343200713 0.297153771
0.890954852 0.353826731 0.316888124
0.927640319 0.363946706 0.333712727
0.959013104 0.376090854 0.350411057
0.994813263 0.389500618 0.373560846
0.996331036 0.418342650 0.401264668
0.995319366 0.449209183 0.429348350
0.993927956 0.484882891 0.456673056
1.000000000 0.518279850 0.488045752
0.109929994 0.226059243 0.209993735
0.113978252 0.226059496 0.209993735
0.117520504 0.229727745 0.207590491
0.110183343 0.231752157 0.206072092
0.115116999 0.239721507 0.212903291
0.123086669 0.241113186 0.206578314
0.135230929 0.245161176 0.208095998
0.149272233 0.243769497 0.206451714
0.169386193 0.245667234 0.204933420
0.189373761 0.249209240 0.206198245
0.223149747 0.254143119 0.207969472
0.261606753 0.269323230 0.212017998
0.300695807 0.286780655 0.218469262
0.344718546 0.301328301 0.227703989
0.386717230 0.307906657 0.227703989
0.437824368 0.320556939 0.235294238
0.497027367 0.334218740 0.247438237
0.553953052 0.345098227 0.253257245
0.611385047 0.351170242 0.259835660
0.666034222 0.359266520 0.263630897
0.718785167 0.365338504 0.276154250
0.769386232 0.373308241 0.286527246
0.819734275 0.375585228 0.297027200
0.864136815 0.381657243 0.312586963
0.902087510 0.386211514 0.330044270
0.931562185 0.401138484 0.349905312
0.960025251 0.415053576 0.368627578
0.993421614 0.428716123 0.389879912
0.999367416 0.448703170 0.414421022
0.998102248 0.480834842 0.441745400
0.996204972 0.517900050 0.472738564
1.000000000 0.551676214 0.504237711
0.119417638 0.248829633 0.219101638
0.119038381 0.248071015 0.219101638
0.120936126 0.249335855 0.221505404
0.123466477 0.252624810 0.221252486
0.115876086 0.261353642 0.228842184
0.125742987 0.262871653 0.221252576
0.138140321 0.266793281 0.218848959
0.153826639 0.271853268 0.218595698
0.171283752 0.272612184 0.216318995
0.189120978 0.272991627 0.218975157
0.224161863 0.272485852 0.220240280
0.253637105 0.283364981 0.219987258
0.294244349 0.301581293 0.223023638
0.342821211 0.323086649 0.235167637
0.384946406 0.336622387 0.238709643
0.438583404 0.349399447 0.247058794
0.492473364 0.363061607 0.256546646
0.553826630 0.374573201 0.266793042
0.615053654 0.381151289 0.267298996
0.666793168 0.391144991 0.270082355
0.722960353 0.400632650 0.278052002
0.772548735 0.405692756 0.294243991
0.820619524 0.411638260 0.301075011
0.864136755 0.417710274 0.321315557
0.903984904 0.423782557 0.341429293
0.936875701 0.430360615 0.362428695
0.959140062 0.448576778 0.382163435
0.988867640 0.464389712 0.404680759
0.998734832 0.482226253 0.428589582
0.998861372 0.509297550 0.455787420
0.999746978 0.540923536 0.484882832
1.000000000 0.579379976 0.518279254
0.133586034 0.266287059 0.229981065
0.128526032 0.269576430 0.230993062
0.126755029 0.271853298 0.235167801
0.127514124 0.275395244 0.241998911
0.130803511 0.278558016 0.244275540
0.133839116 0.284630030 0.241239935
0.141176358 0.288425326 0.235927030
0.154079735 0.292853028 0.232258350
0.170019105 0.297912955 0.229981065
0.185199514 0.300948560 0.229981065
0.222390905 0.296015084 0.232384861
0.248197466 0.300822049 0.231372803
0.275522023 0.314990312 0.230360672
0.319291145 0.333713025 0.234156027
0.367868662 0.358000994 0.246300027
0.427957386 0.373687655 0.257684976
0.487666368 0.386085063 0.267552137
0.543200612 0.397343606 0.275901437
0.606957972 0.406452030 0.278937072
0.654016376 0.418849051 0.282479376
0.708791912 0.430234045 0.287919044
0.764706075 0.439595163 0.296015024
0.810246527 0.442631543 0.308412045
0.849968791 0.448577046 0.326628864
0.888931215 0.456926286 0.344845027
0.923972249 0.466540366 0.364705682
0.953321040 0.476913184 0.386464119
0.980645418 0.495129943 0.413788497
0.994180977 0.513599038 0.438962638
0.998481810 0.539405167 0.467046410
0.996710598 0.571536660 0.498292595
0.999746978 0.598861098 0.531688988
0.136622414 0.308791816 0.260341823
0.142694414 0.314863801 0.272485822
0.141935408 0.311701387 0.260594785
0.140670240 0.313851953 0.258191407
0.140037671 0.320936263 0.262492269
0.145983890 0.324098378 0.259455919
0.146489829 0.330170393 0.256420285
0.159899116 0.333965659 0.257685393
0.180645406 0.336875379 0.260341823
0.203415498 0.337381303 0.260341823
0.227324724 0.340417653 0.257431924
0.254775435 0.337507963 0.255661219
0.284629852 0.344465435 0.253763795
0.328399479 0.361037403 0.255408376
0.386084616 0.385325372 0.267552376
0.441872358 0.409613997 0.272485584
0.502340376 0.426818579 0.275900990
0.559898674 0.439468801 0.279696137
0.613029957 0.445920378 0.288045436
0.660088360 0.463377386 0.296647757
0.713219166 0.470841110 0.306388408
0.768500865 0.476786792 0.317267388
0.816318512 0.482099891 0.329664379
0.861859739 0.485136300 0.347881198
0.897027254 0.493358523 0.366097361
0.928905666 0.505249619 0.387096703
0.955850661 0.519164860 0.410246879
0.977608979 0.534598291 0.432005227
0.986337543 0.555471182 0.461985737
0.995445728 0.574319720 0.492852569
0.998481810 0.600126147 0.525616944
0.996710598 0.632258236 0.559013426
0.151675984 0.351296574 0.276280999
0.155344799 0.357368559 0.293231994
0.148513794 0.356989354 0.288172007
0.146236643 0.357495248 0.280581981
0.144718364 0.365844309 0.285515547
0.152814865 0.368880451 0.282479644
0.156230196 0.372042567 0.277040094
0.167741895 0.379759282 0.278937757
0.189753383 0.384313673 0.283491790
0.214041814 0.385958374 0.283491790
0.245540723 0.391271412 0.278178751
0.273877501 0.392283559 0.277166605
0.302340209 0.388488382 0.273371488
0.341555834 0.395319641 0.271347255
0.392789185 0.417457372 0.279190779
0.455281377 0.444149196 0.288930982
0.514484346 0.465401590 0.295002967
0.573307693 0.481467336 0.299557149
0.624920964 0.492852598 0.308665544
0.673371136 0.502846360 0.315370142
0.724604189 0.515369654 0.326375782
0.776723266 0.519417882 0.339531928
0.822263956 0.524098575 0.353320569
0.865527928 0.529411674 0.371536791
0.899683714 0.539278746 0.389753550
0.928779304 0.548513234 0.409361213
0.954585791 0.561669588 0.433143854
0.977735400 0.576849997 0.458191216
0.980897963 0.594939530 0.480202526
0.990511954 0.617963135 0.514104903
0.998481810 0.638329923 0.549905360
0.998481810 0.665654778 0.586337805
0.165338188 0.401391566 0.303605378
0.168374583 0.402909338 0.315749377
0.166730180 0.405566126 0.313978195
0.159646183 0.403795362 0.306894183
0.155344829 0.413282543 0.311701179
0.155344933 0.422011286 0.309803903
0.166982874 0.426565230 0.305756181
0.176849902 0.429854274 0.301707983
0.198861390 0.438962668 0.306261986
0.223150179 0.443517059 0.306261986
0.256167024 0.447944373 0.304997176
0.290575683 0.451486558 0.299937189
0.323213160 0.450347930 0.299937189
0.357748061 0.445161372 0.294876546
0.403794765 0.457558542 0.297153831
0.461353362 0.476027757 0.301075399
0.525110543 0.504870355 0.313219368
0.584566295 0.521821380 0.321695179
0.637064993 0.536116123 0.329917967
0.684376955 0.547248721 0.339278966
0.736748636 0.556356609 0.349146366
0.787349463 0.563440502 0.362302244
0.829727709 0.566729903 0.377608985
0.870841205 0.574193597 0.395825386
0.899683356 0.583301425 0.415559769
0.927261114 0.594054043 0.435167849
0.950537860 0.604174435 0.458444238
0.972801745 0.619354784 0.487792611
0.980391979 0.634155333 0.512839973
0.985958099 0.652877808 0.539911509
0.994560182 0.678051949 0.573687732
0.996963978 0.700569391 0.610626221
0.180139109 0.459076673 0.344212532
0.180645362 0.457937837 0.347754538
0.180898547 0.458570421 0.343706340
0.180265978 0.459076673 0.338393122
0.180645525 0.460594654 0.339152128
0.166983187 0.478304684 0.339658111
0.177735537 0.487665653 0.338393450
0.193042248 0.493358344 0.335357428
0.210499749 0.499177754 0.334345102
0.234788537 0.508286178 0.334345102
0.267172813 0.510942340 0.334724814
0.303226054 0.513978302 0.332321525
0.340291113 0.515370011 0.327893943
0.377229214 0.512333691 0.327893943
0.419733942 0.511954248 0.325237125
0.471093953 0.518405676 0.322074562
0.531815112 0.537760496 0.330297142
0.594939649 0.565591276 0.345477521
0.649588525 0.577735305 0.351549536
0.696521044 0.590512216 0.363187730
0.745224416 0.599493921 0.374699414
0.794560254 0.606577814 0.387856007
0.836558998 0.609740674 0.403541595
0.874510169 0.618343055 0.423276335
0.902213693 0.625553429 0.443137407
0.924224734 0.634028792 0.464389771
0.946995437 0.644149184 0.486654192
0.965084970 0.659329534 0.519797564
0.974699199 0.672485530 0.547248363
0.982542634 0.687539339 0.575078905
0.989627004 0.707780123 0.604554117
0.989627004 0.735104561 0.631878555
0.216571927 0.516761959 0.377608985
0.207463562 0.522833943 0.371537000
0.203668803 0.523845911 0.366477013
0.200885832 0.521568954 0.362681985
0.198861584 0.518279970 0.363440990
0.201897979 0.530423939 0.369512975
0.208475634 0.543074012 0.372549295
0.218342692 0.553067684 0.371790290
0.231752187 0.563188076 0.371030986
0.256040990 0.578115463 0.376849949
0.286147982 0.578494966 0.368121088
0.322833776 0.580771685 0.364073306
0.362049639 0.582669020 0.360784352
0.401518047 0.582163036 0.358254015
0.444022775 0.579127371 0.358254015
0.486527532 0.576344132 0.348387033
0.540923536 0.586717129 0.352434993
0.604048073 0.608096063 0.369765610
0.664768934 0.626312971 0.384946018
0.713851690 0.641239583 0.396584719
0.758380473 0.648576796 0.406831205
0.799873292 0.652119100 0.418216169
0.836558998 0.655281961 0.433902442
0.866919816 0.661353946 0.461226881
0.898038983 0.663124979 0.480961561
0.923465669 0.666666925 0.500822604
0.943959057 0.674510062 0.523087025
0.959139407 0.689690471 0.550411344
0.966602921 0.704870105 0.575584948
0.971157193 0.719797134 0.600126386
0.974699676 0.737887263 0.625806510
0.977483034 0.762428999 0.653130949
0.222390637 0.546616375 0.391524017
0.224414974 0.549905062 0.393801391
0.223909140 0.553826809 0.392030388
0.224668205 0.555724204 0.391018540
0.225047380 0.555724084 0.392157197
0.225679964 0.563061714 0.391018391
0.228716344 0.572675407 0.392030388
0.242251709 0.586211085 0.396458000
0.257052571 0.599114478 0.399873465
0.277293384 0.614294887 0.407969743
0.307400376 0.623276770 0.399493843
0.341808885 0.623276770 0.396457732
0.380518645 0.625553429 0.394181013
0.420240074 0.626691759 0.390639037
0.462744802 0.621125817 0.383048713
0.495635599 0.620493412 0.383048713
0.539658368 0.619354784 0.378494740
0.595825315 0.631751895 0.387223303
0.654395998 0.652118921 0.398102731
0.717900097 0.667552412 0.416065753
0.758886814 0.677039742 0.430107743
0.795572340 0.681973338 0.443010867
0.828462660 0.687033534 0.458570689
0.864136457 0.695762396 0.483238310
0.892219901 0.701834440 0.508285940
0.915116668 0.705629408 0.526122987
0.930550039 0.712207437 0.544592440
0.936622381 0.722833812 0.567362785
0.954458952 0.730044365 0.594687164
0.966350138 0.744844913 0.617330909
0.971663415 0.760025322 0.641492903
0.970904291 0.778621376 0.668817341
0.284250379 0.611891210 0.435926169
0.279696316 0.609234571 0.427577615
0.277039945 0.616065681 0.436053216
0.278811187 0.616571784 0.434788048
0.281973392 0.617962956 0.436559260
0.286527187 0.620999277 0.436559260
0.290955245 0.629601598 0.428463221
0.295635909 0.641998649 0.435041189
0.315117002 0.654901922 0.440860093
0.336749136 0.666666687 0.447691202
0.359013200 0.676028073 0.448830068
0.385831714 0.682859182 0.443896174
0.419987440 0.682859182 0.443896174
0.456925929 0.684376955 0.441619426
0.496141255 0.678304911 0.435800046
0.532827079 0.675142229 0.428210199
0.567742050 0.675142229 0.426692009
0.612017751 0.674509645 0.426945031
0.659582675 0.685641646 0.433523446
0.720936060 0.703225791 0.450980455
0.761922717 0.712713480 0.463504195
0.796331525 0.717773616 0.477672487
0.826818228 0.722707212 0.491967231
0.861479819 0.726502359 0.510942459
0.887286246 0.733333468 0.535230577
