Assets/EldamarStudio/100 Retro LUTs Pack/LUTs/cube/Kim LUT.cube
LUT_3D_SIZE 5
DOMAIN_MIN 0.000000 0.000000 0.000000
DOMAIN_MAX 0.903226 0.903226 0.903226
0.058823999 0.078431003 0.094117999
0.179506704 0.102593005 0.133332998
0.362301975 0.098671585 0.167361990
0.708412230 0.063630871 0.231498986
0.996204793 0.158886403 0.338772804
0.085009411 0.151043415 0.157621399
0.149778411 0.166729987 0.160531700
0.369892508 0.210246697 0.192536280
0.727387786 0.231498823 0.254395992
0.997090101 0.303731620 0.358127683
0.136622414 0.308791816 0.260341823
0.159899116 0.333965659 0.257685393
0.386084616 0.385325372 0.267552376
0.768500865 0.476786792 0.317267388
0.986337543 0.555471182 0.461985737
0.375332236 0.688804269 0.494623244
0.384693474 0.704743981 0.483618259
0.544971287 0.739026248 0.500315964
0.800379276 0.757242262 0.522201240
0.943832994 0.786337972 0.649588943
0.817457438 0.889057696 0.780644953
0.814547837 0.892346680 0.770651519
0.845414221 0.900189519 0.780644953
0.879316807 0.900189817 0.782668769
0.927007794 0.902087152 0.795066774
0.071221001 0.124857992 0.176849693
0.124224998 0.113092996 0.167362422
0.306767792 0.134345278 0.194180995
0.683238387 0.148007706 0.238962874
0.992409945 0.205059767 0.345097929
0.079443708 0.151675999 0.166097403
0.133080691 0.163820699 0.185705408
0.296268374 0.198481694 0.208602399
0.704237938 0.258317828 0.254649132
0.992662728 0.327893615 0.370018750
0.166476682 0.281973809 0.270461679
0.194939822 0.299557388 0.284503371
0.337001771 0.355218202 0.284503400
0.760152102 0.482100219 0.320809662
0.990259171 0.561416745 0.461606294
0.420872778 0.651613235 0.513092697
0.432637602 0.681973338 0.512713373
0.556103587 0.729917645 0.535610557
0.803036213 0.763820648 0.527767003
0.937887192 0.792283297 0.652498305
0.827830791 0.886400819 0.774066806
0.824414790 0.893991113 0.777988791
0.849968314 0.899810255 0.792409837
0.877419770 0.907653153 0.785325766
0.917773783 0.902087152 0.792409778
0.025426591 0.192915559 0.296900809
0.047059000 0.184060708 0.285768807
0.247944385 0.173308402 0.281847417
0.651992500 0.193168849 0.374066800
0.959266245 0.192662776 0.373434365
0.069955997 0.234155819 0.287413090
0.116761275 0.220999390 0.267425835
0.224668115 0.215812817 0.272359103
0.571536958 0.259329677 0.356736094
0.970777869 0.306008905 0.401011825
0.105881996 0.294370800 0.292978942
0.165464997 0.278937548 0.284503818
0.317267358 0.363693804 0.364958793
0.576217353 0.399999976 0.377735496
0.963693798 0.553446710 0.480202615
0.329411834 0.571157515 0.468817383
0.390512407 0.578747392 0.487412840
0.548134208 0.674762964 0.563946664
0.725616574 0.725363493 0.576976657
0.927893698 0.792536378 0.661227167
0.805186152 0.874635994 0.768880785
0.816824615 0.876027942 0.776090980
0.853257358 0.889057815 0.791777372
0.878557801 0.902087152 0.796837568
0.923086882 0.903352022 0.796964228
0.003036126 0.337634236 0.515243411
0.003668706 0.336496145 0.507020831
0.165464908 0.278684437 0.515876114
0.573181510 0.265908122 0.533965528
0.956736505 0.530803263 0.643516958
0.004554003 0.379506826 0.493358672
0.002909872 0.376849830 0.488678247
0.227324530 0.343200535 0.485135972
0.537634432 0.331055820 0.514864266
0.934851408 0.571157217 0.646426260
0.021252237 0.472738922 0.499937057
0.021125853 0.466919959 0.484503508
0.306008905 0.432890356 0.453131109
0.523466229 0.467172652 0.515496671
0.898039103 0.624794662 0.638709784
0.205819353 0.615306318 0.549525201
0.243896350 0.598102510 0.544971287
0.417963356 0.583934426 0.534851551
0.670967996 0.695509136 0.636559129
0.889816642 0.757368624 0.682858944
0.754459083 0.859202802 0.755344570
0.756989121 0.859456062 0.752182126
0.803795159 0.867931485 0.767235637
0.878684402 0.897659838 0.802530110
0.906388283 0.901834130 0.801011801
0.405439138 0.641239405 0.785957992
0.397343099 0.634408534 0.781657040
0.372801811 0.626944542 0.777356207
0.559139788 0.547881126 0.788867950
0.891840637 0.566856205 0.797722995
0.410246432 0.648703456 0.779379785
0.408222467 0.644402623 0.780391872
0.385958314 0.640480578 0.773560822
0.587855756 0.605566263 0.791397750
0.878051817 0.625300288 0.798355639
0.504490376 0.720809579 0.766223967
0.505629063 0.718532443 0.770651460
0.486274183 0.713599026 0.768374205
0.660847604 0.712713301 0.763061404
0.865780950 0.731309414 0.782669246
0.643137395 0.809866905 0.773181438
0.642504752 0.808601916 0.772928536
0.628209949 0.802403390 0.770525098
0.714104891 0.792662799 0.754965067
0.854648888 0.822011411 0.779379785
0.785072565 0.874762952 0.798861682
0.790512502 0.871853054 0.797343493
0.787602544 0.874762952 0.791904092
0.815685928 0.872485638 0.790385842
0.882605970 0.887792826 0.813408911
