Assets/EldamarStudio/100 Retro LUTs Pack/LUTs/cube/Kim LUT.cube
LUT_3D_SIZE 8
DOMAIN_MIN 0.000000 0.000000 0.000000
DOMAIN_MAX 0.903226 0.903226 0.903226
0.058823999 0.078431003 0.094117999
0.104997002 0.094117999 0.114863545
0.203795090 0.098039001 0.132574096
0.304364622 0.099177644 0.149652004
0.444781363 0.105881996 0.184946194
0.651739180 0.078811012 0.223402992
0.861606836 0.033017293 0.267298996
0.996204793 0.158886403 0.338772804
0.070967548 0.115243092 0.122707449
0.099936545 0.123086996 0.124225542
0.197090551 0.135989547 0.146236554
0.312586993 0.145350739 0.160278559
0.465527892 0.158760354 0.196331546
0.676913202 0.150537804 0.238203809
0.882226288 0.149905115 0.278811276
1.000000000 0.238456473 0.357874662
0.094876900 0.170019105 0.182669088
0.100316100 0.177482545 0.167742088
0.177862093 0.186464190 0.177988991
0.295256197 0.216192186 0.187602729
0.467299283 0.240480989 0.212396994
0.685894847 0.260847270 0.246299729
0.881214499 0.274889380 0.300695896
0.996837080 0.338140070 0.370272070
0.119417638 0.248829633 0.219101638
0.115876086 0.261353642 0.228842184
0.171283752 0.272612184 0.216318995
0.294244349 0.301581293 0.223023638
0.492473364 0.363061607 0.256546646
0.722960353 0.400632650 0.278052002
0.903984904 0.423782557 0.341429293
0.998734832 0.482226253 0.428589582
0.165338188 0.401391566 0.303605378
0.155344829 0.413282543 0.311701179
0.198861390 0.438962668 0.306261986
0.323213160 0.450347930 0.299937189
0.525110543 0.504870355 0.313219368
0.736748636 0.556356609 0.349146366
0.899683356 0.583301425 0.415559769
0.980391979 0.634155333 0.512839973
0.284250379 0.611891210 0.435926169
0.281973392 0.617962956 0.436559260
0.315117002 0.654901922 0.440860093
0.419987440 0.682859182 0.443896174
0.567742050 0.675142229 0.426692009
0.761922717 0.712713480 0.463504195
0.887286246 0.733333468 0.535230577
0.945350945 0.757748425 0.617457509
0.626565516 0.828969300 0.654395819
0.628715813 0.824415267 0.648323536
0.647438288 0.833902538 0.656799614
0.694876790 0.846805871 0.677292824
0.741429687 0.845667541 0.671600223
0.802150488 0.845035017 0.658570349
0.879063964 0.849588990 0.684503317
0.911068678 0.858190954 0.727261066
0.817457438 0.889057696 0.780644953
0.817836881 0.889943242 0.778114974
0.815812826 0.896901011 0.773687661
0.835293949 0.896901011 0.780518413
0.854522586 0.901960611 0.787602663
0.876533687 0.896647871 0.785704851
0.891208410 0.900821984 0.789879620
0.927007794 0.902087152 0.795066774
0.070967548 0.106261544 0.127387539
0.084250547 0.094117999 0.130171001
0.180645451 0.110183448 0.150537997
0.286654085 0.118406095 0.156735986
0.436179459 0.134471551 0.186463997
0.652751386 0.125237256 0.227703929
0.865401804 0.105755799 0.276407570
0.997090399 0.196331292 0.347628266
0.079190098 0.118405998 0.129285097
0.094876997 0.123086996 0.146236554
0.159013093 0.134851083 0.158381000
0.287918746 0.155597642 0.168121561
0.456040710 0.175458282 0.204301462
0.671473742 0.179886535 0.238203809
0.867046535 0.178621277 0.283871025
0.993547976 0.238203719 0.352687925
0.099177547 0.160278544 0.170524642
0.108159095 0.168121547 0.178747997
0.154712543 0.177862093 0.176344007
0.279570192 0.216192201 0.192409724
0.460215330 0.252624661 0.212270886
0.674762547 0.273371100 0.247185543
0.885515094 0.292852491 0.301960737
0.995825231 0.356103659 0.383807451
0.148513556 0.237824529 0.229221642
0.143832654 0.249209270 0.235167891
0.172042638 0.266414106 0.238709643
0.278684258 0.301201642 0.234281987
0.492978901 0.366603166 0.254775256
0.709930182 0.403035998 0.283617973
0.889943242 0.425932974 0.332321197
0.993674815 0.477166325 0.422390521
0.205186382 0.391777009 0.323466182
0.206071988 0.395192564 0.335484087
0.214800641 0.433143795 0.331309170
0.319165349 0.452371597 0.316761732
0.532068491 0.510309756 0.313725531
0.740796983 0.562681913 0.347628087
0.901075423 0.588361442 0.418975383
0.985072792 0.634282112 0.512586713
0.324225366 0.606198609 0.447438657
0.330676883 0.621758223 0.451739281
0.350158066 0.646047175 0.452371567
0.434155464 0.681467175 0.463251263
0.575837851 0.681087852 0.437318265
0.763947129 0.716255844 0.470588207
0.886654198 0.736495554 0.541429400
0.942314804 0.768753827 0.627956927
0.645288050 0.812396824 0.672359288
0.651865840 0.821758568 0.659962118
0.668057919 0.832510829 0.666287363
0.710689545 0.845287800 0.683744252
0.743326962 0.851612926 0.675142169
0.799620748 0.841365993 0.661986351
0.879823029 0.847312272 0.690954983
0.920683265 0.849841833 0.723718941
0.826565623 0.885895014 0.775205493
0.815180182 0.894497275 0.765085459
0.825426877 0.892599523 0.778621078
0.837191701 0.893485427 0.783934057
0.859961927 0.897280097 0.788994372
0.876407266 0.900189757 0.789120615
0.889816701 0.900442541 0.789120615
0.921694815 0.904743969 0.800379813
0.067425899 0.130929992 0.192030087
0.076154001 0.127387539 0.183048546
0.136369199 0.120682992 0.181024998
0.249842092 0.136369184 0.200506195
0.372675359 0.143453285 0.211511999
0.606325030 0.148513645 0.227577627
0.851865947 0.148134187 0.273245096
0.992409945 0.214420870 0.346868992
0.076027997 0.153699994 0.185325652
0.090954997 0.144591630 0.175964534
0.126882091 0.140291095 0.184187084
0.229475081 0.160278454 0.205313101
0.368627459 0.175711706 0.219481096
0.623276532 0.193674892 0.240986735
0.850980103 0.206451550 0.276534021
0.986717224 0.255661219 0.353699803
0.087033898 0.166097090 0.188109100
0.108538643 0.163440645 0.177862093
0.153574005 0.190385997 0.209235102
0.216951281 0.193548203 0.211512089
0.378874272 0.233396471 0.235040992
0.636432886 0.278052121 0.258444071
0.870082259 0.303858161 0.298292100
0.996204793 0.359518975 0.383174896
0.134851098 0.221378744 0.223782644
0.148893014 0.222517177 0.234788463
0.179000631 0.252624661 0.251106739
0.239215642 0.270714700 0.262239337
0.413155943 0.330550283 0.279823065
0.669449687 0.394687057 0.286654085
0.880961299 0.430360645 0.333965719
0.993421793 0.478810728 0.424035400
0.201012179 0.367236167 0.322707087
0.219861165 0.357242107 0.323339492
0.251992375 0.389753461 0.343074203
0.296394378 0.422896981 0.344971657
0.464642644 0.469576359 0.332068264
0.702593267 0.548007488 0.360531032
0.894370437 0.582795501 0.405313373
0.979759634 0.629601300 0.511701465
0.344465554 0.570145726 0.447564632
0.362934887 0.576470673 0.454142988
0.387602627 0.610372841 0.467678726
0.443516552 0.663377285 0.495003104
0.554079354 0.668943763 0.468690455
0.744844675 0.712966144 0.478937477
0.877799034 0.738772750 0.540543735
0.942947328 0.766982675 0.630992889
0.646805704 0.800126553 0.658696949
0.661226988 0.806578040 0.671853364
0.679696321 0.822011471 0.680455387
0.710689425 0.838456750 0.691966772
0.742314756 0.844908297 0.690069556
0.795192659 0.840227544 0.664769530
0.877293169 0.848197341 0.681340694
0.916761339 0.854396164 0.718785346
0.829854488 0.883870840 0.775837958
0.827956855 0.886401057 0.775332093
0.826185882 0.890448928 0.780265689
0.845920265 0.898165822 0.777988791
0.856925964 0.902466953 0.791777253
0.875395536 0.903099179 0.784566462
0.891208410 0.899557114 0.793168962
0.920303822 0.901833951 0.789120674
0.046426006 0.165338293 0.251106650
0.048829909 0.164958745 0.250727177
0.099557005 0.147375107 0.253510535
0.195066288 0.145730287 0.242125288
0.387982011 0.184440643 0.302340269
0.554586053 0.168121651 0.312586904
0.757621825 0.126628637 0.307273924
0.991144776 0.197469801 0.348387182
0.058064904 0.188108996 0.250727087
0.057178997 0.185705096 0.237444893
0.112333640 0.173940197 0.234661549
0.186337978 0.171157539 0.238583446
0.362175554 0.213156193 0.299683720
0.532321572 0.199114203 0.307526737
0.763314366 0.172801822 0.307780087
0.986337781 0.252371699 0.351043701
0.072612457 0.211511999 0.246046990
0.098418549 0.204427287 0.234155357
0.132700726 0.197470099 0.227577627
0.190638736 0.204427287 0.248703539
0.318911910 0.235800177 0.285515547
0.482352912 0.237318173 0.290954918
0.779632866 0.272486120 0.330170751
0.991144776 0.351043731 0.378368288
0.105881996 0.246552646 0.255534291
0.122201093 0.231498629 0.254395634
0.161796540 0.235041082 0.248070732
0.246679276 0.298165649 0.308791995
0.332574517 0.291081637 0.295382798
0.526628673 0.343832999 0.330676883
0.810120165 0.409867227 0.368880570
0.992409945 0.475395083 0.424920738
0.178494379 0.325363815 0.304744005
0.200506195 0.322201014 0.309424192
0.237191379 0.339026064 0.323845714
0.305502832 0.399493992 0.365717977
0.389120907 0.427703887 0.363693714
0.604174554 0.496773988 0.397343844
0.845287561 0.570145369 0.437318027
0.979885995 0.629221857 0.502087176
0.297786444 0.520809531 0.430613279
0.319038451 0.525237203 0.435926437
0.376470298 0.547248304 0.457431912
0.455787539 0.597596526 0.490575552
0.528273404 0.644149661 0.503984511
0.684123933 0.674762666 0.513472497
0.852498472 0.729538202 0.560657978
0.942441285 0.764705539 0.624162078
0.598481834 0.780898273 0.640354574
0.616698503 0.782416463 0.655534267
0.654269338 0.787982464 0.661479890
0.703225911 0.813788891 0.693484962
0.748387218 0.838329911 0.711575031
0.783048689 0.833143413 0.687160015
0.862998307 0.843390226 0.693358541
0.914484382 0.855660915 0.719924092
0.816318810 0.881593823 0.769892752
0.822390854 0.880329251 0.782036602
0.831878603 0.887033761 0.778620958
0.845540345 0.894623995 0.791144788
0.861479938 0.898039341 0.792536438
0.878431618 0.900948822 0.790006161
0.890575647 0.901581168 0.788361430
0.914484382 0.903351963 0.790765345
0.009614006 0.222391188 0.334345192
0.008349454 0.220493540 0.338772744
0.035547011 0.212271094 0.332195193
0.173434749 0.191144988 0.342441380
0.305376381 0.191904187 0.333459556
0.594560444 0.251865923 0.424541384
0.817457318 0.235420555 0.450221360
0.961543202 0.268690526 0.444528729
0.025806557 0.241998985 0.339785159
0.023655809 0.242758185 0.336875379
0.081593908 0.236811936 0.325743169
0.182669088 0.218089834 0.330170751
0.298165590 0.212650344 0.329664379
0.592915893 0.285895199 0.438203841
0.798229039 0.263757080 0.443390369
0.939025819 0.285895020 0.436685622
0.062745191 0.268564194 0.325743288
0.069449648 0.265907705 0.328273177
0.134092093 0.256040275 0.310183376
0.192283437 0.246299818 0.309803843
0.273877263 0.251360178 0.318026364
0.535610378 0.324857473 0.411764562
0.749904752 0.319418103 0.433902591
0.929285169 0.337634325 0.439595222
0.088804901 0.302719831 0.336495757
0.088298544 0.308665276 0.327387452
0.170019105 0.291334301 0.319670975
0.223529637 0.297280431 0.318911970
0.297406584 0.319924027 0.347501636
0.496520996 0.363314152 0.399114430
0.684377015 0.359645694 0.399241090
0.938646317 0.440986484 0.459962010
0.123086803 0.357621342 0.357874572
0.159898907 0.349146158 0.352181733
0.202909291 0.338899374 0.338393271
0.263377845 0.354585588 0.344086021
0.408602387 0.459582388 0.429095387
0.509424686 0.441492438 0.409740567
0.756356895 0.515243471 0.461353540
0.940670311 0.611005962 0.535862982
0.236306265 0.466666639 0.412017703
0.255534619 0.467299104 0.409234464
0.303478539 0.475142092 0.417204469
0.388235122 0.510436296 0.451992303
0.519797146 0.609234393 0.525490224
0.627197981 0.640986741 0.537634611
0.805945635 0.703099430 0.580518901
0.931056261 0.759392619 0.646299779
0.511954308 0.747880816 0.615306735
0.529538453 0.744212329 0.615306556
0.576090991 0.751549661 0.630866647
0.656293631 0.769006968 0.661353528
0.736875534 0.808475614 0.703352332
0.781277776 0.828715801 0.707147777
0.848703325 0.835420370 0.708032846
0.909677386 0.851612866 0.733206868
0.790891588 0.874509633 0.764958799
0.784060538 0.873877347 0.761543334
0.801264703 0.876280904 0.769006789
0.833269775 0.879822969 0.780138969
0.859709144 0.889057696 0.795193017
0.875015974 0.899430990 0.806704700
0.886148095 0.902340174 0.796457946
0.915496469 0.903605342 0.790891826
0.000000000 0.309297979 0.471726716
0.001518192 0.308539182 0.468311280
0.001138644 0.306894362 0.466287196
0.051106807 0.275648087 0.459962100
0.321062386 0.254395992 0.476913452
0.508412421 0.246679470 0.487412721
0.819608033 0.373813659 0.590385497
0.972928643 0.470335007 0.603036463
0.002024260 0.328020245 0.475648195
0.002024260 0.330423474 0.466793180
0.002656546 0.326881617 0.459582537
0.131815106 0.305755615 0.458697259
0.311448574 0.277419746 0.468943626
0.481087923 0.269323289 0.472359031
0.799114347 0.391524285 0.575585186
0.951928973 0.467678338 0.596331179
0.006831361 0.369133711 0.456672996
0.005186551 0.361290038 0.445793808
0.011258847 0.359392464 0.445920140
0.200506091 0.345351189 0.432384372
0.310563207 0.323718905 0.445034802
0.467046350 0.326502085 0.462998122
0.785958230 0.465654671 0.588235378
0.940164626 0.524604619 0.605186462
0.008855103 0.407463729 0.443010569
0.014421105 0.406325370 0.455787271
0.080834836 0.397975981 0.441113025
0.239468649 0.381783724 0.417457372
0.318659008 0.377609104 0.428969383
0.457684934 0.384946257 0.460594743
0.746236265 0.530297339 0.575205684
0.910942495 0.545730650 0.594560266
0.065528378 0.478557914 0.474130243
0.063630827 0.478304535 0.466413647
0.168501258 0.462871909 0.461986274
0.274636358 0.446173459 0.440733641
0.369513184 0.453257650 0.447058648
0.494876891 0.495129734 0.491587460
0.718026340 0.564199924 0.560531259
0.875774562 0.572675645 0.570777953
0.146110207 0.551549435 0.500948489
0.160531104 0.540164411 0.493864655
0.242883936 0.536369205 0.488045812
0.337254673 0.522201180 0.476660371
0.438330382 0.538772941 0.494497120
0.618342936 0.656040668 0.595066488
0.732321262 0.651866019 0.579127192
0.897406697 0.731309533 0.657305241
0.403541923 0.704743862 0.592409551
0.418089896 0.710942447 0.597849488
0.463377386 0.713598788 0.607463717
0.550664008 0.715243220 0.618595660
0.651360154 0.742947340 0.655154824
0.758760214 0.808602214 0.707653284
0.819354892 0.821125865 0.726628780
0.900316238 0.843137562 0.742314994
0.767362297 0.864515960 0.759139538
0.760151744 0.866413713 0.749778271
0.767615139 0.865021884 0.754205883
0.790006220 0.868437588 0.764705777
0.832637727 0.879949808 0.782289445
0.869575799 0.894876719 0.798481882
0.886148095 0.897280395 0.810499549
0.911194980 0.901581049 0.798734963
0.002277288 0.449841857 0.656040549
0.001644712 0.449209273 0.655407548
0.001517998 0.446805626 0.648197532
0.000000000 0.436938882 0.651613176
0.222897083 0.370272189 0.659329772
0.522327900 0.345097989 0.676407337
0.748513818 0.346616268 0.676660299
0.927134752 0.559266150 0.708412230
0.000758999 0.448956281 0.641492844
0.000758999 0.454142988 0.646679103
0.001644712 0.450980484 0.645920336
0.015686389 0.446173579 0.630992770
0.244781569 0.389247209 0.639848411
0.515369892 0.376217544 0.656040668
0.733333290 0.366982847 0.659076512
0.914864063 0.566856146 0.701834202
0.008349094 0.493232071 0.646299779
0.004554098 0.498671353 0.638456881
0.006958001 0.493105561 0.634914756
0.061859384 0.491334617 0.625933170
0.308032632 0.453889966 0.624667764
0.512966514 0.438582927 0.642631531
0.722454071 0.443516642 0.656166852
0.907273889 0.635926366 0.709171295
0.099810019 0.540164173 0.611385167
0.102593377 0.542694390 0.622770190
0.093484923 0.542694390 0.618722379
0.183302000 0.532827556 0.607210636
0.387729526 0.528400004 0.599114418
0.509424329 0.506894469 0.622770190
0.690322578 0.517140865 0.638203442
0.883617997 0.691966832 0.719038665
0.209361196 0.609108448 0.629348636
0.215939194 0.610752702 0.638962746
0.208855107 0.607463539 0.630107522
0.252624989 0.599620759 0.626312494
0.422264338 0.580012739 0.587855756
0.532447696 0.589373589 0.611891091
0.696015477 0.605059922 0.643516839
0.875142515 0.756230235 0.730550230
0.346363306 0.684250236 0.655660987
0.344845206 0.689943075 0.661986113
0.335989594 0.690575421 0.656166792
0.366982996 0.683491468 0.648956180
0.486527622 0.666287482 0.629095554
0.590765655 0.660088778 0.613156319
0.721948445 0.706767678 0.670209050
0.861606479 0.781530559 0.728399813
0.468311131 0.760657549 0.688425243
0.474383384 0.761669993 0.677925229
0.472865283 0.759645820 0.680455446
0.493358433 0.754585922 0.676154196
0.577608943 0.745603919 0.672359288
0.669323504 0.752688468 0.676533818
0.788108587 0.803162515 0.731562257
0.864136338 0.814927220 0.741682410
0.724984109 0.849462628 0.756103754
0.728399336 0.851107240 0.755091608
0.735230744 0.854648829 0.751043499
0.741176307 0.857558429 0.754332364
0.776217461 0.859329581 0.758886576
0.836179614 0.870081961 0.779379785
0.879316986 0.891713798 0.806577981
0.904743969 0.904743969 0.810625970
0.405439138 0.641239405 0.785957992
0.399873406 0.636938870 0.784187078
0.395572037 0.632637322 0.779886067
0.380897969 0.625553429 0.780771792
0.372928143 0.605312824 0.774825752
0.509298265 0.551170230 0.789879799
0.708539069 0.530550122 0.804806948
0.891840637 0.566856205 0.797722995
0.383048147 0.636559308 0.785705209
0.392915785 0.629980624 0.790385783
0.382163137 0.629601121 0.780771375
0.367741525 0.622770488 0.774319947
0.370398521 0.600885570 0.774825811
0.509930730 0.557242334 0.791650951
0.704617083 0.544338942 0.792156816
0.891081631 0.578873992 0.798102558
0.412270516 0.655028462 0.775584936
0.417077720 0.657305121 0.775205493
0.415306270 0.653257430 0.779126942
0.403288603 0.649588823 0.776343882
0.462745219 0.648323596 0.772043049
0.553700030 0.620493412 0.777735770
0.717394233 0.613282681 0.791018307
0.874762952 0.638203442 0.790259361
0.465780973 0.692093372 0.779126942
0.472612202 0.694876730 0.768374562
0.460594475 0.690955043 0.768754125
0.454016328 0.689689875 0.769766033
0.495888472 0.694117904 0.763187766
0.598102152 0.682605863 0.765338480
0.725237131 0.672864974 0.778368235
0.864642620 0.690575182 0.781656802
0.535736740 0.738519609 0.767109394
0.538646400 0.743579924 0.769386411
0.534218550 0.737001836 0.766350627
0.523339570 0.732953608 0.759645581
0.528399587 0.729158819 0.752055645
0.661353469 0.744718313 0.758001268
0.742441297 0.735736966 0.768500924
0.856293559 0.752688110 0.777608752
0.626186132 0.797469616 0.773434520
0.633396566 0.795192778 0.774572790
0.625806332 0.794433713 0.771410763
0.614927173 0.789626598 0.770777702
0.600000083 0.781277776 0.765971065
0.680202544 0.783807755 0.752181768
0.767741919 0.796204805 0.765591502
0.849588811 0.813156426 0.778874040
0.699683726 0.838835776 0.774952531
0.708412290 0.837444842 0.786337674
0.705502808 0.834535241 0.780265510
0.702340066 0.834661484 0.781024635
0.684250116 0.831499219 0.776849985
0.729032397 0.830107689 0.771790206
0.791903913 0.831246257 0.764579237
0.864515781 0.851739526 0.790638626
0.785072565 0.874762952 0.798861682
0.792662799 0.878684640 0.800506115
0.789500356 0.872865260 0.798861682
0.789120793 0.876281142 0.797849417
0.783554733 0.874509573 0.792283416
0.802782595 0.872232616 0.787855864
0.841366529 0.872485697 0.786211252
0.882605970 0.887792826 0.813408911
