Assets/EldamarStudio/100 Retro LUTs Pack/LUTs/cube/Kimberly LUT.cube
LUT_3D_SIZE 5
DOMAIN_MIN 0.000000 0.000000 0.000000
DOMAIN_MAX 0.903226 0.903226 0.903226
0.047059000 0.082353003 0.117647000
0.154332399 0.097027294 0.146742716
0.359771788 0.079696171 0.183681414
0.738899410 0.001012128 0.251992136
0.997469962 0.094244137 0.355976939
0.070588000 0.137634695 0.165085703
0.133080706 0.149398699 0.166729987
0.356483221 0.191271275 0.208222717
0.764073491 0.197849259 0.274256885
0.997343183 0.295256257 0.379000515
0.126249403 0.295761794 0.278684795
0.144591972 0.317014486 0.263504416
0.392662585 0.371663630 0.276660413
0.828716040 0.469702780 0.330550104
0.999367416 0.565211594 0.478431165
0.431498617 0.701581359 0.482985258
0.437824309 0.713346422 0.481340975
0.607843220 0.754079640 0.492599815
0.866919994 0.777862132 0.534977376
0.967741668 0.807842970 0.661227226
0.872106135 0.892852843 0.758380830
0.870967805 0.896521270 0.766223788
0.895635784 0.900821984 0.772169352
0.921062827 0.902719975 0.770904779
0.941175997 0.912586987 0.783301830
0.057179291 0.117014416 0.172928706
0.103984989 0.102972701 0.178494409
0.297280073 0.119670987 0.200758979
0.712081373 0.091714293 0.255661011
0.998355269 0.177735090 0.360025108
0.065401994 0.135989994 0.181783408
0.114104696 0.153700382 0.193548411
0.295382529 0.185704976 0.225553408
0.748513341 0.232511252 0.272359103
1.000000000 0.330423862 0.386337638
0.160657674 0.266919374 0.281594098
0.184187099 0.288172096 0.290702075
0.346489459 0.349398792 0.300189376
0.825933218 0.487412930 0.331561953
0.998987913 0.592156708 0.485515624
0.497533619 0.677419543 0.516508341
0.507906139 0.696141481 0.512713373
0.635294199 0.752814710 0.537381530
0.868564129 0.783427835 0.543200552
0.966603577 0.817963183 0.672359049
0.880708754 0.892978966 0.762682080
0.880075991 0.892852843 0.763693750
0.897912621 0.903731704 0.777356207
0.916761220 0.905755818 0.771410525
0.947248816 0.903605282 0.786463976
0.003922000 0.183048993 0.313219398
0.007210577 0.177862406 0.297533393
0.241366386 0.158253998 0.308032364
0.720050275 0.149399132 0.393421531
0.996710598 0.170777708 0.386969984
0.048703287 0.220114097 0.294623673
0.088551708 0.209614098 0.279823005
0.218849093 0.207969815 0.292979389
0.632764101 0.237065107 0.369513243
0.996457696 0.315369844 0.411384970
0.098165825 0.289816350 0.317267388
0.158001110 0.270461679 0.295888692
0.337002188 0.359139353 0.377988786
0.645287871 0.410246789 0.392789096
0.999367416 0.586969972 0.501834154
0.399114370 0.604680538 0.481593847
0.451865911 0.607969463 0.492725790
0.633143783 0.698671460 0.563693762
0.811764717 0.759266078 0.595319629
0.959139705 0.817963362 0.677545667
0.863757193 0.881214797 0.757115662
0.874257028 0.884124100 0.763314545
0.898924530 0.897533417 0.777988672
0.918026268 0.907020688 0.784819603
0.945857286 0.908032596 0.785199225
0.002023998 0.336622119 0.512207270
0.001012128 0.334345251 0.504743934
0.182036743 0.271473825 0.526375294
0.644908369 0.244402111 0.550664365
0.997722685 0.570778072 0.646426558
0.001897579 0.380139232 0.497912675
0.000000000 0.377229691 0.491334260
0.245287940 0.341302693 0.485894948
0.607590377 0.328526229 0.529917538
0.986590683 0.614168227 0.653383851
0.113725640 0.483997524 0.506261766
0.101834640 0.475142658 0.497659922
0.345098019 0.451613069 0.459456056
0.605566144 0.490449339 0.530297577
0.945604265 0.672865152 0.647564650
0.319671363 0.652625084 0.562302411
0.330297083 0.634788036 0.556103528
0.501328230 0.619354606 0.543706656
0.752308309 0.733712971 0.644402146
0.930550098 0.793295026 0.697153628
0.832637429 0.870841205 0.743326783
0.834408700 0.866919518 0.749904871
0.869702756 0.875395417 0.763188124
0.919164956 0.904364109 0.787855983
0.940290630 0.907020688 0.790765285
0.541428983 0.668690383 0.775331974
0.534851134 0.667425513 0.771410644
0.509297609 0.655028105 0.769513249
0.647564769 0.585958362 0.787096977
0.940037966 0.617963374 0.792409956
0.546489358 0.675268531 0.772548914
0.544212282 0.675521851 0.774066806
0.518911719 0.667678654 0.766982794
0.678178489 0.637317955 0.780265570
0.929285109 0.669702649 0.787476122
0.633776069 0.745603740 0.768880665
0.631245792 0.749525666 0.762049079
0.612903178 0.738519967 0.759771943
0.751929283 0.748007417 0.760025084
0.904743791 0.772422373 0.774066925
0.756229997 0.831751943 0.768501103
0.760657668 0.828968823 0.769133389
0.743326962 0.821252346 0.765971065
0.807590067 0.819987178 0.752561629
0.907273948 0.844402254 0.779000700
0.860594749 0.878557801 0.783174932
0.861985743 0.887033641 0.784945905
0.856040180 0.886527836 0.782669187
0.873118341 0.884250641 0.785198927
0.920430005 0.890322804 0.796331644
