Assets/EldamarStudio/100 Retro LUTs Pack/LUTs/cube/Kimberly LUT.cube
LUT_3D_SIZE 8
DOMAIN_MIN 0.000000 0.000000 0.000000
DOMAIN_MAX 0.903226 0.903226 0.903226
0.047059000 0.082353003 0.117647000
0.088551991 0.087413445 0.127007991
0.177102998 0.090195999 0.149020001
0.271979630 0.086274996 0.169259995
0.438456565 0.078431003 0.199747190
0.671094179 0.002024260 0.240860239
0.914863527 0.000000000 0.284250557
0.997469962 0.094244137 0.355976939
0.052118547 0.107400090 0.120683096
0.087413453 0.104996994 0.138773009
0.178241640 0.127007991 0.165464908
0.302719623 0.128146544 0.183048546
0.466919720 0.138013899 0.208349198
0.714737535 0.094370812 0.249968290
0.944971383 0.055281814 0.302213699
0.999620438 0.235294372 0.379886061
0.070588000 0.155851096 0.181024998
0.077546000 0.161796555 0.178368449
0.154333100 0.166856200 0.184946179
0.282226741 0.196963742 0.201011732
0.467805326 0.222391188 0.226312175
0.717014670 0.237824455 0.264389843
0.938519835 0.246426478 0.315749288
0.994813144 0.340796918 0.385325760
0.107020639 0.232005000 0.236432642
0.099557094 0.244149551 0.229601189
0.157621816 0.251865745 0.238330096
0.291460991 0.289184004 0.244275644
0.516002536 0.352941036 0.271220803
0.777608931 0.391271532 0.299683720
0.965591252 0.423782289 0.350916982
0.998481810 0.510562778 0.452877998
0.169260189 0.400505573 0.326754987
0.154332802 0.402150571 0.321694732
0.189879566 0.438077450 0.315622985
0.335483640 0.445034564 0.314484537
0.567109764 0.502466559 0.325616568
0.805692434 0.562302113 0.361543417
0.957115233 0.596457660 0.429474741
0.995825350 0.665528178 0.536243141
0.309044629 0.605439425 0.418216467
0.311321914 0.616192102 0.415686190
0.346995652 0.655408025 0.419101834
0.464642704 0.683744550 0.434155464
0.622137547 0.685135961 0.427956730
0.826438963 0.732321441 0.469196439
0.934724987 0.751549721 0.550284445
0.977103293 0.780771732 0.633396447
0.718405843 0.836179256 0.656673133
0.718406081 0.833902538 0.648070991
0.724604726 0.845667541 0.652245402
0.775458455 0.856293619 0.673371553
0.817836642 0.856799543 0.675521672
0.858443856 0.853510559 0.675015807
0.914990544 0.864642560 0.700822234
0.950410962 0.868057787 0.736748815
0.872106135 0.892852843 0.758380830
0.871094048 0.897532940 0.755850792
0.872991681 0.897533059 0.758633733
0.887792408 0.898292363 0.767615795
0.904237807 0.900569379 0.781277418
0.915496528 0.908538818 0.775205612
0.930297077 0.901834369 0.775458753
0.941175997 0.912586987 0.783301830
0.059203450 0.090954997 0.142694101
0.074510001 0.090954997 0.138773009
0.168501109 0.101960905 0.155218005
0.273371190 0.104997002 0.167741999
0.432510793 0.113345742 0.202529833
0.678557873 0.057432279 0.250347942
0.926881969 0.000000000 0.293358713
1.000000000 0.178241491 0.375585109
0.054522451 0.106640995 0.133586541
0.076027997 0.110942543 0.139911547
0.150411099 0.124225445 0.164199650
0.285895109 0.146615997 0.182669088
0.468817353 0.157115743 0.218848810
0.722833633 0.138140097 0.258697182
0.938646257 0.110309795 0.303225994
1.000000000 0.227450669 0.369765759
0.074383095 0.152055889 0.180645451
0.098418549 0.156356543 0.190132543
0.139025643 0.168880552 0.182543084
0.273245156 0.204047829 0.205313087
0.475015670 0.233396381 0.235041082
0.728779435 0.253763407 0.267172903
0.947501183 0.273497760 0.323718935
0.998734832 0.369639605 0.403921336
0.131688893 0.229728088 0.248197451
0.130170897 0.241492897 0.247311741
0.159898907 0.259835541 0.248070732
0.290195853 0.292220175 0.256672740
0.528779387 0.362681955 0.275142312
0.776597142 0.398735195 0.299430996
0.956356883 0.427577257 0.350411028
0.997975767 0.498924702 0.439974666
0.214800820 0.396331012 0.337002188
0.208602011 0.395066381 0.335357189
0.222770378 0.435294062 0.338393390
0.343580067 0.458823174 0.322580487
0.583554804 0.523466289 0.323086828
0.818975210 0.576217473 0.370018721
0.958760321 0.605818927 0.433649570
0.998861372 0.668437779 0.540417612
0.372043103 0.617836893 0.439848185
0.372675389 0.630486965 0.442884266
0.396963745 0.663124204 0.448956430
0.496900827 0.698292375 0.457558542
0.633649647 0.700949132 0.437950552
0.830107868 0.740544081 0.478937358
0.928273082 0.758760154 0.552814484
0.973687649 0.792915523 0.649335682
0.739784658 0.837444544 0.676660299
0.741176307 0.840606987 0.666413546
0.752435088 0.846046984 0.672865272
0.794813514 0.857558489 0.690828443
0.826059341 0.860721052 0.684756279
0.863757014 0.858444273 0.675648093
0.920556307 0.856926024 0.698166013
0.949779034 0.863757253 0.729664803
0.873877347 0.897912502 0.766223788
0.876534104 0.894876838 0.760025442
0.873624325 0.895509005 0.764452875
0.888045371 0.899430990 0.773687363
0.903352320 0.901960611 0.775458753
0.909044564 0.905629218 0.779506505
0.926375687 0.901454687 0.784313500
0.949651957 0.904743969 0.788741052
0.053383999 0.123086996 0.189627096
0.052625000 0.116381638 0.192409649
0.120682999 0.111322001 0.196711004
0.241999090 0.123845898 0.217078105
0.367109239 0.128652900 0.224161997
0.646805942 0.103099018 0.246806085
0.907400608 0.062745191 0.292852491
0.997343183 0.195192650 0.359771788
0.061985996 0.140670538 0.196710989
0.069702990 0.136369079 0.178241640
0.111954182 0.132447988 0.196331546
0.222391084 0.148513645 0.214294747
0.387855947 0.159139901 0.233143538
0.674762726 0.165211543 0.261353552
0.920303464 0.158380985 0.293358743
0.998734832 0.247565135 0.370018810
0.072232902 0.149651989 0.202277094
0.080328651 0.152814999 0.198355183
0.133839086 0.182542995 0.220114097
0.204301268 0.184946105 0.223655641
0.388867646 0.215306908 0.245287985
0.689057171 0.260847479 0.272106349
0.933586359 0.283365011 0.310183376
0.998481989 0.371663451 0.398482054
0.117267445 0.211132541 0.249336094
0.133965895 0.213535756 0.242125198
0.176723450 0.243390441 0.270082474
0.235041082 0.264136970 0.270082474
0.442378253 0.325869262 0.292346984
0.739152431 0.396331280 0.302466989
0.945477605 0.435420573 0.349652112
0.999240935 0.505502939 0.440986574
0.207969368 0.364832342 0.330423564
0.227577478 0.356356800 0.326881737
0.262745261 0.391903639 0.346110195
0.328779161 0.429348618 0.352435201
0.517646909 0.485894740 0.346236438
0.783428252 0.565970719 0.368374646
0.953194261 0.603921533 0.427451074
0.999240875 0.664895654 0.535357237
0.387982547 0.586337805 0.451992363
0.415306926 0.585452378 0.455028266
0.445161045 0.622264147 0.463630706
0.511701286 0.682352781 0.489437073
0.623023450 0.694750011 0.470082432
0.818216145 0.737381101 0.489310294
0.930170596 0.758760214 0.560025096
0.972928762 0.797469556 0.645540774
0.747121751 0.821252346 0.670588255
0.755850375 0.823908865 0.678558052
0.771157622 0.839342177 0.688298285
0.797975898 0.850347996 0.692473054
0.828083515 0.855281353 0.702719569
0.858191252 0.851612806 0.678178489
0.918279529 0.858444273 0.700316370
0.948513806 0.867046297 0.735989928
0.885262787 0.892978966 0.763187885
0.883112252 0.891967416 0.776470780
0.883365035 0.889816582 0.767488956
0.889563560 0.902846456 0.775205433
0.906261981 0.904869974 0.782036781
0.915749729 0.904490650 0.780265689
0.925996125 0.904364407 0.779380083
0.941935718 0.906641066 0.785451949
0.017836651 0.156989634 0.259582639
0.021631647 0.153574005 0.256166995
0.072232917 0.137128100 0.253890008
0.186717644 0.131182641 0.253383636
0.386211008 0.169639647 0.312207639
0.588994265 0.133459911 0.321821272
0.823909104 0.029095713 0.319038630
0.998861372 0.172295749 0.364958793
0.029727997 0.179127350 0.264896095
0.037318259 0.173560634 0.253004283
0.095888637 0.159013093 0.251106650
0.180012375 0.158254191 0.251865625
0.373308092 0.199873194 0.316128820
0.582162857 0.172169641 0.327134639
0.839721501 0.111827888 0.327514112
0.998481989 0.240986854 0.366223723
0.050221100 0.204047725 0.264516354
0.077292651 0.195445731 0.247438267
0.122580551 0.189120635 0.246426433
0.171030641 0.193422005 0.252119184
0.323465973 0.226312265 0.292979091
0.520177066 0.219734356 0.307779998
0.858570516 0.255155176 0.341176331
0.994686604 0.362934798 0.390006155
0.081214361 0.233143643 0.263377994
0.110183440 0.219734639 0.266540051
0.149272650 0.222517282 0.258697093
0.249462634 0.287539274 0.322833270
0.339531720 0.283997625 0.310310096
0.592915893 0.339911282 0.342441380
0.884630203 0.416698158 0.374446273
1.000000000 0.500949025 0.442757905
0.181150928 0.322074741 0.324604839
0.202783093 0.316888273 0.313978374
0.238962725 0.336495548 0.335610539
0.325237453 0.400505722 0.374825835
0.433902740 0.433017075 0.375079155
0.683997691 0.514231443 0.402150631
0.916129172 0.592409909 0.451486439
1.000000000 0.660468280 0.529917359
0.338899374 0.535610259 0.430740207
0.358380735 0.538646400 0.434661895
0.421125829 0.558380723 0.458823293
0.517520487 0.620239913 0.494876832
0.601517737 0.669449627 0.512333870
0.773055196 0.708412409 0.519671202
0.906894207 0.755597770 0.575838029
0.969512939 0.793927908 0.645414233
0.696015179 0.808728516 0.657432318
0.711448371 0.806577921 0.657179177
0.750410914 0.809108317 0.667805433
0.789500177 0.829474926 0.694623590
0.827071548 0.850854039 0.711827874
0.853004694 0.850854039 0.696015060
0.917899966 0.856799245 0.701707661
0.950790524 0.865781069 0.731435776
0.878051996 0.885009468 0.770018637
0.878557861 0.887919068 0.755344331
0.885135770 0.890322804 0.769386709
0.893358588 0.894623995 0.774066806
0.901075244 0.906894445 0.783554554
0.916128814 0.903605342 0.784313619
0.924477994 0.902087152 0.777103007
0.949272633 0.908412337 0.787855983
0.001518192 0.206704184 0.339152187
0.003542355 0.209107995 0.340797186
0.003162909 0.202909291 0.335357279
0.159519270 0.178241551 0.347501636
0.312966555 0.174699381 0.348513365
0.653257430 0.224921092 0.438962936
0.896774173 0.195319548 0.455787659
1.000000000 0.272738487 0.450474381
0.000758999 0.234914273 0.351802200
0.005819353 0.234282196 0.350663841
0.054142900 0.227450818 0.338013858
0.180139095 0.205945283 0.341556102
0.315749645 0.206830993 0.355597377
0.655913830 0.269450098 0.446426362
0.875521779 0.241619259 0.448576719
0.992789209 0.291081309 0.447944283
0.054143097 0.257558286 0.340923160
0.054522455 0.257178932 0.332954198
0.117393985 0.249083087 0.324351192
0.186717451 0.237570941 0.321568638
0.280708551 0.244402185 0.334472090
0.596710801 0.314231545 0.425047457
0.829854548 0.309550822 0.445667207
0.988740981 0.354079336 0.454016238
0.080835000 0.304364532 0.348007381
0.076154634 0.303605646 0.345983535
0.165338203 0.289057374 0.328273088
0.226186186 0.292979181 0.330676973
0.313472599 0.313725621 0.362808168
0.551675856 0.366856545 0.403794736
0.762934744 0.358001113 0.412144005
0.985704958 0.472105861 0.473371208
0.117394179 0.361543387 0.366603196
0.152561381 0.352941364 0.363314152
0.213535473 0.342694491 0.353194296
0.278810799 0.353194028 0.354585558
0.449715555 0.465654343 0.443896353
0.569260180 0.456799805 0.426565439
0.841998816 0.538646340 0.476154178
0.986337960 0.650220990 0.558886647
0.270588011 0.476533920 0.416445404
0.283111870 0.476407290 0.412523538
0.338266850 0.487033457 0.423656106
0.439088941 0.527893662 0.459709108
0.596204579 0.628463328 0.532068670
0.705755889 0.675016165 0.546868920
0.875142574 0.732953787 0.596331596
0.961417079 0.791144550 0.656546295
0.621758342 0.774699450 0.621505499
0.633522868 0.770904183 0.626059473
0.679569840 0.780012667 0.638709664
0.749904990 0.798228741 0.665781081
0.821631730 0.835420370 0.708286107
0.852118969 0.848450541 0.721947849
0.897786260 0.851992369 0.714737356
0.938899219 0.869323015 0.738773048
0.851739228 0.885009468 0.757621586
0.848323643 0.883870840 0.757495105
0.864642799 0.879949808 0.754585624
0.887286425 0.887665987 0.771031082
0.902972996 0.899304211 0.786843896
0.912080586 0.907274008 0.791271329
0.925743222 0.905882239 0.789500177
0.940670609 0.905123174 0.784440160
0.002024260 0.307273716 0.473750472
0.003542452 0.307780176 0.467931718
0.000000000 0.296647370 0.463251114
0.045414191 0.262618721 0.462112725
0.346869081 0.241113275 0.486780703
0.569007158 0.229221731 0.501075447
0.893611550 0.374193817 0.591524065
1.000000000 0.506261885 0.605186701
0.001897740 0.328273237 0.482732534
0.002783259 0.328399718 0.479317158
0.000000001 0.330423474 0.466287106
0.132068545 0.301707655 0.468943536
0.338646472 0.270461828 0.480708390
0.543200374 0.257558286 0.482985258
0.875521541 0.400252849 0.587729216
0.995572209 0.501707733 0.598102450
0.004174743 0.373813808 0.465275377
0.002656549 0.369259953 0.455787271
0.008096463 0.362049133 0.449589074
0.213409454 0.343959630 0.437697589
0.337507993 0.328905553 0.456166983
0.523339510 0.320682824 0.477798730
0.860847712 0.487792194 0.593801260
0.988614857 0.564073265 0.615433335
0.068184905 0.412903190 0.455407917
0.061733089 0.411891371 0.459835470
0.096268363 0.413409472 0.446426392
0.258823633 0.388614833 0.418722332
0.352434933 0.385199368 0.436053455
0.514484406 0.391018450 0.470082134
0.826059639 0.554332554 0.581530690
0.963567019 0.586211145 0.603415370
0.135230705 0.504364252 0.480581462
0.131435826 0.495382458 0.475774705
0.199620485 0.486021429 0.474509656
0.326628834 0.464136451 0.456293523
0.413915068 0.472106189 0.456040889
0.570651174 0.517014921 0.502719641
0.804427564 0.599746883 0.577356219
0.937634170 0.614926755 0.590891600
0.231625646 0.576723695 0.510689199
0.227830634 0.566729963 0.494623661
0.301707655 0.559645653 0.489816457
0.399873376 0.550790548 0.486527652
0.514358103 0.569639444 0.508791685
0.702719748 0.689184487 0.604933679
0.810499728 0.689563751 0.600506008
0.941682160 0.770271719 0.670335472
0.530803323 0.742188096 0.606704831
0.538772941 0.749525547 0.614674568
0.574193358 0.750157833 0.616698384
0.655154943 0.752182007 0.633017182
0.749652267 0.779633105 0.667805314
0.839215755 0.829981029 0.714990795
0.879696786 0.842504561 0.731815398
0.934977829 0.863630295 0.743580163
0.836685717 0.877166450 0.746615827
0.837950587 0.871726692 0.755217910
0.838456869 0.875521898 0.749651909
0.857305527 0.883491576 0.758507371
0.889690161 0.889310598 0.778747618
0.913851798 0.900063038 0.782542884
0.923972070 0.903731465 0.795699120
0.941808939 0.905502856 0.793042183
0.075142376 0.462238818 0.662238836
0.069955811 0.459962130 0.661606848
0.065274909 0.456925750 0.653636694
0.054648820 0.448703200 0.643769920
0.283871055 0.367488652 0.667046249
0.589753389 0.347754806 0.682858586
0.824035525 0.350158125 0.688045561
0.977862000 0.599873483 0.708032846
0.059582558 0.460974276 0.660594702
0.061100654 0.464516312 0.658317506
0.057685278 0.459961832 0.648829818
0.069070093 0.462871373 0.641998827
0.296395004 0.397469670 0.652751088
0.585199177 0.375205636 0.666919708
0.814674258 0.373307794 0.669576228
0.962428808 0.604806900 0.699430346
0.138266563 0.508159399 0.645414531
0.136622176 0.512966156 0.647185087
0.135989666 0.508791506 0.641239583
0.177102923 0.506388366 0.628842473
0.375837922 0.474256665 0.639468551
0.583301425 0.453636944 0.651233435
0.802403748 0.463757008 0.668058395
0.945604146 0.678684473 0.713345885
0.234155446 0.561922848 0.628716171
0.237571090 0.563693881 0.633649468
0.235167354 0.561796665 0.626692057
0.276913255 0.552435100 0.611258507
0.465907723 0.551929116 0.613156199
0.589879632 0.532700658 0.638203621
0.778241873 0.546363235 0.653889894
0.929538250 0.728020430 0.715370297
0.334724903 0.642125547 0.642884254
0.346489549 0.634155631 0.642504811
0.338899076 0.635673463 0.636432528
0.359772325 0.628969133 0.632258236
0.512333810 0.611258626 0.608095944
0.627071261 0.619481266 0.620493054
0.778494358 0.644275546 0.657179177
0.921441972 0.787096918 0.731435835
0.472232819 0.717520535 0.668311298
0.477292567 0.719544768 0.671094298
0.473877102 0.721948385 0.662239015
0.488424957 0.716761470 0.659709096
0.592789233 0.702719986 0.647058547
0.689310253 0.699177742 0.631372631
0.807843029 0.745350838 0.688298583
0.914610982 0.808096111 0.732574463
0.611385107 0.785199285 0.691334546
0.605945647 0.793295264 0.688425303
0.603795290 0.792030573 0.689436972
0.618216157 0.785831511 0.684503257
0.692093432 0.777862191 0.679949462
0.765211761 0.783807993 0.680708230
0.852498293 0.824415267 0.732574582
0.912460327 0.840860248 0.744086087
0.818342566 0.863756955 0.750790775
0.816192091 0.866793275 0.755724490
0.820746422 0.864895582 0.751043499
0.826059341 0.871853054 0.744844973
0.851486444 0.873244882 0.753700018
0.886907041 0.884377003 0.771157384
0.916888118 0.899557114 0.790385783
0.927640975 0.907274008 0.791271269
0.541428983 0.668690383 0.775331974
0.536116004 0.668690383 0.772675812
0.536116004 0.668690383 0.772675812
0.515243530 0.657178760 0.772928476
0.510183215 0.639721513 0.771536767
0.606072128 0.593801260 0.784061015
0.773687720 0.569006622 0.790638506
0.940037966 0.617963374 0.792409956
0.511574507 0.664136529 0.768501103
0.523466170 0.662112594 0.767995238
0.519038618 0.659203053 0.773055077
0.498418778 0.653004289 0.770271778
0.496141374 0.629854620 0.767741740
0.600126505 0.588614583 0.780392051
0.772042990 0.577735186 0.784819722
0.935483813 0.623023391 0.787349522
0.550537348 0.681340814 0.770018756
0.553067446 0.681973517 0.764958620
0.548260450 0.680581748 0.765717864
0.536242604 0.676786840 0.771537006
0.576090693 0.674509943 0.766856492
0.652371824 0.652751505 0.771410644
0.795698762 0.652372122 0.779506624
0.927514076 0.682099700 0.784439981
0.594054282 0.714231431 0.767361939
0.597216666 0.721821666 0.764579356
0.592156529 0.717520356 0.761416495
0.581530452 0.718279243 0.762049079
0.613029838 0.717267454 0.754838347
0.698671758 0.709930301 0.760531127
0.800000072 0.708412290 0.764958918
0.915496409 0.731435537 0.770271957
0.659456193 0.763314188 0.760657787
0.663504004 0.769639254 0.761037230
0.660594523 0.768627465 0.761036932
0.651612639 0.760025084 0.756862640
0.649588346 0.757874966 0.753067374
0.760657668 0.771410584 0.755976737
0.815559924 0.769259691 0.759013057
0.905123174 0.785578609 0.772928417
0.742314816 0.821125627 0.767741740
0.742441535 0.821884751 0.767995179
0.743959546 0.819607615 0.766856670
0.730803192 0.812144160 0.755977094
0.715749681 0.803795159 0.760278225
0.779506326 0.809360981 0.750031650
0.845920563 0.822264254 0.762681603
0.906008959 0.831498981 0.774699748
0.802276850 0.852751255 0.776217401
0.805313051 0.854395986 0.771157384
0.798734784 0.854269445 0.773687482
0.795572281 0.851106942 0.772802174
0.786970258 0.850853980 0.769133568
0.814547956 0.849082828 0.770398259
0.865401685 0.848830283 0.764579356
0.911827981 0.863630652 0.781909823
0.860594749 0.878557801 0.783174932
0.858950019 0.892599523 0.790638566
0.863756895 0.884503722 0.783681273
0.859456122 0.888045430 0.787349582
0.852624893 0.887539446 0.781783581
0.866792977 0.886527598 0.780138850
0.898545086 0.886148095 0.784313500
0.920430005 0.890322804 0.796331644
