Assets/EldamarStudio/100 Retro LUTs Pack/LUTs/cube/Kimberly LUT.cube
DOMAIN_MIN 0 0 0
DOMAIN_MAX 1 1 1
LUT_3D_SIZE 32
0.047059000 0.082353003 0.117647000
0.050094616 0.079316616 0.117647000
0.059582546 0.080581777 0.117647000
0.072992161 0.083618164 0.120177001
0.088551991 0.087413445 0.127007991
0.106767997 0.096521065 0.139151990
0.130043998 0.100569323 0.143706322
0.154332399 0.097027294 0.146742716
0.177102998 0.090195999 0.149020001
0.195319012 0.090195999 0.149020001
0.222264603 0.087286867 0.154839009
0.243516997 0.086274996 0.160910994
0.271979630 0.086274996 0.169259995
0.317267060 0.085768931 0.180645034
0.359771788 0.079696171 0.183681414
0.397469610 0.078431003 0.189120993
0.438456565 0.078431003 0.199747190
0.487792671 0.073371030 0.214294985
0.551549971 0.049082957 0.226438999
0.606957734 0.016445622 0.230234355
0.671094179 0.002024260 0.240860239
0.738899410 0.001012128 0.251992136
0.802529991 0.003795488 0.255407989
0.863250852 0.000759096 0.267552018
0.914863527 0.000000000 0.284250557
0.959265947 0.000000000 0.305249959
0.992156982 0.000506064 0.325996071
0.992156982 0.003542448 0.329032451
0.997469962 0.094244137 0.355976939
0.996457994 0.183301657 0.375711411
0.993042350 0.261353731 0.395825565
0.996078014 0.337255001 0.435294002
0.047059000 0.082353003 0.111575000
0.050094616 0.079316616 0.117647000
0.055281550 0.082732551 0.117647000
0.066919833 0.089184225 0.116381839
0.083997324 0.095003165 0.118279159
0.112839997 0.093485452 0.133079991
0.131055996 0.100063391 0.142694324
0.155977115 0.098672003 0.148387000
0.180898488 0.093232386 0.151296720
0.201391786 0.093232386 0.149020001
0.228336647 0.093232386 0.157748133
0.257684976 0.092346996 0.161922887
0.283364624 0.093485348 0.169259995
0.317267060 0.095129646 0.181403995
0.359771788 0.091840945 0.192789033
0.402276576 0.085768782 0.195825428
0.449082732 0.082985580 0.202783197
0.500442922 0.080202393 0.213029996
0.554585576 0.070335336 0.220367014
0.621126115 0.032131296 0.238077000
0.678684592 0.007716624 0.240480617
0.740923643 0.001012128 0.247944146
0.802656472 0.003922000 0.255787492
0.866287231 0.003795483 0.276660413
0.924731195 0.000759099 0.295635670
0.968627393 0.000000000 0.313219637
0.997722924 0.006578058 0.328526407
0.995192647 0.039974447 0.329032451
0.997849464 0.112081021 0.358633757
1.000000000 0.196710840 0.378747344
0.998228967 0.272612333 0.398861378
0.999114394 0.346363395 0.438330382
0.047059000 0.084503770 0.116255775
0.050094616 0.083618164 0.118026771
0.055281550 0.082732551 0.121947996
0.071474001 0.087539837 0.124477997
0.089942776 0.095255993 0.124857321
0.106135093 0.101075165 0.132953703
0.130676776 0.101328224 0.143074095
0.153826475 0.102466941 0.147248775
0.181151316 0.099177904 0.152308777
0.205186725 0.100569226 0.153447479
0.232258096 0.104870223 0.155597910
0.259582490 0.100822225 0.162681773
0.290954918 0.100569226 0.169259995
0.321568608 0.102593027 0.181657031
0.364073336 0.103352420 0.195698768
0.408728361 0.100063227 0.202782810
0.454269141 0.097027220 0.207336992
0.508918464 0.092093602 0.214547813
0.565085590 0.081467740 0.219102025
0.628463268 0.061986227 0.236306012
0.689563513 0.024414858 0.246932000
0.751296639 0.005692650 0.251486242
0.815180004 0.001897738 0.261986285
0.872865498 0.003922000 0.279190689
0.921315849 0.001644712 0.293991297
0.967868626 0.002782990 0.311068982
0.996710956 0.017963178 0.328526288
0.998608351 0.080454953 0.346616000
0.998734832 0.144212022 0.360784531
1.000000000 0.224414662 0.390638918
1.000000000 0.299810112 0.410879105
1.000000000 0.372675776 0.447817981
0.048323840 0.092599832 0.120303839
0.052624937 0.090069838 0.125363842
0.057811547 0.093864992 0.126249224
0.067679159 0.091334999 0.129285157
0.096900612 0.095129609 0.135357171
0.107400000 0.106387995 0.139278933
0.128652632 0.112207159 0.144845322
0.152055696 0.111827709 0.154080003
0.178621188 0.109550998 0.154838905
0.205439657 0.112080678 0.160404831
0.234028876 0.115496159 0.161923006
0.265148401 0.116002157 0.165970996
0.294749767 0.112207159 0.172043011
0.328652948 0.112713158 0.183427989
0.370145828 0.116761409 0.195572242
0.413788944 0.117520511 0.202277005
0.462112367 0.114737153 0.212144166
0.513851643 0.112839743 0.218848735
0.575205743 0.098925099 0.223150149
0.639975131 0.083744787 0.236306012
0.701201916 0.061606854 0.248197168
0.761922657 0.030234197 0.257305294
0.830739796 0.014674335 0.269576520
0.884250462 0.012018063 0.282479912
0.933586538 0.020620191 0.299177855
0.966856599 0.034408465 0.311322123
0.994686961 0.048576724 0.324478149
0.999240994 0.123718902 0.354079396
1.000000000 0.189753026 0.376470655
0.998734832 0.257304966 0.398735315
0.999620438 0.331815064 0.426945120
1.000000000 0.403542161 0.459961981
0.052118547 0.107400090 0.120683096
0.057811771 0.101707548 0.131309092
0.063883997 0.104870223 0.134851098
0.072612613 0.109171540 0.136495709
0.087413453 0.104996994 0.138773009
0.108665064 0.114104606 0.144845009
0.132827088 0.122453861 0.148387328
0.156230152 0.127007991 0.155977443
0.178241640 0.127007991 0.165464908
0.202530444 0.127007991 0.168500513
0.233016998 0.127007991 0.171916410
0.266286969 0.127767086 0.176976547
0.302719623 0.128146544 0.183048546
0.336622089 0.128399581 0.189373583
0.376091212 0.134345084 0.195572093
0.419861108 0.138013810 0.199620366
0.466919720 0.138013899 0.208349198
0.521062195 0.134471580 0.221126020
0.584819496 0.125363946 0.230234429
0.650980473 0.112207726 0.240101203
0.714737535 0.094370812 0.249968290
0.776723504 0.075015962 0.261100680
0.842758000 0.054522607 0.276028007
0.894117475 0.043137632 0.285136342
0.944971383 0.055281814 0.302213699
0.982289672 0.081973575 0.319670767
1.000000000 0.119923793 0.333586544
1.000000000 0.174573287 0.351802528
0.999620438 0.235294372 0.379886061
0.998608351 0.300063223 0.409867346
0.996963620 0.366350293 0.441366494
1.000000000 0.430107564 0.471726537
0.061226934 0.119544871 0.144971862
0.064263321 0.116508484 0.144971862
0.069955997 0.112966157 0.146995872
0.076028004 0.115749381 0.149525866
0.084377065 0.120177381 0.153953388
0.096521065 0.129284993 0.150917009
0.122833326 0.133333251 0.154459327
0.149651766 0.137381211 0.160784289
0.175205246 0.139151990 0.168121055
0.199494049 0.139151990 0.168500513
0.232510924 0.139151990 0.174446732
0.261353254 0.143200517 0.180012941
0.295888335 0.147122234 0.186084941
0.336622089 0.149651974 0.192409977
0.376091212 0.152688354 0.201518357
0.429981381 0.156230077 0.207716867
0.482100099 0.156230196 0.216318920
0.536242604 0.153194308 0.226438999
0.599999905 0.149651960 0.227198035
0.663757026 0.146110341 0.241872430
0.729917943 0.135357380 0.256040692
0.793675125 0.123718925 0.270209074
0.854902029 0.115243375 0.285136402
0.903478801 0.112207763 0.294244021
0.950284779 0.121315494 0.305629075
0.984313905 0.141682237 0.320682645
1.000000000 0.171030909 0.336875200
1.000000000 0.214041665 0.360910922
0.997343183 0.263377517 0.384439886
0.998355269 0.321568251 0.411511660
0.999493957 0.385072351 0.442884564
1.000000000 0.451359928 0.480834931
0.067805000 0.126628995 0.154080003
0.065781385 0.123592608 0.151549682
0.068817228 0.124857768 0.153700456
0.073244840 0.125110477 0.152814835
0.078810997 0.129158676 0.153953224
0.090954997 0.131815061 0.150917381
0.113219641 0.138393000 0.155471325
0.140544027 0.143074095 0.161796287
0.167868420 0.147754639 0.170145184
0.193927988 0.151296645 0.173687637
0.224415183 0.151296645 0.171916410
0.249715552 0.153320387 0.175964937
0.281720310 0.161163971 0.186084986
0.323465765 0.168374598 0.197723001
0.358380884 0.171410412 0.204554096
0.402656466 0.172042996 0.213662475
0.458317786 0.176470309 0.222896993
0.515370071 0.176470578 0.233143583
0.584819615 0.173434675 0.235041335
0.646047115 0.172928676 0.243896037
0.707906425 0.169892579 0.260974169
0.771410584 0.161669642 0.270714879
0.831751823 0.155850634 0.276913375
0.882732511 0.155218214 0.293232411
0.931309223 0.163567305 0.304617316
0.974319935 0.178494290 0.322327286
0.997975707 0.198355451 0.340923071
1.000000000 0.224668175 0.359139562
0.997343183 0.272485882 0.375837952
0.996078014 0.321062624 0.405439109
0.998355269 0.378747463 0.435167551
1.000000000 0.442251682 0.469702691
0.070588000 0.137634695 0.165085703
0.070841387 0.136243016 0.162049308
0.073750935 0.137507766 0.169892475
0.072991706 0.140544161 0.166603699
0.076786995 0.142441407 0.162428856
0.091460995 0.139911413 0.159392923
0.102213942 0.146615699 0.160657987
0.133080706 0.149398699 0.166729987
0.159646004 0.157748371 0.175078690
0.186084792 0.166476980 0.181151241
0.217963323 0.168374702 0.180139124
0.248830244 0.170398444 0.182795539
0.276913643 0.175711349 0.185831919
0.318911761 0.186843991 0.200759038
0.356483221 0.191271275 0.208222717
0.399494201 0.193548411 0.213409081
0.454142570 0.196584404 0.225553468
0.509803951 0.202023819 0.238456562
0.577609003 0.201011956 0.245540962
0.642631471 0.204048395 0.249209359
0.703352451 0.198861659 0.259076476
0.764073491 0.197849259 0.274256885
0.824667811 0.194054201 0.274762481
0.879316747 0.195572391 0.294497102
0.923719227 0.203036100 0.306515008
0.963946640 0.217963085 0.320050657
0.995572090 0.234914526 0.342061788
0.996331453 0.255408257 0.357242137
0.997343183 0.295256257 0.379000515
0.997722745 0.342188716 0.399873108
0.997722745 0.390765548 0.433269799
1.000000000 0.448450416 0.464389712
0.070588000 0.155851096 0.181024998
0.074383289 0.154333100 0.177988604
0.078051910 0.155724421 0.183301777
0.081341006 0.159519270 0.187855899
0.077546000 0.161796555 0.178368449
0.095002994 0.156103998 0.176850155
0.103605323 0.160404772 0.174066991
0.120177209 0.164579093 0.177355990
0.154333100 0.166856200 0.184946179
0.178621113 0.182036594 0.191018179
0.213155955 0.188614964 0.192030087
0.245793760 0.193168834 0.196078092
0.282226741 0.196963742 0.201011732
0.322707146 0.206072137 0.204301089
0.366729796 0.212650195 0.212903410
0.415433466 0.217836812 0.218722388
0.467805326 0.222391188 0.226312175
0.530929267 0.229095593 0.238962576
0.588741064 0.232384235 0.253636986
0.654016435 0.237444803 0.257179111
0.717014670 0.237824455 0.264389843
0.777735531 0.232005149 0.272739083
0.837697983 0.235040799 0.281846672
0.892219961 0.238077193 0.300568908
0.938519835 0.246426478 0.315749288
0.971536994 0.257432073 0.327640653
0.996837080 0.277672231 0.343327135
0.994054437 0.302466959 0.358760506
0.994813144 0.340796918 0.385325760
0.996331215 0.383048624 0.411638021
1.000000000 0.428716332 0.440100878
1.000000000 0.477293193 0.473498076
0.070588008 0.183175474 0.199241012
0.076660007 0.177103490 0.196204618
0.078304529 0.175585493 0.193168774
0.079822689 0.178241968 0.188361838
0.083618008 0.183048949 0.181404084
0.095761999 0.180012554 0.190512463
0.110689327 0.179380015 0.183934182
0.127007991 0.179759502 0.183428004
0.148260325 0.182036594 0.191018194
0.175585508 0.191145003 0.203162968
0.214421347 0.206325367 0.206325099
0.247564986 0.216951236 0.211258486
0.282606274 0.223529130 0.216192126
0.325743526 0.227324530 0.219481498
0.377355844 0.236432910 0.225553483
0.435800165 0.245414183 0.234155804
0.492852837 0.252751410 0.243010774
0.549146056 0.259456396 0.251106560
0.609866977 0.268564045 0.254142970
0.673244596 0.271853358 0.263251364
0.735230923 0.276913524 0.275775224
0.795952260 0.280329019 0.287666470
0.855913997 0.280582011 0.293991417
0.898418784 0.283618391 0.303099066
0.946110010 0.293485463 0.321821272
0.981783688 0.304111302 0.339784622
0.999873459 0.317140639 0.355471134
0.999873459 0.347501367 0.373687893
0.997090161 0.388235092 0.402403414
0.994307220 0.430613339 0.430866152
0.994180977 0.474130303 0.461606264
1.000000000 0.519797981 0.500822484
0.085135870 0.193042129 0.217456996
0.082479738 0.198608875 0.208602354
0.084250741 0.196837872 0.203415751
0.086780742 0.196837872 0.202150717
0.091461323 0.199241325 0.201897427
0.096014999 0.201264933 0.211005792
0.115749314 0.200758874 0.207463875
0.133333415 0.202403590 0.203668743
0.153067738 0.204427645 0.204174757
0.178241596 0.209234476 0.203415975
0.208475858 0.218342870 0.206831127
0.247944236 0.235546976 0.217963248
0.287792385 0.248450145 0.226691872
0.334851235 0.257052749 0.231499031
0.389121085 0.263504267 0.234914869
0.445540488 0.277419657 0.245793864
0.504237711 0.289057583 0.252372205
0.562808275 0.297912836 0.258697152
0.628083706 0.304743767 0.266286969
0.694370449 0.311068743 0.272105992
0.752561331 0.316128850 0.282985598
0.809234619 0.321189016 0.297153860
0.865907788 0.323213220 0.308918148
0.919544697 0.326248914 0.315243840
0.955218136 0.336116582 0.331182718
0.983933985 0.353826702 0.351802498
0.997596204 0.373054743 0.371537000
1.000000000 0.398608446 0.394560754
1.000000000 0.439595193 0.415433645
0.998987854 0.478557944 0.448576629
0.997976005 0.519671142 0.482858628
1.000000000 0.565211892 0.522327840
0.098291993 0.212270498 0.229601249
0.093232125 0.216319025 0.226565376
0.086274996 0.222138241 0.223655999
0.090069838 0.222138241 0.216318816
0.096900739 0.222517699 0.216318548
0.101581052 0.225553304 0.222137928
0.121821567 0.230107233 0.230739981
0.139784947 0.226818249 0.224667996
0.158381104 0.228716075 0.223908991
0.181404278 0.231752023 0.220366985
0.207463473 0.236558855 0.218975633
0.251992494 0.255787492 0.226059243
0.296015173 0.272865146 0.236685634
0.345477551 0.286148280 0.242125288
0.396584630 0.297533482 0.248703659
0.455660999 0.310815781 0.254902244
0.519417822 0.324478358 0.265528053
0.581656933 0.335357487 0.268943727
0.649841905 0.341429502 0.273877025
0.714610994 0.349525779 0.282226264
0.775711417 0.357495010 0.293990970
0.828462780 0.362681597 0.304237962
0.880581975 0.366097480 0.316381752
0.927640796 0.374825835 0.328146815
0.968374550 0.382669061 0.343326986
0.989247262 0.397596449 0.365717590
0.998102248 0.420619637 0.388741136
0.999620438 0.444908381 0.413029879
0.997975767 0.479063839 0.440734029
0.997975767 0.518026590 0.467299163
0.998861372 0.558001399 0.504111052
1.000000000 0.604680479 0.543580234
0.107020639 0.232005000 0.236432642
0.100948647 0.233902737 0.235293999
0.093864776 0.237950996 0.235293999
0.091208480 0.243770003 0.237191483
0.099557094 0.244149551 0.229601189
0.104869999 0.247185349 0.232637584
0.121568643 0.251612633 0.238709643
0.140923411 0.255660653 0.242125005
0.157621816 0.251865745 0.238330096
0.178874210 0.254902124 0.238709643
0.201897353 0.256799400 0.234661877
0.240986452 0.267172515 0.236306369
0.291460991 0.289184004 0.244275644
0.343327194 0.305376381 0.248071000
0.393675148 0.324098766 0.258064777
0.451865941 0.339278817 0.264769346
0.516002536 0.352941036 0.271220803
0.586464047 0.365085602 0.279696137
0.656799316 0.372169614 0.280708283
0.718785465 0.381024987 0.289057344
0.777608931 0.391271532 0.299683720
0.837318122 0.401391268 0.313851982
0.886147857 0.404680640 0.320176989
0.927640796 0.412776649 0.332321256
0.965591252 0.423782289 0.350916982
0.993801355 0.438203603 0.371030629
0.999367416 0.456925690 0.397849143
1.000000000 0.480581880 0.422137856
0.998481810 0.510562778 0.452877998
0.997216642 0.541176319 0.484376907
0.997216642 0.578494549 0.512966216
1.000000000 0.626312375 0.551170349
0.111069031 0.247185066 0.242252067
0.105503038 0.247185066 0.238962635
0.099431030 0.249082804 0.237318069
0.097913034 0.252878040 0.239848062
0.103352517 0.259076566 0.245034546
0.106388129 0.262112945 0.248070940
0.116761610 0.265148759 0.248324037
0.131309360 0.270082057 0.246932358
0.148513168 0.274636149 0.245161131
0.169765562 0.277672529 0.248197526
0.191523939 0.278052062 0.243517026
0.225932553 0.281594068 0.240733996
0.270208329 0.291967094 0.243010998
0.319797128 0.310942113 0.249336034
0.374446630 0.338266492 0.261480004
0.434155613 0.356735855 0.268817008
0.498165727 0.370904446 0.274889022
0.565465093 0.382796019 0.280708134
0.638330042 0.394940019 0.286780924
0.697786152 0.404301375 0.295635641
0.753826499 0.415054053 0.305249751
0.809740424 0.427198052 0.314611018
0.872865021 0.438962579 0.327008009
0.912713766 0.439089090 0.333586037
0.949145973 0.448450059 0.350790322
0.978367627 0.464262694 0.372295678
0.996331036 0.485515118 0.394560158
0.999367416 0.506767511 0.418848902
1.000000000 0.532320857 0.451106787
0.999240994 0.558886468 0.483744204
1.000000000 0.587349653 0.515749276
1.000000000 0.626818120 0.540038049
0.126249403 0.295761794 0.278684795
0.126249403 0.295761794 0.272612035
0.120683402 0.295761794 0.265022159
0.117141396 0.296394378 0.264136821
0.118406400 0.298797935 0.269070268
0.118532896 0.307653308 0.266286939
0.126628503 0.310689688 0.264263302
0.144591972 0.317014486 0.263504416
0.167741925 0.321694791 0.262871832
0.194054306 0.317140877 0.263377905
0.221125692 0.320177257 0.269323379
0.249209315 0.320556819 0.262745142
0.286654085 0.327514440 0.261226982
0.331941873 0.344339252 0.267552018
0.392662585 0.371663630 0.276660413
0.454522341 0.396584213 0.283997416
0.520682931 0.415939152 0.290069401
0.588614643 0.430993199 0.295508981
0.653510392 0.440480381 0.298924923
0.718026459 0.449841738 0.307779640
0.776723564 0.458950132 0.320682704
0.828716040 0.469702780 0.330550104
0.875901401 0.481467307 0.336116374
0.924478233 0.484503716 0.354332387
0.955218256 0.496014923 0.370018959
0.980265379 0.510562420 0.391650796
0.996078014 0.528019845 0.416318536
0.996331036 0.549272180 0.446173280
0.999367416 0.565211594 0.478431165
0.994686782 0.595319152 0.506514728
0.992789149 0.629221976 0.537128389
1.000000000 0.666287243 0.573434412
0.151043788 0.344338596 0.305502981
0.143832982 0.339531571 0.292219996
0.141682759 0.339531571 0.290448785
0.138393790 0.343326718 0.290954977
0.137634695 0.347880930 0.297406524
0.133586183 0.356989324 0.290322661
0.148387283 0.356230080 0.287286311
0.154205889 0.367489159 0.287539691
0.175458476 0.377356082 0.288298786
0.206072316 0.376217365 0.288298786
0.245414466 0.376470417 0.286906987
0.274762601 0.377482563 0.290955245
0.307400256 0.377482563 0.287918955
0.348134100 0.386843801 0.292219788
0.402403563 0.409867167 0.294876397
0.477545977 0.437191546 0.296774000
0.542820990 0.459961772 0.302845985
0.609867036 0.479063928 0.310815543
0.671853542 0.493485212 0.320935965
0.733206868 0.497785926 0.331942052
0.795066237 0.510689318 0.337254643
0.844149292 0.520809710 0.347374797
0.881214440 0.531182885 0.352814466
0.927514017 0.534218669 0.377861768
0.955597460 0.546363056 0.396078348
0.979885817 0.560151339 0.415686429
0.996584058 0.574825704 0.440986723
0.998481810 0.594180763 0.475142479
0.996331036 0.614927232 0.503352344
0.999367416 0.638962746 0.538519919
0.995445788 0.671473920 0.566224098
1.000000000 0.703352571 0.599620640
0.169260189 0.400505573 0.326754987
0.169259787 0.392915726 0.317646980
0.161416963 0.395698547 0.314737171
0.154585868 0.394433707 0.312207162
0.154332802 0.402150571 0.321694732
0.152814314 0.410120279 0.317141116
0.162428632 0.416698217 0.316128850
0.180012867 0.422137946 0.314863682
0.189879566 0.438077450 0.315622985
0.222517475 0.442631066 0.314104974
0.266160935 0.444275737 0.312713325
0.305123359 0.442757547 0.313725442
0.335483640 0.445034564 0.314484537
0.371916413 0.445540577 0.315749198
0.420999199 0.456672937 0.311954379
0.491208166 0.475142151 0.318026394
0.567109764 0.502466559 0.325616568
0.632637441 0.523718953 0.329790980
0.693358898 0.542821109 0.339658171
0.752561927 0.554712415 0.349019527
0.805692434 0.562302113 0.361543417
0.858317256 0.575458527 0.371663421
0.889563501 0.584440410 0.381404042
0.926754892 0.588867664 0.405945480
0.957115233 0.596457660 0.429474741
0.974193335 0.611638010 0.451865822
0.993548214 0.624414563 0.475395352
0.999620438 0.641619205 0.510816216
0.995825350 0.665528178 0.536243141
0.996331036 0.686021328 0.565844297
0.998481810 0.712840199 0.596964180
0.998481810 0.738267183 0.622391224
0.185958505 0.467425227 0.348133683
0.193168730 0.457685024 0.343832940
0.190638870 0.458317459 0.345097929
0.180898353 0.463630229 0.346236110
0.169892132 0.462871611 0.340543658
0.175205112 0.469702631 0.343074054
0.185072422 0.480202228 0.344844818
0.198481947 0.492346466 0.346868694
0.220367104 0.504997075 0.347248107
0.250727117 0.514104724 0.341176093
0.293738127 0.515496492 0.340290695
0.335863352 0.516381979 0.341682374
0.375078946 0.514863670 0.341808885
0.406198710 0.520935714 0.339531600
0.450980067 0.519038618 0.332321525
0.513725340 0.524857640 0.334345549
0.585958302 0.543959439 0.348007739
0.655661047 0.568753660 0.361290544
0.716381967 0.590006053 0.358254164
0.773055077 0.607843220 0.366729707
0.821884871 0.619734347 0.379126817
0.863124251 0.628209829 0.394813180
0.899177492 0.637191713 0.419101954
0.926501870 0.643263698 0.440860420
0.952561259 0.648703098 0.465654671
0.971663177 0.658317149 0.490069330
0.984820008 0.672485590 0.515875757
0.997217000 0.687412977 0.548640311
0.994687021 0.711321950 0.572043300
0.994560361 0.732700527 0.597343445
0.996710598 0.751549184 0.626059175
0.996710598 0.769765973 0.644275963
0.231498957 0.546362877 0.381530911
0.231498972 0.534218848 0.372422546
0.230107710 0.526628911 0.372422755
0.224035785 0.525616705 0.375458747
0.215433359 0.529664516 0.376976490
0.212396979 0.544844866 0.373940885
0.225300267 0.554206252 0.371410608
0.239974663 0.565211892 0.372169644
0.259962082 0.578115046 0.374952823
0.293231964 0.593042433 0.377608955
0.329411685 0.587602913 0.374446869
0.370651484 0.590385973 0.373687953
0.414041877 0.592283309 0.371663690
0.457811952 0.590764999 0.366856068
0.497280300 0.596837819 0.372928828
0.546869278 0.594940126 0.360911161
0.609361470 0.606831312 0.363188207
0.676913440 0.629475236 0.376470983
0.734597981 0.644654989 0.382543027
0.786970139 0.660341382 0.401771367
0.831499219 0.670082033 0.419860899
0.868437946 0.676407218 0.435799956
0.899177492 0.682732940 0.449462026
0.926501870 0.688804924 0.473750830
0.949272275 0.692599654 0.502340555
0.964073002 0.700062931 0.528020561
0.972675204 0.711953998 0.549272895
0.990891993 0.721062422 0.567488849
0.992662966 0.738646626 0.592283607
0.995698988 0.755850673 0.616318882
0.999746978 0.773054540 0.641998529
0.999746978 0.794054031 0.668564022
0.229727983 0.539025664 0.378748000
0.238077357 0.546362996 0.386337638
0.240227580 0.544971764 0.381530762
0.238456815 0.547122180 0.380771846
0.234282374 0.553573370 0.380391985
0.238456786 0.561542928 0.379759550
0.240480393 0.571663320 0.376723975
0.256293416 0.584060729 0.376976639
0.275648475 0.598102450 0.382289618
0.304996848 0.613282859 0.391397536
0.344085753 0.624794424 0.394180894
0.378494740 0.620746672 0.393169016
0.419860989 0.623403132 0.394307643
0.464895666 0.623908758 0.393422067
0.504364014 0.624920845 0.391903847
0.546236217 0.628589869 0.390765190
0.598228991 0.630866766 0.383175194
0.661100686 0.646932542 0.390132993
0.725237012 0.666413724 0.400506020
0.780138791 0.687160075 0.414927423
0.826059103 0.692852736 0.432384729
0.862365663 0.698165536 0.448703498
0.891081810 0.706008673 0.463757187
0.923719227 0.712081373 0.501328230
0.939658344 0.722707331 0.521062374
0.955218017 0.725869715 0.542441308
0.966097116 0.732953727 0.562428772
0.984313846 0.746616185 0.589753330
0.981278002 0.758380711 0.602656305
0.988108933 0.771031201 0.628209770
0.994433999 0.786843657 0.656166792
0.994433999 0.809993386 0.687286735
0.309044629 0.605439425 0.418216467
0.308665276 0.608855009 0.419734567
0.307779849 0.613662422 0.422137976
0.312080652 0.611638486 0.419102013
0.311321914 0.616192102 0.415686190
0.314357907 0.620745897 0.412650198
0.317900062 0.627450943 0.419607788
0.327514082 0.641492665 0.416572183
0.346995652 0.655408025 0.419101834
0.373181403 0.668311417 0.427830189
0.404553771 0.678684175 0.435041070
0.432384193 0.684503436 0.434155464
0.464642704 0.683744550 0.434155464
0.505629241 0.686274230 0.435926735
0.543453276 0.684629917 0.432890773
0.579632759 0.685135961 0.427957118
0.622137547 0.685135961 0.427956730
0.670841217 0.688804448 0.425680041
0.723719001 0.701201677 0.431499243
0.783175230 0.722454071 0.450221568
0.826438963 0.732321441 0.469196439
0.860847473 0.731309295 0.485388964
0.885262728 0.736621976 0.501454949
0.911575198 0.740923524 0.526755393
0.934724987 0.751549721 0.550284445
