Assets/EldamarStudio/100 Retro LUTs Pack/LUTs/cube/Laura LUT.cube
LUT_3D_SIZE 5
DOMAIN_MIN 0.000000 0.000000 0.000000
DOMAIN_MAX 0.903226 0.903226 0.903226
0.082353003 0.105881996 0.066666998
0.305376410 0.127767280 0.113092996
0.609487772 0.114357583 0.181151405
0.901328146 0.158001125 0.289437145
0.998734832 0.376976579 0.463124782
0.152941003 0.220999405 0.144465417
0.281467706 0.240607411 0.134345278
0.621252596 0.270714819 0.194560274
0.897659838 0.302466691 0.310056835
0.998987913 0.451486468 0.485009670
0.261606812 0.495129377 0.332320958
0.371790111 0.502339780 0.317267388
0.653257370 0.534977794 0.303478807
0.884250522 0.520177066 0.373434246
1.000000000 0.595825195 0.538899660
0.559392512 0.797343135 0.592536271
0.593927801 0.810373485 0.596078575
0.707273543 0.793421686 0.577229321
0.874636292 0.772801995 0.567995131
0.968374312 0.761417091 0.613155901
0.835420787 0.896774173 0.773940682
0.843010724 0.904743969 0.770524919
0.853763700 0.901960850 0.772043228
0.885642171 0.903731823 0.765591502
0.933332980 0.887665987 0.758380771
0.127134711 0.171916410 0.162808403
0.224288419 0.154585719 0.164452687
0.549019516 0.165717706 0.187349692
0.870588124 0.212903127 0.282226145
1.000000000 0.383554757 0.456672788
0.156230003 0.190259412 0.149020001
0.220999405 0.214420989 0.172295704
0.547374845 0.270714819 0.205312982
0.871600270 0.317520529 0.300569534
1.000000000 0.451106489 0.479064077
0.318153083 0.413662076 0.340797216
0.355091810 0.447058499 0.344718397
0.614421129 0.505502760 0.313598692
0.867931724 0.518279552 0.361290127
0.996457875 0.600506008 0.527766824
0.580012381 0.775458276 0.607589841
0.611638069 0.790132701 0.614421010
0.690955520 0.788488448 0.574826300
0.864516258 0.776090860 0.567362547
0.965970755 0.758507192 0.618722260
0.833649635 0.902719796 0.757747948
0.840354264 0.902340114 0.764706016
0.854775488 0.904617012 0.772802234
0.887160003 0.902340114 0.762302101
0.935610116 0.890955150 0.753826797
0.129411995 0.251739413 0.345983386
0.171663284 0.230107412 0.327007949
0.476787239 0.224920988 0.361669391
0.806578517 0.272106409 0.423149794
1.000000000 0.377609164 0.453257233
0.167995006 0.297533393 0.320809662
0.240354523 0.272359103 0.283238381
0.453257412 0.307653695 0.358760089
0.752561808 0.321188956 0.399241090
0.994054437 0.442884207 0.469829112
0.274003386 0.331562400 0.302846402
0.331561983 0.351169944 0.330929786
0.463630378 0.411385238 0.387222767
0.769386530 0.500948846 0.443769515
0.998735011 0.582669437 0.529790759
0.562808394 0.694496810 0.589120865
0.611258745 0.716002882 0.607843101
0.671979487 0.753953218 0.621252418
0.825806737 0.763693869 0.593422115
0.965464532 0.755850792 0.607843101
0.841619194 0.887033403 0.771410823
0.843643129 0.896267951 0.770018816
0.859709203 0.905376375 0.784566641
0.882859111 0.903099239 0.765591383
0.933332980 0.892978966 0.761036932
0.172928259 0.410120249 0.582669258
0.175079137 0.400000125 0.580392122
0.425553471 0.330044150 0.589247286
0.805186391 0.398482233 0.618975103
0.975964844 0.576091051 0.638077319
0.218216538 0.450980365 0.566097081
0.228209972 0.448070824 0.550284564
0.434282213 0.396710962 0.546868742
0.775838137 0.488298684 0.616951108
0.959013164 0.611005783 0.641872108
0.270208657 0.533712685 0.557874799
0.362428814 0.514105082 0.539025664
0.479063511 0.506008565 0.521948278
0.734724998 0.608349264 0.615686536
0.922580779 0.652751386 0.625173867
0.441366255 0.625047386 0.560152113
0.483617693 0.618090272 0.557874799
0.593042254 0.650347650 0.589120626
0.724857390 0.698418975 0.618849158
0.930550098 0.773181081 0.675142109
0.777482629 0.876407623 0.749652088
0.797090590 0.876913667 0.757748127
0.843137085 0.882858872 0.774446428
0.880581796 0.896268129 0.793674827
0.921568990 0.893232286 0.766224027
0.519670725 0.664642572 0.762302101
0.515496433 0.662997842 0.764705896
0.505249560 0.635294199 0.768880844
0.720556438 0.566223860 0.775331974
0.959645987 0.680202484 0.766096950
0.522327542 0.680834591 0.753826678
0.520050287 0.675015569 0.755470932
0.558127582 0.673371077 0.751928747
0.727767467 0.628715873 0.768627644
0.937507808 0.723212779 0.765338480
0.568121433 0.735104620 0.746742606
0.564199567 0.732447803 0.744718373
0.597722828 0.729158401 0.736242771
0.738899350 0.723971963 0.749019623
0.919165015 0.797596693 0.776091158
0.641492784 0.807842910 0.745224774
0.638836265 0.806831002 0.750664055
0.636812210 0.799747169 0.745983839
0.759012878 0.799367547 0.739152133
0.899810135 0.856167078 0.784566760
0.753700256 0.870840967 0.767488956
0.756230235 0.869575799 0.769512951
0.752055705 0.869575858 0.756356537
0.832637668 0.866793156 0.769892514
0.889057696 0.887792766 0.788614810
