Assets/EldamarStudio/100 Retro LUTs Pack/LUTs/cube/Laura LUT.cube
DOMAIN_MIN 0 0 0
DOMAIN_MAX 1 1 1
LUT_3D_SIZE 32
0.082353003 0.105881996 0.066666998
0.097533390 0.111953996 0.075774617
0.121315770 0.120176770 0.084882773
0.152435318 0.125489995 0.092726000
0.189627096 0.125869542 0.099556997
0.232131869 0.128905937 0.111700997
0.267046332 0.129411995 0.111195318
0.305376410 0.127767280 0.113092996
0.344845206 0.123971999 0.118406095
0.375205994 0.117899999 0.121442489
0.423023731 0.117647000 0.136116132
0.467552483 0.119671255 0.147248253
0.512334287 0.120430358 0.156356648
0.560911059 0.117393970 0.165971041
0.609487772 0.114357583 0.181151405
0.660468400 0.108918004 0.189120993
0.709045172 0.105881996 0.199747190
0.753953099 0.108412139 0.214927569
0.796458006 0.120556943 0.230107993
0.836179376 0.127135009 0.253637016
0.869955480 0.140796989 0.272232741
0.901328146 0.158001125 0.289437145
0.934471488 0.173434481 0.310815960
0.961795866 0.194686905 0.335104018
0.982289553 0.225047261 0.361669868
0.993548334 0.259835303 0.386211634
0.996078014 0.297280133 0.408476055
0.996078014 0.339784861 0.435800403
0.998734832 0.376976579 0.463124782
1.000000000 0.418722093 0.492219895
1.000000000 0.463377178 0.521694779
1.000000000 0.505882025 0.549019992
0.094497003 0.108918384 0.072738998
0.094497003 0.124098770 0.081847385
0.118279383 0.128020003 0.084503770
0.150664076 0.135357156 0.093485221
0.190006539 0.139911383 0.104490548
0.235167488 0.134977937 0.108665384
0.262492239 0.140543997 0.115749389
0.300948679 0.138266996 0.112586997
0.341808796 0.133839294 0.113852099
0.372169584 0.130043998 0.121442489
0.419987351 0.132700861 0.133206993
0.466540366 0.130803123 0.146236375
0.511195660 0.130676612 0.156356648
0.558633745 0.129790992 0.166224003
0.615559757 0.129537970 0.184187025
0.661733329 0.128905386 0.194560423
0.707526982 0.125616580 0.204300985
0.750916719 0.125363767 0.217963174
0.793421626 0.132700950 0.233143613
0.835926354 0.142062351 0.253889978
0.868058205 0.150284648 0.272232741
0.898292482 0.166097119 0.290448993
0.931435883 0.185831472 0.313978106
0.958760262 0.212902904 0.341176808
0.981530607 0.238709852 0.360910773
0.994939983 0.269196719 0.384566903
0.999114394 0.303352118 0.408476055
0.999114394 0.345856875 0.435800403
0.999114394 0.383048594 0.465780914
0.996457994 0.424794555 0.489942789
0.995698988 0.467678756 0.518279195
1.000000000 0.505882025 0.552055657
0.108791776 0.120556772 0.080961771
0.106641002 0.129285380 0.085768618
0.121694773 0.140164763 0.092726223
0.152814314 0.141935542 0.093991384
0.189879760 0.148387223 0.104490772
0.224794149 0.151170000 0.109297931
0.267678648 0.148766771 0.112713225
0.296900690 0.149905056 0.117140934
0.338899285 0.145857006 0.115623005
0.373434782 0.144212291 0.123339720
0.419101745 0.146995649 0.135357216
0.469702750 0.148007780 0.145477474
0.516635299 0.145097911 0.157494992
0.563187838 0.144085780 0.168121263
0.613282442 0.144085780 0.184439987
0.661353588 0.144085780 0.199746802
0.703858376 0.145603970 0.208855182
0.746995091 0.145730764 0.220366761
0.792536020 0.151802793 0.234028995
0.832890511 0.158507347 0.256926149
0.869702458 0.167615727 0.276280761
0.897533357 0.178747669 0.292725980
0.928526223 0.197723031 0.314736992
0.957874894 0.220999449 0.340037942
0.978494465 0.248323858 0.364832759
0.994180858 0.277039945 0.388614714
1.000000000 0.308918178 0.414927304
1.000000000 0.349778622 0.442251652
1.000000000 0.389120579 0.463630706
0.998228788 0.429095328 0.492219925
0.993421853 0.473371416 0.516002357
0.995698988 0.512333810 0.548640013
0.117647000 0.139532000 0.090069838
0.120935768 0.141809151 0.095635772
0.130043939 0.146236762 0.099556997
0.155091479 0.156609997 0.103098996
0.191903710 0.156609997 0.105376385
0.222770095 0.163061231 0.108792000
0.260214806 0.164579481 0.111068837
0.300442696 0.165338606 0.116634868
0.333839089 0.162302226 0.119671062
0.372296154 0.161796167 0.125237003
0.417583853 0.164706036 0.137127995
0.467172742 0.165718168 0.148513421
0.518785655 0.166856527 0.161037162
0.567741930 0.164073199 0.173181191
0.615306556 0.163061321 0.186337575
0.658317208 0.164326161 0.201517969
0.702087164 0.164579183 0.211132020
0.742188096 0.168880567 0.222770378
0.789500058 0.175585181 0.236812025
0.829728127 0.180392325 0.256293565
0.866666853 0.188361719 0.278052002
0.899051130 0.197470114 0.296267986
0.926755011 0.212270975 0.314863503
0.957115829 0.232384741 0.340290964
0.978367984 0.256926268 0.364579409
0.992409647 0.284377098 0.387855947
0.998987973 0.316255212 0.417204142
0.997470021 0.355724156 0.443769574
1.000000000 0.393927753 0.469449669
0.999493957 0.433902502 0.489183992
0.996457577 0.476407349 0.516508400
0.993421853 0.518912196 0.543832839
0.119164996 0.163061097 0.098797999
0.129790992 0.161163926 0.107906379
0.140543774 0.159140006 0.111574776
0.156989306 0.163061559 0.115243092
0.187729552 0.174825996 0.113345549
0.227197930 0.174825996 0.110309936
0.262365311 0.177735865 0.111321993
0.297026873 0.181657538 0.114737704
0.333839089 0.185452446 0.123086900
0.367235541 0.182416052 0.126122534
0.413029611 0.185958415 0.137507543
0.461859763 0.186970547 0.149272516
0.512713611 0.187729448 0.162934989
0.564073026 0.191018090 0.180644989
0.615559638 0.188361958 0.189879864
0.659455895 0.190132737 0.203795254
0.700062931 0.192030087 0.214421362
0.742567658 0.193168670 0.220493093
0.785072565 0.202277064 0.241745532
0.824415088 0.205819353 0.258190900
0.861227393 0.212270796 0.276407272
0.896394968 0.221378669 0.296647549
0.926502049 0.230993032 0.314990044
0.956356823 0.249462098 0.341809154
0.977229536 0.272612125 0.367615551
0.991650641 0.297533184 0.390512198
0.999367416 0.325743169 0.411891133
0.993295431 0.365211517 0.436179876
0.997090399 0.401264608 0.467678756
1.000000000 0.439468563 0.494117498
0.999493957 0.478684634 0.514610648
0.996457577 0.521189451 0.541935086
0.131309003 0.181277871 0.104869999
0.131309003 0.187349871 0.113978386
0.144085780 0.181151167 0.112333998
0.159519330 0.178621158 0.116635099
0.181657538 0.183934376 0.125490323
0.215053916 0.193041995 0.110309936
0.254522324 0.198102638 0.119923994
0.289689690 0.200379938 0.121821709
0.325869262 0.200632840 0.123845898
0.367235541 0.197596446 0.132194519
0.418089598 0.206198812 0.141049877
0.464642763 0.208222941 0.150664195
0.511195660 0.208222941 0.161416993
0.558001041 0.209234878 0.174572989
0.606577754 0.215306863 0.186716989
0.660468280 0.217457131 0.200758860
0.704997003 0.220493123 0.215939254
0.745604038 0.223023430 0.229095489
0.788108945 0.226565838 0.244781926
0.825047672 0.230107516 0.266034305
0.858191013 0.235040992 0.282479644
0.891587436 0.242631063 0.299683928
0.926502049 0.252245426 0.318026423
0.950790823 0.273497850 0.339278817
0.969260275 0.298798144 0.368374616
0.983554959 0.322833568 0.393548578
0.993674934 0.346616060 0.414801002
0.996331096 0.377356291 0.436179876
0.995572090 0.408854783 0.463124782
0.998355269 0.445540577 0.495003164
1.000000000 0.483238578 0.523213148
0.999493957 0.518153071 0.548007846
0.145983323 0.199494004 0.128652319
0.140923321 0.203036323 0.127640694
0.149525329 0.204807326 0.128146544
0.165591329 0.201897487 0.124983996
0.184946537 0.204553992 0.131941676
0.214041919 0.207210377 0.127514064
0.249968648 0.216318637 0.122454315
0.292726010 0.220746711 0.131309316
0.330423504 0.223150313 0.132447898
0.369386315 0.225427151 0.138013512
0.423149586 0.226439193 0.147121876
0.470714748 0.233523324 0.158253983
0.518532634 0.235673666 0.166729957
0.567109108 0.237318024 0.176597312
0.615686417 0.241113320 0.193295315
0.664263248 0.244782120 0.205439314
0.712587357 0.249335960 0.220493183
0.751802802 0.253384054 0.235040978
0.788614988 0.256419957 0.248323664
0.828083396 0.256925970 0.264010072
0.864516139 0.263757050 0.285262406
0.896141589 0.272485644 0.304743916
0.929032326 0.283364803 0.326249301
0.953320503 0.299810231 0.349904895
0.975331903 0.321062595 0.371157259
0.988235354 0.346489638 0.399367303
0.997217000 0.370398641 0.423908859
0.998228908 0.400758862 0.449209750
0.996078014 0.433649898 0.473244756
0.996078014 0.467551857 0.502340376
0.996584296 0.504490793 0.531435907
0.994939983 0.537887633 0.554080009
0.152941003 0.220999405 0.144465417
0.153447002 0.220746383 0.143074080
0.158633709 0.228209987 0.143326923
0.170777708 0.225679994 0.139025703
0.188235372 0.227197692 0.138646245
0.211764932 0.227197692 0.139911413
0.251612931 0.231499016 0.137381315
0.281467706 0.240607411 0.134345278
0.330803186 0.243643597 0.141176373
0.374319971 0.248829976 0.145983219
0.419987470 0.252371997 0.153193876
0.473497748 0.256419986 0.159392715
0.520177245 0.262492269 0.170398355
0.571283817 0.266287118 0.177735955
0.621252596 0.270714819 0.194560274
0.666540623 0.273750782 0.209613994
0.713599205 0.276787162 0.224794373
0.756230354 0.282100111 0.240101278
0.792662978 0.285135746 0.253257453
0.825047433 0.287033409 0.266540080
0.864263177 0.294370443 0.288804442
0.897659838 0.302466691 0.310056835
0.927261531 0.313345701 0.333586484
0.953067720 0.327008337 0.356356710
0.973434269 0.345097989 0.380012274
0.989120662 0.366350353 0.405439287
0.997722983 0.390892059 0.433016777
1.000000000 0.420113683 0.460341603
0.998987913 0.451486468 0.485009670
0.997722745 0.481720597 0.506261587
0.996837139 0.519923925 0.535736799
0.993801296 0.555598021 0.558507264
0.155218095 0.246805996 0.152814895
0.161290094 0.243769795 0.152814895
0.170271784 0.249209091 0.154206216
0.181404084 0.256040186 0.155724108
0.194686636 0.249968186 0.150031552
0.213282883 0.249209195 0.152308851
0.246679336 0.250980407 0.148766771
0.286021322 0.258064687 0.146489486
0.317900270 0.267931998 0.148007289
0.378621072 0.270967603 0.157115683
0.420493513 0.276154190 0.161037102
0.467805475 0.282985300 0.167362258
0.518659234 0.287539393 0.170398548
0.567489028 0.294118106 0.180012926
0.619102001 0.301202089 0.195192650
0.664263487 0.302593380 0.209613785
0.707527161 0.306388289 0.224794373
0.751170099 0.310689688 0.244275972
0.793421984 0.313978344 0.259835899
0.824288487 0.316255569 0.272233099
0.859203160 0.323466182 0.292346627
0.896142006 0.333586186 0.317647040
0.923466384 0.339911163 0.339025915
0.950790763 0.352055788 0.360910892
0.969766080 0.368754178 0.384440184
0.985325515 0.387602746 0.410752386
0.993421912 0.409867167 0.440607160
0.999240994 0.437191516 0.467931509
1.000000000 0.466413617 0.494876623
0.999240935 0.496521145 0.516382039
0.999114394 0.525996268 0.534977555
0.996078014 0.568501115 0.562301993
0.164326504 0.277166039 0.167994529
0.170398489 0.274130404 0.167994529
0.180771485 0.275395215 0.167994529
0.194054171 0.278810680 0.169386178
0.209867045 0.280328989 0.171283945
0.231119439 0.274257004 0.168247551
0.247185335 0.273497999 0.160404861
0.280075729 0.280202508 0.156483501
0.327007890 0.292219996 0.160152078
0.381657481 0.304364026 0.175332457
0.427830338 0.307400405 0.172802106
0.473118275 0.314611256 0.180265471
0.517900288 0.320177466 0.187475994
0.561417043 0.321442515 0.189120546
0.613029420 0.333586484 0.204300925
0.659835398 0.331056535 0.217077479
0.703731894 0.331436008 0.229348376
0.745098114 0.338014096 0.244275987
0.781530976 0.347122490 0.268564016
0.818216681 0.347628474 0.281341255
0.856167197 0.351549983 0.299177736
0.893611670 0.357874990 0.320682645
0.926502049 0.364199996 0.342061520
0.953826427 0.376343995 0.366350323
0.969766080 0.393042594 0.390512556
0.983554780 0.411258966 0.416192591
0.996457577 0.431119591 0.443643540
0.999493957 0.458443910 0.470967919
1.000000000 0.485768259 0.503605247
0.998228788 0.516761124 0.529538214
0.996204555 0.549904764 0.549778461
0.996078014 0.583681464 0.568373978
0.182163000 0.310436606 0.186084747
0.179506883 0.310310125 0.186084747
0.192030653 0.311574966 0.186084747
0.204933748 0.313345730 0.184819579
0.219607860 0.314737439 0.184566543
0.243389934 0.316255748 0.186590791
0.269702971 0.305123091 0.186084747
0.296268463 0.305249691 0.181404158
0.338266850 0.315116882 0.181656986
0.390765101 0.331561863 0.190385625
0.436685711 0.343706608 0.191018134
0.478178114 0.346742451 0.185958013
0.519671023 0.351802647 0.190512002
0.560911059 0.353573859 0.194307029
0.609867275 0.355091870 0.198861420
0.659076512 0.364832669 0.216444999
0.703605354 0.365844548 0.237191558
0.744845092 0.370524853 0.256926268
0.781277955 0.377355963 0.274383038
0.826059401 0.380898356 0.298671722
0.857178867 0.382922113 0.311321974
0.889563441 0.388994128 0.329537988
0.920556486 0.397090375 0.350916862
0.942314863 0.406451732 0.375205666
0.967362523 0.420872986 0.399493843
0.982036948 0.438456833 0.420999467
0.993168890 0.457178950 0.445288122
0.993801415 0.479696274 0.479823291
0.999494016 0.501707673 0.499177843
1.000000000 0.532068014 0.524225175
0.998987854 0.563693404 0.548134148
0.998987854 0.593042135 0.574446738
0.200379506 0.345856994 0.214421242
0.199367628 0.347881228 0.216445491
0.205186516 0.352055728 0.214421242
0.222896904 0.352561653 0.213156402
0.238077074 0.351802766 0.210499749
0.259076506 0.353194445 0.211891443
0.285894930 0.349652112 0.210373238
0.313219666 0.342441052 0.207084239
0.347375095 0.345477432 0.204427496
0.393927515 0.358633757 0.207969502
0.443769604 0.373054713 0.212270498
0.491334498 0.387223214 0.214294761
0.531941533 0.389120489 0.209361106
0.572549045 0.391018242 0.212523535
0.617583811 0.391018242 0.215559915
0.660088837 0.396204770 0.226565495
0.702593207 0.400758982 0.241745487
0.744085848 0.403288811 0.264010280
0.783301711 0.407969505 0.279190332
0.819987655 0.409234613 0.298671454
0.857937992 0.416065961 0.321062446
0.886527240 0.418342739 0.335610241
0.916887760 0.424541473 0.356230229
0.943832874 0.435547143 0.384313524
0.965338230 0.447185248 0.404554248
0.984060705 0.463757306 0.428842247
0.994686782 0.481973499 0.449841917
0.996204972 0.501707673 0.481720865
0.997469962 0.522960067 0.506261945
1.000000000 0.545983672 0.528020382
1.000000000 0.577735484 0.550411224
1.000000000 0.606198251 0.578494728
0.218595996 0.389120579 0.250094920
0.219734639 0.392156661 0.253131032
0.226185858 0.397343248 0.253004491
0.238076806 0.399620414 0.249968439
0.259708703 0.396964282 0.246553183
0.279443502 0.396964282 0.245034978
0.305249959 0.394433945 0.242504954
0.333712965 0.391397864 0.236685634
0.363314271 0.388361484 0.232890725
0.402403146 0.393295616 0.233270273
0.446679235 0.408096045 0.233396649
0.498545140 0.422137529 0.239721894
0.548260570 0.435040921 0.242757991
0.590512335 0.434534937 0.239974633
0.632131398 0.432763934 0.242125407
0.672232747 0.434155285 0.246679634
0.706767976 0.438329935 0.258823633
0.742567718 0.438329935 0.272232592
0.783554614 0.440860271 0.287918985
0.819987476 0.443390280 0.308159292
0.853384078 0.446806014 0.327134371
0.884756505 0.453890145 0.346362770
0.914484024 0.454269618 0.364452988
0.940796852 0.464389652 0.390765280
0.966603279 0.476533622 0.416571558
0.984819591 0.489183962 0.437571257
0.995951653 0.507400632 0.462365359
0.999620438 0.525616646 0.489690304
1.000000000 0.546489418 0.514357984
1.000000000 0.570651412 0.538646400
0.999114394 0.594940186 0.558507562
0.998861372 0.624794304 0.581530631
0.237318069 0.443517029 0.289817005
0.240101427 0.446805656 0.292346656
0.247691289 0.451486051 0.292979032
0.258823216 0.454522252 0.291967154
0.275142103 0.451866090 0.288805008
0.299430877 0.451866090 0.282732219
0.325996339 0.449082732 0.278684348
0.355218410 0.446299732 0.274130344
0.386338055 0.442757994 0.265528083
0.422770053 0.439721614 0.268564492
0.456293583 0.453130901 0.260974199
0.503858507 0.466287076 0.263504267
0.557115912 0.477545708 0.270335436
0.607717037 0.486401051 0.273118079
0.647185326 0.480329067 0.273118079
0.686147749 0.475901276 0.270714819
0.720809221 0.475395203 0.274762988
0.748892665 0.477293044 0.286653996
0.782289863 0.477293044 0.304870009
0.820746422 0.482606083 0.329158723
0.855913758 0.486780733 0.349146008
0.887286186 0.489816934 0.366603166
0.914484024 0.492852539 0.382036507
0.932953775 0.498798013 0.400379807
0.957242310 0.509424031 0.427451015
0.979759634 0.521821320 0.455281317
0.993169010 0.534725010 0.480076075
0.999240994 0.552941024 0.507400393
1.000000000 0.573307812 0.531562030
1.000000000 0.597596169 0.554838419
0.999114394 0.624794185 0.576470613
0.996078014 0.649083018 0.585579038
0.261606812 0.495129377 0.332320958
0.261606812 0.501201332 0.329285353
0.270841420 0.502339780 0.327514023
0.281087965 0.506135106 0.326375365
0.293358803 0.509551227 0.325363517
0.317646831 0.509551227 0.322201341
0.341935605 0.504490554 0.313598901
0.371790111 0.502339780 0.317267388
0.403036088 0.499430448 0.315116704
0.431878418 0.491334707 0.292852461
0.465401262 0.494117349 0.295888841
0.512966514 0.505755901 0.296394527
0.565338731 0.517900229 0.300695598
0.613789082 0.528905809 0.303478807
0.653257370 0.534977794 0.303478807
0.687918782 0.524098754 0.301075011
0.727134347 0.518405974 0.302592963
0.763313949 0.516002357 0.308664978
0.791397512 0.510689437 0.310941994
0.824794650 0.513472795 0.340290725
0.855661154 0.517141044 0.358000994
0.884250522 0.520177066 0.373434246
0.911448359 0.523213267 0.391144872
0.935736418 0.526248872 0.412397295
0.954206169 0.536748946 0.437571257
0.977102935 0.550284505 0.465528011
0.995951653 0.564831972 0.492220044
0.999240994 0.580265403 0.519544363
1.000000000 0.595825195 0.538899660
1.000000000 0.615812540 0.554838777
0.999114394 0.641871929 0.574826181
0.996078014 0.673370957 0.600759387
0.288298786 0.549146175 0.365211576
0.290701985 0.552814424 0.366982996
0.290701985 0.558886409 0.370398581
0.303099155 0.561922371 0.366856366
0.315623075 0.566097319 0.364199817
0.335863620 0.560025573 0.361163706
0.357748449 0.564579546 0.357875079
0.388614774 0.556862473 0.352055699
0.421252280 0.553067386 0.355091482
0.448577136 0.545604050 0.337634087
0.486527473 0.548134267 0.337001622
0.513851583 0.541049659 0.323845506
0.568121314 0.553573668 0.329538077
0.621758342 0.568500757 0.338140577
0.656926155 0.570271790 0.333839595
0.701201558 0.573940635 0.336242795
0.730044186 0.563314378 0.333206803
0.764705718 0.558507144 0.335989803
0.793801069 0.554206371 0.337760597
0.819481313 0.546869159 0.346362740
0.850980639 0.548007786 0.369133472
0.878811121 0.550537467 0.386337578
0.905882478 0.553699970 0.407463461
0.927893817 0.559013486 0.428715885
0.949905038 0.568880379 0.449968278
0.968247950 0.579633415 0.477039635
0.987476051 0.592283428 0.501834095
0.992409647 0.605566025 0.519671202
1.000000000 0.620746434 0.536622047
1.000000000 0.639468789 0.565464735
0.999114394 0.660721183 0.585325599
0.996078014 0.688045621 0.611132205
0.317140996 0.597723365 0.400126547
0.321695179 0.606831014 0.407716751
0.330170363 0.605945349 0.406831354
0.331435531 0.614547670 0.414168209
0.345224380 0.619607627 0.409361154
0.361163855 0.611638129 0.405186415
0.377356499 0.612144172 0.397596508
0.402277350 0.613029838 0.396078676
0.437950462 0.605439425 0.393042266
0.466793478 0.600126386 0.385451853
0.498165667 0.598228991 0.380518556
0.535104334 0.597217023 0.375458300
0.561669648 0.587349534 0.357621551
0.620999277 0.604933381 0.371537179
0.665781200 0.612523377 0.373055160
0.699683785 0.608855188 0.372675568
0.742188156 0.608855188 0.366603196
0.766476929 0.599746823 0.364832580
0.795066297 0.594939947 0.367868423
0.821378767 0.586338043 0.375205576
0.847944260 0.582922399 0.384313464
0.872233033 0.581910253 0.399494141
0.897280514 0.584186852 0.421505183
0.924098909 0.591650963 0.446932286
0.945351243 0.596205175 0.466666460
0.965211928 0.606957853 0.486527145
0.981404006 0.616572201 0.512460053
0.987475991 0.628716171 0.527640700
0.991650581 0.645034790 0.543959498
0.996963978 0.662239373 0.566982567
0.997849345 0.682606161 0.599873424
0.996078014 0.703226030 0.621758401
0.352561265 0.641493082 0.442125499
0.357368886 0.653510332 0.451739520
0.367994934 0.656799078 0.450980514
0.378114700 0.656419814 0.449335963
0.382289618 0.667805552 0.458064139
0.394433707 0.662744820 0.453004092
0.406578153 0.660467684 0.443137109
0.425047666 0.658823252 0.435673535
0.451360047 0.655155003 0.435547024
0.484756470 0.652118623 0.432510614
0.509424150 0.646173120 0.423655987
0.541302741 0.644149125 0.417330861
0.578621268 0.643137097 0.412144095
0.609488070 0.637571096 0.401012093
0.667172790 0.653510094 0.411638111
0.705882370 0.653257310 0.414800525
0.737381160 0.647817910 0.411005497
0.774319708 0.643516719 0.398355126
0.798608601 0.634408295 0.401391506
0.825679958 0.624667883 0.408728868
0.850474358 0.619355142 0.415306807
0.875268638 0.618342996 0.423782289
0.887792885 0.615306556 0.433017135
0.919165373 0.622390866 0.460341811
0.943453670 0.625933111 0.481593966
0.962681949 0.629475176 0.501707494
0.979380071 0.639089525 0.519923687
0.985578597 0.651233554 0.541049600
0.988234997 0.667425513 0.560278237
0.990006208 0.685009360 0.583175123
0.993042350 0.703225970 0.607084215
0.996078014 0.721441984 0.631372988
0.407210946 0.690070033 0.493737996
0.407210946 0.690070033 0.493738025
0.412018001 0.697786212 0.490449011
0.417583793 0.703099191 0.486907005
0.421758115 0.707274020 0.488424987
0.433902889 0.713346004 0.494497001
0.446046948 0.708285987 0.489436984
0.461479992 0.704364240 0.481214285
0.481214136 0.700569034 0.475142002
0.502972543 0.694623530 0.475015491
0.527640760 0.688677967 0.466160864
0.553953230 0.686653972 0.457052737
0.585705340 0.686653972 0.449589014
0.621632099 0.686147988 0.443516999
0.658064842 0.686147988 0.443516999
0.706135631 0.692472994 0.446932197
0.743833005 0.694244027 0.449715227
0.774319708 0.692093611 0.449968368
0.801644981 0.682985961 0.446932018
0.828716338 0.671094239 0.449968398
0.848450720 0.661100805 0.449715286
0.867678940 0.654775858 0.450727284
0.890828550 0.651739419 0.457305998
0.912080944 0.648703039 0.469449997
0.934345245 0.653510630 0.487666011
0.952814639 0.659077048 0.510056615
0.967236042 0.666414022 0.535104096
0.976344466 0.678558052 0.553320825
0.985199094 0.690702021 0.574446678
0.990006208 0.705123186 0.597216845
0.993042350 0.721441984 0.618216157
0.996078014 0.739658058 0.631372988
0.464643091 0.738646746 0.528652370
0.464643091 0.744212747 0.531435728
0.468944103 0.744212747 0.533586502
0.473750949 0.746362925 0.531942070
0.477545649 0.746362925 0.532321513
0.487286597 0.750031710 0.535989761
0.494370759 0.751043737 0.534472048
0.507653475 0.747122049 0.530297399
0.524731100 0.744844735 0.524984002
0.543959200 0.742820740 0.522959769
0.568121493 0.733966053 0.522580266
0.588361740 0.729917824 0.513472617
0.611132026 0.728020132 0.503225803
0.638583004 0.726122439 0.493864387
0.667425454 0.723592699 0.488804400
0.713472247 0.728399694 0.491208196
0.754459202 0.734471738 0.492726117
0.784187257 0.734471798 0.493232161
0.807210982 0.723213315 0.490195781
0.831752002 0.716888368 0.492726117
0.853384078 0.708539069 0.495761991
0.872485995 0.700316608 0.496520877
0.896141529 0.693485260 0.500569403
0.906767905 0.685135782 0.502087414
0.930297017 0.684376717 0.516508639
0.947880983 0.689437032 0.532827377
0.961163998 0.696521163 0.553067744
0.972549081 0.708665729 0.571283877
0.981657445 0.715496719 0.589500666
0.985452354 0.727387726 0.607084095
0.987476349 0.743326962 0.627450585
0.990512013 0.763440728 0.645287633
0.512839973 0.772042990 0.560151458
0.516635418 0.781910419 0.563187838
0.522833705 0.779886007 0.564326525
0.530170858 0.782416344 0.568627715
0.534471750 0.782036662 0.569513142
0.540544093 0.785072684 0.569512844
0.541429460 0.783681452 0.567489088
0.552435160 0.782036722 0.567742050
0.566856444 0.779759467 0.565211833
0.582795441 0.779759467 0.562175751
0.599240720 0.772928536 0.560151458
0.617583692 0.771663487 0.555976987
0.636938393 0.768627346 0.549146056
0.658696771 0.765085220 0.539784491
0.686021149 0.758760095 0.533712447
0.716887593 0.757242441 0.529158533
0.759392381 0.763314426 0.535230935
0.791903794 0.768753886 0.537634492
0.815686285 0.762934744 0.538393199
0.834029078 0.754459441 0.531435847
0.856419742 0.746489704 0.532574415
0.874636531 0.739405572 0.534598231
0.896774232 0.730550230 0.536748946
0.909424186 0.724984288 0.538519740
0.918532729 0.717014432 0.538520038
