Assets/EldamarStudio/100 Retro LUTs Pack/LUTs/cube/Laura LUT.cube
LUT_3D_SIZE 8
DOMAIN_MIN 0.000000 0.000000 0.000000
DOMAIN_MAX 0.903226 0.903226 0.903226
0.082353003 0.105881996 0.066666998
0.189627096 0.125869542 0.099556997
0.344845206 0.123971999 0.118406095
0.512334287 0.120430358 0.156356648
0.709045172 0.105881996 0.199747190
0.869955480 0.140796989 0.272232741
0.982289553 0.225047261 0.361669868
0.998734832 0.376976579 0.463124782
0.119164996 0.163061097 0.098797999
0.187729552 0.174825996 0.113345549
0.333839089 0.185452446 0.123086900
0.512713611 0.187729448 0.162934989
0.700062931 0.192030087 0.214421362
0.861227393 0.212270796 0.276407272
0.977229536 0.272612125 0.367615551
0.997090399 0.401264608 0.467678756
0.155218095 0.246805996 0.152814895
0.194686636 0.249968186 0.150031552
0.317900270 0.267931998 0.148007289
0.518659234 0.287539393 0.170398548
0.707527161 0.306388289 0.224794373
0.859203160 0.323466182 0.292346627
0.969766080 0.368754178 0.384440184
1.000000000 0.466413617 0.494876623
0.218595996 0.389120579 0.250094920
0.259708703 0.396964282 0.246553183
0.363314271 0.388361484 0.232890725
0.548260570 0.435040921 0.242757991
0.706767976 0.438329935 0.258823633
0.853384078 0.446806014 0.327134371
0.966603279 0.476533622 0.416571558
1.000000000 0.546489418 0.514357984
0.317140996 0.597723365 0.400126547
0.345224380 0.619607627 0.409361154
0.437950462 0.605439425 0.393042266
0.561669648 0.587349534 0.357621551
0.742188156 0.608855188 0.366603196
0.847944260 0.582922399 0.384313464
0.945351243 0.596205175 0.466666460
0.991650581 0.645034790 0.543959498
0.512839973 0.772042990 0.560151458
0.534471750 0.782036662 0.569513142
0.566856444 0.779759467 0.565211833
0.636938393 0.768627346 0.549146056
0.759392381 0.763314426 0.535230935
0.856419742 0.746489704 0.532574415
0.918532729 0.717014432 0.538520038
0.972928345 0.740164697 0.598228872
0.712966561 0.864009976 0.688171983
0.718912065 0.862112701 0.692726016
0.735483646 0.867046177 0.686274409
0.761669576 0.862365246 0.685515285
0.793674827 0.852877975 0.668184638
0.865275443 0.854142785 0.672739029
0.910436034 0.833270013 0.664895833
0.948640168 0.819228113 0.662745118
0.835420787 0.896774173 0.773940682
0.830866516 0.905629218 0.770145833
0.848071039 0.903225958 0.770777881
0.853383780 0.904870152 0.774066806
0.863756955 0.904617190 0.770271957
0.879822969 0.907779753 0.770651519
0.912713289 0.903351963 0.762681663
0.933332980 0.887665987 0.758380771
0.118026547 0.146236554 0.119544543
0.155597538 0.133712545 0.118785545
0.311574757 0.135230646 0.123845994
0.481720269 0.151676461 0.150031641
0.677292705 0.158381000 0.199747190
0.852245688 0.177861989 0.271094203
0.971663713 0.246679097 0.356989264
1.000000000 0.381024420 0.463250905
0.127387553 0.150917441 0.110942543
0.161922559 0.163061097 0.116381541
0.283618093 0.186211452 0.131309539
0.480581820 0.204174638 0.144086093
0.680835187 0.216065556 0.206451535
0.846805871 0.233396471 0.270082474
0.963187516 0.280961245 0.355091542
1.000000000 0.394560128 0.454396069
0.186211452 0.221378639 0.170019001
0.190386012 0.232764095 0.166097105
0.304744095 0.254649103 0.164958656
0.489942819 0.287918836 0.160910636
0.687033474 0.311448544 0.220114082
0.842757881 0.330170751 0.287792534
0.966097534 0.366856456 0.376217782
0.997975826 0.464895397 0.483491778
0.244655535 0.349905372 0.258696824
0.260847181 0.369259804 0.265528291
0.341808736 0.371157259 0.237950370
0.530929565 0.421631932 0.237191275
0.689689994 0.432004839 0.254522175
0.843896270 0.447058737 0.319671094
0.952308416 0.471853018 0.409867197
0.998734832 0.543579876 0.504996419
0.343074083 0.569006920 0.410752803
0.364959180 0.583807826 0.414168268
0.430866480 0.590891838 0.395319343
0.557368934 0.581530809 0.355091721
0.727640808 0.609993815 0.369892836
0.839721680 0.577862084 0.380645186
0.946363211 0.593801379 0.465148658
0.997090399 0.639974594 0.546236753
0.528146744 0.755724013 0.569259942
0.534345627 0.766350269 0.568121016
0.570524991 0.774572968 0.560910463
0.629095495 0.766350269 0.542314947
0.745477796 0.760025263 0.531309009
0.850474477 0.750410736 0.531815469
0.926375568 0.715496302 0.535736740
0.974067032 0.738772511 0.598861694
0.708032846 0.860720992 0.684882998
0.717014730 0.860467970 0.687286258
0.725616813 0.863377690 0.688930809
0.750537276 0.861226916 0.684883296
0.792283475 0.855660915 0.676154375
0.861859500 0.852118969 0.669070482
0.907020569 0.835926712 0.660720825
0.950158477 0.819607615 0.662618339
0.832637548 0.899810433 0.777102947
0.833396554 0.903731525 0.758760273
0.839721739 0.904870212 0.773055255
0.850221336 0.904237747 0.767868340
0.865275204 0.902467012 0.771157622
0.886147797 0.900569379 0.765971065
0.911321819 0.903351963 0.762302101
0.939784765 0.890322804 0.761922657
0.130170897 0.177988991 0.184060991
0.135610089 0.166224003 0.177482545
0.253131002 0.161416993 0.184946179
0.425300360 0.175584987 0.212271005
0.642504513 0.167741999 0.209108189
0.831372559 0.201011837 0.260467738
0.959392548 0.264642566 0.347627997
0.998734832 0.386084765 0.457937926
0.140037552 0.187729552 0.157495201
0.171790004 0.180645540 0.149272636
0.230739743 0.192030191 0.168374196
0.386590838 0.199746996 0.198608547
0.634155810 0.222643897 0.221885011
0.826312721 0.247691289 0.261606276
0.955850780 0.296267927 0.346110284
0.998734832 0.403035939 0.454269320
0.163820192 0.207716897 0.154333100
0.201897562 0.216698557 0.180265993
0.246047094 0.230360270 0.192789197
0.403794825 0.268437743 0.212271005
0.638456345 0.306388289 0.240480989
0.829854369 0.341302752 0.279570013
0.954712093 0.375079155 0.371789992
0.999240935 0.468817085 0.482858807
0.260847181 0.311321735 0.264262825
0.279190540 0.323466182 0.271600276
0.314864099 0.341429263 0.282732278
0.459329695 0.378620833 0.275648296
0.654775381 0.417077810 0.258317471
0.829854369 0.446806014 0.311448485
0.947121918 0.477039993 0.404680550
0.998481810 0.540544033 0.501075447
0.379000574 0.509045124 0.416445345
0.392915845 0.523845673 0.422897160
0.423656166 0.552055657 0.427451253
0.519038737 0.542694509 0.391144693
0.702973008 0.589879572 0.375079155
0.832258165 0.572675467 0.369892538
0.939152360 0.591524243 0.456546545
0.996710896 0.641492724 0.544971585
0.543073952 0.728652358 0.576217830
0.552308917 0.733712792 0.581657052
0.580518723 0.756483257 0.585072517
0.628589630 0.751802802 0.562555373
0.731435776 0.751802742 0.530676901
0.844528675 0.746489763 0.527134478
0.923592269 0.713852048 0.533713043
0.974066973 0.734977722 0.601518095
0.713472247 0.845920205 0.679443359
0.721315444 0.849715292 0.686780572
0.736242712 0.858444273 0.694244206
0.750537276 0.860721231 0.693864644
0.785199463 0.856799543 0.668943584
0.855408192 0.853257477 0.664263308
0.902719975 0.835547268 0.657305300
0.949399352 0.818216443 0.667552173
0.834408820 0.900695860 0.761543095
0.832764208 0.901454747 0.767109454
0.836558938 0.904111087 0.769006848
0.848450601 0.903605461 0.768121421
0.863883615 0.902213871 0.770525038
0.881593943 0.902087152 0.764073133
0.908032835 0.900949001 0.762555122
0.933586240 0.887918830 0.757115662
0.129411995 0.221378639 0.279190630
0.123466447 0.220619634 0.274889261
0.215560004 0.189247549 0.266287178
0.388488293 0.200632289 0.292093277
0.623908997 0.225300640 0.360784531
0.755977392 0.224541649 0.341176540
0.944339275 0.258570611 0.354332924
0.998481810 0.380897909 0.454016626
0.141429543 0.239848197 0.260088354
0.163440645 0.237065345 0.240481094
0.218975544 0.214294642 0.237318173
0.368500829 0.236686006 0.277545750
0.578494847 0.253890097 0.334472090
0.745477796 0.250980437 0.329791188
0.936622322 0.300695896 0.363693804
0.998861372 0.398734957 0.457937807
0.175964549 0.261733115 0.242251724
0.205692649 0.251865625 0.224288747
0.255408198 0.252624750 0.238836184
0.362681985 0.281593740 0.287033737
0.520936251 0.292599648 0.307021081
0.745730460 0.332321286 0.348133922
0.938140273 0.385705024 0.384819835
0.999620497 0.463124603 0.482226580
0.234281987 0.285262287 0.247185633
0.255028546 0.285515547 0.257305622
0.317646831 0.328273177 0.303099185
0.385704935 0.340796977 0.307779968
0.553067386 0.379000396 0.334345162
0.757748127 0.434661478 0.379000366
0.932574272 0.478178322 0.411005557
0.998734832 0.541302919 0.500189424
0.365211695 0.440986454 0.400505990
0.387729257 0.456925929 0.412650257
0.432004929 0.498924375 0.446046740
0.475015819 0.507779896 0.432637751
0.618975282 0.539278746 0.426186025
0.777356267 0.561796367 0.428083718
0.926628530 0.593548536 0.464136839
0.993927777 0.640733659 0.547628164
0.544339061 0.671726823 0.570398390
0.561290145 0.680455565 0.579127133
0.579886138 0.712966442 0.585958481
0.621884525 0.727387846 0.589626729
0.696015000 0.714104891 0.554079831
0.812396944 0.735357106 0.551423252
0.919164896 0.716002762 0.535863400
0.975205481 0.736116171 0.600000024
0.716888309 0.825426996 0.695508897
0.726502120 0.831499040 0.699303985
0.737001836 0.839468241 0.698292255
0.762807906 0.857937872 0.709550917
0.786843479 0.848577023 0.690322280
0.849462569 0.850854039 0.667172670
0.911069036 0.835547030 0.661479890
0.944718659 0.819861233 0.664136529
0.836812139 0.893105805 0.772928476
0.843010902 0.896268070 0.771031022
0.846046805 0.899810135 0.779632807
0.852118969 0.904870152 0.774319768
0.859329641 0.904743671 0.772549033
0.878431618 0.902719676 0.764579415
0.911069036 0.900063038 0.769260049
0.930676758 0.891840637 0.764326036
0.127008185 0.287539393 0.418216377
0.127514347 0.283997536 0.401644349
0.178747892 0.260847479 0.397849262
0.353194088 0.233143643 0.403668731
0.579633176 0.262492210 0.453510374
0.796837449 0.320556819 0.501328170
0.901201546 0.355977267 0.491967082
0.995066166 0.421126187 0.503099024
0.143832743 0.309551001 0.391524166
0.155091986 0.301581174 0.393928200
0.233523101 0.287159741 0.371916443
0.343453735 0.264516354 0.379379898
0.556862354 0.302087545 0.446426183
0.767868221 0.346869200 0.491334289
0.879443109 0.373054922 0.483365089
0.992662787 0.430486947 0.499683797
0.166983098 0.343959183 0.375205278
0.219481200 0.332574666 0.363820642
0.282859087 0.314864099 0.346995175
0.344718158 0.305503100 0.353194207
0.540290654 0.366603404 0.444022477
0.714611232 0.383175105 0.469576120
0.851739347 0.408602208 0.478684276
0.990385771 0.488045782 0.518026471
0.242504641 0.368500739 0.369639397
0.271473706 0.361543417 0.360151559
0.312080711 0.349272370 0.342062294
0.387602657 0.377482265 0.387729257
0.511195600 0.406072021 0.427956820
0.655661047 0.421632022 0.442504466
0.851486444 0.485009611 0.487792581
0.992156625 0.548766613 0.532954037
0.319544196 0.401012182 0.374826163
0.336116403 0.401391715 0.384819835
0.383807391 0.423023164 0.395446271
0.486527473 0.506135225 0.483365178
0.541303217 0.491840363 0.454395950
0.699683428 0.535736680 0.480708510
0.868311167 0.597723007 0.528905332
0.989373922 0.637065351 0.559645772
0.487919062 0.613662004 0.539911270
0.505250037 0.618342817 0.545097828
0.549399018 0.636306226 0.562428534
0.610626101 0.687792480 0.596584618
0.654902220 0.692726195 0.591017962
0.763567209 0.702339947 0.574826360
0.883112073 0.713346004 0.573940516
0.968121469 0.731815279 0.605186820
0.684629977 0.796837568 0.675395250
0.698418677 0.805312812 0.681088209
0.722201288 0.810373127 0.695003092
0.755091548 0.834408700 0.710057259
0.786843538 0.846553028 0.706894338
0.819102108 0.839468539 0.687160134
0.893105686 0.834029078 0.675268531
0.945856929 0.819607913 0.666919470
0.826438785 0.887792826 0.764958918
0.828842640 0.886654198 0.771031082
0.839974761 0.890954912 0.777102888
0.856420219 0.897786260 0.775837779
0.863503933 0.903605342 0.784945846
0.875268757 0.903099418 0.772296250
0.904743731 0.900569379 0.770018756
0.928020358 0.892599821 0.759012997
0.150663733 0.381783724 0.556356490
0.156609997 0.371916473 0.554332733
0.166730076 0.370145738 0.542188406
0.314484447 0.319164842 0.546742439
0.534471810 0.288677752 0.558127701
0.763693452 0.358001202 0.593674719
0.909677744 0.496141732 0.614421427
0.981277764 0.545224369 0.607969582
0.173307925 0.397090465 0.542567730
0.169892281 0.394180745 0.534218669
0.210625991 0.387602568 0.527134657
0.332447618 0.346110076 0.523086429
0.518279552 0.315875918 0.537634194
0.742314696 0.396458000 0.583554447
0.890575707 0.506008863 0.602530003
0.971537173 0.546995580 0.609234631
0.208855167 0.435040832 0.512207329
0.203921735 0.430233836 0.513725340
0.292726427 0.417710066 0.503984749
0.370272189 0.390385926 0.494370729
0.503099024 0.376217604 0.510436356
0.728526413 0.474383473 0.584819853
0.869575977 0.539026022 0.601897717
0.953446925 0.585199118 0.614041626
0.223908991 0.474003822 0.511321962
0.264516354 0.466919810 0.511068821
0.347881198 0.445287734 0.483112276
0.412523478 0.444781363 0.476407230
0.505123377 0.439974457 0.504237473
0.705123425 0.549146056 0.582542717
0.818595827 0.557748079 0.582542539
0.930676699 0.604427338 0.604174733
0.318026394 0.522960365 0.521442175
0.347501516 0.515496731 0.511827886
0.395193011 0.502213836 0.497659743
0.454649001 0.494496912 0.490955263
0.543580353 0.545098126 0.534218490
0.660088539 0.573181689 0.562555313
0.792915583 0.587729156 0.567109466
0.941303194 0.662239015 0.622644067
0.413029701 0.577482700 0.532827497
0.428083658 0.573054731 0.530423880
0.473497838 0.572802186 0.526754856
0.537887573 0.597217083 0.549651861
0.642757893 0.675774753 0.617077768
0.687412679 0.659962237 0.585452199
0.840733826 0.700822353 0.617836773
0.944465339 0.748639762 0.652624905
0.609108508 0.753953099 0.647944272
0.624541283 0.760784268 0.654396057
0.655281782 0.768880248 0.661733091
0.708538949 0.782795608 0.679823041
0.769765973 0.816192210 0.711195469
0.804554224 0.832258284 0.712587059
0.866413713 0.830613554 0.700316489
0.932827353 0.821758449 0.691081345
0.786084592 0.879190743 0.758253992
0.794687092 0.879316926 0.757241905
0.813282669 0.877925575 0.760025203
0.834408581 0.883111954 0.774066985
0.863756955 0.892726362 0.792916000
0.875522017 0.898292124 0.791397691
0.896521449 0.899304032 0.778114796
0.924098670 0.894244134 0.759898782
0.309297830 0.503478825 0.676027834
0.299051523 0.505123556 0.677039981
0.292979270 0.497912586 0.671473861
0.329790920 0.459202915 0.670967937
0.509045184 0.420366555 0.683238268
0.713725150 0.395572096 0.684882998
0.904491007 0.520430207 0.695003271
0.958380997 0.664516091 0.700568974
0.302087247 0.505882561 0.665780783
0.301075250 0.510689259 0.665907562
0.290448993 0.512587011 0.661480248
0.365211904 0.486527652 0.653889656
0.509424567 0.443010777 0.671094060
0.708791733 0.422264278 0.678937733
0.892346501 0.544085860 0.690828681
0.951423109 0.665654659 0.701834261
0.318912268 0.550537646 0.648197472
0.318658888 0.551675916 0.655028284
0.321315467 0.543326616 0.643896401
0.432764351 0.539405465 0.637317896
0.526122451 0.502593458 0.648576617
0.687918901 0.491587371 0.662365735
0.872232556 0.607590079 0.693611383
0.936622262 0.698924243 0.699810088
0.350157827 0.588741541 0.640733540
0.351296186 0.587602675 0.638456523
0.363187581 0.582795680 0.636053205
0.472611904 0.576976597 0.614927530
0.539152145 0.560404599 0.620999336
0.673497438 0.552941203 0.637571394
0.844022870 0.668817282 0.689942896
0.918406010 0.717014670 0.699430585
0.379380345 0.644528508 0.638583064
0.380645037 0.640101135 0.641745925
0.415306866 0.638962686 0.632637680
0.495382637 0.620999515 0.614547908
0.577229381 0.622517347 0.618089676
0.666919947 0.625300288 0.634155810
0.831372499 0.733333290 0.701328099
0.898798287 0.741429090 0.698292017
0.438203365 0.710183740 0.657685041
0.458064258 0.704996526 0.659202993
0.488298714 0.702846289 0.649589002
0.548260629 0.685642004 0.636306047
0.608981669 0.676660478 0.626818478
0.690069497 0.706008971 0.652624965
0.802023768 0.744971573 0.682352960
0.898419023 0.757621765 0.696521282
0.524351776 0.762934804 0.658064544
0.540670097 0.760278106 0.662239015
0.565338254 0.750158131 0.657938123
0.621125877 0.742820978 0.655281603
0.681594193 0.752941251 0.668184876
0.766223729 0.798355699 0.705502987
0.808728278 0.797596216 0.699557304
0.912586987 0.826818585 0.729284823
0.746868968 0.859835625 0.743706346
0.750410855 0.864895761 0.745730519
0.760025144 0.859329641 0.742947459
0.788488150 0.865781009 0.749778569
0.829222262 0.874509633 0.771157384
0.872991562 0.888298690 0.784945965
0.887033761 0.896901011 0.802403212
0.917140841 0.896901011 0.786590576
0.519670725 0.664642572 0.762302101
0.518405557 0.665907741 0.763061225
0.514484525 0.661985755 0.763693750
0.500695586 0.651865721 0.761416793
0.533966005 0.605060220 0.768627644
0.671726704 0.574066877 0.776849926
0.850980282 0.565844595 0.784693241
0.959645987 0.680202484 0.766096950
0.507021010 0.662365317 0.763187528
0.508538723 0.660594761 0.759898484
0.507526815 0.659582138 0.759012878
0.499177694 0.654269218 0.754711926
0.543453395 0.607083917 0.760657489
0.675648212 0.587982416 0.775964618
0.843643129 0.582416058 0.774066925
0.948513627 0.697406352 0.765211701
0.527640760 0.685135663 0.753067791
0.532827616 0.685515642 0.754079819
0.524604678 0.682353020 0.755471051
0.519923985 0.677039862 0.742062092
0.587349951 0.661226869 0.748639882
0.691334605 0.645920515 0.765338719
0.837824166 0.639342010 0.766856492
0.935989797 0.734597862 0.770145833
0.546109974 0.711954415 0.748007774
0.548260450 0.711574852 0.748893082
0.542188406 0.710562766 0.742061913
0.536622405 0.709550619 0.740417421
0.638203442 0.715875924 0.737887383
0.703731775 0.695762098 0.752435029
0.826312482 0.692979157 0.757115543
0.920683026 0.774825990 0.765844285
0.580391765 0.752688110 0.735483766
0.582036793 0.752055347 0.741808832
0.576343894 0.750411034 0.739405513
0.567615211 0.743326604 0.740544200
0.653510392 0.750031590 0.731055975
0.720682919 0.745603621 0.738772690
0.812650263 0.746109843 0.749652028
0.913345754 0.813915014 0.769133329
0.627324343 0.798734784 0.745477617
0.633775771 0.793801546 0.749272645
0.623908997 0.794180691 0.749146044
0.618848562 0.786843836 0.743832946
0.655787230 0.786843657 0.736116052
0.743832767 0.788994491 0.730297029
0.811764538 0.795699000 0.754332840
0.898798227 0.851612687 0.780012548
0.680202603 0.838456333 0.752814531
0.688425064 0.835800111 0.757115304
0.681846976 0.836306214 0.756103456
0.680834591 0.832257986 0.754206061
0.702973008 0.832637608 0.747627974
0.759392798 0.823782325 0.740544200
0.819355071 0.833396733 0.750537813
0.891461074 0.868310988 0.782795608
0.753700256 0.870840967 0.767488956
0.760278165 0.876027822 0.771031082
0.757495463 0.870840967 0.762681782
0.753952980 0.869449556 0.765464604
0.769259810 0.865654767 0.765085161
0.817710340 0.863757014 0.767868578
0.865654707 0.874256670 0.779759824
0.889057696 0.887792766 0.788614810
