Assets/EldamarStudio/100 Retro LUTs Pack/LUTs/cube/Linda LUT.cube
LUT_3D_SIZE 8
DOMAIN_MIN 0.000000 0.000000 0.000000
DOMAIN_MAX 0.903226 0.903226 0.903226
0.000000000 0.043136999 0.066666998
0.087666094 0.079569548 0.102340452
0.239722088 0.114484094 0.121569000
0.373307914 0.128905639 0.127766997
0.501454949 0.164453194 0.153573811
0.626945019 0.207589984 0.186211258
0.756103516 0.252245575 0.224161997
0.880202472 0.296900988 0.262871832
0.000000000 0.179886535 0.100316092
0.079064094 0.173181087 0.115243092
0.226818532 0.188108996 0.127008095
0.363187730 0.205313101 0.142314643
0.488298625 0.225680083 0.158254206
0.623023450 0.255028725 0.190891743
0.752182007 0.291208267 0.229222015
0.874509752 0.332447827 0.265275449
0.000000000 0.292347014 0.151296899
0.049209092 0.293865114 0.143832639
0.210753098 0.296268195 0.144971088
0.342820704 0.301328540 0.159139901
0.475648284 0.322833389 0.180138990
0.612270832 0.343959272 0.209867075
0.741176248 0.373814017 0.238962799
0.878304720 0.400758833 0.279316932
0.007843000 0.408601910 0.188868001
0.064389631 0.410499364 0.186084643
0.210626096 0.418848723 0.193168640
0.336875290 0.420366615 0.191650644
0.458317369 0.425173849 0.208475798
0.594180822 0.445414633 0.230107635
0.727008283 0.469702631 0.257305652
0.867299139 0.495509088 0.296521157
0.017584180 0.536749005 0.238329992
0.120303378 0.544212520 0.232132003
0.235673383 0.539784968 0.235800087
0.350537628 0.541049838 0.241365984
0.466160357 0.550031543 0.243769810
0.585958302 0.552308381 0.249462441
0.724730968 0.572043002 0.280708283
0.863250911 0.595446110 0.319671184
0.126755208 0.673877478 0.285894990
0.184693277 0.666034460 0.283997715
0.268943846 0.668690860 0.283111721
0.374446392 0.669829488 0.292726338
0.487539619 0.671853185 0.289942980
0.601138711 0.675774693 0.295635730
0.720430017 0.680202246 0.306387991
0.854775488 0.704743743 0.343200564
0.244655252 0.799873531 0.345351279
0.270714551 0.791777134 0.351043582
0.332700670 0.794433713 0.346995562
0.424920648 0.801518023 0.350916982
0.520936072 0.799241006 0.350916982
0.625806272 0.796331048 0.362935007
0.737128556 0.803162515 0.377356261
0.855913877 0.816318512 0.387602657
0.386211574 0.922074616 0.439594805
0.406324744 0.922327340 0.441492617
0.445034683 0.925869823 0.441619039
0.513092816 0.920809448 0.445793808
0.594307125 0.921947777 0.454143137
0.676913261 0.926501870 0.461100519
0.778241396 0.928146541 0.471979886
0.876280785 0.932447612 0.484250605
0.000000000 0.087792993 0.178368449
0.079064094 0.095256448 0.174825996
0.218595996 0.132068440 0.191650644
0.332954109 0.169259995 0.212397203
0.456293821 0.205313087 0.230866641
0.602530003 0.242504731 0.254395753
0.735356987 0.279823005 0.277419120
0.869323075 0.322833359 0.314484537
0.003922000 0.171283543 0.169260100
0.075142093 0.172801644 0.186970547
0.198608637 0.189626992 0.192030087
0.319164842 0.217078000 0.214041993
0.455914259 0.247565001 0.233902737
0.595066547 0.280961543 0.258190751
0.735610485 0.312713116 0.282605827
0.871220887 0.348260820 0.313345820
0.005060451 0.281340986 0.206957996
0.088045545 0.281341106 0.197849646
0.199367642 0.282859117 0.211258546
0.311321825 0.295003533 0.217078000
0.449715257 0.324730814 0.237444893
0.587602615 0.352181852 0.262112767
0.728146911 0.383175075 0.284882814
0.865401685 0.411385059 0.323212892
0.014041825 0.403542280 0.226439089
0.106388189 0.403542280 0.235547557
0.213788986 0.405439615 0.235420540
0.328146368 0.408222377 0.236559272
0.449335843 0.420746177 0.250727206
0.582036555 0.445035070 0.270335287
0.723466158 0.473244995 0.298418880
0.858570576 0.497912824 0.330803305
0.091587991 0.532447755 0.274003744
0.152308539 0.530423582 0.273624122
0.246679291 0.534724772 0.271980017
0.352181911 0.536749125 0.275901109
0.460594356 0.541808724 0.279316723
0.578115284 0.544085801 0.287918746
0.718026638 0.573561192 0.315369844
0.857937932 0.598987699 0.351296723
0.158633471 0.660594285 0.315496534
0.202530071 0.659709156 0.318026483
0.282732308 0.660468221 0.314105183
0.380518377 0.663630605 0.321694821
0.486780614 0.666666627 0.322707176
0.597343683 0.669449925 0.323086530
0.717141032 0.679696620 0.336875260
0.853510320 0.704237819 0.372549027
0.269070268 0.789879858 0.368121386
0.288424820 0.791397572 0.374320239
0.349019647 0.794054270 0.371410549
0.429475099 0.797596276 0.377988517
0.526755035 0.798355460 0.382669002
0.629474819 0.799241006 0.381404281
0.738772869 0.803541958 0.393295288
0.851486564 0.817204237 0.405566067
0.397090286 0.921947777 0.454649001
0.418722153 0.921062469 0.463504225
0.451486707 0.922580779 0.460847497
0.517014742 0.921188891 0.461100459
0.595825315 0.920682907 0.472106308
0.682479203 0.923339784 0.477040082
0.782416403 0.924604654 0.487412810
0.878558040 0.928525984 0.492093801
0.000000000 0.109803997 0.282099992
0.102972545 0.119165093 0.279823005
0.218596101 0.140290990 0.268817186
0.329032272 0.173940182 0.275015980
0.448071003 0.222517282 0.297786176
0.570398450 0.271853179 0.326882005
0.709804296 0.316508591 0.357369065
0.844275832 0.358001083 0.382036924
0.003795095 0.196331546 0.255408078
0.097027093 0.197090641 0.257052183
0.199367642 0.211638093 0.261353642
0.311321735 0.236306548 0.277419209
0.436812013 0.269576192 0.302846402
0.565211713 0.308412462 0.329538435
0.703984916 0.342820823 0.356989354
0.848450303 0.383554816 0.384313643
0.006831095 0.277419120 0.257811278
0.113599092 0.282859087 0.271980017
0.216192096 0.303225994 0.292347014
0.312207639 0.307526648 0.289563656
0.429348409 0.336116195 0.308791876
0.562428474 0.365971088 0.331941754
0.704111516 0.398735106 0.360404879
0.850347638 0.434408933 0.390006065
0.098165639 0.398861200 0.294624090
0.152181834 0.402024060 0.298545092
0.238836095 0.402024090 0.305249721
0.329032272 0.405565828 0.304870099
0.430486858 0.418469191 0.318532616
0.559266388 0.447058827 0.337761015
0.703858137 0.474383563 0.365844280
0.843263924 0.509298027 0.392915606
0.169133097 0.524225295 0.344086081
0.193295285 0.524984360 0.328273177
0.270967990 0.522580564 0.331436098
0.355976939 0.526502192 0.339279085
0.455155075 0.530423522 0.340923160
0.560784340 0.539785206 0.345983565
0.704237700 0.570398510 0.378494471
0.841998637 0.604301035 0.406198651
0.223782375 0.658570707 0.372169375
0.245414436 0.656166732 0.367868453
0.309677392 0.653510332 0.369006991
0.392409980 0.658444047 0.372043192
0.489183813 0.659329653 0.378114820
0.590512395 0.662112474 0.382163078
0.708159387 0.672865272 0.389374018
0.842884541 0.705882370 0.423150003
0.312080979 0.783428311 0.419861078
0.332700402 0.783808053 0.421758562
0.382795632 0.788235426 0.427830577
0.448703170 0.788994431 0.430486798
0.534724593 0.790512562 0.429981172
0.635294497 0.794054329 0.439848006
0.739531696 0.799241006 0.444908082
0.853510261 0.811258793 0.460594535
0.432131618 0.917899728 0.505502760
0.450853914 0.916761577 0.503605127
0.483364761 0.918658853 0.506767929
0.541808605 0.919924021 0.506261826
0.610879302 0.919417739 0.513852060
0.689057589 0.920682907 0.514484644
0.784060657 0.922580659 0.523592770
0.882858574 0.926501870 0.531309009
0.017457642 0.133965999 0.387223274
0.123719089 0.146489292 0.384820074
0.241745651 0.168880552 0.378114849
0.339658648 0.188867986 0.363693982
0.453130841 0.230739743 0.376850277
0.573561013 0.274509728 0.391903877
0.698418617 0.323971897 0.416445613
0.831878603 0.385578781 0.454016447
0.070335180 0.228842184 0.360025436
0.140164196 0.229601279 0.356103629
0.227450818 0.234661639 0.360404998
0.326248914 0.245287895 0.356989533
0.439088941 0.274636537 0.369512707
0.560531020 0.310942262 0.393295258
0.697912514 0.358001292 0.423782170
0.826059401 0.412776649 0.461100727
0.098671906 0.306641638 0.365717739
0.154206082 0.310689449 0.347374946
0.245161086 0.321694821 0.365591556
0.330550283 0.327514082 0.360405087
0.437570959 0.350663841 0.378114730
0.549905121 0.379632831 0.397975892
0.685895026 0.423150033 0.432005137
0.822896898 0.461480379 0.463251114
0.124477997 0.400126636 0.363187641
0.164705738 0.400379390 0.366350532
0.254522294 0.411005735 0.373813987
0.352055639 0.428209931 0.383934259
0.444528848 0.436559290 0.396584213
0.556103468 0.461100638 0.414547980
0.687792301 0.490449280 0.436685652
0.828083396 0.528020442 0.478810996
0.192156821 0.521062374 0.402150184
0.235420540 0.522580385 0.398861289
0.301581085 0.524604797 0.404047728
0.374699831 0.527261376 0.408981383
0.460088819 0.531561911 0.414168417
0.560151458 0.542947233 0.421252638
0.691840291 0.576217830 0.449842066
0.829601347 0.612270772 0.485642165
0.275901705 0.648703456 0.440607101
0.298292190 0.644149423 0.443390191
0.351296633 0.648323715 0.444908202
0.420619994 0.650727749 0.448197305
0.503732026 0.655028462 0.448197186
0.592662811 0.660088718 0.451612711
0.700569272 0.670968056 0.463250905
0.837444603 0.708159447 0.500189722
0.366603285 0.783048928 0.497659683
0.387096643 0.782669365 0.496521205
0.422390938 0.776849926 0.492472827
0.479316980 0.783048928 0.495003283
0.556989193 0.784693182 0.498671830
0.638330281 0.789879739 0.503478825
0.736622155 0.793674827 0.509550869
0.846046805 0.807842970 0.519291461
0.477292597 0.912839949 0.558001280
0.484503508 0.913852036 0.556483209
0.514863908 0.915117085 0.561163723
0.566476583 0.914104819 0.561163604
0.627956808 0.914737582 0.568247795
0.703984797 0.917520523 0.568500519
0.791777253 0.919038355 0.575585127
0.888930798 0.924604595 0.582795441
0.106261984 0.184946194 0.489057183
0.173434541 0.196711197 0.487413198
0.267805099 0.213915184 0.479570091
0.374446452 0.233902633 0.475648403
0.467678577 0.253763199 0.467046380
0.582415938 0.286021471 0.477293193
0.706641316 0.333712995 0.498292476
0.837064743 0.395193011 0.523339391
0.145224541 0.269576162 0.471600175
0.191018283 0.272359550 0.477925211
0.274509639 0.271473736 0.472865522
0.364199996 0.280961603 0.462365299
0.455407828 0.292726338 0.459962189
0.570271969 0.321694821 0.476407200
0.700316250 0.365970910 0.501075625
0.832257748 0.422643840 0.525869727
0.174446374 0.347122073 0.458570182
0.210119829 0.353447080 0.451233357
0.278052092 0.354965061 0.457052380
0.363440990 0.359645993 0.455281377
0.449588954 0.365212083 0.455281377
0.555218399 0.388614982 0.467678577
0.692599475 0.428716004 0.500695884
0.824161828 0.473497927 0.536622226
0.185831726 0.430613607 0.451739639
0.227450728 0.426565707 0.454396069
0.295635730 0.432511270 0.456419736
0.381404281 0.449715286 0.463124394
0.464516401 0.453637242 0.470208973
0.566729903 0.478810877 0.489690065
0.685009599 0.510056973 0.514737487
0.815180182 0.549905300 0.548133790
0.215433195 0.524098396 0.467931986
0.244655535 0.525363803 0.465528160
0.315623164 0.529664457 0.472486168
0.403794825 0.536369503 0.479949594
0.498165518 0.557874620 0.503858149
0.583175182 0.564579487 0.503478706
0.698798418 0.585325539 0.520177245
0.824161828 0.624035537 0.557368755
0.293485194 0.648323715 0.501075625
0.318911880 0.649462223 0.499177873
0.370398462 0.648323715 0.504490972
0.449209422 0.647817671 0.515116930
0.522833586 0.654269457 0.523719132
0.603542030 0.659709156 0.523086548
0.702846348 0.676533818 0.531815469
0.833396494 0.711448550 0.567109168
0.389879555 0.777356267 0.548513353
0.407843173 0.779632986 0.553573608
0.455787480 0.774067283 0.557115614
0.510689199 0.777608871 0.562175930
0.575711608 0.782795429 0.563441098
0.654142976 0.782415867 0.567741990
0.741682589 0.786590755 0.571790040
0.847311616 0.805439413 0.585199416
0.502719939 0.907020569 0.615180194
0.515369773 0.907779992 0.618848622
0.542694330 0.910815895 0.620113850
0.591524065 0.910436392 0.617583990
0.648070812 0.912839949 0.622770369
0.716634870 0.915622890 0.622770250
0.805945396 0.917520583 0.632890463
0.886780620 0.923718989 0.632890642
0.191903993 0.244908243 0.603415489
0.229348466 0.241619334 0.594180703
0.318026483 0.263251096 0.594687104
0.409740388 0.278557748 0.586464107
0.511448145 0.295509189 0.581657171
0.608855247 0.315369755 0.573813736
0.715496719 0.340797275 0.580898046
0.840860248 0.399494052 0.606830776
0.223529533 0.302340269 0.587982178
0.251486301 0.304743975 0.581657171
0.318026394 0.312207550 0.584186971
0.409993708 0.319671094 0.582542777
0.501581013 0.331815332 0.575838089
0.598734856 0.347374707 0.576597154
0.708918452 0.372042984 0.580518484
0.837318122 0.431625545 0.603036046
0.245920375 0.393042326 0.581150830
0.275142759 0.397343099 0.569513142
0.338013828 0.396458000 0.572675407
0.412776560 0.396458000 0.570398331
0.498165548 0.400759041 0.568880439
0.592662811 0.408981562 0.566856682
0.700695992 0.436052948 0.581277549
0.831119537 0.485262692 0.613662183
0.261480093 0.467678487 0.565211833
0.292093366 0.476913631 0.568247974
0.349272460 0.474383622 0.560531080
0.425300360 0.484503627 0.564959109
0.500063002 0.488931179 0.563314378
0.585072458 0.492093384 0.562175751
0.694876552 0.513598800 0.581783652
0.820366919 0.560531199 0.615686357
0.274762988 0.556609869 0.562428594
0.306135267 0.559013128 0.559772015
0.361416817 0.560657859 0.568627656
0.434535176 0.568121314 0.569639325
0.526755154 0.578621089 0.576723278
0.607969701 0.588108957 0.581530213
0.707400501 0.603542089 0.594307601
0.826945007 0.641365945 0.633016884
0.317014456 0.650348008 0.575837970
0.339026153 0.648830175 0.569765985
0.386084586 0.652751386 0.577229381
0.455408037 0.656166732 0.581909716
0.543580174 0.663630664 0.586211264
0.636432707 0.679822743 0.607084453
0.721947789 0.690322518 0.617457271
0.839595437 0.716002464 0.638962746
0.403921574 0.779506564 0.611764729
0.422264308 0.778747559 0.613788724
0.463124812 0.778368056 0.619354844
0.522201359 0.779126942 0.625553608
0.597216725 0.781277359 0.633396745
0.671599984 0.787729084 0.636433065
0.752308965 0.791397572 0.645667195
0.855661035 0.809740663 0.657178879
0.513345838 0.905755699 0.668184817
0.527007997 0.907906413 0.674130440
0.559772015 0.906388581 0.667678714
0.606072247 0.907779992 0.678810894
0.666793168 0.910815895 0.685388923
0.733206630 0.911574781 0.683744788
0.808981776 0.914737821 0.693611503
0.891966760 0.924857795 0.696773767
0.274763286 0.303857982 0.711322308
0.305376083 0.309424281 0.715749562
0.367995083 0.316382080 0.709804118
0.459709257 0.330170631 0.706768274
0.560025156 0.344592184 0.702846289
0.656040430 0.361923009 0.697027028
0.754459262 0.382289559 0.693358541
0.851359785 0.415559530 0.690575421
0.300695986 0.355217814 0.708791971
0.324098378 0.354965270 0.708665550
0.379000574 0.366223812 0.705123544
0.465275258 0.372928470 0.705250084
0.555218399 0.381783724 0.702972829
0.652878046 0.398735017 0.692978978
0.749145985 0.412903309 0.688804567
0.851107001 0.442883909 0.689563692
0.327893645 0.440227360 0.694243968
0.355471313 0.436938375 0.701075256
0.401771247 0.439468443 0.693232059
0.471347272 0.446173549 0.692599475
0.560784459 0.454396188 0.692473173
0.648450434 0.459835380 0.683112025
0.744844675 0.472991645 0.685389280
0.842504799 0.494623721 0.687286556
0.353320628 0.520177245 0.689816535
0.377609104 0.523339510 0.686780632
0.434155613 0.528779328 0.689437270
0.489437252 0.533586264 0.679949224
0.564199924 0.538646698 0.681594014
0.646932483 0.542947173 0.680835128
0.732068181 0.547628284 0.674889207
0.835800231 0.568753958 0.687160075
0.372675359 0.604807258 0.682226300
0.397090375 0.607084334 0.683744609
0.440860152 0.609487593 0.681467414
0.502846241 0.611638069 0.681594014
0.573434234 0.619734168 0.682479322
0.652119040 0.622137904 0.679696798
0.736369491 0.622770369 0.678558171
0.837570965 0.649968326 0.699430466
0.387602568 0.689437270 0.674889088
0.409487337 0.694496989 0.682353199
0.450094759 0.690955281 0.677292824
0.510689259 0.692978799 0.681341052
0.583048940 0.694496989 0.679569840
0.664263427 0.702467024 0.683871269
0.746236742 0.712334216 0.692979038
0.852245390 0.734851539 0.716887951
0.426059544 0.783554554 0.690069556
0.432511091 0.780265570 0.686021566
0.475142270 0.781910300 0.694876313
0.530297279 0.781910241 0.690449238
0.607084334 0.785831809 0.697406232
0.689310253 0.793042302 0.704364479
0.778621316 0.803162515 0.716255546
0.873751044 0.818342745 0.729411602
0.531435549 0.911574781 0.724983990
0.541303217 0.910689175 0.732953787
0.569892406 0.906894386 0.732574344
0.623655856 0.907653451 0.739784718
0.683491468 0.908918619 0.746616244
0.753067970 0.912839949 0.751423240
0.825047314 0.915496767 0.758634090
0.905755758 0.920303524 0.759519339
0.379506618 0.388614774 0.831751823
0.399620503 0.387602359 0.826565623
0.456293732 0.395825714 0.827830791
0.527514279 0.405439407 0.829601586
0.618722141 0.425553799 0.823782265
0.711574674 0.441998780 0.822770596
0.805692375 0.462745219 0.817710221
0.906388581 0.486653805 0.819987416
0.393674910 0.427071482 0.821632028
0.418595910 0.432637781 0.826818168
0.461480200 0.435294062 0.823023200
0.535483718 0.445540547 0.826059222
0.617077649 0.455787361 0.819860935
0.713851869 0.470967829 0.820999324
0.806704640 0.492220104 0.814168036
0.903479040 0.506641328 0.812776744
0.439341873 0.507020772 0.815812707
0.453510135 0.510183275 0.812523425
0.491587639 0.510183215 0.818722606
0.553193986 0.516508698 0.817710161
0.629728019 0.524351835 0.812143803
0.717393994 0.533206582 0.814041555
0.807843268 0.544591904 0.812017739
0.899303973 0.553826630 0.809487641
0.481340826 0.594433606 0.802909374
0.495256007 0.594433486 0.809867024
0.531182826 0.595192432 0.807716489
0.583175421 0.604174733 0.809613764
0.648703456 0.604174793 0.805565953
0.722580612 0.609361231 0.803795040
0.803288877 0.613409460 0.808981597
0.892472744 0.620366395 0.808601916
0.485894591 0.664263308 0.806957603
0.503478408 0.665528178 0.809993565
0.538646519 0.667046010 0.807716548
0.597343206 0.678051651 0.804174542
0.658949971 0.679949284 0.800505579
0.728399694 0.684503555 0.804680347
0.808475435 0.686654031 0.803288937
0.887918949 0.686906934 0.796963751
0.499809742 0.743073642 0.808222771
0.514611125 0.747501493 0.807969451
0.545730472 0.747754633 0.808728695
0.596837401 0.749652028 0.805186450
0.666034162 0.750790656 0.802656591
0.737760484 0.757495522 0.806704760
0.811511815 0.759898543 0.804048061
0.888677835 0.760531425 0.801011801
0.513219476 0.831246197 0.807969451
0.524857759 0.837191701 0.809740722
0.555850744 0.831625342 0.807463348
0.605566084 0.830487251 0.809234321
0.664389789 0.834408224 0.807337046
0.742061973 0.833396554 0.807210445
0.820113897 0.834787786 0.809613764
0.898165464 0.844908059 0.812776804
0.539025784 0.927260756 0.808222711
0.555850327 0.920682907 0.811132252
0.581024647 0.923971891 0.812144339
0.630740106 0.918152928 0.809613764
0.691460967 0.912839949 0.813282430
0.769892395 0.919164956 0.815938950
0.838836551 0.918026745 0.820619762
0.922074556 0.924477756 0.837064803
