Assets/EldamarStudio/100 Retro LUTs Pack/LUTs/cube/Linda LUT.cube
DOMAIN_MIN 0 0 0
DOMAIN_MAX 1 1 1
LUT_3D_SIZE 32
0.000000000 0.043136999 0.066666998
0.000000000 0.052245386 0.078811005
0.015053772 0.059202999 0.086654000
0.045161318 0.067805000 0.093991160
0.087666094 0.079569548 0.102340452
0.130170867 0.088677935 0.105376065
0.170145318 0.102846317 0.113472320
0.206325114 0.111448288 0.119291708
0.239722088 0.114484094 0.121569000
0.273118496 0.117520481 0.121569000
0.306514859 0.120556869 0.118659131
0.339911252 0.123592734 0.121694997
0.373307914 0.128905639 0.127766997
0.406199008 0.137760997 0.133332998
0.433523387 0.143832996 0.133332998
0.468058586 0.152308807 0.142947599
0.501454949 0.164453194 0.153573811
0.533080101 0.179000974 0.162048995
0.569512963 0.191145018 0.168121010
0.600379765 0.197723001 0.179759711
0.626945019 0.207589984 0.186211258
0.655281246 0.219734251 0.192283258
0.691587448 0.231752470 0.204427987
0.724983931 0.240860105 0.216572002
0.756103516 0.252245575 0.224161997
0.787855625 0.262998313 0.233016983
0.820240021 0.272612125 0.244655073
0.847564399 0.284756899 0.253763437
0.880202472 0.296900988 0.262871832
0.913599133 0.309044957 0.273750961
0.945224583 0.322074592 0.285009593
0.972549021 0.337255001 0.294117987
0.003036387 0.073497772 0.081847385
0.000000000 0.082606159 0.087919384
0.012902999 0.085262775 0.095762387
0.044655252 0.090828605 0.104364380
0.088804930 0.101580925 0.112966456
0.118026868 0.116002321 0.105376065
0.163061306 0.117520384 0.116002642
0.201897398 0.125236988 0.122327670
0.236685693 0.130423382 0.123845711
0.270082116 0.135736480 0.121569000
0.303478479 0.138772875 0.121569000
0.336875349 0.141809255 0.122707121
0.369133383 0.147122115 0.126628637
0.400885254 0.155724049 0.131056339
0.436558992 0.159013391 0.139404997
0.466287196 0.165085390 0.141808808
0.498418987 0.175078988 0.152055606
0.529411912 0.187476188 0.162681580
0.563440979 0.197217017 0.171157405
0.597090364 0.206578359 0.177229390
0.627704084 0.212903380 0.186970338
0.656293690 0.222770378 0.195319399
0.688804865 0.235041112 0.207463607
0.728020310 0.249968499 0.219607621
0.761416674 0.259076685 0.229474902
0.792536259 0.270461977 0.239088967
0.823276460 0.281214476 0.250727057
0.850600839 0.290828884 0.259835422
0.883238137 0.300316155 0.271599978
0.914864004 0.313851774 0.275774598
0.945224583 0.328146577 0.283744186
0.972549021 0.343326986 0.297153592
0.001771226 0.108159542 0.094876997
0.000885613 0.106515162 0.096648000
0.012902999 0.113472767 0.098419003
0.039974481 0.114737608 0.105755836
0.085515767 0.121315315 0.115496226
0.123466156 0.129411697 0.111701064
0.153067544 0.140543774 0.109550864
0.196963623 0.142188489 0.118406221
0.233649507 0.146995455 0.122706994
0.267046273 0.151675776 0.123845704
0.302592874 0.156988859 0.128020227
0.335989743 0.160025254 0.128020227
0.369386643 0.163061634 0.129790992
0.401011795 0.169639513 0.132321253
0.435546786 0.172675416 0.141429350
0.467172593 0.180265769 0.145730585
0.499051183 0.187855974 0.151802585
0.529411793 0.198734954 0.163314149
0.559772253 0.207842976 0.173940748
0.595319390 0.216951355 0.184566781
0.626818478 0.226059735 0.188741028
0.658191144 0.233396634 0.196331486
0.689816713 0.244149014 0.206072256
0.725237131 0.253257692 0.216192007
0.760152042 0.270335287 0.230360284
0.792156696 0.278052002 0.239468664
0.823023379 0.288172066 0.250853777
0.853637218 0.297280431 0.261606425
0.881973505 0.308538914 0.273370981
0.913598657 0.321188956 0.285515398
0.946616054 0.335483760 0.291460901
0.979000807 0.349399000 0.306640983
0.000000000 0.144592315 0.100695841
0.001265161 0.138519987 0.105755836
0.011638161 0.138520002 0.104491003
0.039974481 0.142061993 0.105755836
0.078684546 0.145097703 0.113724999
0.120682932 0.148134097 0.113724999
0.158633634 0.156230167 0.116255313
0.190385550 0.163440883 0.115622997
0.230613247 0.166477069 0.120936096
0.264010310 0.169512689 0.126502156
0.299050987 0.174193323 0.130044162
0.334724575 0.179506421 0.135862991
0.366983086 0.183681160 0.137001634
0.400000066 0.186844036 0.137128159
0.432384521 0.189879894 0.143200412
0.462112606 0.196457967 0.148766652
0.499051183 0.204301193 0.154838979
0.531815112 0.213409573 0.163946748
0.559772193 0.222517371 0.175458953
0.594180703 0.230360508 0.186337844
0.624288499 0.239468887 0.192789420
0.656673312 0.248577029 0.198861152
0.690322638 0.257811159 0.205692828
0.723719120 0.266160965 0.215939090
0.755850494 0.275016010 0.225806430
0.790385962 0.290195972 0.240733504
0.818722129 0.296774060 0.249335974
0.848324120 0.305882424 0.259962142
0.881467640 0.318912148 0.269576132
0.910563111 0.331562161 0.281720251
0.943579733 0.344085962 0.297406793
0.983048856 0.355471015 0.313724995
0.000000000 0.179886535 0.100316092
0.002656839 0.174193308 0.112460092
0.012144451 0.172422081 0.113092765
0.036179770 0.172801644 0.111827932
0.079064094 0.173181087 0.115243092
0.112460479 0.176217481 0.115243092
0.154459402 0.180645093 0.122074313
0.193422139 0.185072705 0.126249000
0.226818532 0.188108996 0.127008095
0.260214955 0.191144615 0.130044490
0.293990850 0.194560409 0.130550444
0.328652501 0.199620530 0.135863274
0.363187730 0.205313101 0.142314643
0.393801481 0.211132064 0.145603999
0.424288720 0.214168414 0.145857006
0.453384221 0.219607979 0.150664002
0.488298625 0.225680083 0.158254206
0.530676544 0.232384562 0.167362586
0.561037421 0.241492972 0.176470980
0.594180822 0.248197541 0.185199201
0.623023450 0.255028725 0.190891743
0.650980711 0.264136970 0.196584538
0.687286913 0.273244590 0.208728537
0.720683336 0.285136253 0.220872551
0.752182007 0.291208267 0.229222015
0.784945846 0.298418522 0.238330290
0.820240140 0.309677064 0.252371550
0.838456869 0.318785429 0.258444339
0.874509752 0.332447827 0.265275449
0.908665359 0.345856965 0.274889499
0.940544128 0.356230110 0.288677961
0.980012536 0.362302095 0.312965989
0.000000000 0.207210928 0.118532866
0.000000000 0.204174548 0.130676866
0.009108065 0.202782869 0.127767086
0.031372383 0.204048038 0.122201152
0.069955699 0.206578255 0.121315867
0.115496866 0.209613860 0.127387866
0.148893267 0.207590252 0.129917547
0.184313774 0.209361151 0.132321000
0.217710167 0.212397084 0.133080095
0.251106560 0.215433389 0.136116490
0.287412792 0.221378863 0.139152125
0.319291502 0.226944923 0.141682327
0.351802617 0.231878579 0.144591942
0.384693086 0.235420823 0.145603999
0.418089449 0.238456458 0.151675999
0.453383714 0.243895978 0.156736001
0.486780256 0.249968365 0.164326191
0.521568179 0.256673276 0.173434570
0.551929057 0.265780985 0.182542980
0.585072458 0.274889380 0.188868001
0.618469298 0.277798951 0.195445940
0.650348127 0.282353133 0.202024132
0.684250534 0.291461319 0.211764932
0.717646956 0.300568968 0.223908946
0.751043320 0.310183346 0.236052930
0.783933997 0.319670916 0.244402051
0.817837000 0.330802917 0.252498060
0.850600898 0.337001443 0.261479974
0.882099748 0.346109837 0.272865057
0.914737403 0.358000964 0.283997476
0.945098162 0.368374228 0.295256287
0.976976931 0.374446869 0.306894004
0.007590321 0.232005000 0.129158676
0.000000000 0.236558914 0.131182671
0.002150774 0.235673308 0.132574454
0.027071480 0.236938477 0.130550310
0.067678541 0.239215776 0.131309450
0.108918160 0.237950370 0.130929679
0.144339323 0.240986645 0.134471998
0.176090986 0.236306325 0.132574320
0.210878864 0.237444639 0.131562218
0.249588504 0.242251813 0.134598181
0.280834734 0.248197317 0.147754446
0.313219517 0.250221312 0.148766324
0.345857292 0.255281329 0.151296645
0.380645365 0.259709030 0.153447285
0.414041698 0.262745231 0.161795989
0.449841917 0.268184662 0.165464804
0.484756500 0.274256647 0.172928512
0.518152833 0.280328989 0.180771738
0.550410986 0.287539333 0.186084658
0.583554387 0.294117361 0.194940016
0.618848443 0.301328003 0.202909738
0.650853813 0.303605139 0.209614322
0.681214213 0.309677511 0.217330977
0.714611232 0.318785757 0.229475006
0.750284255 0.327893347 0.241618991
0.785325289 0.335610360 0.249588668
0.818848729 0.345477641 0.255534321
0.848197103 0.355597645 0.266666442
0.879063785 0.361796141 0.275901318
0.912460148 0.370904505 0.286274523
0.944465458 0.383175224 0.298545361
0.976471007 0.394181311 0.310941994
0.006831295 0.261227101 0.139911413
0.002656613 0.262365401 0.133332998
0.003795063 0.267425388 0.136116058
0.016951447 0.266160548 0.134345278
0.062112488 0.267678887 0.139658377
0.110436350 0.264642477 0.140417472
0.144844964 0.263377309 0.144086018
0.176597401 0.269702703 0.138899282
0.207716510 0.264389783 0.136622369
0.247564703 0.267805427 0.141429231
0.278431445 0.270588398 0.147880867
0.312080801 0.275901407 0.154585719
0.341302931 0.277039766 0.154585719
0.376723647 0.282605708 0.157875001
0.414294660 0.287033409 0.168374285
0.446805894 0.292472959 0.171030805
0.480202675 0.298545361 0.178620994
0.513472557 0.305249810 0.187855855
0.546869040 0.312333673 0.192915753
0.581910133 0.315116674 0.196584359
0.615559459 0.321188718 0.207337022
0.650980115 0.328272849 0.216445416
0.679695964 0.332827210 0.223023504
0.711574972 0.341935605 0.230613723
0.745603979 0.347754419 0.241113007
0.782036304 0.356862366 0.253257334
0.817963064 0.363187969 0.258064657
0.847564399 0.373054981 0.269069999
0.877545655 0.381530702 0.278557837
0.909677148 0.387729168 0.287666202
0.941302538 0.396837592 0.298545361
0.973181605 0.410499990 0.313724995
0.000000000 0.292347014 0.151296899
0.002277094 0.290069729 0.140670329
0.002783001 0.291967094 0.141429082
0.019228159 0.295762271 0.142694190
0.049209092 0.293865114 0.143832639
0.108412541 0.291967273 0.150284767
0.147122234 0.288171977 0.153320909
0.180392310 0.289436907 0.153320774
0.210753098 0.296268195 0.144971088
0.244149506 0.293232590 0.154079482
0.275395632 0.293864995 0.154459000
0.307526976 0.297154099 0.155724168
0.342820704 0.301328540 0.159139901
0.370651126 0.304617196 0.159898937
0.411637813 0.310689181 0.171536982
0.444528610 0.317520291 0.175584987
0.475648284 0.322833389 0.180138990
0.509171605 0.328906000 0.192283139
0.543074071 0.337887108 0.201518059
0.576976717 0.339405179 0.203795090
0.612270832 0.343959272 0.209867075
0.644908130 0.349525243 0.218722120
0.678304434 0.358633608 0.227956980
0.709297717 0.367742002 0.232890800
0.741176248 0.373814017 0.238962799
0.776723385 0.379632771 0.249462232
0.812144160 0.387729168 0.260594904
0.845287383 0.393548191 0.269449532
0.878304720 0.400758833 0.279316932
0.910436273 0.409614176 0.289184213
0.940543652 0.417330682 0.300063550
0.967868090 0.426439077 0.315243185
0.000000000 0.316635042 0.160404518
0.009108383 0.316635042 0.154332533
0.004933709 0.316508532 0.156609505
0.014168158 0.318026692 0.156356663
0.049209088 0.321189523 0.149905428
0.097785868 0.327261537 0.159013048
0.136748672 0.322833985 0.155344516
0.173054919 0.320177466 0.154712230
0.207716703 0.320556998 0.157115877
0.238077506 0.320556998 0.160151482
0.271473885 0.323339641 0.160530999
0.300695777 0.326249301 0.160531014
0.331815302 0.328273535 0.162934527
0.367615521 0.328906029 0.169006556
0.401011854 0.334978014 0.178114921
0.432384610 0.343453795 0.184945986
0.464263201 0.349399298 0.190764993
0.500063181 0.353194028 0.198355138
0.545604467 0.359266043 0.210499942
0.573940814 0.362681866 0.216951489
0.607337475 0.369386762 0.222770482
0.641619444 0.376344353 0.227071479
0.672232509 0.379886001 0.227956995
0.705628932 0.388994396 0.240101010
0.736622095 0.398102760 0.245034799
0.771283984 0.406957775 0.252498448
0.809108496 0.415053576 0.263630509
0.839468479 0.418089926 0.269702524
0.877925456 0.421252161 0.281214654
0.913472593 0.429854423 0.293232441
0.943327069 0.441745937 0.306135595
0.964832485 0.453763485 0.321315974
0.000000000 0.355470866 0.163693875
0.000379519 0.346742749 0.169259876
0.005186904 0.344591975 0.163187876
0.014295029 0.348892868 0.166223869
0.046679415 0.356103569 0.167615548
0.097785860 0.354585886 0.176723808
0.138772964 0.355597883 0.163061112
0.173940569 0.353573859 0.162048995
0.208349094 0.354332805 0.166350216
0.240860105 0.356483012 0.169386387
0.268310994 0.353573859 0.169512868
0.303731650 0.352561474 0.171537131
0.335989654 0.353826642 0.174699739
0.369892240 0.356103867 0.180518702
0.397976249 0.362175852 0.184313416
0.431372672 0.365844697 0.191017985
0.463757187 0.372422874 0.198608190
0.497786105 0.377482742 0.206704438
0.536496103 0.383554727 0.216571942
0.565338492 0.389626741 0.220366642
0.598355591 0.394686878 0.224414855
0.634788394 0.401771009 0.231498986
0.669070363 0.406830877 0.239215508
0.702466786 0.413155884 0.243010879
0.735863149 0.419987559 0.246046871
0.768247664 0.427071840 0.252624989
0.804174364 0.434155732 0.264263064
0.839341998 0.439595312 0.272738874
0.877672434 0.447944701 0.284123868
0.908285916 0.451486379 0.299810052
0.937381327 0.461100578 0.311574727
0.964706004 0.475268871 0.318659127
0.004047996 0.382795244 0.174826249
0.000000000 0.383807898 0.170777991
0.002150774 0.379000723 0.176343977
0.020367157 0.375964344 0.172802001
0.053004533 0.383554339 0.175837994
0.101327918 0.385452420 0.176723674
0.138772964 0.384946495 0.179253608
0.174952701 0.386590779 0.174193248
0.206831098 0.386211336 0.177988350
0.237697512 0.386717290 0.178494737
0.271347135 0.383934140 0.180644989
0.302719504 0.386970252 0.180644989
0.338013649 0.383934140 0.184819728
0.370904118 0.384440422 0.190385729
0.398229212 0.383427978 0.191650569
0.428336531 0.395192802 0.197090507
0.460215122 0.398229182 0.204680309
0.493105531 0.403795242 0.211890996
0.528146684 0.409867227 0.216824710
0.562302351 0.413915485 0.224414900
0.595319450 0.419987500 0.229348257
0.631752253 0.426059484 0.234535128
0.667805493 0.432131499 0.245161265
0.697406888 0.438203514 0.246299908
0.732827544 0.444275558 0.255154997
0.767615199 0.450347990 0.259329647
0.801644206 0.456419975 0.270335317
0.836559117 0.462491989 0.279443681
0.871600151 0.471220791 0.289183974
0.905756056 0.478557944 0.301327944
0.934092224 0.483617872 0.319038182
0.966729701 0.496521264 0.327767253
0.007843000 0.408601910 0.188868001
0.001771000 0.413535774 0.183175236
0.006704770 0.414294839 0.182542637
0.024921153 0.413535774 0.186084643
0.064389631 0.410499364 0.186084643
0.108412214 0.414294869 0.181530625
0.143832967 0.416445643 0.183301643
0.177229702 0.415812910 0.187096640
0.210626096 0.418848723 0.193168640
0.238709494 0.416572124 0.191271469
0.271347374 0.415812761 0.190638766
0.304617256 0.416571647 0.192789286
0.336875290 0.420366615 0.191650644
0.370018721 0.417583972 0.197722644
0.398229212 0.413282454 0.199493647
0.427956969 0.417204082 0.203162611
0.458317369 0.425173849 0.208475798
0.489943117 0.428842634 0.217583567
0.523845613 0.434914619 0.219101653
0.560025334 0.439342380 0.228589356
0.594180822 0.445414633 0.230107635
0.629601717 0.452498734 0.238203645
0.665781498 0.458570749 0.247311994
0.695129871 0.463630617 0.249336004
0.727008283 0.469702631 0.257305652
0.763440907 0.475774646 0.268058002
0.799873114 0.481846631 0.277672470
0.833902657 0.487918615 0.287413418
0.867299139 0.495509088 0.296521157
0.901201725 0.505123258 0.307400227
0.933333576 0.510309696 0.318658650
0.969765604 0.518912017 0.336116344
0.007337000 0.441999018 0.201517999
0.001771000 0.445287645 0.201517999
0.012270773 0.445667058 0.200000003
0.037571222 0.447185189 0.201012000
0.076027639 0.448956460 0.200759038
0.115496799 0.445920080 0.200759038
0.150158361 0.448450357 0.201265037
0.183048740 0.448197395 0.200759038
0.216192096 0.446426153 0.201771036
0.249588504 0.449462563 0.207843035
0.277672589 0.452498198 0.203289047
0.306768000 0.453257114 0.202530265
0.337128252 0.453510076 0.204301357
0.367489040 0.453510076 0.201265037
0.397849768 0.453510076 0.207337037
0.428209990 0.451359838 0.211005777
0.458064348 0.449589074 0.214041844
0.488931060 0.450854063 0.217583567
0.525363863 0.456926078 0.226691976
0.562049687 0.462492049 0.238077015
0.595445991 0.470461756 0.238709703
0.626565337 0.479570121 0.236180037
0.659962475 0.488425493 0.248071030
0.693358898 0.491461128 0.254143029
0.724983990 0.496774048 0.262492269
0.757874310 0.502846062 0.271853358
0.794307113 0.508918047 0.280708075
0.830739856 0.514990032 0.292852849
0.864262819 0.521062672 0.302846164
0.899683356 0.530170977 0.313472420
0.935357213 0.540417433 0.324478388
0.971790016 0.543453097 0.333586007
0.001265006 0.475395381 0.219733983
0.001265006 0.481467366 0.219733983
0.023655772 0.478304803 0.206830993
0.055787459 0.478557825 0.205060005
0.093738362 0.482099831 0.212776542
0.121568792 0.473244458 0.209867418
0.158507630 0.480328709 0.214927405
0.189374104 0.481594086 0.213156402
0.218722418 0.479317218 0.209867418
0.249588504 0.479823291 0.210879415
0.282985598 0.482858926 0.216951415
0.311069250 0.481847078 0.212397411
0.340164423 0.481720567 0.213915348
0.370524645 0.483870804 0.219481021
0.400885373 0.483870804 0.216445401
0.431246161 0.483870804 0.220113605
0.458570391 0.481720567 0.223149762
0.484756112 0.481214792 0.225553408
0.513219118 0.487286836 0.226691976
0.552435279 0.487792820 0.233016998
0.591271281 0.494750082 0.244148999
0.625806272 0.503858149 0.249841824
0.656926036 0.512713492 0.257179379
0.690322518 0.515749872 0.263251424
0.725996137 0.521062791 0.271600097
0.759772062 0.527134776 0.282099903
0.794307113 0.533206820 0.292093754
0.830739856 0.539278805 0.295888454
0.861859620 0.545350790 0.310689390
0.898165524 0.551422954 0.321062595
0.933459580 0.560531139 0.329917997
0.962681592 0.570778191 0.336622417
0.002403804 0.506388605 0.230739802
0.014420986 0.510056794 0.223528996
0.040227532 0.509677589 0.221378773
0.071346946 0.508918583 0.215812951
0.105502829 0.514231563 0.224921048
0.136875719 0.511195421 0.221884936
0.169386625 0.502846122 0.226438984
0.199240968 0.508665502 0.225932986
0.227324471 0.508665681 0.222896993
0.259329617 0.510309935 0.226185992
0.287792593 0.513219714 0.224794805
0.317141235 0.512207329 0.228842542
0.345604300 0.510309935 0.225047633
0.376217663 0.512080789 0.228589565
0.408728600 0.514231563 0.229854405
0.434281796 0.516634762 0.231625795
0.463124752 0.515116930 0.230107605
0.489563584 0.512713730 0.229854807
0.518658817 0.515243769 0.229854822
0.549905121 0.518152952 0.235420808
0.587476492 0.521947980 0.243390054
0.623402774 0.529538035 0.253004253
0.654142678 0.537128627 0.259456456
0.692093670 0.542441726 0.272359192
0.723212779 0.543200791 0.276154488
0.758001149 0.551802754 0.286400795
0.791903913 0.559392810 0.298039258
0.828336656 0.563567579 0.304870337
0.864262819 0.569639564 0.311321825
0.898165524 0.575711608 0.322960198
0.932574213 0.585325599 0.334724993
0.958380818 0.600505948 0.346868992
0.017584180 0.536749005 0.238329992
0.041872174 0.539785028 0.235293984
0.055407926 0.543073893 0.230486766
0.093105540 0.540037990 0.224921152
0.120303378 0.544212520 0.232132003
0.148007616 0.543074191 0.232511252
0.179886311 0.540038049 0.237065196
0.209867179 0.537507713 0.241112992
0.235673383 0.539784968 0.235800087
0.268311471 0.542061687 0.239595190
0.294370681 0.543579817 0.241492867
0.323213249 0.544085920 0.239468724
0.350537628 0.541049838 0.241365984
0.380265862 0.540923357 0.238962799
0.411132187 0.543959379 0.240733564
0.440354168 0.545477331 0.243769810
0.466160357 0.550031543 0.243769810
0.494117916 0.547628343 0.239595383
0.524478257 0.547628343 0.240481004
0.553320765 0.547374964 0.239975005
0.585958302 0.552308381 0.249462441
0.622391105 0.556356370 0.257558167
0.653889656 0.561290503 0.263630807
0.690575540 0.565971196 0.274636090
0.724730968 0.572043002 0.280708283
0.757874310 0.574826360 0.287918985
0.791397989 0.585705400 0.300569057
0.826818824 0.589753628 0.311701417
0.863250911 0.595446110 0.319671184
0.893611372 0.601518154 0.325996190
0.930044234 0.609361112 0.338646591
0.956862986 0.626312196 0.357495189
0.044275973 0.568374097 0.243769586
0.075142376 0.570777953 0.247438386
0.088298753 0.574699521 0.247438371
0.105882719 0.576976538 0.244402125
0.142694563 0.574699163 0.236053512
0.160910562 0.572169483 0.241366565
0.187982216 0.571031153 0.246173576
0.216065690 0.572675407 0.249968439
0.243516609 0.574952126 0.252751082
0.273877412 0.574952126 0.249715462
0.299683571 0.574952126 0.253510594
0.327387482 0.574319720 0.254775316
0.357242197 0.575078785 0.252877563
0.384313554 0.572549105 0.253130585
0.411258399 0.575584710 0.253510147
0.441619158 0.574952126 0.254648805
0.469829172 0.576723337 0.255913973
0.497786105 0.581530929 0.254142553
0.528146982 0.581530929 0.257178962
0.556356966 0.580645144 0.253763556
0.586843729 0.582036555 0.257178962
0.618722260 0.586717129 0.265401572
0.655028462 0.586717129 0.271473587
0.688424885 0.589247465 0.277545571
0.721821308 0.596837401 0.283238262
0.757241905 0.605186284 0.290448964
0.793674707 0.610753000 0.302087039
0.827198267 0.616698563 0.317014426
0.861985922 0.622770548 0.326249242
0.893231809 0.629475117 0.335483968
0.919165194 0.635420561 0.342188597
0.955597997 0.647564530 0.363441020
0.068564035 0.604806960 0.246805996
0.089816421 0.604806960 0.252878010
0.103478804 0.605059981 0.256546795
0.123466343 0.604301214 0.259076774
0.157874987 0.602024436 0.260341555
0.176090971 0.605060041 0.257305950
0.199367628 0.602530360 0.257559001
0.224161968 0.603036284 0.258064985
0.249462113 0.605313003 0.259076834
0.276913047 0.605313003 0.261859506
0.307273775 0.605313003 0.258823901
0.335104227 0.603289306 0.260594726
0.363820255 0.603922009 0.261985987
0.393421948 0.608981967 0.262239009
0.417709947 0.612017572 0.265275389
0.449462414 0.607842982 0.263251156
0.478051960 0.605313003 0.263757199
0.503858149 0.605819046 0.266287357
0.534219027 0.605819046 0.269322991
0.564579725 0.611385047 0.272359371
0.594686985 0.612902999 0.274636239
0.623276293 0.614421189 0.276407152
0.648956478 0.617078006 0.274509996
0.682352901 0.617078006 0.280582011
0.715749264 0.624162316 0.291207969
0.751928926 0.633270264 0.302592963
0.790639043 0.641113102 0.314231068
0.827071786 0.644149542 0.323339432
0.857937932 0.650095046 0.330296993
0.890575111 0.657938242 0.341935217
0.921441853 0.665022373 0.352814615
0.949526012 0.668817043 0.357369006
0.095635369 0.641239703 0.266540378
0.111321755 0.638456404 0.269829005
0.128273144 0.636306167 0.273750782
0.143706530 0.635673761 0.272992015
0.169513002 0.634914875 0.271094352
0.182922006 0.637950480 0.270461917
0.213788956 0.638456404 0.275016010
0.235547364 0.635673761 0.270588309
0.259076566 0.636432648 0.268690675
0.288425207 0.638456404 0.273750544
0.310310096 0.638456404 0.276533902
0.340670347 0.636432707 0.277546287
0.369892299 0.635673761 0.278305084
0.399747044 0.639342070 0.276407361
0.424035698 0.637318373 0.274383068
0.450727493 0.640353978 0.277419478
0.478810996 0.639974594 0.275142193
0.504364133 0.640607119 0.276280791
0.534725010 0.638456404 0.281467766
0.565085709 0.641239703 0.278937370
0.597343683 0.643516719 0.283870995
0.628589630 0.645540714 0.288804352
0.656673372 0.650221407 0.291207999
0.687412918 0.650221407 0.291967005
0.716255248 0.652498662 0.298039019
0.750031292 0.659203351 0.307779640
0.787602723 0.666413784 0.318532348
0.824035466 0.671726823 0.329917431
0.857811391 0.677419364 0.339025825
0.888298333 0.683491349 0.345224321
0.922453940 0.690701962 0.360025197
0.957368672 0.695635378 0.376344383
0.126755208 0.673877478 0.285894990
0.136242852 0.670841038 0.283238351
0.151423246 0.667805195 0.290069491
0.165338472 0.666034460 0.289310724
0.184693277 0.666034460 0.283997715
0.201391459 0.667552292 0.283997715
0.221758217 0.671853185 0.283365011
0.246932670 0.670208454 0.286148012
0.268943846 0.668690860 0.283111721
0.300442964 0.671726704 0.291460752
0.320177108 0.668058217 0.287033588
0.347501725 0.671726763 0.291967273
0.374446392 0.669829488 0.292726338
0.402783036 0.672106147 0.290449023
0.432005048 0.672359109 0.292346328
0.458697021 0.670335412 0.288424790
0.487539619 0.671853185 0.289942980
0.512586892 0.673244894 0.287918717
0.540417731 0.670208454 0.291461170
0.572675705 0.672738850 0.294876635
0.601138711 0.675774693 0.295635730
0.632511139 0.674762845 0.298671603
0.661733270 0.677925467 0.301960498
0.688551784 0.677925467 0.303731740
0.720430017 0.680202246 0.306387991
