Assets/EldamarStudio/100 Retro LUTs Pack/LUTs/cube/Linda LUT.cube
LUT_3D_SIZE 5
DOMAIN_MIN 0.000000 0.000000 0.000000
DOMAIN_MAX 0.903226 0.903226 0.903226
0.000000000 0.043136999 0.066666998
0.206325114 0.111448288 0.119291708
0.433523387 0.143832996 0.133332998
0.655281246 0.219734251 0.192283258
0.880202472 0.296900988 0.262871832
0.006831295 0.261227101 0.139911413
0.176597401 0.269702703 0.138899282
0.414294660 0.287033409 0.168374285
0.650980115 0.328272849 0.216445416
0.877545655 0.381530702 0.278557837
0.001265006 0.475395381 0.219733983
0.189374104 0.481594086 0.213156402
0.400885373 0.483870804 0.216445401
0.625806272 0.503858149 0.249841824
0.861859620 0.545350790 0.310689390
0.157115996 0.704237998 0.297027111
0.259076387 0.701581419 0.296267986
0.437191516 0.706514716 0.306640983
0.636559129 0.708159268 0.313852012
0.857305765 0.733333290 0.349525541
0.386211574 0.922074616 0.439594805
0.436432749 0.923086524 0.440859944
0.546868742 0.921947896 0.450094610
0.703985095 0.927514076 0.464389622
0.876280785 0.932447612 0.484250605
0.002277292 0.107526705 0.260847390
0.182163119 0.128146991 0.237697676
0.382542402 0.199114710 0.265781134
0.611385286 0.275901258 0.316761255
0.850094795 0.351422936 0.361543566
0.000000000 0.252371997 0.237317979
0.185072407 0.271347404 0.263504416
0.375079066 0.298165798 0.278178275
0.605186582 0.351802826 0.318785280
0.855660915 0.411638528 0.369512975
0.122074679 0.457685411 0.300695568
0.223655984 0.465275109 0.306641400
0.393042356 0.471473366 0.306641400
0.601264954 0.500569105 0.334472120
0.850095034 0.553573668 0.388108522
0.234408692 0.693485141 0.373687714
0.298291832 0.691208303 0.370525122
0.450980097 0.694117725 0.373054683
0.629728258 0.699051261 0.381150812
0.847944260 0.732700944 0.415053785
0.424794406 0.919417739 0.490575641
0.467425466 0.919923782 0.490828663
0.566097438 0.919417739 0.497406483
0.710562944 0.923972070 0.503352225
0.879316688 0.928525925 0.518658817
0.054396398 0.158253998 0.443389952
0.230866387 0.183428109 0.430234402
0.400885403 0.223023400 0.413282812
0.606957257 0.294243991 0.439468384
0.829854369 0.389120549 0.488425225
0.139405385 0.308665395 0.408349097
0.238076985 0.312207699 0.402782977
0.384819657 0.325616419 0.404048413
0.587602913 0.373054832 0.437824100
0.822011232 0.460088521 0.502213418
0.174066812 0.462365389 0.414547831
0.258317381 0.464262962 0.416192085
0.424415201 0.488425374 0.438076973
0.595066249 0.516255498 0.465907544
0.824035585 0.581404269 0.516002357
0.306514680 0.680075943 0.479063690
0.368627518 0.680075824 0.487286389
0.481340796 0.679064095 0.489437282
0.625806272 0.690195978 0.500189841
0.838077068 0.733333290 0.541429579
0.495888591 0.905629218 0.576091170
0.523339748 0.911575019 0.581024528
0.606957614 0.910183787 0.590512455
0.729791224 0.918405890 0.597975910
0.885515451 0.923972189 0.608855188
0.207084119 0.257052243 0.629728258
0.305123687 0.272359550 0.626059532
0.465654790 0.298545271 0.612017989
0.648324132 0.330550104 0.607210398
0.845920324 0.403541803 0.628083110
0.252751291 0.377355844 0.606198251
0.324098527 0.383807421 0.604807019
0.468311220 0.390385985 0.599999964
0.630107522 0.406451702 0.597975731
0.836432636 0.474889219 0.626059413
0.292093694 0.527387679 0.598355293
0.354585648 0.524098635 0.589247406
0.487286806 0.540417135 0.593801379
0.625553429 0.548007786 0.590512276
0.827324450 0.597975910 0.639595032
0.345351011 0.682732284 0.609234333
0.391144842 0.686653793 0.599241138
0.514357686 0.688551247 0.609487712
0.673877120 0.709171116 0.638457179
0.848197579 0.744085789 0.662744939
0.520430088 0.908285797 0.684376955
0.550411105 0.909171700 0.686654091
0.639342070 0.909297943 0.694496930
0.756736100 0.911574781 0.698418796
0.892725945 0.920050621 0.711195052
0.379506618 0.388614774 0.831751823
0.437318325 0.392789483 0.826565623
0.565718174 0.414041340 0.825933039
0.736369252 0.448070794 0.821252584
0.906388581 0.486653805 0.819987416
0.425932765 0.485009491 0.821631789
0.469070196 0.488931060 0.820999324
0.584440291 0.499683797 0.813788474
0.737380922 0.518785775 0.809993625
0.899556994 0.537634313 0.806957603
0.491461009 0.630486727 0.810878813
0.533206761 0.636052847 0.801897526
0.622011304 0.642251730 0.806957722
0.750917196 0.647438645 0.804680467
0.892726123 0.654016614 0.811005592
0.502593100 0.770904243 0.806198776
0.540670455 0.768500805 0.812776625
0.630486727 0.773308039 0.809613943
0.759012878 0.774952650 0.803162396
0.890701950 0.780771613 0.806578100
0.539025784 0.927260756 0.808222711
0.573940456 0.923971891 0.811638355
0.660594583 0.913472354 0.810878754
0.785831928 0.918405890 0.815685928
0.922074556 0.924477756 0.837064803
