Assets/EldamarStudio/100 Retro LUTs Pack/LUTs/cube/Lisa LUT.cube
LUT_3D_SIZE 5
DOMAIN_MIN 0.000000 0.000000 0.000000
DOMAIN_MAX 0.903226 0.903226 0.903226
0.003922000 0.047059000 0.133332998
0.227577403 0.064389706 0.126122996
0.483238369 0.100695997 0.122834004
0.710183263 0.138266861 0.112713128
0.948260427 0.155597836 0.103225842
0.005566289 0.288677692 0.122201003
0.188361391 0.291967124 0.123845711
0.465907663 0.294876397 0.118912004
0.716381967 0.296521097 0.110689297
0.939405322 0.300695837 0.087539844
0.000000000 0.532953382 0.077040017
0.113851979 0.527387679 0.076660305
0.450601220 0.530297399 0.057432011
0.697407126 0.526375413 0.029854603
0.931182742 0.515876412 0.002530012
0.003922000 0.745477259 0.000000000
0.003542126 0.747754514 0.000000000
0.399367511 0.748639822 0.000000000
0.669956148 0.746363103 0.006831130
0.916761637 0.741808951 0.004301294
0.005312988 0.948007762 0.001265167
0.004174720 0.953067482 0.004933705
0.337380975 0.952688217 0.000632584
0.625427127 0.951043487 0.000000000
0.885388970 0.946742654 0.002656833
0.000000000 0.049335711 0.263124704
0.229222119 0.069322996 0.250094712
0.473118097 0.105629273 0.249462277
0.718911648 0.151043430 0.241619542
0.944212615 0.167362154 0.223529413
0.002277292 0.288045704 0.236306295
0.200758979 0.292599708 0.248070702
0.463630795 0.296521097 0.240227714
0.709171116 0.302719980 0.224541709
0.941302717 0.303984851 0.217710420
0.000000000 0.525363684 0.214421406
0.117773399 0.529664397 0.211131990
0.443010688 0.532574117 0.206830874
0.694750130 0.525363505 0.195066541
0.930803061 0.515876234 0.186337575
0.001644708 0.754206538 0.158253983
0.018722568 0.753952861 0.145730570
0.409108073 0.749651968 0.146995559
0.670588493 0.746363103 0.137128562
0.923212945 0.743453264 0.101960994
0.003288997 0.951928794 0.033017129
0.001644708 0.951043665 0.020999569
0.347881258 0.952941120 0.014800696
0.632005036 0.951043546 0.000632580
0.883491397 0.947501779 0.001644708
0.036053404 0.073244996 0.424415231
0.252751678 0.087919287 0.426312804
0.479949802 0.116381995 0.417836398
0.724224925 0.142567843 0.414168268
0.946868777 0.177229404 0.404174656
0.001644708 0.293232143 0.405945390
0.226312399 0.292599708 0.416824698
0.475395381 0.298165411 0.419101834
0.718279600 0.302087426 0.404680401
0.944591880 0.319418103 0.397849530
0.006577994 0.523719370 0.408728391
0.159013391 0.527007997 0.405060112
0.463630378 0.530297399 0.398229212
0.699051380 0.530297399 0.392030120
0.932447612 0.519164979 0.386464238
0.002530012 0.750664234 0.376597404
0.085388765 0.750284374 0.376344085
0.424414784 0.744085848 0.370777786
0.676786959 0.750917137 0.364832401
0.925616503 0.745097935 0.359898657
0.005312988 0.951296389 0.355218232
0.001644708 0.953952968 0.342567980
0.376596957 0.949398816 0.338646144
0.644149423 0.949019551 0.336369276
0.893864393 0.950031400 0.335610360
0.132574126 0.106894128 0.618975103
0.276281118 0.118659131 0.613030136
0.499936521 0.136622414 0.615939260
0.732701123 0.157874867 0.612144291
0.949146092 0.187349692 0.597722948
0.082100295 0.293611825 0.612397552
0.268184841 0.296521097 0.615306854
0.490448982 0.300063401 0.612017870
0.725236833 0.303352565 0.609361410
0.949525356 0.318152696 0.600000024
0.001012128 0.525363564 0.602276862
0.224288255 0.528399408 0.604301274
0.480961680 0.530297399 0.609487712
0.714105248 0.530929804 0.601644695
0.933459878 0.532194853 0.598735094
0.000000000 0.754206121 0.593422115
0.166729555 0.749019504 0.591777384
0.458696932 0.747375250 0.591777384
0.696394980 0.743453264 0.586590946
0.938646317 0.733965933 0.588614941
0.001012128 0.953699887 0.576723456
0.112334102 0.953320384 0.574573159
0.433522791 0.949146092 0.581657112
0.674256802 0.946489632 0.580645382
0.909930468 0.943073988 0.576850295
0.202782974 0.134724990 0.834534764
0.313598692 0.138899282 0.828842521
0.515243828 0.151676163 0.829221785
0.737887263 0.163440838 0.823276639
0.971789777 0.173814163 0.831878603
0.181909800 0.301075697 0.832131684
0.304617435 0.299810529 0.833016992
0.507399976 0.306641400 0.830740094
0.737634242 0.311195374 0.828842700
0.971410334 0.314737707 0.830866516
0.096648015 0.521821797 0.829348564
0.288804531 0.524731100 0.830233932
0.505502403 0.529664814 0.823908806
0.732068360 0.532574058 0.823908806
0.966603577 0.527640581 0.821378589
0.003922000 0.748007298 0.817457438
0.188235402 0.745098114 0.819354653
0.466919363 0.739784956 0.821758330
0.716382086 0.741176307 0.818342626
0.946489453 0.739531994 0.816192567
0.003795180 0.963820636 0.801644623
0.062745154 0.961163759 0.797596514
0.434788257 0.956609309 0.797722995
0.699683785 0.949398816 0.802024126
0.929917574 0.940164804 0.812143803
