Assets/EldamarStudio/100 Retro LUTs Pack/LUTs/cube/Lisa LUT.cube
LUT_3D_SIZE 8
DOMAIN_MIN 0.000000 0.000000 0.000000
DOMAIN_MAX 0.903226 0.903226 0.903226
0.003922000 0.047059000 0.133332998
0.107274093 0.043516546 0.133332998
0.265528202 0.065907903 0.123086996
0.408096254 0.091334641 0.129411995
0.548513353 0.110436186 0.123972192
0.679822743 0.135230735 0.117773518
0.814927518 0.149020001 0.113724999
0.948260427 0.155597836 0.103225842
0.000000000 0.188868091 0.129411995
0.078304999 0.184566543 0.114863545
0.256167203 0.188867986 0.126628533
0.396331370 0.199114189 0.119164996
0.546110153 0.198608533 0.124731191
0.683997273 0.212776735 0.119165190
0.815180123 0.220746249 0.107653297
0.945857048 0.223908827 0.094244488
0.006325001 0.322074294 0.117647000
0.009614540 0.322453737 0.126755357
0.225553289 0.329158992 0.120809905
0.382289380 0.322074294 0.121189356
0.531182468 0.325996310 0.113093004
0.678937674 0.327893823 0.105123095
0.811891198 0.331562370 0.095003195
0.941682577 0.327261269 0.082985654
0.002783356 0.459582627 0.098545358
0.000379548 0.457558274 0.098925002
0.203162536 0.462744832 0.095382646
0.368880272 0.469070643 0.087286718
0.524098396 0.458823740 0.079316907
0.664769113 0.458823532 0.068058267
0.803795218 0.458444268 0.054775648
0.933586240 0.453004479 0.032005236
0.000000000 0.594054163 0.027071625
0.000000000 0.594433725 0.028969172
0.159013182 0.594813287 0.019101910
0.354712069 0.592789590 0.020240460
0.517140985 0.593169153 0.007210811
0.656546295 0.589247167 0.000000000
0.795319557 0.586843371 0.000000000
0.925110579 0.583807349 0.003035997
0.003922000 0.715116739 0.000000000
0.002024260 0.718532264 0.000000000
0.068057999 0.715875804 0.000000000
0.317647040 0.717773318 0.000000000
0.490449190 0.717014432 0.003922000
0.634535491 0.719038665 0.003794996
0.783681095 0.717014432 0.002277288
0.918279588 0.709171474 0.000000000
0.001644712 0.842378557 0.001644712
0.000000000 0.840101302 0.004933716
0.014548000 0.838456571 0.000000000
0.295888633 0.835673928 0.005566002
0.461480290 0.836938381 0.003795093
0.615939200 0.837823987 0.001897740
0.760025561 0.834535003 0.003922000
0.909550786 0.837191761 0.002277288
0.005312988 0.948007762 0.001265167
0.002656833 0.953320801 0.008475989
0.003415743 0.953320801 0.005692725
0.235673666 0.955723941 0.005060025
0.433776170 0.953446984 0.002656833
0.591271639 0.953320801 0.000000000
0.743200481 0.952941239 0.001265167
0.885388970 0.946742654 0.002656833
0.007084001 0.043136999 0.199493647
0.107274093 0.043895997 0.199114099
0.265148640 0.071347095 0.205439910
0.405439734 0.098292351 0.196837187
0.542062283 0.121568806 0.180645347
0.685642004 0.141935095 0.183175549
0.817583859 0.155218288 0.171030998
0.942062020 0.165970847 0.160404846
0.000000000 0.181404546 0.197596103
0.069196634 0.188488543 0.194054544
0.253383726 0.189247549 0.198355094
0.397217184 0.198229089 0.180265993
0.544591963 0.207337543 0.185958192
0.678557992 0.215559989 0.174446538
0.816445291 0.222643986 0.165970549
0.947501421 0.227830261 0.155471414
0.000000000 0.326375633 0.178747892
0.007590088 0.329159111 0.181530550
0.236559182 0.322074294 0.174067095
0.386211187 0.325616658 0.180012450
0.539784968 0.326755106 0.172169358
0.675395250 0.329918087 0.161163747
0.809740782 0.332700670 0.153700292
0.932321310 0.331056267 0.143073648
0.008728907 0.463883370 0.159266099
0.001138644 0.456419796 0.160404548
0.204427183 0.460341722 0.156863004
0.376091272 0.459962279 0.152941003
0.528146446 0.456419826 0.150284454
0.670335174 0.460847467 0.140037730
0.804427683 0.460088551 0.130297184
0.933839619 0.455407888 0.118912071
0.001138644 0.593548596 0.121821716
0.000000000 0.597596586 0.125996158
0.154965088 0.595951796 0.113472365
0.350917190 0.600758851 0.114611007
0.516635001 0.595192790 0.109930202
0.656546414 0.587222934 0.099430457
0.793674827 0.585831642 0.084883101
0.929158568 0.583048582 0.068184473
0.000000000 0.717393875 0.058696728
0.001518192 0.716888011 0.052624978
0.073118262 0.720556557 0.046426367
0.328652620 0.719418049 0.044908177
0.487792641 0.720556557 0.026945107
0.638077021 0.714990735 0.013788646
0.783554554 0.716508567 0.004301257
0.918659031 0.711322069 0.001265167
0.000379548 0.836938381 0.000379548
0.007463549 0.837444544 0.000379548
0.016318737 0.841745555 0.002024260
0.289436817 0.840860367 0.001897547
0.465148807 0.838456571 0.002024260
0.616698205 0.839342177 0.000758999
0.760784566 0.836432755 0.002024260
0.907779753 0.839721739 0.000000000
0.003542452 0.945857227 0.005312988
0.000379548 0.958506942 0.006831273
0.000000010 0.954459250 0.005060156
0.245414317 0.952055633 0.003795180
0.432384402 0.952055633 0.001138640
0.594433963 0.951676071 0.000000000
0.741935313 0.945224345 0.002277285
0.883744359 0.942820907 0.000758999
0.001517998 0.047817905 0.279823095
0.108412541 0.059582900 0.282226086
0.267173082 0.079949193 0.278178185
0.413662285 0.099557094 0.281846642
0.547628164 0.116002284 0.268817186
0.682479322 0.137127995 0.261100709
0.816571832 0.164579093 0.257937819
0.942947447 0.172169253 0.250600845
0.000000000 0.185705081 0.273877561
0.081720546 0.185705081 0.270335197
0.252624750 0.195572540 0.276280642
0.407842815 0.200252637 0.268058091
0.544212639 0.209740654 0.265401661
0.683617711 0.220619723 0.258696884
0.815939069 0.231625542 0.255534172
0.944971502 0.233016998 0.241998866
0.000000000 0.325237215 0.253763169
0.015053733 0.322453737 0.258570284
0.234155178 0.326755196 0.260215104
0.394433826 0.325616568 0.263377994
0.536749184 0.331435919 0.253889889
0.678558052 0.333080173 0.250854105
0.809993804 0.333080173 0.243643284
0.943580091 0.335610181 0.236432746
0.000379549 0.460341722 0.252751440
0.000000000 0.459962189 0.247691184
0.213029996 0.463124365 0.242884189
0.376723289 0.462365270 0.244528994
0.526502252 0.459203154 0.246173188
0.668690860 0.460721284 0.235926807
0.802782953 0.458823621 0.228083387
0.936369658 0.455281377 0.224288195
0.000000000 0.599620342 0.229601383
0.000758999 0.591144741 0.227324188
0.173055097 0.591524243 0.232890800
0.366729975 0.590765357 0.219481289
0.512333989 0.592410028 0.215560108
0.654143155 0.588867843 0.212017640
0.796078503 0.587729216 0.211005896
0.931941807 0.582669020 0.202024177
0.001897741 0.721062481 0.193927735
0.001138644 0.726502180 0.204301268
0.104743995 0.720050395 0.191271096
0.329285026 0.719038665 0.197216928
0.490954936 0.718279600 0.189373642
0.643263519 0.712207377 0.183175087
0.785452068 0.716634989 0.173181474
0.920176864 0.712334096 0.160151720
0.000759096 0.841745555 0.164832115
0.000379548 0.840354264 0.154459208
0.024288371 0.840986431 0.159266204
0.298165649 0.836812079 0.151802465
0.472359270 0.836938322 0.149904996
0.622897208 0.836179256 0.140796930
0.760151684 0.832258284 0.125616908
0.911954701 0.840480685 0.093358584
0.003794989 0.953953028 0.089943290
0.000758999 0.955597460 0.083617672
0.004174844 0.949525714 0.077672414
0.254648834 0.956483006 0.073244944
0.441745579 0.954964757 0.063630506
0.594560385 0.950537503 0.041619420
0.744971573 0.949019313 0.029854748
0.890575767 0.943959773 0.015559926
0.005692640 0.063883640 0.371537000
0.142568097 0.070082352 0.373055071
0.275395453 0.090575650 0.371789724
0.410878927 0.104237996 0.365970999
0.559012949 0.119165190 0.366476625
0.690322399 0.133206993 0.367615372
0.822770298 0.152435347 0.353067636
0.944085836 0.172802016 0.349905133
0.000379548 0.193927646 0.366729975
0.109550998 0.196331546 0.367489100
0.256419718 0.197090536 0.372675538
0.402656376 0.203035995 0.365591556
0.553194284 0.207716987 0.365212083
0.686021745 0.215180546 0.357368886
0.815180242 0.225300342 0.353320569
0.943579972 0.237571105 0.349399269
0.009108454 0.325237185 0.373434633
0.072359450 0.325996190 0.366350532
0.243896633 0.328399897 0.356483161
0.399114728 0.325616747 0.357369095
0.545604050 0.326375663 0.358886987
0.679569900 0.331435978 0.356230527
0.810625970 0.338646293 0.348892897
0.940290630 0.341302752 0.341682464
0.000000000 0.455155283 0.353067636
0.004933544 0.461985826 0.346363097
0.224035278 0.462365270 0.355092019
0.385704935 0.460721284 0.349145621
0.530044019 0.466287285 0.347248316
0.665907443 0.463503927 0.337634385
0.804300904 0.464010000 0.339531988
0.939152300 0.457305640 0.335863441
0.004807003 0.595572352 0.341050088
0.002403808 0.593548596 0.337002009
0.171663746 0.598735154 0.333713084
0.365338713 0.595572352 0.336243093
0.521441936 0.597090185 0.329917908
0.664136708 0.592030406 0.324857652
0.797975957 0.588108838 0.324478090
0.932321370 0.582289517 0.317520261
0.004553996 0.721315742 0.318912178
0.002276998 0.720303416 0.319417715
0.148513362 0.719417989 0.316128850
0.341935515 0.718279600 0.314357877
0.497153819 0.718659163 0.313851863
0.648450673 0.719038725 0.315496534
0.791651070 0.714231610 0.305502862
0.924604654 0.709677756 0.303352386
0.002277288 0.835673690 0.302087635
0.000759096 0.843137383 0.295888454
0.069449753 0.835799873 0.295509279
0.314990282 0.836179614 0.290322363
0.478684396 0.838456571 0.297659725
0.628842533 0.835040927 0.289943099
0.769513011 0.834535003 0.290322632
0.915243447 0.836938500 0.274383008
0.003795186 0.952182174 0.268817276
0.000759096 0.958001018 0.266160250
0.010626195 0.953700185 0.276660174
0.279316932 0.952434778 0.272738993
0.450727642 0.953193963 0.267172903
0.601771057 0.948893011 0.260088384
0.747754633 0.945604026 0.251613110
0.896014929 0.944465697 0.241745651
0.066413797 0.077546000 0.476407200
0.158887088 0.091714188 0.475268841
0.293864995 0.095509090 0.476407409
0.421884805 0.118785642 0.470967978
0.557874560 0.130929798 0.474004000
0.696900904 0.142188638 0.466793448
0.826818466 0.159139708 0.460215092
0.944844842 0.177482828 0.451739550
0.014421180 0.201138556 0.462618828
0.147627920 0.199873090 0.468437552
0.285641849 0.201770738 0.480708629
0.417204529 0.209234908 0.478052080
0.548766673 0.213915095 0.471347660
0.694244087 0.217457339 0.465401560
0.823908925 0.225300342 0.462239176
0.950790524 0.238456830 0.452245831
0.007969908 0.328273207 0.478811175
0.115369819 0.323086649 0.470714718
0.259202987 0.326755196 0.470968187
0.406704366 0.329032093 0.466666728
0.550031543 0.329158992 0.466287285
0.684376836 0.335863352 0.463504046
0.817204475 0.340164274 0.454396009
0.946109831 0.346742451 0.456673265
0.000000000 0.458823651 0.469070613
0.049209192 0.462365389 0.470714629
0.245035097 0.462744832 0.464769185
0.394307643 0.461100727 0.460341632
0.541049838 0.461480290 0.461226761
0.672612250 0.463503927 0.458064437
0.807463527 0.469829470 0.452624947
0.938519776 0.466666818 0.450474381
0.003035997 0.594054163 0.453510374
0.006071994 0.596078634 0.446299732
0.212144196 0.598735094 0.450474381
0.380645275 0.592409968 0.449335724
0.528020382 0.595572352 0.448071182
0.666413963 0.591271400 0.447058946
0.801644325 0.588615000 0.440480977
0.929411650 0.582668960 0.442378372
0.001518192 0.722200751 0.431372464
0.004427552 0.716888189 0.443896413
0.192915827 0.714990556 0.438203752
0.367236078 0.717520535 0.441492826
0.508538961 0.714611173 0.434914380
0.649082720 0.714990735 0.434788376
0.794813037 0.716634989 0.432005107
0.931435943 0.707273781 0.429348469
0.001644712 0.839089572 0.430107653
0.000379548 0.838456571 0.427704185
0.164453000 0.838583052 0.432637423
0.336116254 0.839215696 0.421125829
0.496015370 0.838456571 0.428716183
0.635800183 0.835420310 0.419734538
0.776470482 0.834535003 0.415939480
0.923086643 0.834408581 0.410626084
0.000000000 0.952055633 0.411764354
0.001265167 0.952434957 0.406830907
0.050853960 0.951802790 0.405186534
0.306641459 0.952561617 0.411005735
0.468437552 0.949146152 0.410246551
0.616318882 0.950284541 0.404301107
0.758760273 0.946995616 0.399999946
0.903731763 0.945477784 0.403036028
0.119417734 0.101833992 0.587602437
0.192409635 0.109297544 0.589626729
0.311954290 0.115622737 0.591271758
0.430107385 0.128526092 0.588361621
0.560151458 0.141049996 0.582542777
0.699304223 0.150790736 0.583807468
0.826312542 0.163314253 0.577229738
0.948133945 0.186337873 0.571157575
0.094497181 0.202150285 0.577735722
0.177735269 0.209867358 0.587349772
0.296141893 0.206198812 0.590132952
0.426312298 0.212397188 0.586464107
0.558633626 0.213535741 0.583681405
0.697406471 0.224541351 0.585325658
0.828462839 0.232384831 0.577861786
0.953194082 0.241745725 0.571030736
0.038077101 0.328779459 0.581024647
0.150284380 0.328020453 0.578115225
0.282099992 0.328652740 0.586464107
0.415180296 0.329538465 0.585325658
0.556989312 0.333080202 0.581657171
0.692346573 0.337761104 0.579506695
0.822770536 0.340923190 0.569259882
0.949272752 0.348007292 0.567109346
0.002783356 0.462365270 0.576217771
0.114484638 0.463630617 0.580518603
0.263630629 0.462745041 0.569133639
0.406072021 0.462239295 0.577861726
0.547628343 0.464642286 0.575837970
0.680455625 0.465401381 0.570777893
0.809740782 0.468184739 0.568754077
0.939152300 0.473244905 0.566097498
0.004554189 0.592536390 0.574320197
0.020872990 0.594181061 0.568754017
0.245540842 0.591271579 0.567868352
0.392536193 0.595192909 0.569259882
0.544212401 0.595572352 0.568880439
0.671094000 0.591650963 0.567995012
0.804554284 0.592536449 0.568500936
0.935737073 0.593169153 0.564073265
0.000000000 0.724857509 0.564073443
0.003415545 0.721821487 0.554712296
0.221632093 0.720936000 0.562175691
0.376217514 0.719797611 0.562934875
0.524984360 0.717014492 0.561163962
0.659962237 0.713092983 0.558254182
0.801770806 0.712840021 0.560151458
0.933839619 0.701328456 0.556230485
0.000000000 0.843896270 0.551802933
0.001518192 0.836812317 0.550664365
0.201265082 0.840101480 0.554332614
0.369639546 0.836053193 0.549778461
0.518279612 0.834282041 0.561037242
0.651739180 0.832258284 0.551675975
0.787097037 0.830613554 0.555091918
0.927514076 0.834155440 0.547881246
0.000759092 0.954458952 0.541555762
0.001518092 0.948639989 0.539658487
0.165717989 0.950284719 0.543200493
0.355091512 0.950917006 0.553447068
0.492726088 0.947880983 0.543959439
0.636306405 0.947501540 0.544212639
0.771663547 0.945477784 0.540796995
0.908412337 0.943580031 0.541429400
0.162048995 0.125489995 0.709677577
0.223276094 0.123845704 0.712333977
0.318785310 0.132447794 0.708286285
0.443390280 0.143959358 0.707906663
0.569512844 0.144971475 0.705755532
0.700948894 0.158760265 0.705250025
0.835167587 0.165337995 0.701834559
0.958633780 0.186970159 0.692979157
0.148766473 0.207969546 0.707273960
0.214547992 0.212903261 0.703099251
0.317267299 0.210752800 0.706009150
0.438836008 0.219481081 0.709044993
0.567235947 0.219101533 0.705882490
0.701328337 0.228462830 0.705123544
0.833523273 0.230866536 0.699303806
0.960911036 0.242631540 0.692093670
0.117140979 0.329032302 0.705123544
0.189879641 0.335357279 0.701328039
0.306388110 0.335357279 0.704996645
0.432384551 0.335357279 0.703099012
0.562428772 0.338520020 0.700316370
0.693864584 0.335357279 0.701201618
0.829854488 0.336116374 0.700442433
0.952434778 0.349525481 0.690322518
0.077419281 0.460721254 0.697280288
0.162808195 0.461226910 0.705250084
0.297280550 0.462365568 0.699683607
0.422138274 0.463503927 0.702340186
0.556103408 0.464642286 0.699557304
0.690069318 0.464389533 0.699177682
0.825047255 0.470209002 0.697280288
0.945477784 0.470082194 0.688298643
0.004807003 0.589247167 0.694750071
0.111195281 0.590512335 0.698292077
0.268564403 0.587602615 0.694750011
0.409867108 0.589247167 0.691840351
0.552308440 0.596331298 0.692473173
0.685642004 0.590512633 0.694749773
0.815686405 0.590765119 0.692599297
0.937507868 0.593548596 0.689816713
0.001897740 0.719418168 0.691714287
0.007590089 0.727387428 0.689437091
0.227071390 0.721695065 0.687033415
0.386337996 0.722074628 0.689942837
0.535736442 0.717014432 0.691714168
0.672232747 0.712713420 0.686274529
0.808222651 0.711575210 0.689689994
0.931562304 0.708286166 0.683491766
0.001644712 0.843010545 0.676027894
0.005186744 0.837317824 0.682479262
0.203668177 0.842378557 0.679317296
0.374952614 0.842884243 0.680455685
0.521568477 0.836938381 0.676660240
0.667552173 0.832258284 0.684756517
0.798228800 0.828336298 0.685515523
0.928146541 0.824415267 0.675142586
0.000000000 0.954711735 0.670841098
0.003289011 0.952055633 0.665528297
0.208475530 0.947880983 0.664009929
0.372042984 0.949652135 0.672106266
0.519544482 0.951296568 0.672991633
0.661606908 0.945857227 0.685136080
0.785072863 0.945098221 0.677293003
0.918406188 0.942441523 0.681467533
0.202782974 0.134724990 0.834534764
0.247311831 0.139278844 0.832257986
0.344718188 0.142694190 0.833649576
0.455281466 0.146236643 0.830486953
0.577356339 0.155597836 0.830233991
0.703225732 0.163188010 0.824541509
0.841366291 0.169639438 0.829221785
0.971789777 0.173814163 0.831878603
0.191524133 0.215686232 0.833775759
0.237065256 0.216445401 0.825174034
0.335357070 0.217836693 0.827703774
0.451865822 0.219734535 0.829221845
0.577482581 0.226565093 0.834029078
0.709677756 0.229221925 0.833269775
0.836812317 0.231499106 0.826565623
0.965844512 0.235420540 0.823656082
0.179632902 0.331182927 0.832637489
0.232764378 0.335104376 0.834661484
0.334218830 0.331941843 0.830486953
0.448703349 0.337002009 0.830486953
0.572422564 0.337002009 0.826944828
0.703984797 0.339784831 0.824541390
0.837697446 0.339278907 0.825047433
0.968121409 0.342820942 0.830107749
0.160531178 0.465148628 0.827324569
0.228463262 0.462492198 0.826059401
0.328146756 0.462998003 0.823908806
0.446552813 0.465022117 0.830992997
0.569512963 0.466287285 0.824035287
0.699810266 0.465528190 0.823402762
0.832890570 0.466287285 0.826565325
0.964073241 0.467425644 0.826818228
0.036306079 0.583934188 0.819860935
0.159898788 0.580518603 0.828715861
0.287918955 0.583175242 0.827577412
0.437065274 0.589247286 0.823782265
0.570525169 0.593169153 0.822643638
0.698798239 0.593548596 0.824794531
0.827956855 0.592030525 0.824794471
0.954585552 0.586590767 0.825553417
0.004680899 0.711068690 0.820746362
0.053889722 0.713725567 0.820366919
0.249209285 0.710942566 0.818848789
0.398988008 0.709677756 0.820999444
0.548260331 0.707273722 0.817457438
0.689816654 0.714357793 0.820872664
0.817963243 0.711954474 0.815686345
0.949525595 0.709171474 0.816192567
0.001138536 0.843263865 0.811764717
0.000000000 0.842884302 0.811764717
0.181024820 0.841745675 0.818089843
0.367615283 0.841619551 0.815180182
0.523086846 0.834535003 0.814800620
0.667931616 0.835040808 0.814421058
0.809740722 0.830613554 0.813408971
0.942062020 0.829601467 0.815306842
0.003795180 0.963820636 0.801644623
0.000000000 0.965464890 0.801897407
0.149525583 0.963187695 0.799620748
0.352182120 0.958760023 0.796837568
0.516255379 0.951802552 0.801012099
0.664516509 0.948133945 0.802277029
0.801518261 0.944465399 0.808854818
0.929917574 0.940164804 0.812143803
