Assets/EldamarStudio/100 Retro LUTs Pack/LUTs/cube/Lisa LUT.cube
DOMAIN_MIN 0 0 0
DOMAIN_MAX 1 1 1
LUT_3D_SIZE 32
0.003922000 0.047059000 0.133332998
0.000885613 0.047059000 0.124225385
0.017204547 0.042757999 0.121569000
0.054143317 0.040480837 0.125363842
0.107274093 0.043516546 0.133332998
0.149778873 0.046552934 0.133332998
0.189753324 0.057178997 0.130803317
0.227577403 0.064389706 0.126122996
0.265528202 0.065907903 0.123086996
0.308032990 0.062871523 0.129158989
0.333079994 0.077292867 0.123593003
0.367488742 0.086401001 0.125616997
0.408096254 0.091334641 0.129411995
0.449842036 0.094623998 0.128905997
0.483238369 0.100695997 0.122834004
0.516634762 0.104364187 0.123972185
0.548513353 0.110436186 0.123972192
0.580139101 0.119544566 0.121569000
0.616571963 0.128652960 0.121569000
0.650221407 0.132194638 0.121569000
0.679822743 0.135230735 0.117773518
0.710183263 0.138266861 0.112713128
0.746616006 0.141429022 0.109930478
0.783048809 0.147501811 0.112966098
0.814927518 0.149020001 0.113724999
0.846679628 0.150411323 0.110942006
0.879570007 0.152941003 0.105881996
0.909929991 0.152941003 0.105881996
0.948260427 0.155597836 0.103225842
0.980645120 0.158633769 0.096647799
1.000000000 0.160784006 0.090195999
1.000000000 0.160784006 0.090195999
0.000885613 0.083491772 0.130297378
0.000885613 0.074383393 0.127260998
0.010752774 0.078684390 0.126755387
0.046300091 0.079949543 0.128905833
0.101202093 0.082985610 0.132573992
0.143706873 0.086021319 0.127260998
0.186211646 0.086527392 0.132321000
0.224541366 0.095003083 0.129158616
0.261732876 0.100063384 0.123845711
0.301961005 0.099304289 0.123086989
0.338646740 0.102086902 0.123339996
0.373561025 0.108665258 0.121569000
0.408475637 0.114864029 0.121062711
0.440986663 0.121442385 0.118026257
0.477166384 0.121948376 0.125869617
0.515369773 0.125616580 0.124604613
0.553067565 0.130170390 0.125489995
0.587982297 0.136495575 0.125869602
0.619607627 0.140796974 0.130676597
0.650474370 0.152688012 0.125110611
0.685515463 0.152688131 0.122707352
0.717267632 0.152435392 0.117773518
0.749652326 0.153700247 0.112839609
0.786084473 0.162681416 0.112966098
0.817963183 0.164199606 0.111448288
0.848323941 0.164199606 0.107906401
0.880076051 0.165084988 0.102340326
0.912966371 0.165084988 0.099810004
0.943327010 0.165084988 0.099810004
0.972801924 0.171283811 0.098924614
0.993548214 0.174193397 0.093611620
1.000000000 0.169892386 0.087160386
0.000000000 0.113472767 0.133712992
0.004300999 0.112966388 0.128526375
0.002150775 0.108159542 0.125489995
0.035041161 0.112966381 0.129791215
0.091587543 0.116002545 0.132953539
0.137634322 0.119038604 0.128652766
0.182289869 0.121694773 0.124098770
0.223149911 0.121694773 0.130170777
0.260088176 0.129285097 0.127640769
0.298165709 0.133459777 0.125996485
0.336875737 0.134218678 0.123719223
0.373307973 0.133206815 0.121695489
0.411511511 0.137128547 0.123845994
0.442125052 0.144718736 0.121568516
0.474762797 0.146615997 0.119291410
0.511448562 0.146868974 0.123339772
0.547880948 0.149904966 0.123339772
0.585452318 0.155977115 0.123339772
0.618848860 0.162049517 0.126375765
0.651359737 0.166982785 0.125616774
0.685515463 0.169639513 0.123339772
0.719924271 0.168627635 0.119544744
0.750537932 0.170018986 0.113851510
0.786970019 0.177102879 0.115875773
0.818848550 0.179379776 0.111448288
0.850600660 0.179379776 0.105629340
0.882226408 0.179885834 0.100316294
0.915623188 0.181530550 0.100569330
0.944212615 0.183680773 0.098039001
0.976344109 0.183680773 0.094497018
0.994686782 0.188994005 0.090196013
1.000000000 0.185451999 0.079823226
0.000000000 0.147122309 0.134725004
0.004807161 0.146363094 0.129917830
0.006957613 0.147627935 0.128526390
0.026692320 0.145857155 0.121694833
0.082858704 0.148513317 0.128905386
0.130549863 0.150664091 0.131182775
0.174066961 0.154964998 0.128146842
0.220113844 0.155091479 0.123592831
0.258823335 0.156609476 0.129664823
0.295256138 0.165211797 0.130676836
0.332068473 0.165591329 0.127767295
0.368247986 0.166097254 0.122201100
0.408095926 0.163061634 0.122580834
0.444655180 0.168501124 0.128399864
0.476027817 0.171536744 0.123339750
0.511195540 0.170904323 0.121315643
0.546110153 0.173687354 0.121569000
0.580139101 0.176091164 0.121569000
0.616571963 0.183301970 0.121569000
0.650221407 0.188108802 0.120303839
0.684250295 0.189879894 0.121569000
0.718659103 0.187856153 0.118532874
0.749146283 0.190765306 0.112586640
0.784440041 0.196837321 0.115622744
0.818848550 0.197090164 0.110563003
0.850600660 0.197090164 0.106894501
0.882479131 0.198102161 0.100316159
0.913599133 0.201897442 0.104111448
0.948007762 0.202403486 0.095509328
0.976344109 0.206198320 0.095762178
1.000000000 0.205312714 0.087918952
1.000000000 0.204933167 0.075774841
0.000000000 0.188868091 0.129411995
0.002656839 0.183175549 0.126375601
0.006072226 0.183175310 0.127640769
0.026691932 0.184946090 0.124731220
0.078304999 0.184566543 0.114863545
0.123845384 0.184566543 0.130043924
0.166603416 0.189247087 0.132953539
0.210246846 0.190006256 0.129284993
0.256167203 0.188867986 0.126628533
0.292599976 0.194939986 0.132700533
0.325363874 0.196331546 0.131562322
0.361037254 0.196457833 0.124478288
0.396331370 0.199114189 0.119164996
0.441619515 0.196078584 0.124984033
0.475395381 0.198861226 0.128020406
0.510815978 0.197849348 0.126628727
0.546110153 0.198608533 0.124731191
0.580139101 0.203415543 0.121569000
0.616571963 0.203415558 0.121568993
0.650221407 0.208981559 0.118785642
0.683997273 0.212776735 0.119165190
0.716002285 0.215180546 0.119291872
0.746616006 0.215307027 0.110310003
0.780265450 0.221125990 0.112586647
0.815180123 0.220746249 0.107653297
0.849841654 0.219101533 0.101581454
0.882479131 0.219354540 0.101834454
0.906767845 0.225426540 0.107906446
0.945857048 0.223908827 0.094244488
0.979886115 0.225426972 0.089057982
1.000000000 0.228842482 0.090575792
1.000000000 0.225806087 0.078431003
0.000000000 0.225300863 0.129411995
0.000000000 0.222264469 0.126375601
0.004807064 0.220872924 0.127640769
0.020493321 0.221378863 0.125616834
0.057052605 0.220999315 0.117899932
0.108664997 0.217962921 0.123971924
0.164326012 0.220493257 0.129032314
0.210752457 0.219101861 0.124984235
0.253510356 0.215812832 0.120936088
0.292599976 0.219227985 0.129664928
0.320303887 0.228209868 0.138646066
0.364832222 0.221631944 0.133586317
0.403162271 0.221125871 0.124478288
0.432511151 0.229474962 0.118912034
0.475015879 0.226439357 0.121948414
0.508791745 0.229222000 0.122580998
0.544212401 0.229727924 0.125110924
0.580139101 0.230739936 0.127135009
0.616571963 0.230739951 0.121568993
0.650221407 0.236305952 0.118785642
0.685515463 0.238582939 0.117647000
0.718406081 0.240101129 0.118153065
0.746616006 0.242631420 0.116382003
0.783048809 0.245667025 0.110309988
0.814421475 0.246931985 0.110309936
0.845793843 0.246425927 0.104617335
0.876660168 0.246425927 0.098545067
0.906767845 0.246678919 0.098798059
0.939025760 0.247437924 0.094244078
0.972169399 0.246931985 0.087919295
0.994939983 0.247058600 0.085515782
1.000000000 0.244022876 0.078431003
0.002530322 0.256673008 0.126881674
0.002530322 0.253637254 0.128905922
0.000379548 0.254901856 0.125869542
0.006578162 0.255281329 0.125616834
0.034155771 0.255281329 0.121315770
0.105122924 0.254395694 0.129538000
0.149145633 0.253889650 0.125489995
0.198608071 0.255281329 0.125237390
0.240353957 0.254016310 0.120177321
0.279823154 0.258823156 0.123972490
0.327893555 0.255028188 0.130550444
0.357242167 0.258064330 0.131562054
0.400758922 0.254775316 0.126881674
0.432511330 0.263124317 0.122200996
0.465907484 0.262365401 0.118406095
0.506009102 0.261732996 0.119038679
0.538140297 0.264642507 0.119038679
0.572548807 0.265654653 0.120556690
0.608981669 0.265654653 0.114484675
0.647691727 0.268690974 0.116255321
0.682985306 0.267172486 0.117014416
0.717393935 0.265907317 0.115622997
0.746742487 0.267425507 0.112586997
0.785578489 0.270461768 0.111321993
0.817457199 0.271220654 0.107526712
0.847817957 0.271220654 0.104490690
0.877166331 0.272232652 0.097027004
0.903478503 0.276280642 0.092978999
0.939025760 0.273750961 0.090196334
0.970651329 0.273750961 0.084123887
0.992156982 0.274636358 0.079443365
0.994939983 0.274889320 0.073371001
0.005566289 0.288677692 0.122201003
0.005566289 0.287286371 0.123592690
0.003415934 0.286906928 0.127261221
0.001644708 0.288677692 0.126755163
0.017584091 0.289436787 0.123339899
0.093990870 0.291967124 0.123592362
0.150790349 0.290322423 0.124984004
0.188361391 0.291967124 0.123845711
0.232384190 0.291208029 0.121569000
0.274509758 0.294623405 0.121569008
0.315749586 0.290701687 0.125743285
0.356482804 0.288677692 0.125743449
0.391397566 0.288677692 0.124984071
0.431372672 0.293484718 0.124983996
0.465907663 0.294876397 0.118912004
0.498544961 0.294876397 0.117647000
0.536495984 0.296394587 0.114611000
0.568374097 0.298798412 0.113725424
0.604806960 0.298798412 0.108665295
0.644023120 0.298292369 0.109297648
0.679949701 0.300569624 0.110689029
0.716381967 0.296521097 0.110689297
0.748134196 0.296647578 0.104870297
0.784566641 0.299683601 0.104870297
0.815559566 0.298798412 0.102593429
0.847311676 0.298798412 0.099557042
0.877925396 0.298798412 0.094750002
0.904490709 0.302593410 0.090955004
0.939405322 0.300695837 0.087539844
0.969006598 0.302719980 0.079443567
0.993168831 0.301834583 0.071600020
0.995445967 0.303352416 0.064010009
0.006325001 0.322074294 0.117647000
0.006325001 0.322074294 0.119164996
0.004933679 0.322074294 0.120430000
0.003922000 0.322074294 0.123718977
0.009614540 0.322453737 0.126755357
0.079063766 0.328146875 0.116508223
0.142314866 0.326628864 0.115496226
0.191397786 0.326122820 0.116255514
0.225553289 0.329158992 0.120809905
0.274130106 0.326122612 0.120809905
0.311195523 0.324604422 0.122960128
0.346616089 0.322074294 0.121189162
0.382289380 0.322074294 0.121189356
0.424541146 0.322580308 0.123718962
0.464010119 0.326122612 0.118152909
0.499304056 0.326755196 0.116128996
0.531182468 0.325996310 0.113093004
0.568880200 0.329665095 0.108286001
0.605566084 0.329918087 0.105376124
0.643263996 0.327134728 0.105881996
0.678937674 0.327893823 0.105123095
0.713346183 0.329918087 0.103858002
0.749525905 0.329918087 0.098039001
0.782289863 0.332321286 0.098039001
0.811891198 0.331562370 0.095003195
0.841998756 0.329918087 0.090449236
0.874889135 0.329918087 0.087918907
0.905249774 0.329918087 0.087918900
0.941682577 0.327261269 0.082985654
0.972548902 0.328020096 0.078431673
0.990891576 0.332194597 0.067805111
1.000000000 0.329158992 0.055661093
0.000253000 0.355471462 0.117646992
0.000253000 0.355471462 0.123718992
0.000253000 0.355471462 0.120935999
0.001391676 0.355471462 0.116634838
0.009614538 0.355850905 0.114610575
0.055154912 0.358886540 0.117646970
0.122074462 0.356989354 0.114990160
0.181530595 0.355598003 0.110562518
0.228589669 0.356483430 0.108665124
0.265022486 0.359519005 0.117773511
0.310689330 0.362302363 0.117773511
0.349652022 0.359013468 0.113852002
0.383807778 0.355471462 0.112460509
0.415433526 0.355977476 0.117646955
0.454901874 0.362049460 0.114610575
0.496774077 0.363187999 0.111448310
0.532700837 0.360152006 0.107020989
0.565844595 0.356989503 0.102213994
0.608349502 0.363061517 0.102214001
0.642251849 0.360531151 0.104870118
0.675901234 0.361290276 0.103984736
0.710309803 0.363314509 0.101075344
0.746489525 0.363314509 0.098038994
0.776850343 0.363314509 0.098038994
0.807336986 0.363440990 0.093484998
0.838962495 0.363314509 0.086147852
0.871853471 0.363314509 0.078810520
0.902213454 0.363314509 0.078810513
0.940543950 0.360657692 0.068184532
0.974572897 0.359392524 0.065275237
0.996710598 0.359645516 0.065022476
1.000000000 0.359519035 0.058697470
0.000000000 0.391777724 0.111827999
0.000000000 0.394686848 0.114990130
0.000000000 0.390385866 0.116761133
0.000000000 0.391397893 0.114737131
0.003289127 0.394686848 0.113724999
0.026059195 0.395192802 0.114231065
0.107020855 0.393169045 0.112207450
0.175838098 0.390133023 0.109171160
0.230234176 0.388867855 0.105881996
0.270967990 0.389753252 0.108538613
0.304490864 0.392789602 0.111827999
0.348007500 0.393801749 0.111827999
0.385072649 0.390639096 0.109803997
0.417963237 0.389120877 0.111322001
0.457432270 0.392536730 0.105629459
0.492093682 0.388994128 0.092979081
0.530044377 0.392536163 0.092473127
0.563187957 0.394054443 0.093864709
0.596584260 0.393295735 0.096141994
0.636306405 0.391018391 0.090575993
0.669955730 0.393674731 0.091334872
0.704364240 0.395698994 0.090323001
0.740670443 0.393675238 0.089184359
0.773813963 0.390891880 0.086401001
0.808728695 0.390891880 0.084123716
0.838962495 0.389500201 0.080075808
0.870335221 0.388994098 0.074509874
0.907905996 0.393801749 0.069702871
0.932953656 0.393801749 0.061733052
0.969386458 0.391018391 0.051612798
0.994939864 0.388108730 0.046552889
1.000000000 0.384060740 0.038457133
0.002024256 0.426186234 0.105756000
0.000000000 0.427198112 0.108791612
0.000000000 0.427830517 0.113724999
0.000000000 0.423023343 0.109930165
0.001138547 0.426059246 0.107653268
0.014421261 0.426059246 0.107653268
0.088804603 0.429601312 0.113219060
0.158760399 0.428209990 0.105249748
0.217583939 0.425553322 0.100316003
0.262618750 0.424288511 0.097786009
0.302466840 0.425174117 0.096647874
0.335863262 0.432258487 0.101708010
0.380645037 0.429981202 0.101708010
0.418722063 0.425553262 0.101708010
0.456419945 0.421505660 0.099178009
0.491081536 0.425427139 0.089943208
0.525996149 0.423908561 0.083871193
0.562428892 0.429474831 0.087539680
0.595572352 0.426439196 0.087792709
0.630233824 0.425427139 0.082479738
0.667805195 0.422390759 0.078305006
0.700316250 0.427071393 0.076154493
0.734724998 0.426186234 0.074130490
0.770019174 0.425047606 0.072991848
0.807716548 0.424288511 0.074003980
0.841366291 0.422896832 0.068184599
0.869829237 0.420366496 0.063883685
0.904743433 0.423402876 0.059329495
0.934977651 0.422138244 0.046553191
0.966350317 0.422138244 0.040986791
0.993927956 0.419354886 0.032384411
1.000000000 0.414421231 0.023276493
0.002783356 0.459582627 0.098545358
0.003162611 0.459582627 0.095888615
0.000000000 0.461859643 0.098798014
0.000000000 0.461733103 0.107653163
0.000379548 0.457558274 0.098925002
0.007969936 0.454522282 0.097407006
0.074636638 0.458443940 0.104996681
0.150031745 0.463503927 0.106008656
0.203162536 0.462744832 0.095382646
0.251739353 0.459709108 0.089310639
0.295635730 0.460721284 0.085009582
0.332068235 0.463377893 0.085768707
0.368880272 0.469070643 0.087286718
0.416951060 0.463250905 0.087539747
0.455154806 0.455914050 0.088425361
0.489183813 0.456546605 0.083491556
0.524098396 0.458823740 0.079316907
0.561796129 0.461226940 0.080455720
0.599240959 0.458697230 0.076913387
0.632890403 0.457305640 0.075648353
0.664769113 0.458823532 0.068058267
0.700189769 0.455787390 0.062997878
0.730803490 0.458444268 0.057052359
0.766224205 0.458444268 0.057052359
0.803795218 0.458444268 0.054775648
0.841366291 0.458191246 0.054522701
0.871221066 0.455660909 0.045414299
0.900948644 0.455660909 0.041112915
0.933586240 0.453004479 0.032005236
0.965211689 0.450600982 0.021632146
0.991903961 0.451486588 0.020366970
0.997722983 0.448956281 0.012270648
0.000000000 0.493485034 0.089184001
0.006072000 0.493232042 0.077546000
0.003542000 0.496774018 0.074004002
0.000505999 0.500569046 0.079570130
0.000126516 0.499304026 0.093105972
0.003162903 0.487160027 0.087033965
0.060341924 0.487919301 0.092599638
0.132321343 0.492347032 0.094623677
0.199367195 0.495888978 0.091081932
0.247943997 0.492852569 0.085009925
0.293864578 0.495888889 0.079443261
0.332321256 0.496901035 0.077166036
0.369133294 0.496901035 0.075142004
0.411132097 0.496901035 0.069575995
0.453636825 0.493864626 0.072612382
0.488677800 0.493232042 0.070588201
0.523845434 0.491714180 0.068564005
0.561543167 0.489310980 0.067805015
0.604048014 0.489310980 0.061733004
0.637697458 0.486780673 0.065527976
0.668058217 0.488931030 0.061226975
0.697407126 0.492220104 0.050347872
0.730930030 0.489184499 0.041492488
0.764452934 0.489058018 0.041365970
0.799620509 0.488804996 0.035041269
0.835547268 0.488804996 0.028210297
0.871221066 0.488552034 0.024920937
0.898545444 0.488552034 0.015812559
0.933586597 0.486148238 0.012270814
0.966476977 0.483364880 0.006451802
0.989373565 0.481846660 0.001138576
0.992409945 0.484883070 0.004174968
0.000000000 0.532953382 0.077040017
0.006072000 0.529917777 0.070968017
0.003542000 0.527514040 0.067932002
0.002529999 0.528905571 0.070462003
0.005818995 0.529791236 0.078431591
0.000126519 0.520556390 0.083997585
0.043643542 0.523592412 0.080455266
0.113851979 0.527387679 0.076660305
0.184692875 0.528779387 0.070335507
0.235800013 0.523213267 0.066793174
0.284376740 0.528905809 0.066540174
0.330297351 0.530297399 0.063251272
0.372169673 0.530297399 0.060847793
0.414168477 0.530297399 0.057432011
0.450601220 0.530297399 0.057432011
0.483491421 0.529664814 0.053257599
0.519038558 0.528146625 0.047818020
0.558507502 0.525742948 0.044276025
0.601012409 0.525742948 0.043517008
0.629601777 0.525742948 0.034661658
0.663883924 0.525110364 0.034408618
0.697407126 0.526375413 0.029854603
0.730930030 0.525616467 0.023276508
0.767362833 0.522580862 0.020240113
0.798608422 0.520177066 0.017836895
0.830233872 0.519164979 0.010752933
0.862871706 0.518659055 0.004427603
0.898545444 0.515876412 0.003668571
0.931182742 0.515876412 0.002530012
0.963440955 0.515243828 0.001897590
0.987602830 0.514611244 0.001770991
0.995445609 0.515243828 0.007210577
0.000000000 0.565211594 0.052878216
0.003668809 0.564579129 0.063631006
0.003289035 0.561543524 0.044655457
0.000000000 0.561037242 0.046426572
0.003415553 0.563314319 0.053637214
0.003415805 0.558254421 0.059709210
0.014168372 0.556989372 0.058190893
0.093738198 0.561416686 0.050221223
0.171916291 0.562934875 0.043390505
0.223529488 0.558507562 0.043643534
0.274636537 0.559266567 0.043517016
0.317141026 0.561290562 0.041492760
0.364200115 0.562428951 0.038456760
0.409741044 0.563440800 0.035167407
0.444023013 0.561290562 0.030866411
0.485262781 0.561290562 0.028463216
0.517140985 0.561290562 0.023909019
0.554838717 0.559772372 0.019354988
0.595572352 0.559772372 0.017584208
0.626565576 0.557368577 0.014041848
0.659582675 0.557368577 0.010626210
0.693991482 0.557368577 0.010626210
0.726249516 0.557242036 0.007590205
0.764958978 0.554205835 0.006831106
0.796837747 0.553446949 0.006072009
0.831372380 0.551928759 0.004554200
0.864769161 0.551928759 0.000000000
0.897406876 0.550790429 0.000000000
0.921568751 0.550410986 0.000000000
0.963820279 0.548640251 0.001771217
0.990891993 0.547122180 0.001518196
0.998481810 0.545603991 0.003036004
0.000000000 0.594054163 0.027071625
0.001518195 0.597090185 0.037697822
0.001771226 0.597975969 0.034029264
0.000000000 0.592410028 0.022390813
0.000000000 0.594433725 0.028969172
0.001897743 0.593675077 0.029348820
0.006451811 0.593169153 0.032384690
0.061859600 0.593295634 0.030487010
0.159013182 0.594813287 0.019101910
0.217457473 0.591777444 0.019102108
0.261480421 0.593169153 0.019228626
0.314105034 0.591650963 0.018722560
0.354712069 0.592789590 0.020240460
0.403668702 0.595319331 0.018722165
0.437065393 0.592283368 0.013915009
0.473118395 0.591650963 0.008728620
0.517140985 0.593169153 0.007210811
0.551169932 0.592536569 0.005439579
0.589753032 0.591650963 0.004174964
0.623908758 0.588868022 0.001138643
0.656546295 0.589247167 0.000000000
0.692979097 0.588235319 0.000000000
0.724478245 0.587855875 0.000252992
0.761163712 0.587602437 0.003035997
0.795319557 0.586843371 0.000000000
0.827071667 0.584060371 0.000000000
0.864769161 0.583807349 0.000000000
0.895129859 0.583807349 0.000000000
0.925110579 0.583807349 0.003035997
0.951676309 0.582036614 0.000253025
0.990512371 0.579886377 0.002403808
0.998481810 0.577482581 0.000000000
0.000632576 0.621378541 0.007210584
0.001264990 0.628083110 0.013282584
0.000000000 0.631372333 0.010120010
0.000000001 0.631245971 0.007843017
0.000758999 0.623276114 0.013535565
0.001264990 0.626059473 0.005439937
0.000632576 0.625933111 0.007084431
0.044275824 0.625300527 0.009867433
0.134851396 0.626439035 0.010752896
0.213788986 0.623402655 0.001644506
0.252625167 0.625553370 0.000000000
0.301328272 0.623276293 0.000000000
0.354585290 0.623149753 0.001518074
0.396837115 0.625933111 0.009867433
0.430993229 0.623276293 0.007210593
0.466287374 0.622011125 0.003036005
0.503858209 0.623529315 0.000000000
0.547501147 0.625300527 0.000000000
0.583934009 0.622264147 0.003036389
0.620999336 0.620493472 0.001138643
0.655534327 0.619987369 0.000632577
0.689942837 0.621631682 0.000632576
0.726249039 0.618596017 0.000506064
0.759645462 0.620619655 0.005060010
0.794307232 0.621378541 0.004553995
0.826439083 0.619860530 0.000000000
0.860341549 0.614800513 0.000506064
0.890955269 0.614800513 0.000632576
0.926628530 0.614800513 0.004047996
0.959012985 0.613029778 0.004301018
0.981530964 0.610246956 0.000000001
0.996710598 0.610246956 0.000000001
0.003668968 0.648703039 0.004174964
0.006704575 0.657811403 0.010246964
0.003035998 0.660215020 0.005566197
0.000000001 0.660468042 0.000506004
0.000759002 0.659708977 0.001391547
0.006830993 0.659708977 0.004427932
0.004807319 0.657432318 0.001391677
0.038204052 0.654649258 0.000759032
0.111069344 0.654143035 0.002277030
0.201644942 0.659835517 0.007716513
0.242757872 0.659708977 0.001518002
0.288045526 0.653889716 0.000000000
0.337381274 0.650980353 0.000000000
0.384693086 0.656293988 0.000759032
0.424162209 0.656293988 0.000759032
0.465528548 0.653637111 0.000506002
0.504237950 0.653890193 0.000000002
0.541429102 0.655661464 0.000000000
0.577861965 0.652625024 0.000000000
0.617078066 0.655155420 0.000253032
0.652498662 0.653890252 0.001897742
0.686907232 0.652372003 0.003668970
0.723213434 0.651992440 0.003542452
0.756609857 0.648956060 0.000506064
0.794560254 0.648703039 0.005059993
0.827956676 0.648703039 0.004554008
0.857305110 0.648196995 0.000506064
0.893737853 0.648196995 0.003542445
0.929664612 0.648196995 0.001012135
0.964326084 0.646426260 0.000506000
0.990132630 0.643390417 0.000000001
0.999746978 0.640607059 0.000000003
0.003922000 0.684376717 0.001138643
0.001391610 0.687919080 0.007210643
0.002276996 0.690575719 0.008981643
0.001265161 0.689310551 0.003036005
0.002403809 0.688171923 0.000000000
0.001264996 0.690575719 0.000632579
0.002276996 0.690575719 0.001138643
0.027451038 0.687792659 0.000000000
0.092346638 0.686274469 0.001517998
0.183428243 0.690322697 0.007589996
0.238962486 0.690575719 0.002024001
0.280455142 0.688551486 0.000000000
0.327513933 0.685515344 0.000000000
0.375584722 0.689437389 0.000000000
0.417583495 0.689437389 0.000000000
0.457052678 0.687033594 0.002403804
0.497659832 0.687033594 0.001265165
0.534724534 0.688804805 0.000000000
0.569006622 0.685768425 0.000000000
0.602656722 0.688298762 0.000000000
0.645920336 0.687539637 0.003794996
0.683870912 0.685515404 0.004680649
0.720303655 0.685515404 0.001138643
0.756356955 0.685135782 0.000759095
0.787476540 0.684376717 0.002277288
0.824035287 0.684376717 0.003668680
0.856040120 0.683364689 0.000000000
0.887918830 0.678810716 0.000759091
0.924351573 0.678810716 0.001138643
0.960784316 0.678810716 0.000000000
0.988994300 0.676787019 0.000885608
1.000000000 0.673751116 0.002783357
0.003922000 0.715116739 0.000000000
0.002783353 0.716255367 0.002277003
0.005692737 0.720936000 0.007843000
0.001897576 0.720936000 0.005313001
0.002024260 0.718532264 0.000000000
0.000506065 0.718532681 0.000000000
0.000000000 0.719038725 0.000000000
0.006577994 0.717393994 0.000000000
0.068057999 0.715875804 0.000000000
0.167109236 0.718912184 0.003795002
0.223276481 0.719038725 0.002024001
0.277419239 0.720809460 0.000000000
0.317647040 0.717773318 0.000000000
0.362934798 0.719291687 0.000000000
0.407083809 0.720936000 0.000000000
0.450980395 0.718532622 0.002403804
0.490449190 0.717014432 0.003922000
0.528020144 0.719038725 0.002530155
0.560151756 0.717267454 0.003794994
0.599241138 0.717900097 0.001897740
0.634535491 0.719038665 0.003794996
0.676027894 0.717014432 0.006831130
0.711701512 0.717014432 0.001897740
0.749905109 0.717014432 0.001897740
0.783681095 0.717014432 0.002277288
