Assets/EldamarStudio/100 Retro LUTs Pack/LUTs/cube/Lori LUT.cube
LUT_3D_SIZE 5
DOMAIN_MIN 0.000000 0.000000 0.000000
DOMAIN_MAX 0.903226 0.903226 0.903226
0.125489995 0.101961002 0.109803997
0.203035697 0.111448288 0.107526705
0.436179370 0.128146991 0.102593422
0.697407126 0.175585121 0.098165996
0.883997619 0.243263826 0.154458806
0.105502717 0.218722701 0.105249994
0.238330111 0.225932688 0.101961002
0.437191486 0.239342391 0.105882421
0.686906695 0.290702134 0.107905999
0.874509931 0.334471703 0.166856393
0.000000000 0.546110213 0.129537985
0.204680398 0.546742380 0.125616401
0.536242783 0.566983163 0.136115968
0.720556796 0.525995910 0.160657674
0.844654918 0.498924553 0.215306535
0.161543489 0.756104112 0.340544134
0.267172813 0.756736577 0.339658231
0.492472798 0.760025144 0.362808108
0.709045112 0.761037290 0.405313104
0.863250971 0.739658117 0.431246102
0.526122749 0.843137026 0.575711429
0.551296473 0.845919967 0.579506636
0.606325209 0.848450124 0.591144800
0.707780123 0.838962674 0.609867096
0.801391661 0.834029138 0.634281754
0.122201003 0.108159289 0.194560692
0.237065107 0.104870297 0.197469980
0.485262394 0.062365718 0.225300699
0.688551247 0.161290124 0.227324709
0.875521839 0.269196540 0.271473646
0.156230003 0.196204975 0.186717108
0.258950382 0.221378684 0.208602399
0.440480471 0.240986675 0.214168102
0.683997393 0.290322572 0.233776107
0.863124788 0.351929218 0.285262376
0.137381405 0.511448383 0.275648534
0.263883680 0.526502192 0.277292818
0.534218371 0.551929295 0.293358684
0.692726076 0.502213836 0.280961514
0.842378259 0.505502820 0.312334120
0.331435949 0.745603681 0.435041219
0.385452241 0.748260140 0.438962638
0.537634254 0.751169980 0.458570659
0.716888130 0.756736577 0.489563525
0.850474238 0.739405274 0.495761812
0.572042763 0.843896151 0.613156497
0.588361621 0.842884243 0.616951525
0.636305869 0.839595258 0.624794126
0.715622842 0.840860307 0.640860200
0.805059910 0.831752121 0.662744880
0.112459995 0.106514581 0.477419794
0.305376381 0.078051880 0.473118067
0.539532185 0.011005597 0.463757217
0.797343135 0.125237390 0.503225505
0.900189579 0.297786206 0.466160387
0.165338412 0.276660383 0.434914768
0.287412673 0.252118677 0.443769515
0.528399348 0.239342406 0.457432091
0.757748425 0.312713683 0.479949355
0.868564248 0.399999678 0.473118067
0.273370981 0.469575763 0.442124814
0.370145380 0.487539500 0.450600803
0.553826392 0.536242783 0.490448803
0.677292883 0.513346195 0.461732775
0.827703953 0.544718385 0.495761991
0.509804070 0.710942566 0.584566712
0.529032230 0.716887712 0.577988863
0.595319569 0.732574105 0.581024528
0.727640986 0.750537395 0.606831372
0.825933099 0.724098742 0.578114867
0.644149363 0.830107808 0.691208184
0.648703158 0.833396435 0.683997631
0.682605743 0.833396554 0.692473233
0.743073940 0.834661782 0.704869986
0.810499847 0.833396554 0.723845363
0.123718992 0.154079869 0.696394980
0.308285683 0.150158122 0.696647704
0.539785087 0.131309539 0.691461146
0.762934983 0.176850259 0.690575242
0.922074676 0.388488322 0.688425004
0.213661954 0.319797397 0.678051829
0.327261090 0.315622956 0.672106266
0.542062223 0.315369815 0.676407158
0.750537395 0.345098108 0.669576406
0.897786260 0.496394783 0.699557245
0.365338117 0.544085801 0.635167539
0.441492796 0.554206133 0.646426260
0.568247736 0.554206252 0.655534565
0.729032397 0.568247795 0.668184876
0.860341370 0.620872915 0.687159836
0.504111290 0.685515106 0.646300077
0.530929863 0.691081583 0.645667136
0.616951108 0.700190008 0.665654838
0.731688917 0.728653133 0.690448999
0.814547956 0.707526982 0.664389670
0.686021745 0.824667931 0.732194960
0.701074898 0.820366979 0.744465470
0.740164638 0.828210175 0.755218267
0.766223967 0.829854488 0.759393096
0.820366800 0.829854488 0.782921910
0.264515758 0.306261778 0.831498802
0.352561802 0.308918625 0.834155679
0.511954427 0.321315348 0.830866396
0.713599145 0.351170063 0.819354653
0.874636114 0.431878626 0.815812826
0.371157169 0.443896323 0.825933039
0.421631515 0.441239476 0.823655784
0.545983613 0.448450059 0.822011292
0.714610994 0.464136630 0.817836821
0.863251090 0.514484525 0.814547956
0.531055808 0.638203800 0.809993386
0.548133790 0.633016765 0.801897466
0.615306556 0.625173807 0.804807246
0.724984169 0.624161959 0.805439830
0.851106882 0.638203800 0.806704819
0.583428025 0.739152133 0.793421626
0.601011813 0.743326962 0.790638864
0.657558501 0.744338691 0.788741291
0.735863090 0.750537634 0.791271269
0.828462720 0.757115781 0.799873590
0.670967817 0.823655784 0.791017950
0.687665820 0.819354892 0.786590636
0.722580373 0.819734156 0.794307351
0.775964677 0.820366979 0.793674827
0.818468988 0.828968823 0.798734844
