Assets/EldamarStudio/100 Retro LUTs Pack/LUTs/cube/Lori LUT.cube
LUT_3D_SIZE 8
DOMAIN_MIN 0.000000 0.000000 0.000000
DOMAIN_MAX 0.903226 0.903226 0.903226
0.125489995 0.101961002 0.109803997
0.152055994 0.102720000 0.102720000
0.228842095 0.112966098 0.109803997
0.363820642 0.118785642 0.103099354
0.518406391 0.137002185 0.101074994
0.664010167 0.166476741 0.098166004
0.785199285 0.205186576 0.116002284
0.883997619 0.243263826 0.154458806
0.131815001 0.139532000 0.105122998
0.152055994 0.143832535 0.094117999
0.231119186 0.148513541 0.102340452
0.359898627 0.168880552 0.103099354
0.516761720 0.191144899 0.104111359
0.664010167 0.221758083 0.103478804
0.780645251 0.248070836 0.123845704
0.884883046 0.280455381 0.160277963
0.088804901 0.249842182 0.107526906
0.157621995 0.254901737 0.101201907
0.270209074 0.263124168 0.099683911
0.402150750 0.281593829 0.102466553
0.506008983 0.276407182 0.097912900
0.650221467 0.310689330 0.104111090
0.772675395 0.331436098 0.121315576
0.870208740 0.354965180 0.171916634
0.000000000 0.442883909 0.101454645
0.057938360 0.444781482 0.109044902
0.276533991 0.458191276 0.100316100
0.451233268 0.478684306 0.101454638
0.610119998 0.484503537 0.100189798
0.665401459 0.438456535 0.122200996
0.752687871 0.433270276 0.142441288
0.855408013 0.449715257 0.197216973
0.004807003 0.624541163 0.167235985
0.001138547 0.628083646 0.172548741
0.230234191 0.632384598 0.171916470
0.423909098 0.636306167 0.181404188
0.597343385 0.639595389 0.203415364
0.738646448 0.642631173 0.227071628
0.786843777 0.581530452 0.229981363
0.838962793 0.556989193 0.238962635
0.066413648 0.730803192 0.303099215
0.137128532 0.731688738 0.299683630
0.263377637 0.735990107 0.301454812
0.412270635 0.737508118 0.313978612
0.557115555 0.741429269 0.334851444
0.689816475 0.738772690 0.365844190
0.816571534 0.751043499 0.404301167
0.865527987 0.709044814 0.388994455
0.352434814 0.813661993 0.450853556
0.368374377 0.810626268 0.454142988
0.414547652 0.812144160 0.459456056
0.482226253 0.813030005 0.464895546
0.571916461 0.810499430 0.477799088
0.667805195 0.811132193 0.495255798
0.762681961 0.806831300 0.515243292
0.849209130 0.815180480 0.553953052
0.526122749 0.843137026 0.575711429
0.537381172 0.847438455 0.583807647
0.554838598 0.845667124 0.579000652
0.584187448 0.846046805 0.582542598
0.631625772 0.848450005 0.596837640
0.690069616 0.839215994 0.610878944
0.745983481 0.841492712 0.617963552
0.801391661 0.834029138 0.634281754
0.128652990 0.109803997 0.138772994
0.158381015 0.105502546 0.134851098
0.251106650 0.104743548 0.137887090
0.362175792 0.105502546 0.141429648
0.515875816 0.127766982 0.150537997
0.661606908 0.162934795 0.161669821
0.782922029 0.205566019 0.183302000
0.879696548 0.255154967 0.211637899
0.142694086 0.138393551 0.124604993
0.164579108 0.143073544 0.132827550
0.235420644 0.148513541 0.142314658
0.363441080 0.162176013 0.141429454
0.507147551 0.188488349 0.152561560
0.658190966 0.214674100 0.161416799
0.776723266 0.248323798 0.177482828
0.871600389 0.284756809 0.209993511
0.134471551 0.236938640 0.144591644
0.169260100 0.245161280 0.145730183
0.269450009 0.254901737 0.148893088
0.387729287 0.259582639 0.153953537
0.502846181 0.278051913 0.153953448
0.648323953 0.303858191 0.163946733
0.769133747 0.333839267 0.184060991
0.869449794 0.358380914 0.216698349
0.028842459 0.422897190 0.170271739
0.135104120 0.433522820 0.176723644
0.289563566 0.444908410 0.173055083
0.447691709 0.463630408 0.179000631
0.591524243 0.470461637 0.181277633
0.649589121 0.424668163 0.178241640
0.754964888 0.431372553 0.200379476
0.849842012 0.446173549 0.236306056
0.008222548 0.617836833 0.233649716
0.073750563 0.609993815 0.231245920
0.261100620 0.618975282 0.236559108
0.439595103 0.625047624 0.251612931
0.595572412 0.631625473 0.271347523
0.728905559 0.636812031 0.283871144
0.780771554 0.581150949 0.274004072
0.840986431 0.551549613 0.275016010
0.182289466 0.730929732 0.343706459
0.228589609 0.726881742 0.346110016
0.315243453 0.728905439 0.351296663
0.435926735 0.730423629 0.364705652
0.563693821 0.735231161 0.385958463
0.693231881 0.741935730 0.402656734
0.812523544 0.745477259 0.434914947
0.859076500 0.710183501 0.425932914
0.394307554 0.803668320 0.480075985
0.408602297 0.808981538 0.482732564
0.446679085 0.810626268 0.485389173
0.503605187 0.810626209 0.492346436
0.589120448 0.811385274 0.501327991
0.677293003 0.803162694 0.519924283
0.766224027 0.810373306 0.537128568
0.844908416 0.811638057 0.556230128
0.547880888 0.842631161 0.597596347
0.556483269 0.841239870 0.587349653
0.566856623 0.842884243 0.595951855
0.597343624 0.845667243 0.601138771
0.644655287 0.841492712 0.609361351
0.696141481 0.840986550 0.622390807
0.748386860 0.837950706 0.634788215
0.802403510 0.834408700 0.654648602
0.120682992 0.105881996 0.229475096
0.184566632 0.104743548 0.231119186
0.275016099 0.097280093 0.224035278
0.426818281 0.055914007 0.261226833
0.567995310 0.047944196 0.264895797
0.681214094 0.107653275 0.241999090
0.781404138 0.204301178 0.275016099
0.872232616 0.277040035 0.295509011
0.127767086 0.153194442 0.207083732
0.179127440 0.148513645 0.211511999
0.271853089 0.144212186 0.220114097
0.418595821 0.147754550 0.248703644
0.543200791 0.159898907 0.244908452
0.666034281 0.204047933 0.254269660
0.770272136 0.253004313 0.272106349
0.867678642 0.302972674 0.299177974
0.163820192 0.233396277 0.219355002
0.202529743 0.243263632 0.214168638
0.296900988 0.261606216 0.241999194
0.395192802 0.261985719 0.238963008
0.520177186 0.281973302 0.249841988
0.651612878 0.308539093 0.262871742
0.765085399 0.335230798 0.278178185
0.862112582 0.378241777 0.315116912
0.213915199 0.403415293 0.288677812
0.234661639 0.412017375 0.291208357
0.313472271 0.426818371 0.282732278
0.450853825 0.444908291 0.286654204
0.557368755 0.436685830 0.282352746
0.636938632 0.413535386 0.266539991
0.748766601 0.434535027 0.290069848
0.847564995 0.458317459 0.324857652
0.197469756 0.595572174 0.337508082
0.234535262 0.600253046 0.341049820
0.323339492 0.605692446 0.346869260
0.453130811 0.613156021 0.350664198
0.599493980 0.622390985 0.367995292
0.707400441 0.616698205 0.369513184
0.761923075 0.569006801 0.344592005
0.828462958 0.555471241 0.351170003
0.326628655 0.713978410 0.428969175
0.348766565 0.716761529 0.435800016
0.396837443 0.717393696 0.437697560
0.482479483 0.725363553 0.451866299
0.592915773 0.726881742 0.461606711
0.696394622 0.733206749 0.477672368
0.798861504 0.741176605 0.493864805
0.847691119 0.706261873 0.474509567
0.454143375 0.799494207 0.530044436
0.470714569 0.798861384 0.531056106
0.499430358 0.802909315 0.535736620
0.542821050 0.804047942 0.542441785
0.611891389 0.803542256 0.551423073
0.691967189 0.804427505 0.558380604
0.765970945 0.803668380 0.576597333
0.843010783 0.809993625 0.604933679
0.577355981 0.839848101 0.618216336
0.583301604 0.835547149 0.626691997
0.599746823 0.840606987 0.630107760
0.623908639 0.843010843 0.632131577
0.662491798 0.841745615 0.637317955
0.708791852 0.839089215 0.648450375
0.754079461 0.838709533 0.662365735
0.805312991 0.832005084 0.669323087
0.114231355 0.107020639 0.392410278
0.201391190 0.095636003 0.390006363
0.327893764 0.072991997 0.384945840
0.437317908 0.049715716 0.374446273
0.631499171 0.000000000 0.436685830
0.753320456 0.064263463 0.418469280
0.819354892 0.180138931 0.392410278
0.882353067 0.279822588 0.397090286
0.107400090 0.174446449 0.360657692
0.183681428 0.167362556 0.365338653
0.312080741 0.149652094 0.369639397
0.434661359 0.140670538 0.379886180
0.627451301 0.135736629 0.426945210
0.733459532 0.183048457 0.412144184
0.810246706 0.247185171 0.393295288
0.864642620 0.326628685 0.399367452
0.170145094 0.286780298 0.349651903
0.221378639 0.274763107 0.358380735
0.309298187 0.274130195 0.363693923
0.451992273 0.267805189 0.373181701
0.606451452 0.293611467 0.408096164
0.692093253 0.313219368 0.386211157
0.773561120 0.359012902 0.393674821
0.849715471 0.408855379 0.423782259
0.230360284 0.384566307 0.354332626
0.269070625 0.390385926 0.366982818
0.364705831 0.418343097 0.381530285
0.475901634 0.448450625 0.409234583
0.559898794 0.427704275 0.387729168
0.650727749 0.435167521 0.386590630
0.747628331 0.455154985 0.405312926
0.833016992 0.484756261 0.422770470
0.330170572 0.572043002 0.440986365
0.366856545 0.578241348 0.450474262
0.422897071 0.582542777 0.455914140
0.488804460 0.601517797 0.458570629
0.606071949 0.610373378 0.479317188
0.680329204 0.591271520 0.458696932
0.732321024 0.554079354 0.419481546
0.826439023 0.572675347 0.450094789
0.455407917 0.694244087 0.531435609
0.453763723 0.696267784 0.517267764
0.477040112 0.701454997 0.515116811
0.532321036 0.710057080 0.527640760
0.613662183 0.717520535 0.541429281
0.701834559 0.727766812 0.557494998
0.783427954 0.724604547 0.555976987
0.833902597 0.696774065 0.526122570
0.521948218 0.787349641 0.590133011
0.525110662 0.793927908 0.588108838
0.546110153 0.792030692 0.585325658
0.587981820 0.794054270 0.598102629
0.642758131 0.799241006 0.608475924
0.707526743 0.799747109 0.619481564
0.774952650 0.801265001 0.632131636
0.832005143 0.802150369 0.640354156
0.616951406 0.838456810 0.661479771
0.621505082 0.835799992 0.659203172
0.635167599 0.841366291 0.666540444
0.656040609 0.837950826 0.671220601
0.687160134 0.834282160 0.674636066
0.728525877 0.830739915 0.683997512
0.768248022 0.832763970 0.694750011
0.809740663 0.833649993 0.716634750
0.103478804 0.115243189 0.550031543
0.207717001 0.103478804 0.550031543
0.350284189 0.080708094 0.549272418
0.485768467 0.033650000 0.548513353
0.620620191 0.006071994 0.543706357
0.762555242 0.085262455 0.560531378
0.866160512 0.232890651 0.562681794
0.917014658 0.324730992 0.537381172
0.106388181 0.185958534 0.531561911
0.203795090 0.183428183 0.529158711
0.337254822 0.172675550 0.541808724
0.480708659 0.155850902 0.537508070
0.619481623 0.151422918 0.538646638
0.764958978 0.204933479 0.563441217
0.844149172 0.298418730 0.554079473
0.905882359 0.360784262 0.535863400
0.193422183 0.326628268 0.509930372
0.234534726 0.314864188 0.514737368
0.332827389 0.301581293 0.515370190
0.468816817 0.294876754 0.520556748
0.604933381 0.301455170 0.526375473
0.737128556 0.353320926 0.555597484
0.818469226 0.405566186 0.540417552
0.879822910 0.443643004 0.540164471
0.250221640 0.436812013 0.502213955
0.292220086 0.441872209 0.503099203
0.378747731 0.447691619 0.508918524
0.490828723 0.456673086 0.527387559
0.611385226 0.466034293 0.536622226
0.706261992 0.492219836 0.546110153
0.770904601 0.498544991 0.523592651
0.836179435 0.520177245 0.534977853
0.331941366 0.556356370 0.506009161
0.369259924 0.554332733 0.509424210
0.437824160 0.562682211 0.527387559
0.534471989 0.588488162 0.545097768
0.616951346 0.608855188 0.561164021
0.663503706 0.577988684 0.530423582
0.742441535 0.580771387 0.534472108
0.821252584 0.592536390 0.542441308
0.480328918 0.674889445 0.576343715
0.492599368 0.677040100 0.575079083
0.533839226 0.680202425 0.582922220
0.576723456 0.693990946 0.592410088
0.628083467 0.706135511 0.598228931
0.707400739 0.719418168 0.620746374
0.763187468 0.702973187 0.597976148
0.807969570 0.675521910 0.559266269
0.582036555 0.775205433 0.644276083
0.592410207 0.774066985 0.651233196
0.605060101 0.779886127 0.648956358
0.614547789 0.785452247 0.646046877
0.654395998 0.792536378 0.651360214
0.714105010 0.795445800 0.664895773
0.777735531 0.800379395 0.680202305
0.826185703 0.795445979 0.680076003
0.670208991 0.833016992 0.716128945
0.669576108 0.831498802 0.700189590
0.670461595 0.830739856 0.700442612
0.686653793 0.832764208 0.705249965
0.708412170 0.834282160 0.712966502
0.743326902 0.829854786 0.719038546
0.778873861 0.832763970 0.731309235
0.813156009 0.834029138 0.742694855
0.117647000 0.140923470 0.670082450
0.211511999 0.141049996 0.670461893
0.338140368 0.134977728 0.668817103
0.474256992 0.114863984 0.667678475
0.621125758 0.103352726 0.657052696
0.738646746 0.138393208 0.662239015
0.852877975 0.245034799 0.670462012
0.925110579 0.390512496 0.666160464
0.148892909 0.220872894 0.664642453
0.223782539 0.213788882 0.655534744
0.340797216 0.211005524 0.659076333
0.473244905 0.203036010 0.660214841
0.616445601 0.198608458 0.662618637
0.733965755 0.224415258 0.659076214
0.843390226 0.305882365 0.662998021
0.917140961 0.423782289 0.666160583
0.223276526 0.348387301 0.640354216
0.262998283 0.345477372 0.645035207
0.360657841 0.343453556 0.648071110
0.482352614 0.340290934 0.645414650
0.610246718 0.340544075 0.649715364
0.726755083 0.359771937 0.647312045
0.826565742 0.426692367 0.663883328
0.898292363 0.508032560 0.674763024
0.314990610 0.482858717 0.620493472
0.351423293 0.486906946 0.619861126
0.424920708 0.487286478 0.625174105
0.497912705 0.482100040 0.630992949
0.603415370 0.482479483 0.634281814
0.706262112 0.494623631 0.643390357
0.797596514 0.544339001 0.660214841
0.866160572 0.575079262 0.662239015
0.390638679 0.581404388 0.618089736
0.408981711 0.585705101 0.616698325
0.467298925 0.588740945 0.618216515
0.536749065 0.601897180 0.627830267
0.624668181 0.606198609 0.635926723
0.705629647 0.617584169 0.649209559
0.782795489 0.629221976 0.653890014
0.836558819 0.629348218 0.649715304
0.473750472 0.662238955 0.620999753
0.481847197 0.662238955 0.624035716
0.524604738 0.672106743 0.625679851
0.574952722 0.675901771 0.627956808
0.644655406 0.692093432 0.649209559
0.711448729 0.705376506 0.668184757
0.746868968 0.681846976 0.630866528
0.812776506 0.682479560 0.637318313
0.576976776 0.760404706 0.673371434
0.588488221 0.761543334 0.679949522
0.604553938 0.767362595 0.676660538
0.644528866 0.766982853 0.690702021
0.690322220 0.778114974 0.703732073
0.725616515 0.789753497 0.714105010
0.780012250 0.795572281 0.719165027
0.818216443 0.781910121 0.702466965
0.686780572 0.826185822 0.730929792
0.692472816 0.824794471 0.739405513
0.708412230 0.822896719 0.742188513
0.729158580 0.826439142 0.746110141
0.736116111 0.827324450 0.745477319
0.757621706 0.827577770 0.749525607
0.787476242 0.826944888 0.759898484
0.819101691 0.830107808 0.777102888
0.172802269 0.205818981 0.767868519
0.225932822 0.207463279 0.766983032
0.343959183 0.203289077 0.771916449
0.460214913 0.206451267 0.766729891
0.588615000 0.209487557 0.761796355
0.718279719 0.224667817 0.761416793
0.829348564 0.281593978 0.753194273
0.914610803 0.381277472 0.751802266
0.204427525 0.271347553 0.752308547
0.258950114 0.274003774 0.758633554
0.349399090 0.274383456 0.761543453
0.469450086 0.272738636 0.760404706
0.593421876 0.273750752 0.760025442
0.718912005 0.288930923 0.754459023
0.819734275 0.329411358 0.747627974
0.905376077 0.412650049 0.746995568
0.296394378 0.389247388 0.750158310
0.327514380 0.396205008 0.757368743
0.392283380 0.396205008 0.749399006
0.490449071 0.397723168 0.750790417
0.597217083 0.398482084 0.748640299
0.709298015 0.404680669 0.739785016
0.808981478 0.439974576 0.750031590
0.884250283 0.503352523 0.742947102
0.413788915 0.538140297 0.726881623
0.433143467 0.538899302 0.732574522
0.463630468 0.526755095 0.729158640
0.526755035 0.525236964 0.731941521
0.616192222 0.522454262 0.735863566
0.709677756 0.528020263 0.734851360
0.794054270 0.538140297 0.733586311
0.868817270 0.587602437 0.741556108
0.455913991 0.620620012 0.717141151
0.474130481 0.624161839 0.722707093
0.511448562 0.627704084 0.714611292
0.566982806 0.629727781 0.721441805
0.626312137 0.622264266 0.725490272
0.704111755 0.623402715 0.729664326
0.785452247 0.635547280 0.734597981
0.847565055 0.667552292 0.744212627
0.504617274 0.692852259 0.710816264
0.520303607 0.691208124 0.713598788
0.548513472 0.694750011 0.716761589
0.590512335 0.700696051 0.715496421
0.642124951 0.706641614 0.722707033
0.705882490 0.706135511 0.724984288
0.781024992 0.719418228 0.737760782
0.828716218 0.734598041 0.747375011
0.553194284 0.750284612 0.716888011
0.565591335 0.756483316 0.706514537
0.587729156 0.755597472 0.717900276
0.625427008 0.757115245 0.724098563
0.674762905 0.763567209 0.720936239
0.731435716 0.771789789 0.735104442
0.776723266 0.788488209 0.753194332
0.806578159 0.765338719 0.725489855
0.668690681 0.821758687 0.751549363
0.675901592 0.823276222 0.760151505
0.694876492 0.816824675 0.756230116
0.721568346 0.820746243 0.764579356
0.745351136 0.823276222 0.768880367
0.778747559 0.824541390 0.776344061
0.797090292 0.826944768 0.786211073
0.822011411 0.823908567 0.795572519
0.264515758 0.306261778 0.831498802
0.300189525 0.304996610 0.828336775
0.371284068 0.310942709 0.833649695
0.464010268 0.316381752 0.830360413
0.571789980 0.323339760 0.829980969
0.683491588 0.342567623 0.825173974
0.791018307 0.378114760 0.821378529
0.874636114 0.431878626 0.815812826
0.304490954 0.359392583 0.828209817
0.326375753 0.360531181 0.830866635
0.391903907 0.365085185 0.830233991
0.480961472 0.367615521 0.829475045
0.577988386 0.375585318 0.827198207
0.684250474 0.390385687 0.826818705
0.791904032 0.414674342 0.818216383
0.869449973 0.464642823 0.811638296
0.392662823 0.469955862 0.818342924
0.410246760 0.475142032 0.822391152
0.454269260 0.473370999 0.820366740
0.518279552 0.474762589 0.819228292
0.601517856 0.478304625 0.818216145
0.694370747 0.482858896 0.817583740
0.790638745 0.497659892 0.814927161
0.862998188 0.530170619 0.810499609
0.478178442 0.585072637 0.807083845
0.495382607 0.583175302 0.805566072
0.518152833 0.581277788 0.807463586
0.563693643 0.581657290 0.808349013
0.626438737 0.580265939 0.808349252
0.702719569 0.576597273 0.809360802
0.784313619 0.581656992 0.805566072
0.854142845 0.600379586 0.809108138
0.531182468 0.664895594 0.789500177
0.553700030 0.670461774 0.799241126
0.576597035 0.671094120 0.798355699
0.604933381 0.664389551 0.796331644
0.648450494 0.660088599 0.801517844
0.708412528 0.657052636 0.800126553
0.781783640 0.656293511 0.799493611
0.841745615 0.670714676 0.804301202
0.571283758 0.728525937 0.800758958
0.576849878 0.729790986 0.795951843
0.604300916 0.726881802 0.789373815
0.634914756 0.729284763 0.790006161
0.678431094 0.732827246 0.789120734
0.720682681 0.731815457 0.792789102
0.781150997 0.727261066 0.798355460
0.830233991 0.741429567 0.797343493
0.614295065 0.776596963 0.783933818
0.619228363 0.780012369 0.791397572
0.634914696 0.773687303 0.783554554
0.666287303 0.779127300 0.790006280
0.700189471 0.781024694 0.788994253
0.738772929 0.786211073 0.787729084
0.781277418 0.788235188 0.792915940
0.822643697 0.793928266 0.793295503
0.670967817 0.823655784 0.791017950
0.681720138 0.817837000 0.790259004
0.687412858 0.820366740 0.788361788
0.709803939 0.818468988 0.790891767
0.735610187 0.815939367 0.788614810
0.769133508 0.819101870 0.792915761
0.792789042 0.820998967 0.794307053
0.818468988 0.828968823 0.798734844
