Assets/EldamarStudio/100 Retro LUTs Pack/LUTs/cube/Lori LUT.cube
DOMAIN_MIN 0 0 0
DOMAIN_MAX 1 1 1
LUT_3D_SIZE 32
0.125489995 0.101961002 0.109803997
0.122454390 0.104996607 0.103732005
0.128020227 0.108032770 0.106261998
0.138393313 0.107273996 0.107273996
0.152055994 0.102720000 0.102720000
0.176343992 0.108792000 0.108792000
0.185451999 0.109803997 0.107273676
0.203035697 0.111448288 0.107526705
0.228842095 0.112966098 0.109803997
0.250094503 0.109930478 0.109803990
0.291713744 0.112713128 0.101075128
0.328146756 0.115749255 0.100063257
0.363820642 0.118785642 0.103099354
0.402783036 0.122074999 0.105629027
0.436179370 0.128146991 0.102593422
0.474383384 0.129411995 0.099557199
0.518406391 0.137002185 0.101074994
0.563187957 0.149652421 0.104617007
0.593548059 0.152688056 0.098545007
0.629474699 0.158507019 0.100822359
0.664010167 0.166476741 0.098166004
0.697407126 0.175585121 0.098165996
0.730550528 0.184693471 0.109930478
0.757874906 0.193801105 0.112966098
0.785199285 0.205186576 0.116002284
0.811132312 0.214547992 0.119038671
0.835420966 0.221631989 0.124098934
0.859708965 0.233775988 0.139278531
0.883997619 0.243263826 0.154458806
0.910057127 0.255914181 0.171410397
0.933839619 0.271094590 0.188741595
0.949020028 0.286274999 0.203922004
0.128526390 0.108033001 0.100695610
0.125489995 0.108032994 0.100695617
0.131056383 0.113219388 0.101075388
0.140164554 0.115875997 0.106261998
0.151676551 0.113725454 0.108412445
0.173308372 0.111827612 0.111827612
0.190006062 0.112839609 0.105249934
0.202529699 0.117773309 0.102846384
0.225806281 0.122074485 0.104490906
0.256167293 0.119038865 0.106767610
0.289057642 0.121821508 0.106767610
0.329158634 0.124857634 0.102087259
0.364579231 0.127893731 0.101961002
0.400252700 0.131182611 0.102846384
0.439215779 0.137254611 0.102593422
0.477419168 0.143327221 0.097154006
0.518405974 0.146110192 0.095003389
0.561416745 0.153320611 0.098671786
0.596584499 0.158760056 0.104616992
0.629727781 0.170145720 0.098545000
0.665907443 0.176723763 0.100822352
0.699430883 0.184693262 0.100189999
0.730550528 0.193927631 0.103858486
0.757874906 0.205945879 0.106894098
0.785199285 0.212776765 0.114484288
0.812523663 0.222011656 0.124604650
0.837950706 0.230234325 0.134724990
0.859708965 0.239847988 0.142314926
0.883997619 0.251992643 0.154838368
0.906515181 0.261480123 0.164325982
0.928653002 0.275015801 0.179253414
0.945983589 0.292346984 0.200885609
0.125110999 0.114105001 0.100189775
0.126375601 0.116255775 0.106641002
0.129790992 0.116255775 0.100189775
0.143959388 0.119797774 0.105755836
0.156989336 0.120177224 0.110056780
0.172928929 0.120682836 0.102466837
0.182669446 0.120176770 0.108285546
0.204427466 0.121821478 0.104111224
0.226185858 0.128399670 0.104111224
0.259582698 0.128146708 0.105755515
0.292979121 0.130929902 0.103731774
0.328399748 0.138014019 0.105755508
0.365464628 0.141303137 0.105249867
0.398861080 0.144338816 0.105756000
0.434535205 0.148513541 0.101961002
0.480455548 0.154585615 0.099304236
0.518406153 0.162176192 0.096268229
0.557748318 0.166476965 0.095635816
0.592662990 0.171030790 0.098671809
0.630613387 0.178367957 0.100315996
0.664010167 0.188614964 0.101833992
0.698165715 0.195952132 0.103099354
0.728652716 0.205060020 0.102213994
0.760025144 0.215180039 0.107273869
0.787350059 0.224921003 0.114864059
0.813282728 0.230992988 0.122580759
0.838836074 0.239342302 0.134977996
0.860088408 0.248450309 0.144338995
0.883997619 0.260214895 0.153573751
0.904743969 0.272359639 0.165717736
0.926502407 0.282732517 0.180518329
0.947248757 0.298418999 0.208601996
0.125363842 0.123972163 0.103225842
0.125869781 0.121948227 0.109803773
0.129790992 0.126628995 0.108538613
0.138393328 0.127893835 0.099431001
0.160025164 0.127514392 0.110056713
0.175711706 0.128779218 0.105503090
0.185325831 0.131815150 0.102972835
0.200379536 0.132194713 0.104617156
0.228463024 0.135989994 0.105376057
0.261353493 0.139531672 0.105881996
0.293485016 0.143832862 0.106767707
0.327640504 0.148387253 0.102719896
0.365211636 0.156357005 0.105755508
0.399114043 0.159519196 0.108285867
0.433523059 0.162555575 0.103226006
0.477672577 0.167995155 0.103352360
0.516382217 0.175585032 0.095509000
0.554712355 0.184060991 0.097406566
0.590638816 0.187729374 0.096900977
0.628336370 0.194813162 0.098165810
0.664010167 0.201517731 0.101833992
0.697407126 0.209614262 0.105881996
0.727893651 0.218469635 0.103731856
0.759013057 0.227577254 0.112081163
0.785325706 0.234155446 0.117900126
0.813789070 0.240606979 0.125616819
0.837065160 0.248197064 0.132194906
0.857558429 0.258823425 0.143579990
0.886527598 0.269323140 0.156862661
0.906009138 0.281467259 0.166476950
0.925110757 0.294497430 0.181277573
0.949020028 0.307020992 0.213156000
0.131815001 0.139532000 0.105122998
0.130676836 0.131941691 0.109297834
0.131562218 0.134977758 0.107273772
0.139531761 0.140796930 0.103605159
0.152055994 0.143832535 0.094117999
0.176343992 0.140796930 0.115370385
0.192789093 0.145351097 0.113599129
0.209487244 0.148134097 0.106894456
0.231119186 0.148513541 0.102340452
0.261480004 0.154585540 0.105376072
0.291840732 0.159898564 0.110941999
0.324604809 0.164326265 0.108791716
0.359898627 0.168880552 0.103099354
0.398861080 0.175205573 0.105629027
0.435167342 0.178494960 0.102593422
0.479190379 0.183934540 0.106388450
0.516761720 0.191144899 0.104111359
0.546742499 0.199999705 0.092852563
0.592283010 0.206072509 0.101960965
0.629474699 0.214547738 0.101961002
0.664010167 0.221758083 0.103478804
0.697027564 0.227830261 0.106261544
0.730297446 0.234155983 0.106641047
0.757874906 0.243516654 0.118532807
0.780645251 0.248070836 0.123845704
0.806072295 0.251865953 0.128272980
0.835547566 0.255787164 0.135230616
0.853763580 0.270967543 0.144338995
0.884883046 0.280455381 0.160277963
0.910436630 0.291334510 0.175078750
0.927767575 0.303984582 0.186970130
0.949020028 0.319164991 0.208222553
0.119671002 0.157747999 0.099050999
0.131815001 0.160784394 0.111194998
0.132827058 0.161796093 0.106767833
0.142188162 0.163314149 0.104996935
0.161163613 0.162049323 0.106261998
0.176343992 0.165084928 0.094117999
0.205692634 0.169639632 0.105249740
0.226438865 0.172422856 0.106388062
0.244402036 0.171663761 0.104617164
0.261480004 0.169765919 0.102340460
0.291840732 0.170018926 0.105376065
0.326249510 0.175078914 0.110941991
0.362175912 0.181783646 0.109930061
0.398861080 0.190385967 0.105629027
0.432258219 0.199494347 0.102593422
0.478178501 0.205186933 0.104364187
0.520177364 0.211258933 0.107906252
0.555091858 0.218469441 0.107273929
0.592283010 0.227324888 0.108032957
0.629474699 0.233396932 0.103225999
0.664010167 0.239974871 0.101961002
0.696394980 0.246046871 0.104490928
0.727261007 0.252371997 0.109677434
0.757621884 0.264516026 0.118785836
0.780645251 0.269323230 0.123845704
0.806072295 0.275142580 0.128272980
0.835927010 0.282732785 0.135357127
0.862871885 0.289184272 0.147375390
0.875774920 0.296394855 0.156483084
0.900822222 0.306514889 0.175964385
0.925237238 0.318658918 0.195066527
0.949020028 0.331308991 0.211258948
0.115116678 0.188614964 0.100569323
0.122201316 0.181530714 0.105122998
0.136495560 0.182416320 0.112966001
0.142188162 0.186337635 0.109550677
0.158001095 0.187096775 0.111574680
0.175332248 0.185831383 0.103731677
0.208222315 0.193927646 0.099178001
0.241872087 0.199999988 0.103352323
0.266160399 0.203288987 0.102593228
0.284882784 0.205565825 0.099557161
0.301960737 0.197849646 0.099810131
0.330297261 0.199873373 0.104869999
0.364073306 0.204300955 0.108664997
0.399114043 0.210373312 0.106135026
0.434787899 0.217204407 0.107653417
0.472992063 0.228715986 0.104617193
0.513599157 0.233523190 0.101328194
0.549652219 0.239848301 0.100316420
0.587982059 0.250853956 0.102213681
0.624414742 0.257179022 0.104237996
0.658949733 0.261353731 0.103858255
0.691334605 0.266793340 0.106514670
0.721568525 0.272738844 0.112586699
0.749525547 0.277672648 0.119291902
0.777608991 0.285262644 0.128399700
0.803541958 0.291334629 0.134724662
0.832384706 0.300442755 0.141935319
0.855661094 0.308539003 0.150031567
0.879823327 0.314610988 0.162049130
0.897280037 0.320682973 0.172928408
0.923971832 0.331309199 0.192409977
0.951549709 0.343453646 0.209234685
0.105502717 0.218722701 0.105249994
0.113219358 0.214548007 0.106641315
0.129032224 0.211891398 0.108538710
0.145477325 0.213156238 0.109550707
0.157621711 0.218089700 0.109930165
0.178368151 0.216318458 0.110183001
0.208475709 0.221758008 0.106641315
0.238330111 0.225932688 0.101961002
0.277039796 0.235040888 0.100443006
0.305376202 0.244655102 0.096521229
0.329032272 0.241113275 0.098039001
0.349019676 0.236812145 0.102086991
0.374067068 0.237571031 0.104743645
0.404933423 0.238836408 0.104237713
0.437191486 0.239342391 0.105882421
0.471094370 0.245287687 0.102466911
0.512081027 0.257431686 0.103984714
0.546489418 0.261480153 0.098039411
0.584946036 0.271600425 0.101075031
0.618342757 0.281467408 0.099177651
0.654522479 0.285641730 0.103858255
0.686906695 0.290702134 0.107905999
0.717267275 0.297280222 0.113724999
0.746109903 0.300316602 0.116761394
0.773434281 0.305629700 0.123466417
0.800758660 0.311701685 0.133965701
0.828842402 0.320050418 0.143832996
0.848956466 0.328020126 0.152181998
0.874509931 0.334471703 0.166856393
0.897027373 0.342188388 0.180644691
0.920050263 0.348260403 0.196331471
0.949652016 0.358886987 0.216065705
0.088804901 0.249842182 0.107526906
0.099430703 0.249842182 0.106008902
0.115622669 0.251360178 0.109803997
0.137128219 0.252625018 0.106514901
0.157621995 0.254901737 0.101201907
0.183428094 0.254522294 0.109171063
0.212776542 0.258064270 0.109677322
0.242125392 0.261606187 0.105755910
0.270209074 0.263124168 0.099683911
0.315749526 0.281340957 0.093611903
0.352055848 0.287413090 0.097027130
0.380139440 0.285389006 0.098292090
0.402150750 0.281593829 0.102466553
0.423150182 0.278558165 0.100695908
0.448956579 0.272992104 0.102719903
0.474889487 0.271094292 0.097154006
0.506008983 0.276407182 0.097912900
0.547880709 0.287918776 0.103352480
0.584440112 0.294118047 0.106388114
0.616824806 0.302720129 0.102593087
0.650221467 0.310689330 0.104111090
0.684629977 0.314990342 0.108665094
0.714989960 0.323719203 0.114610605
0.745350838 0.326122999 0.115243196
0.772675395 0.331436098 0.121315576
0.799240649 0.337508082 0.130170971
0.826565027 0.343580097 0.142821059
0.845540762 0.349652082 0.155218080
0.870208740 0.354965180 0.171916634
0.897027254 0.363567293 0.186843917
0.916255534 0.371790111 0.201644197
0.943579972 0.377862096 0.225933000
0.067552485 0.292346984 0.098418519
0.082732871 0.292346984 0.092346519
0.097659677 0.296647996 0.101581283
0.116887815 0.301201850 0.106008835
0.142441601 0.303478539 0.098165527
0.178874373 0.300442934 0.098165512
0.209740475 0.300063491 0.101075321
0.241745621 0.301960766 0.100569293
0.276281118 0.305628985 0.096647523
0.315749526 0.311701000 0.090575516
0.367109597 0.332826912 0.096141510
0.407716990 0.337001801 0.091967262
0.438962966 0.332827508 0.088045835
0.462618589 0.327134997 0.091587521
0.480835319 0.324098587 0.103731498
0.497027189 0.316128731 0.098545320
0.515875697 0.313598692 0.098671794
0.541808724 0.318279564 0.106388092
0.581277966 0.327387989 0.109424487
0.617837191 0.328020513 0.109677479
0.652119160 0.334218770 0.113219477
0.684629977 0.342061758 0.117267482
0.714989960 0.348008007 0.117646992
0.745350838 0.348008007 0.120683394
0.771157563 0.352688521 0.130423963
0.795572400 0.358760506 0.142314970
0.820493042 0.364832520 0.154965073
0.847817421 0.370904505 0.170145437
0.869449317 0.374320358 0.185199291
0.898039103 0.382795960 0.196964204
0.924731493 0.393042505 0.207210943
0.937508047 0.399114490 0.219861001
0.017204393 0.340670735 0.100948870
0.035293911 0.340670735 0.094876871
0.067678839 0.340670735 0.095256098
0.097786322 0.342694730 0.103605129
0.130550534 0.344845057 0.101581007
0.169512987 0.351928800 0.086401001
0.208475441 0.351422876 0.096521005
0.244908109 0.354712307 0.099051133
0.282353103 0.358254492 0.098798096
0.321821511 0.360025495 0.099177867
0.361290604 0.363187611 0.084377006
0.416951239 0.380392015 0.090449005
0.460721046 0.387223393 0.091461129
0.493105769 0.389500558 0.095762029
0.508665681 0.378494322 0.094623864
0.524478078 0.373054743 0.092346877
0.545730472 0.365970612 0.097406991
0.567868590 0.362302154 0.108159289
0.586843908 0.357747972 0.106641099
0.609614372 0.355724365 0.106894128
0.641619623 0.357495129 0.110689126
0.675015986 0.364578992 0.116761386
0.709297538 0.372548997 0.120936342
0.742441714 0.378114998 0.129538029
0.765971184 0.380392283 0.132574409
0.789626956 0.385831863 0.142820984
0.815433085 0.391397953 0.154964998
0.847564399 0.395066738 0.167741567
0.864262819 0.403794914 0.180265784
0.885009170 0.409107983 0.200505912
0.912966430 0.416318595 0.217077717
0.937255025 0.420366883 0.231245995
0.000000000 0.391271234 0.099936746
0.006072010 0.393295497 0.093864746
0.021125574 0.393295497 0.096268229
0.060594734 0.392030329 0.101834163
0.101202153 0.392030329 0.107906252
0.153826937 0.399494052 0.099557243
0.195319593 0.403035760 0.096520990
0.239721656 0.404680461 0.098798007
0.281847090 0.409614414 0.098039001
0.323845506 0.410879225 0.099810220
0.363314629 0.415812612 0.097533382
0.406831264 0.422896743 0.090448998
0.463377297 0.435800135 0.091966994
0.507526815 0.444908530 0.093738034
0.538646340 0.445161432 0.090702422
0.561922669 0.431751996 0.093359001
0.575584888 0.422643632 0.091840796
0.597217202 0.414927065 0.105629310
0.609361231 0.405819029 0.108159289
0.627830386 0.398228854 0.111954249
0.643390417 0.387602746 0.111954249
0.669956148 0.389879644 0.116761386
0.701075256 0.396837503 0.121948473
0.732574165 0.402909487 0.131056100
0.762934983 0.408728540 0.139658272
0.785579026 0.411764920 0.151043624
0.809867263 0.416698426 0.164579317
0.838709414 0.419734418 0.175205499
0.862239063 0.426059395 0.187349647
0.882732153 0.431625456 0.203035936
0.905123174 0.437444508 0.223276198
0.933207035 0.441619247 0.237318262
0.000000000 0.442883909 0.101454645
0.001138644 0.444781661 0.098797992
0.004048003 0.446805924 0.095635645
0.013915205 0.447817773 0.100695521
0.057938360 0.444781482 0.109044902
0.124731511 0.448577166 0.109803997
0.179886356 0.450980604 0.107273676
0.225680113 0.452877998 0.102593005
0.276533991 0.458191276 0.100316100
0.323592514 0.462365419 0.101454645
0.364452988 0.464895308 0.105502866
0.404554248 0.470714539 0.104490742
0.451233268 0.478684306 0.101454638
0.505123079 0.488045663 0.095382638
0.548513412 0.498039395 0.091461413
0.588108420 0.499304473 0.097912982
0.610119998 0.484503537 0.100189798
0.622897208 0.471093953 0.105123140
0.635547280 0.460468233 0.114737608
0.650980294 0.449082911 0.123339646
0.665401459 0.438456535 0.122200996
0.679569960 0.423276395 0.123213127
0.700316429 0.425174266 0.126122996
0.724604666 0.427197993 0.132194743
0.752687871 0.433270276 0.142441288
0.782542646 0.437950701 0.155977279
0.807337403 0.440987080 0.175711632
0.832257986 0.444022834 0.185452446
0.855408013 0.449715257 0.197216973
0.880834877 0.456293464 0.212903231
0.903352201 0.458444268 0.233775854
0.927134991 0.464010268 0.247185647
0.000000000 0.494497091 0.111321993
0.003289354 0.493738055 0.113851674
0.001771226 0.496394813 0.108791769
0.001265161 0.498924911 0.104490876
0.009361576 0.501960576 0.106261544
0.085262731 0.498924971 0.109297931
0.156103641 0.497913033 0.108538710
0.214547396 0.498419046 0.104870036
0.263630241 0.500190079 0.101328097
0.321315438 0.512334108 0.110436484
0.365211725 0.510942221 0.116634995
0.403921455 0.511448324 0.116128810
0.445414305 0.515623093 0.114357680
0.493738055 0.521442115 0.111827999
0.539279163 0.533586085 0.105756000
0.589120805 0.547880828 0.113599055
0.625553310 0.549651921 0.118658870
0.643896580 0.534851134 0.117773138
0.659076989 0.516635120 0.129917935
0.671474040 0.500442684 0.141050011
0.684124053 0.488551289 0.141429335
0.697786033 0.477419168 0.136369124
0.715622544 0.462366045 0.139405504
0.727640867 0.456040263 0.139532030
0.748386979 0.457811594 0.147628024
0.774446249 0.462239385 0.162049279
0.804048061 0.465528101 0.179254025
0.831372440 0.468564451 0.191398025
0.853130758 0.474004000 0.203794971
0.877672076 0.481594175 0.218975395
0.902846158 0.488552034 0.240101531
0.921062946 0.488552034 0.267425984
0.000000000 0.546110213 0.129537985
0.006072000 0.537001848 0.126502365
0.002909578 0.542694569 0.124731049
0.001265161 0.545477629 0.121694975
0.007337545 0.544844806 0.120809406
0.036686003 0.550537288 0.109297931
0.130297482 0.544971406 0.119923994
0.204680398 0.546742380 0.125616401
0.260088176 0.549272478 0.126122385
0.300063074 0.548766851 0.122580469
0.351929218 0.558000982 0.128778979
0.393548250 0.556483090 0.124731258
0.438077182 0.558127761 0.124857828
0.490702450 0.563946784 0.133080363
0.536242783 0.566983163 0.136115968
0.581783950 0.579127192 0.139658570
0.624035418 0.588867843 0.145477623
0.654142678 0.587982237 0.146615803
0.677292943 0.580392182 0.148133919
0.689689994 0.556609452 0.149145991
0.705629468 0.539911032 0.157368734
0.720556796 0.525995910 0.160657674
0.733839273 0.510942817 0.163693488
0.742947698 0.498798013 0.166729867
0.759519398 0.490196109 0.166856378
0.779000401 0.488425404 0.174952388
0.800758719 0.490069807 0.188361704
0.825300395 0.495888829 0.200506404
0.844654918 0.498924553 0.215306535
0.867045939 0.504363954 0.228083402
0.891966939 0.511068761 0.246805951
0.914990187 0.515876412 0.276533574
0.004806995 0.588108778 0.142947599
0.001265004 0.586211205 0.147122175
0.003036004 0.579253614 0.139785007
0.000000000 0.587096930 0.142567798
0.001518196 0.589373827 0.147501335
0.010626340 0.593421578 0.145477593
0.105755679 0.586970389 0.139152586
0.183175221 0.589120686 0.143073887
0.244655281 0.595192611 0.146868795
0.289310783 0.595446050 0.147374794
0.340290815 0.594433725 0.148133799
0.387855977 0.599493802 0.152182057
0.429222077 0.597216964 0.150284782
0.477546245 0.599493742 0.159392774
0.518785596 0.604680359 0.164579168
0.571536779 0.607716739 0.170018584
0.612523794 0.610752761 0.173054978
0.651486099 0.616445363 0.176470354
0.689942956 0.626312554 0.181783587
0.707906604 0.610752642 0.184187397
0.721947849 0.594054401 0.186084658
0.737634420 0.579380095 0.191144794
0.749652207 0.564073563 0.192789108
0.758760095 0.547374785 0.195825502
0.774699748 0.537507892 0.196584597
0.788741410 0.528399944 0.195192918
0.802909613 0.524351776 0.200252801
0.819607854 0.522833765 0.204807088
0.836179733 0.523845732 0.222011730
0.865022123 0.526881397 0.237191334
0.890955150 0.533206403 0.255281359
0.913725019 0.540796995 0.285641789
0.004807003 0.624541163 0.167235985
0.003289192 0.621505141 0.165718183
0.001518192 0.621758401 0.170145407
0.000253031 0.620746374 0.162302181
0.001138547 0.628083646 0.172548741
0.004554189 0.628842235 0.177862123
0.088045269 0.624794483 0.176344186
0.169512630 0.625553906 0.173434660
0.230234191 0.632384598 0.171916470
0.284124494 0.634661853 0.177229568
0.332700878 0.631878495 0.177482575
0.381783575 0.634408414 0.179506451
0.423909098 0.636306167 0.181404188
0.465148866 0.633649409 0.186464220
0.503352404 0.635926604 0.191271365
0.547248423 0.639594972 0.197343364
0.597343385 0.639595389 0.203415364
0.635041118 0.635420799 0.204680353
0.681846976 0.651359975 0.212903157
0.717773736 0.654396057 0.224035725
0.738646448 0.642631173 0.227071628
0.752814472 0.629475057 0.229095370
0.764832616 0.614294708 0.228968889
0.773940265 0.597469985 0.229222268
0.786843777 0.581530452 0.229981363
0.805060148 0.575205863 0.231372684
0.815560043 0.566350520 0.231119365
0.828716159 0.559266388 0.235167369
0.838962793 0.556989193 0.238962635
0.858950138 0.554206133 0.249336109
0.890955389 0.557241976 0.268057942
0.912207186 0.565085411 0.297786176
0.000000000 0.657937706 0.200505555
0.002403811 0.651233137 0.195825487
0.003922003 0.650347710 0.197722927
0.003289428 0.654649138 0.202403113
0.008981676 0.660341561 0.195951656
0.022897018 0.657811165 0.203542069
0.093358517 0.655407846 0.205692545
0.167109072 0.657052696 0.205692545
0.223023385 0.663883984 0.206451640
0.283744961 0.663883984 0.209488034
0.329285264 0.660974264 0.210879534
0.374319911 0.663377523 0.212903276
0.420872688 0.668437541 0.214800552
0.457558513 0.668437541 0.215053588
0.494370788 0.665781379 0.218089953
0.532574356 0.665654778 0.224162102
0.573814034 0.668184757 0.231499091
0.617457569 0.665148973 0.236306101
0.659962416 0.668184578 0.242378145
0.705503225 0.680455327 0.257685244
0.744591951 0.683617830 0.268943757
0.766097248 0.674382985 0.271600097
0.778115511 0.659076095 0.271473587
0.787223101 0.643390417 0.268437862
0.799240947 0.627830505 0.267678946
0.814168513 0.615939200 0.267172843
0.830866516 0.611385524 0.270208597
0.845793843 0.602150679 0.281973124
0.854901969 0.596457899 0.278810561
0.867299199 0.591650546 0.279316753
0.887286603 0.586970150 0.285642117
0.908538997 0.590006530 0.312966555
0.000000000 0.691334903 0.221758023
0.000000000 0.682226539 0.233902782
0.002403816 0.677672267 0.235673964
0.003922037 0.678937376 0.237697780
0.012018129 0.684630454 0.238456517
0.078810886 0.687665999 0.229348913
0.125616610 0.687665999 0.231878653
0.181277379 0.687412977 0.233017012
0.234661400 0.688172042 0.233776107
0.283744961 0.688172042 0.236812502
0.327008009 0.685262918 0.242758006
0.365717530 0.686274707 0.246299729
0.407716304 0.690701962 0.248197004
0.454522133 0.695761979 0.248450056
0.493991226 0.695761979 0.251486421
0.530803561 0.690702021 0.259329796
0.569007158 0.692979157 0.269702971
0.608349144 0.698545396 0.278810978
0.644782066 0.695509017 0.278811008
0.681720793 0.701327980 0.287666351
0.728652716 0.708158970 0.301328242
0.766856194 0.708917975 0.311448127
0.784187496 0.701581001 0.313978493
0.793295145 0.683364987 0.310942084
0.806957304 0.672232747 0.310183048
0.823276341 0.663757026 0.307400048
0.839974940 0.656926036 0.303605109
0.849082530 0.644782066 0.306641459
0.864009857 0.632890999 0.305123180
0.874889255 0.625047505 0.308918208
0.886780620 0.619860649 0.317520648
0.902467012 0.617331028 0.328147024
0.000000000 0.708032608 0.262491733
0.000000000 0.710056961 0.257937819
0.012902999 0.707400382 0.261480033
0.038077295 0.706261754 0.264010012
0.068817653 0.707780004 0.268184364
0.123592615 0.703605413 0.266286969
0.157495067 0.714231312 0.264769018
0.197722778 0.713599086 0.264263093
0.243263632 0.713219643 0.265401810
0.289816976 0.715243340 0.272486210
0.329791367 0.715116858 0.270082384
0.368247867 0.712081313 0.274130642
0.404680640 0.712460756 0.279443413
0.445920378 0.714737713 0.284376740
0.485388845 0.714737713 0.284882784
0.524857402 0.717140913 0.292726159
0.560151815 0.715243340 0.297280371
0.597723126 0.718658984 0.304996938
0.638457000 0.717773378 0.315749764
0.669322968 0.717520356 0.324098378
0.703858435 0.721695125 0.327514023
0.747122228 0.727893591 0.340290517
0.779759943 0.730929375 0.354205906
0.802150488 0.728652358 0.361796170
0.811258614 0.714990377 0.356483102
0.825426996 0.702593088 0.352688104
0.841239989 0.692346394 0.347628117
0.852624953 0.684756398 0.348387182
0.864389360 0.675269246 0.354079723
0.877672434 0.666793346 0.353194088
0.887792766 0.658949792 0.357495338
0.899177611 0.650221407 0.362808764
0.066413648 0.730803192 0.303099215
0.072106384 0.730044127 0.295129478
0.079316653 0.736622453 0.299051225
0.098797813 0.732827306 0.296521187
0.137128532 0.731688738 0.299683630
0.169007137 0.731688738 0.301201463
0.200379521 0.731309474 0.301201463
0.227703899 0.738519788 0.301201463
0.263377637 0.735990107 0.301454812
0.305503219 0.736748993 0.310563207
0.341429591 0.738772750 0.309930593
0.376976490 0.740544021 0.310942262
0.412270635 0.737508118 0.313978612
0.447944313 0.736748993 0.321315467
0.485768378 0.736748993 0.324604452
0.517646730 0.735357702 0.324225247
0.557115555 0.741429269 0.334851444
0.590006530 0.741302729 0.337634444
0.626186252 0.738772750 0.349019706
0.661353767 0.742567718 0.358633876
0.689816475 0.738772690 0.365844190
0.723213375 0.741809130 0.369892180
0.762682021 0.749272466 0.388108462
0.792283297 0.756356478 0.398987651
0.816571534 0.751043499 0.404301167
