Assets/EldamarStudio/100 Retro LUTs Pack/LUTs/cube/Margaret LUT.cube
LUT_3D_SIZE 5
DOMAIN_MIN 0.000000 0.000000 0.000000
DOMAIN_MAX 0.903226 0.903226 0.903226
0.117647000 0.062744997 0.062744997
0.252371997 0.076154292 0.091840707
0.407969832 0.100695997 0.085642412
0.614168286 0.159898862 0.128526121
0.936622560 0.205312997 0.166096985
0.149020001 0.222643703 0.097406998
0.241239995 0.218342990 0.102340281
0.389373690 0.234408274 0.120303407
0.605692625 0.275016129 0.147754580
0.937254608 0.316508412 0.174193710
0.154206008 0.398861796 0.161543414
0.230107412 0.402150810 0.154332832
0.373308390 0.406072408 0.162175998
0.607716680 0.457432270 0.164452702
0.939152420 0.513346076 0.171916410
0.017457006 0.684756279 0.159772143
0.211764574 0.690322518 0.156736016
0.422896922 0.689310670 0.158760011
0.646553099 0.689690113 0.152688012
0.947374880 0.728399813 0.167742133
0.000000000 0.952055633 0.210878938
0.225300342 0.955344796 0.218722612
0.466413349 0.955218196 0.229221776
0.704617262 0.949652135 0.235546887
0.944085777 0.936242759 0.255534410
0.124478295 0.081341296 0.229474992
0.236685410 0.091208287 0.217077985
0.370398670 0.146489829 0.227197692
0.567362130 0.199620456 0.262491703
0.913725615 0.202277288 0.281340718
0.161417007 0.213156417 0.207589701
0.236306280 0.219354689 0.220999405
0.355723977 0.247817978 0.233776107
0.569006801 0.279190570 0.259203136
0.914737463 0.307653517 0.282858700
0.178368002 0.378241688 0.245793581
0.237318411 0.386464387 0.243516698
0.360910386 0.394939810 0.250727713
0.581151009 0.444022387 0.263757139
0.925490081 0.500569105 0.276913285
0.013409297 0.665148258 0.251739413
0.190132990 0.672359407 0.253257692
0.408854961 0.674003541 0.257937700
0.632511258 0.678558111 0.249968290
0.934851527 0.719671011 0.273750693
0.000000000 0.949778438 0.318658799
0.225047290 0.953952789 0.324225456
0.463757217 0.949399233 0.328905880
0.704364419 0.944971681 0.337760597
0.944591880 0.935610235 0.352308393
0.137887418 0.108538993 0.406704813
0.228462696 0.133080274 0.395319521
0.364199400 0.166096985 0.383174986
0.563441098 0.204933554 0.414547414
0.901961029 0.174446583 0.470840961
0.183048576 0.246173277 0.374699384
0.239595279 0.245540679 0.372043014
0.353699982 0.256293416 0.373055100
0.554964960 0.278431594 0.406071961
0.899683893 0.277166575 0.458444208
0.184946418 0.379253805 0.381277382
0.237571299 0.387729406 0.382163107
0.368121386 0.413282782 0.398229212
0.574699342 0.435167700 0.419481248
0.909171581 0.482732624 0.455914199
0.000000000 0.652751684 0.420113534
0.117014632 0.657052517 0.420493275
0.379253387 0.659329236 0.419860661
0.616192281 0.668817103 0.419860661
0.927640855 0.711195529 0.474889189
0.115495920 0.939532220 0.532068133
0.266540200 0.943073928 0.530929744
0.478431165 0.940797210 0.528020024
0.711322069 0.934977651 0.532953739
0.942314982 0.931055963 0.565591395
0.098797873 0.167742133 0.686780274
0.240860432 0.176850125 0.689310253
0.422137529 0.190891996 0.672106385
0.615180373 0.197976008 0.653384268
0.907653451 0.169892162 0.688678086
0.101960890 0.284376979 0.657685101
0.239847988 0.281467289 0.660341382
0.412649989 0.284756273 0.650853872
0.602782965 0.282732695 0.640354097
0.911827862 0.275268972 0.694244206
0.001644712 0.446299970 0.640354276
0.165718168 0.451613098 0.646299839
0.385831803 0.443390399 0.644908667
0.601897657 0.438076973 0.637064874
0.909044564 0.484377086 0.685768485
0.000000000 0.662239134 0.637824237
0.020240288 0.661226869 0.652751267
0.365971088 0.672991991 0.654016256
0.649589241 0.704364240 0.683744431
0.910562932 0.733586371 0.717140913
0.279569626 0.933459759 0.735483885
0.390512258 0.937254906 0.743326843
0.563567400 0.930676520 0.757115424
0.729032040 0.929158628 0.750917077
0.926248968 0.926755071 0.770524859
0.005312988 0.244655117 0.950663984
0.218216524 0.244275689 0.952940881
0.446552575 0.245287552 0.948007762
0.686274290 0.241112918 0.947374821
0.932574451 0.223908782 0.932320774
0.000000000 0.336875200 0.946742833
0.202403694 0.336875200 0.948007762
0.443389982 0.338519514 0.949398816
0.677799106 0.336622477 0.939911485
0.927893758 0.328526348 0.933459759
0.017836552 0.529285192 0.938899636
0.210246697 0.535737216 0.933080196
0.442251593 0.532447755 0.934345245
0.680455267 0.538772881 0.931688786
0.921315372 0.539152622 0.924604654
0.139910832 0.738899231 0.928652763
0.285388887 0.747501373 0.921062469
0.508032978 0.754712164 0.923592508
0.710436225 0.759266078 0.926501930
0.912839949 0.765971065 0.921315610
0.385957956 0.936369598 0.917899966
0.455660969 0.936242759 0.914484680
0.602909625 0.934345186 0.921947956
0.776723742 0.932700574 0.919544637
0.927260756 0.940164804 0.927134633
