Assets/EldamarStudio/100 Retro LUTs Pack/LUTs/cube/Margaret LUT.cube
LUT_3D_SIZE 8
DOMAIN_MIN 0.000000 0.000000 0.000000
DOMAIN_MAX 0.903226 0.903226 0.903226
0.117647000 0.062744997 0.062744997
0.179506987 0.062744997 0.083112001
0.275142193 0.076913007 0.094117999
0.363187641 0.082985289 0.079569645
0.452878177 0.118279189 0.102593191
0.575711489 0.148766473 0.125489995
0.749525547 0.187223285 0.148007289
0.936622560 0.205312997 0.166096985
0.136875451 0.144212097 0.078431003
0.186211541 0.140670553 0.075268999
0.267299086 0.152435452 0.079569548
0.353067726 0.156736195 0.094876900
0.441999197 0.175458282 0.105755992
0.569006681 0.203668281 0.129664540
0.734218955 0.230487093 0.151802748
0.930297136 0.249462232 0.164579391
0.149778903 0.246932089 0.104237899
0.189753100 0.238963097 0.099936545
0.257179081 0.235800087 0.113724999
0.339784622 0.250347644 0.112460546
0.436432481 0.263251096 0.127640799
0.563946486 0.292979121 0.148513734
0.741429508 0.322833359 0.156736284
0.936495781 0.343074083 0.174699560
0.158001363 0.341935635 0.139532000
0.187729448 0.339911371 0.140291095
0.248450100 0.346615791 0.135104433
0.331815630 0.348640293 0.140670642
0.426186204 0.355976820 0.150031641
0.555597782 0.393928289 0.156609744
0.733965874 0.426691979 0.165970996
0.926755011 0.451866060 0.176596820
0.149905011 0.467678577 0.165338188
0.182289541 0.463757187 0.163820192
0.248450100 0.466793180 0.166223809
0.332195073 0.467425823 0.166223809
0.420620173 0.470714569 0.163819999
0.564705491 0.503099084 0.170651257
0.747880816 0.544339120 0.160784006
0.932700932 0.566856503 0.170145184
0.053889804 0.644275725 0.162808269
0.133333176 0.647691250 0.164831996
0.242125094 0.649335563 0.164831996
0.357368886 0.646046460 0.168374255
0.473750472 0.647691250 0.159898758
0.601012170 0.648197234 0.160784006
0.763567269 0.672865272 0.148640454
0.941049874 0.696774244 0.165717915
0.003922000 0.816192508 0.150664300
0.025806652 0.818595827 0.144085974
0.219481483 0.821758270 0.145730570
0.368247986 0.821758270 0.142820999
0.504364252 0.821758270 0.138772801
0.650094450 0.819481552 0.139152259
0.793295503 0.811638534 0.135610282
0.938519597 0.814927518 0.167868525
0.000000000 0.952055633 0.210878938
0.111827642 0.958506942 0.218722612
0.259708881 0.955850780 0.222264349
0.395446271 0.955850780 0.229221776
0.531562209 0.953320801 0.227703974
0.668437481 0.949398816 0.233269587
0.809361279 0.946363032 0.247944310
0.944085777 0.936242759 0.255534410
0.129032448 0.078431003 0.146995544
0.190132543 0.067425996 0.141429543
0.266160518 0.091714092 0.152814999
0.337381631 0.122200996 0.170904085
0.419228375 0.150411084 0.178241536
0.548260450 0.181024998 0.201897353
0.720430255 0.200759009 0.212776840
0.924098551 0.203922004 0.221505538
0.138773009 0.147374988 0.136369094
0.182669088 0.143832549 0.147754550
0.250853986 0.156736091 0.156736091
0.330423623 0.172801733 0.171283543
0.413789093 0.190385982 0.183428094
0.540164530 0.217457533 0.195193008
0.707779825 0.239848286 0.204174742
0.907526851 0.251612723 0.221252233
0.163440645 0.239468649 0.164958641
0.197596103 0.236686006 0.167741999
0.240986645 0.234282091 0.170904085
0.321694732 0.248829648 0.170778200
0.415180206 0.269196749 0.192030191
0.546742380 0.291840672 0.203036189
0.719165206 0.320303679 0.210499555
0.919038475 0.336495608 0.223023251
0.161543012 0.330550194 0.186084643
0.196078107 0.331688643 0.187349901
0.246046990 0.336116195 0.183302000
0.315749198 0.334472090 0.188868001
0.411258370 0.355597377 0.200252742
0.540290654 0.384187013 0.207717001
0.717014611 0.418975383 0.207590103
0.910942197 0.444908172 0.217077792
0.161416546 0.449335754 0.203162715
0.187602907 0.448450625 0.203036100
0.246426448 0.451233268 0.206957906
0.325996101 0.455534607 0.206957802
0.416445524 0.460215002 0.208855346
0.545224190 0.491081595 0.209487915
0.730550468 0.535357118 0.204806909
0.922707140 0.566603482 0.209867373
0.060341612 0.628463209 0.202909559
0.129917622 0.630360484 0.201265275
0.238203898 0.633143783 0.202783167
0.345351189 0.636305988 0.205565915
0.467172742 0.637823999 0.203668371
0.590891898 0.640101194 0.198482007
0.758001447 0.667046010 0.199620262
0.935230613 0.690575480 0.209740460
0.001897740 0.807463825 0.189373836
0.005692639 0.814168274 0.190512091
0.209108189 0.807210803 0.190385997
0.351929188 0.810246885 0.188867882
0.496015102 0.810752571 0.187982276
0.640607238 0.812397420 0.179127440
0.784187317 0.809993804 0.186843529
0.932574451 0.810752749 0.214800805
0.000000000 0.953320801 0.260847598
0.100442618 0.955850780 0.270841360
0.256040603 0.956103325 0.257179022
0.391018093 0.952561796 0.261733145
0.530550003 0.949778676 0.267551839
0.671220601 0.945477784 0.271347344
0.806198359 0.942820966 0.283491403
0.950411201 0.933079898 0.294117272
0.120682999 0.075268902 0.249968097
0.185831904 0.087033994 0.248829648
0.258697093 0.101074994 0.242125079
0.331436098 0.130043998 0.238583550
0.413789093 0.166856185 0.257052183
0.524857461 0.201138645 0.273371190
0.697533250 0.199240908 0.289690167
0.907147348 0.197722912 0.297027111
0.160784006 0.159898996 0.232005090
0.185831994 0.163820088 0.223276183
0.239848182 0.168501005 0.225680098
0.316635072 0.182163551 0.243011102
0.401138186 0.210499644 0.259329259
0.517520487 0.230487183 0.270841449
0.686274052 0.237191543 0.283238351
0.898038805 0.239975005 0.304237634
0.159139901 0.235167906 0.229601189
0.197975650 0.237444997 0.233143643
0.248450086 0.243643090 0.246047094
0.309551090 0.255408198 0.244022638
0.400379360 0.273497909 0.261733115
0.524731457 0.294624001 0.280961424
0.698292553 0.311068952 0.289943188
0.908412457 0.330677092 0.305123299
0.184313998 0.331056535 0.250727087
0.209867463 0.327514291 0.257052183
0.254395634 0.335357189 0.257811278
0.312713295 0.331309289 0.252245277
0.396331161 0.349778742 0.266793430
0.524604559 0.377862036 0.280202448
0.704617441 0.412017554 0.285136193
0.904617310 0.431878448 0.296900988
0.167109191 0.439468473 0.265654892
0.199620456 0.443769753 0.273498088
0.249209180 0.444908291 0.270335168
0.320935816 0.441365987 0.269576073
0.403415382 0.446553171 0.272738993
0.538772464 0.481214553 0.278305084
0.720303774 0.526375473 0.279823095
0.919923842 0.554332614 0.292473227
0.048829909 0.616318583 0.274256855
0.125869796 0.617710412 0.277166367
0.227324098 0.618975163 0.279316753
0.334092438 0.621758401 0.280581981
0.449841917 0.623402596 0.277545899
0.575079143 0.628463268 0.271980107
0.751675844 0.659076929 0.279822886
0.930550337 0.686780632 0.295762450
0.000000000 0.797343433 0.268817365
0.001897740 0.800885081 0.266919613
0.180139005 0.805186629 0.280581802
0.342694640 0.802403271 0.272738993
0.490322381 0.803668439 0.276660204
0.629854262 0.802529812 0.275395364
0.778241813 0.805313170 0.270335197
0.932068288 0.811764598 0.299430728
0.006072194 0.948007762 0.342694163
0.101201437 0.948513448 0.349652112
0.257431686 0.950157881 0.344718695
0.391650915 0.949146152 0.349778563
0.534092367 0.949146152 0.353067786
0.668943524 0.943453550 0.358507097
0.802656591 0.937001884 0.367742181
0.942314863 0.934345007 0.376344025
0.135609999 0.090828992 0.355344623
0.181530640 0.099810347 0.345983565
0.251612991 0.122200996 0.334218621
0.324478000 0.141809002 0.331815630
0.414800823 0.175584987 0.343959183
0.533839107 0.198355094 0.368247986
0.700822294 0.197722718 0.384060919
0.905629396 0.173814163 0.406198442
0.165464997 0.182289630 0.331941634
0.191650555 0.172801733 0.331941634
0.248829648 0.181783885 0.325996190
0.313851744 0.189247549 0.321189106
0.404806823 0.210373342 0.337002099
0.511448324 0.234788254 0.353700042
0.686147988 0.233776197 0.373561174
0.891714036 0.219734102 0.399620295
0.176470906 0.251612991 0.331941724
0.207337454 0.253890097 0.324478090
0.257938027 0.257431746 0.322453737
0.314737558 0.262871712 0.324351281
0.398355633 0.280581981 0.339278996
0.518911958 0.293485373 0.356736004
0.692852736 0.300316274 0.377609015
0.903352320 0.302213937 0.399620295
0.179886341 0.327893645 0.320050627
0.205439910 0.334977627 0.320303380
0.248070747 0.340038031 0.332954109
0.325616628 0.352561265 0.343579650
0.403921545 0.359266639 0.345856935
0.514737606 0.378747642 0.357242376
0.698671877 0.402403355 0.372802258
0.900695384 0.420872629 0.392662913
0.169639811 0.438203722 0.345224649
0.198229253 0.446173549 0.345224619
0.250095010 0.448197186 0.354712367
0.316002607 0.448956192 0.349778801
0.401391745 0.449209541 0.346742451
0.540037930 0.480202198 0.362555534
0.716761291 0.517014325 0.376976281
0.914863765 0.547501326 0.399999827
0.023782276 0.608981729 0.365464628
0.072485916 0.611638367 0.371537089
0.208096102 0.615559578 0.367615372
0.321315259 0.614294708 0.368753642
0.448450536 0.619101942 0.367109627
0.574446857 0.619481385 0.366729915
0.743073642 0.652371645 0.375584930
0.927007854 0.681214511 0.410373449
0.001644712 0.793295264 0.372169286
0.000759096 0.798228502 0.382289469
0.129411712 0.797343314 0.385958463
0.320177257 0.798228800 0.376723260
0.476154447 0.800252974 0.386590719
0.624415159 0.799367189 0.382922292
0.777103126 0.800505519 0.385199279
0.931688607 0.806198239 0.417583913
0.077166349 0.947121799 0.454648703
0.138646126 0.950411022 0.459582329
0.283744365 0.946995556 0.469070047
0.405945420 0.946995556 0.465528429
0.536622167 0.945477784 0.470335037
0.668437660 0.942062080 0.470082313
0.805692673 0.938520074 0.479823053
0.947248578 0.931182504 0.493485034
0.136622190 0.126122802 0.464642555
0.184693351 0.135230646 0.466793180
0.258697093 0.148133993 0.464516282
0.337634265 0.167741999 0.455914170
0.419987351 0.182542980 0.444149196
0.533712685 0.199493930 0.456799179
0.704743862 0.197722718 0.501201749
0.904111266 0.176217645 0.536749005
0.169006735 0.195951894 0.452371746
0.191650733 0.201391384 0.447185367
0.259076566 0.209234998 0.442124933
0.334218800 0.209993884 0.444402277
0.415306985 0.222264349 0.441240102
0.520429909 0.234282181 0.454016656
0.695635736 0.231498897 0.492472827
0.891840577 0.216951564 0.526122749
0.177229896 0.278937101 0.435547262
0.203415543 0.281341076 0.423276633
0.257937998 0.282985181 0.436306387
0.324351460 0.281341076 0.429981381
0.407463282 0.285262287 0.432511091
0.517647266 0.296647727 0.455534428
0.699051440 0.298671812 0.492599458
0.907273889 0.300822079 0.528905988
0.172296271 0.353194177 0.438709468
0.197975740 0.358507544 0.432005048
0.250854075 0.361543536 0.432005048
0.320303291 0.362808287 0.434282035
0.407337189 0.359139621 0.438709468
0.528020024 0.378873944 0.454269379
0.705629289 0.390891999 0.482226372
0.899304032 0.411385000 0.519671023
0.161037192 0.437824368 0.426312208
0.187096715 0.447311968 0.434914291
0.243896291 0.451992363 0.435547262
0.321315199 0.466919601 0.444908410
0.431499183 0.485768378 0.467678577
0.554332495 0.492726386 0.468058109
0.728146493 0.510056913 0.487160087
0.911321700 0.546110153 0.524604380
0.000379548 0.611258924 0.478810996
0.041492905 0.612523675 0.481846988
0.173687711 0.618722498 0.480202287
0.307653338 0.623782158 0.485262543
0.438583374 0.622517467 0.472738743
0.573054731 0.624920726 0.480834961
0.747880816 0.653257310 0.498039454
0.916508317 0.681846797 0.539405107
0.000000000 0.795066357 0.505882442
0.006325098 0.792156816 0.509424448
0.097280376 0.798987746 0.516888142
0.304237723 0.796584249 0.509424627
0.463377446 0.801391363 0.516888380
0.616951466 0.794307351 0.510436475
0.767994761 0.798102558 0.516635358
0.923213005 0.807842970 0.556483030
0.169259548 0.946616113 0.598228931
0.244275510 0.943832755 0.591650605
0.331815213 0.941176653 0.594054461
0.439721644 0.943959594 0.597975791
0.552940965 0.938646615 0.598482192
0.678178251 0.937381446 0.600505888
0.810626268 0.935357153 0.605945349
0.935230970 0.929538190 0.618469357
0.109930001 0.158633739 0.636179745
0.169259802 0.168121457 0.636559308
0.265655071 0.177103087 0.633396566
0.368247986 0.182289734 0.623276591
0.464769125 0.190132737 0.613029659
0.567615509 0.202024266 0.604807198
0.701075256 0.193421736 0.614421308
0.905882478 0.169133261 0.658317626
0.128272817 0.221378535 0.616192281
0.182542548 0.215939358 0.625047207
0.265275449 0.221378729 0.616192281
0.360404879 0.224920988 0.611005902
0.454522848 0.226818725 0.594813585
0.548893452 0.235294193 0.588741243
0.698671997 0.225553453 0.605692744
0.896773994 0.211258739 0.654522657
0.125743270 0.297280341 0.606831372
0.180012822 0.297280341 0.605692923
0.257558435 0.296142012 0.605186462
0.346236289 0.298924625 0.594054461
0.449589193 0.298292458 0.589247108
0.553194165 0.299431086 0.585958183
0.698924661 0.297153801 0.608855069
0.905249774 0.301581144 0.653510392
0.079569913 0.387602478 0.592030346
0.144338816 0.386590838 0.592283130
0.230993271 0.382163286 0.590132833
0.330677003 0.384693384 0.584693372
0.435420543 0.381530464 0.587602854
0.544465184 0.379127204 0.581657410
0.703605652 0.385325491 0.609108448
0.905249417 0.410120159 0.648576438
0.039342545 0.489816904 0.588361740
0.075521983 0.491334707 0.588741243
0.197723091 0.487412900 0.593421757
0.312460452 0.493485361 0.594433606
0.434155822 0.489057809 0.596710682
0.562049448 0.494497120 0.594560385
0.731815279 0.514864087 0.625047266
0.907147348 0.553447068 0.661859572
0.000000000 0.616698265 0.593295217
0.000379548 0.614294887 0.597723246
0.129538447 0.620999455 0.597849250
0.286780298 0.626438916 0.602909446
0.443137199 0.639848292 0.623782158
0.596964180 0.657811463 0.642251492
0.755597830 0.662238955 0.648703218
0.911068678 0.695382476 0.678431332
0.003542452 0.788741589 0.637318194
0.005060257 0.790259361 0.640354395
0.069070198 0.792283177 0.634787917
0.312460244 0.794939518 0.647184968
0.479696661 0.794686794 0.658444047
0.620240450 0.798228800 0.650095224
0.767994881 0.796584547 0.661606789
0.913852096 0.813409090 0.692346275
0.276027620 0.934471905 0.711954415
0.330676794 0.934218526 0.710309625
0.408728480 0.933712780 0.718026519
0.507779777 0.934345365 0.729285181
0.589879572 0.935483694 0.725363851
0.695129573 0.929158747 0.718785405
0.812144220 0.932447612 0.726375818
0.929284990 0.924730957 0.742694378
0.030486729 0.195066288 0.821758270
0.139785007 0.191903800 0.826945007
0.255534172 0.197470099 0.821758270
0.381150931 0.200126648 0.815053940
0.505249918 0.205440015 0.808349550
0.628083467 0.195698559 0.793421507
0.759645820 0.178115278 0.785452545
0.911448300 0.164073005 0.784313738
0.031246018 0.241366103 0.809487700
0.135483548 0.240101248 0.799114406
0.257432103 0.241745546 0.810879469
0.376850069 0.243769795 0.804300785
0.500063121 0.240607187 0.799240887
0.624035418 0.229601562 0.789121032
0.754079580 0.220872536 0.780645132
0.904237866 0.205692828 0.780012786
0.000000000 0.319671094 0.803668618
0.099683657 0.320050657 0.799114466
0.233649716 0.322074473 0.808475494
0.365717977 0.318153083 0.796078265
0.490449101 0.315749109 0.793421626
0.618722379 0.308791906 0.785958171
0.757115483 0.300822198 0.782416403
0.906135261 0.300063372 0.780518770
0.002783356 0.414800644 0.787096500
0.004807003 0.414294571 0.793042183
0.193927735 0.415053636 0.793295443
0.338519990 0.413155913 0.784313917
0.475774735 0.409867227 0.783934474
0.608475626 0.407969475 0.779253602
0.748513818 0.396963984 0.774320066
0.900822222 0.409487545 0.777103364
0.001644712 0.537254691 0.786211491
0.003162710 0.535736680 0.789120972
0.134851187 0.533333480 0.781657457
0.308918625 0.535356998 0.780012667
0.461227089 0.529285371 0.770651340
0.604174912 0.529411495 0.773434162
0.750917077 0.522201240 0.770524621
0.906261563 0.553573489 0.781657159
0.000379548 0.667299509 0.785452545
0.000000000 0.670461774 0.781024456
0.074762724 0.668437958 0.782163143
0.303984940 0.670714855 0.784819663
0.469955921 0.672612309 0.783681273
0.609867156 0.675015569 0.781530559
0.755977273 0.676280737 0.780519009
0.909930170 0.706641436 0.802909315
0.004553996 0.796584487 0.776344001
0.000000000 0.793421507 0.773181558
0.061606534 0.794939756 0.773054898
0.311574817 0.796584249 0.776344001
0.482985467 0.800632477 0.777103066
0.649082780 0.805818796 0.793548286
0.790006518 0.819481552 0.803794980
0.908539057 0.830360234 0.823402584
0.290954590 0.931562304 0.808601975
0.330297261 0.932953656 0.807463765
0.410372972 0.930549860 0.814547658
0.511827707 0.929790795 0.814927042
0.629221916 0.932194710 0.829095125
0.735736549 0.929538250 0.840228021
0.822770059 0.924477756 0.842504680
0.915749490 0.928779185 0.846173167
0.005312988 0.244655117 0.950663984
0.126375526 0.240860239 0.956230223
0.255408108 0.244781822 0.953953028
0.382542610 0.247311965 0.949525595
0.513598859 0.244528592 0.951802611
0.649335563 0.245414212 0.949905038
0.785072803 0.239215329 0.936242759
0.932574451 0.223908782 0.932320774
0.003542452 0.281467825 0.947374940
0.111828081 0.274636537 0.947248697
0.242631555 0.282226741 0.947501659
0.377735555 0.283744514 0.948007762
0.509297967 0.281467825 0.951928794
0.645667374 0.278684467 0.943832874
0.786970019 0.269196630 0.936749101
0.921189189 0.262871355 0.928905487
0.000000000 0.359898895 0.937887669
0.088804536 0.359519362 0.950031638
0.229981169 0.359139830 0.946489751
0.371283978 0.358633667 0.942694604
0.504870415 0.361037076 0.947880805
0.643643320 0.357874662 0.937634468
0.781530738 0.355724096 0.935357153
0.926375508 0.356862634 0.932953715
0.004301157 0.463377446 0.935989797
0.064389311 0.462744951 0.939026177
0.229980886 0.465148538 0.940417647
0.365085095 0.470082104 0.941555798
0.504237652 0.469702661 0.936369658
0.637571335 0.466413528 0.928525925
0.779000700 0.465781242 0.929790795
0.923592448 0.463504255 0.927640617
0.029221769 0.590512335 0.926502049
0.111574680 0.593927979 0.936875343
0.265654862 0.597723007 0.928525925
0.388741314 0.599240959 0.932068110
0.519165218 0.597216964 0.928525925
0.647185385 0.598861575 0.929917753
0.779886007 0.595825315 0.922074735
0.918279827 0.598988116 0.921441972
0.129537910 0.714104712 0.935736716
0.190005988 0.713219523 0.931688547
0.304870188 0.724225163 0.927134454
0.433396757 0.724351525 0.926122606
0.565085232 0.734598160 0.924857557
0.674003661 0.728399575 0.927007914
0.796837091 0.732574105 0.920936048
0.914863884 0.736875474 0.917014539
0.210752398 0.830739796 0.930044234
0.274383277 0.828462958 0.917141080
0.361290008 0.828463078 0.919291615
0.474889308 0.831119239 0.918532431
0.591271341 0.836306155 0.920430005
0.711701512 0.840228021 0.924098432
0.812776804 0.841872394 0.917393923
0.910942733 0.848450482 0.921062469
0.385957956 0.936369598 0.917899966
0.418342680 0.934977591 0.916508555
0.467552125 0.933712780 0.920556843
0.558254182 0.933712780 0.919417799
0.651865602 0.933712780 0.919291615
0.752182186 0.932953656 0.917267680
0.841746032 0.928779185 0.922327280
0.927260756 0.940164804 0.927134633
