Assets/EldamarStudio/100 Retro LUTs Pack/LUTs/cube/Margaret LUT.cube
DOMAIN_MIN 0 0 0
DOMAIN_MAX 1 1 1
LUT_3D_SIZE 32
0.117647000 0.062744997 0.062744997
0.126755387 0.056672998 0.062744997
0.138014004 0.057052772 0.067046002
0.155218318 0.060088836 0.074383162
0.179506987 0.062744997 0.083112001
0.203795001 0.062744997 0.089184001
0.228083640 0.070335321 0.090195999
0.252371997 0.076154292 0.091840707
0.275142193 0.076913007 0.094117999
0.293358982 0.070840999 0.094117992
0.317393988 0.073497869 0.082479261
0.339658260 0.076533742 0.078431003
0.363187641 0.082985289 0.079569645
0.389753073 0.094623998 0.082606032
0.407969832 0.100695997 0.085642412
0.428589791 0.109171189 0.093485184
0.452878177 0.118279189 0.102593191
0.481467545 0.127387568 0.110436417
0.514864028 0.136495963 0.113472044
0.542694390 0.140037641 0.122074358
0.575711489 0.148766473 0.125489995
0.614168286 0.159898862 0.128526121
0.656925976 0.169006497 0.137381479
0.705502808 0.178114906 0.140417099
0.749525547 0.187223285 0.148007289
0.794813275 0.194939986 0.154332682
0.842884183 0.200000003 0.157368943
0.888425291 0.200000003 0.160404548
0.936622560 0.205312997 0.166096985
0.976344109 0.211384982 0.177482173
1.000000000 0.214800611 0.188235000
1.000000000 0.211765006 0.188235000
0.123718992 0.068816997 0.065781385
0.126755387 0.065781385 0.065781385
0.142315000 0.072612390 0.074383385
0.160025164 0.075774841 0.079696387
0.181404158 0.077166095 0.082732551
0.197723001 0.093105778 0.086148389
0.227071643 0.085515454 0.082099743
0.249082983 0.091587707 0.081087619
0.270588189 0.096647777 0.082732320
0.293358982 0.095129773 0.085009612
0.320303887 0.094876774 0.087919474
0.340670377 0.097786121 0.080455258
0.358633637 0.100822024 0.078431003
0.378115058 0.106767997 0.080075644
0.401897818 0.112839997 0.088678025
0.424920976 0.118911996 0.094117604
0.448323995 0.125869378 0.101074994
0.474130541 0.134092137 0.108665183
0.502719998 0.145604357 0.116508432
0.538899720 0.157495394 0.125110745
0.572675347 0.163187757 0.130423650
0.611131847 0.170019120 0.133585989
0.653763115 0.175205752 0.140417129
0.699430823 0.187223300 0.143453494
0.750284851 0.194054395 0.153320387
0.797849655 0.202403665 0.160404682
0.846426487 0.208602339 0.163440943
0.894497275 0.206072003 0.166476533
0.940037727 0.208728835 0.169512823
0.977608979 0.216192141 0.175205365
1.000000000 0.220872611 0.184819594
1.000000000 0.217836991 0.191271394
0.129790992 0.089942768 0.066666998
0.137128398 0.089057386 0.068817228
0.144465774 0.088171996 0.075268999
0.163946941 0.097786002 0.079823002
0.184440315 0.097785771 0.078810997
0.199620709 0.105376095 0.083618164
0.223149866 0.109424450 0.081214353
0.250221640 0.105249770 0.080075711
0.270208865 0.111322097 0.081340872
0.293105960 0.112713777 0.084377259
0.316002876 0.114863999 0.083112091
0.339279264 0.114863999 0.084124222
0.357621759 0.117773414 0.081720419
0.374573052 0.121062770 0.083238550
0.398861796 0.127134770 0.090449184
0.423149973 0.133206770 0.097153768
0.447438389 0.140796974 0.101707578
0.472991973 0.148133963 0.107779562
0.501834273 0.158760175 0.116887972
0.533206940 0.168754011 0.121695355
0.573434711 0.175205737 0.128905997
0.610373020 0.181024760 0.132194638
0.650980234 0.185452506 0.137381017
0.700568974 0.195572779 0.146489680
0.744212270 0.203162774 0.152055770
0.795825422 0.210626081 0.161416769
0.844655395 0.218722284 0.165211946
0.891587853 0.218975320 0.168247536
0.935357511 0.221252605 0.173434600
0.977355838 0.226059750 0.178241745
0.996458054 0.233902529 0.186084747
0.991398036 0.234661773 0.196457997
0.134598166 0.117267154 0.070461839
0.141176224 0.114737153 0.070967771
0.154079765 0.117267154 0.075774617
0.165718168 0.116002321 0.079823002
0.186211541 0.121694773 0.074889451
0.201391935 0.122580156 0.080075838
0.222897157 0.126375645 0.078557841
0.247185245 0.127767324 0.078810550
0.270714939 0.128526226 0.081087843
0.291967303 0.131562486 0.083618164
0.311954528 0.132068440 0.084630296
0.334472090 0.134345159 0.086148165
0.356863111 0.135483801 0.087286517
0.375585198 0.138520122 0.090322867
0.398861796 0.143579990 0.095382996
0.421885133 0.149651989 0.098924994
0.444908381 0.157242194 0.104743965
0.470461965 0.165717989 0.109044723
0.500822127 0.174193203 0.118153132
0.533712745 0.182036355 0.121695198
0.570398331 0.189879730 0.126628831
0.612903118 0.193927988 0.134725094
0.649968326 0.200126499 0.138519794
0.697027028 0.209234908 0.147248656
0.741808712 0.213536009 0.151044011
0.785957754 0.220999628 0.158380821
0.838077068 0.228589326 0.163440838
0.885895312 0.230866611 0.165717542
0.932574391 0.236432672 0.170145497
0.972043097 0.238709807 0.178747803
1.000000000 0.243896440 0.183934435
0.989374042 0.249588996 0.194940001
0.136875451 0.144212097 0.078431003
0.141429171 0.138899088 0.076154388
0.153700009 0.141049638 0.077419326
0.171790168 0.143326700 0.079063706
0.186211541 0.140670553 0.075268999
0.201391935 0.143706158 0.078304611
0.221632317 0.148513645 0.076660320
0.243769974 0.151676551 0.076533839
0.267299086 0.152435452 0.079569548
0.288551480 0.155471072 0.079569556
0.307652980 0.152688429 0.085389189
0.329537958 0.153700292 0.090322994
0.353067726 0.156736195 0.094876900
0.377103508 0.159772515 0.098165549
0.398355842 0.162808135 0.101328418
0.419608235 0.168627098 0.102720000
0.441999197 0.175458282 0.105755992
0.465148985 0.184313536 0.111701563
0.495509058 0.190385565 0.120809972
0.531056166 0.196837112 0.124731191
0.569006681 0.203668281 0.129664540
0.609107792 0.212144092 0.137381256
0.651612520 0.218216076 0.148893490
0.691334724 0.227071449 0.151423097
0.734218955 0.230487093 0.151802748
0.778115153 0.234282210 0.153194308
0.824794233 0.241872549 0.161543012
0.879443765 0.241872549 0.161543012
0.930297136 0.249462232 0.164579391
0.973434329 0.253636539 0.172169507
1.000000000 0.254142582 0.182416052
1.000000000 0.257178992 0.185452446
0.133839056 0.168500870 0.078431003
0.149019450 0.168500870 0.081467390
0.155723929 0.169639632 0.083491772
0.171410382 0.170651630 0.087792866
0.192283556 0.167994931 0.090449385
0.201391935 0.167994916 0.081340998
0.221632317 0.168500870 0.081846938
0.241239995 0.171157703 0.081340998
0.261227101 0.173687831 0.083364934
0.282479525 0.176723450 0.088677943
0.306641012 0.173940808 0.094496936
0.327893257 0.174952671 0.094497323
0.348513365 0.177988574 0.094117999
0.367995113 0.181024894 0.095129937
0.389247447 0.184060514 0.101201937
0.410499841 0.191903740 0.106767997
0.436306447 0.197470054 0.111827999
0.465148956 0.202783287 0.117267579
0.495509028 0.211637944 0.120809972
0.528652430 0.220493287 0.127135009
0.564452529 0.223402858 0.132700935
0.602403343 0.227957055 0.139785066
0.642504930 0.236432865 0.148893490
0.685009778 0.242504880 0.145857096
0.733839214 0.251360208 0.155217990
0.781150997 0.257558852 0.159266070
0.827704132 0.263124943 0.161796004
0.879443765 0.263124943 0.167614996
0.923465908 0.268437922 0.172928661
0.965717614 0.273244619 0.178494900
0.994939983 0.274888933 0.186464310
1.000000000 0.275395006 0.194560066
0.143453643 0.195319325 0.088551641
0.151043713 0.195319325 0.091587387
0.157621548 0.197470099 0.090322770
0.165844321 0.199241325 0.090069838
0.185072988 0.197849646 0.091587678
0.204933614 0.197849646 0.088931061
0.221632317 0.197849646 0.089943320
0.239595279 0.196204931 0.088298611
0.259202957 0.197470099 0.088172093
0.283997834 0.200506166 0.092473328
0.300569028 0.200253204 0.098545320
0.324857503 0.201265052 0.102593057
0.346615970 0.204300955 0.103984676
0.366730005 0.207337275 0.107020706
0.390259057 0.210372895 0.110815994
0.413915277 0.213409126 0.114484802
0.436812401 0.220746309 0.120430313
0.466413975 0.225426987 0.125237316
0.500569046 0.232637376 0.126375973
0.536242664 0.244275987 0.137255013
0.567741752 0.247691631 0.139532000
0.605945468 0.250727504 0.142315000
0.648703218 0.259709001 0.146616191
0.693611801 0.265780985 0.148387417
0.740670502 0.274130255 0.154459029
0.792030215 0.280455679 0.164958671
0.839848340 0.284883231 0.168374315
0.887412965 0.286906987 0.170398310
0.936116219 0.292219996 0.171410337
0.971536636 0.296521217 0.177482650
0.997217000 0.300442636 0.187096879
1.000000000 0.303731650 0.201138645
0.149020001 0.222643703 0.097406998
0.155092001 0.222643703 0.095509320
0.163946927 0.218216479 0.099177770
0.170777708 0.219987705 0.096141838
0.184060827 0.219987705 0.093105547
0.207084000 0.219987705 0.091840707
0.218089938 0.224920988 0.096015319
0.241239995 0.218342990 0.102340281
0.256419778 0.219101697 0.097786091
0.280202776 0.224794477 0.097280487
0.300822139 0.224920988 0.103225991
0.320429802 0.225300431 0.105629444
0.343579948 0.228336334 0.108665057
0.365085363 0.231372654 0.114484027
0.389373690 0.234408274 0.120303407
0.413661897 0.237444505 0.120050803
0.439468890 0.241998687 0.126122802
0.465781540 0.248070687 0.131688863
0.501201749 0.254142702 0.132701010
0.534345031 0.264136732 0.140544012
0.570271730 0.271979988 0.146742716
0.605692625 0.275016129 0.147754580
0.651106715 0.284123898 0.148387000
0.695129752 0.291713685 0.149905190
0.746236503 0.296774000 0.154206425
0.793421924 0.304490715 0.163314030
0.845035136 0.307780057 0.170904279
0.893991113 0.310815960 0.170904279
0.937254608 0.316508412 0.174193710
0.978494346 0.319164932 0.177735686
1.000000000 0.323972315 0.185578689
1.000000000 0.330803424 0.202277288
0.149778903 0.246932089 0.104237899
0.154332906 0.249209195 0.098925002
0.163947001 0.242757767 0.099177904
0.176850095 0.239722088 0.102972932
0.189753100 0.238963097 0.099936545
0.210625932 0.238204092 0.096900843
0.218975216 0.243516877 0.100695997
0.231372699 0.244149193 0.105376288
0.257179081 0.235800087 0.113724999
0.272359490 0.247944102 0.104617387
0.297027081 0.248450100 0.109297991
0.319291353 0.249209195 0.112081096
0.339784622 0.250347644 0.112460546
0.361037016 0.253384024 0.115496166
0.384819686 0.256419748 0.123592407
0.410626054 0.259456009 0.126122802
0.436432481 0.263251096 0.127640799
0.464390039 0.269323081 0.136748567
0.497660041 0.275395095 0.140037969
0.529791057 0.285009354 0.146616101
0.563946486 0.292979121 0.148513734
0.601897359 0.299304128 0.150031865
0.647565007 0.308412492 0.153193995
0.691334784 0.317520291 0.154459000
0.741429508 0.322833359 0.156736284
0.793421924 0.327261060 0.160278410
0.839975059 0.332827151 0.168374032
0.894370735 0.335863560 0.168626994
0.936495781 0.343074083 0.174699560
0.971916258 0.344845206 0.180012971
1.000000000 0.345983595 0.187855974
1.000000000 0.355091989 0.200000003
0.152814522 0.262112468 0.113345519
0.152814537 0.271220863 0.110309914
0.159519300 0.267046213 0.107147232
0.171284169 0.265528172 0.107020684
0.186717480 0.272359490 0.109044932
0.204933479 0.266287506 0.106008552
0.218216002 0.265528530 0.108032845
0.229980931 0.265908003 0.107906297
0.245035097 0.266160905 0.107652999
0.266287506 0.269196510 0.113724999
0.293105870 0.269702494 0.116255388
0.316255748 0.271726727 0.119418256
0.336369485 0.274636328 0.121189483
0.354965031 0.277672023 0.121568948
0.376217365 0.280708432 0.124604546
0.404807091 0.283744812 0.132700801
0.433396667 0.286780804 0.138266802
0.461353630 0.290575504 0.142820567
0.491714507 0.296647519 0.151928976
0.527767062 0.308285475 0.160784364
0.563946486 0.318405747 0.160278499
0.601391375 0.326375514 0.155597866
0.641493022 0.332700521 0.153193995
0.690069854 0.341808915 0.159266010
0.738393545 0.348639965 0.162808284
0.788614988 0.354585469 0.164453000
0.839975059 0.360151559 0.165338427
0.891587377 0.363187969 0.168374017
0.935357094 0.374193460 0.176596820
0.968880117 0.377229750 0.182036728
0.991271079 0.376091361 0.187855974
1.000000000 0.379380018 0.199999988
0.144212127 0.280202746 0.113724999
0.164579004 0.289310366 0.125237241
0.166729778 0.291966975 0.115749322
0.175585002 0.286400855 0.111700997
0.188361675 0.287286520 0.113092676
0.198987991 0.293864876 0.115116939
0.212143987 0.292852879 0.117141187
0.230866402 0.291208178 0.120177150
0.249588996 0.289942980 0.120429866
0.268690616 0.290828377 0.122200862
0.284124017 0.288045734 0.119544737
0.307400405 0.292093754 0.122580603
0.329791427 0.296015233 0.125616774
0.352055877 0.299303859 0.127640963
0.375964373 0.304996431 0.130676568
0.397216767 0.310436606 0.133712798
0.427577317 0.312460870 0.140290990
0.458949834 0.315370142 0.146615848
0.491587967 0.323718876 0.158000961
0.519165397 0.329790860 0.153193995
0.559013367 0.341682345 0.163567111
0.599494159 0.350790739 0.163567126
0.641113460 0.356862724 0.158760011
0.686906993 0.363187790 0.159266010
0.733206987 0.370018870 0.156230003
0.782542586 0.376090854 0.161543101
0.833649516 0.383174986 0.168121189
0.882859230 0.393422186 0.171157405
0.926501751 0.396457911 0.176849857
0.969006479 0.402530074 0.185705200
0.994054019 0.402656883 0.188362002
0.997090161 0.403668731 0.188362002
0.149272516 0.308539242 0.125869498
0.158380389 0.311575145 0.121821776
0.170777768 0.314231515 0.126881704
0.176344156 0.312966347 0.123592414
0.188108802 0.309930265 0.125110507
0.200506195 0.320682913 0.123213187
0.214167982 0.318152964 0.126249060
0.227956682 0.318152964 0.125996441
0.248829842 0.316255242 0.127514258
0.265781015 0.316255242 0.127514258
0.287160128 0.315369844 0.126628861
0.306388527 0.316382259 0.129664987
0.327640921 0.320177257 0.131562248
0.351043999 0.322327465 0.133712947
0.375331968 0.326628268 0.136748582
0.399241030 0.328652352 0.139784813
0.426565439 0.336242914 0.147374988
0.458064407 0.339658558 0.151929006
0.487286925 0.348766536 0.155724019
0.519165337 0.357115746 0.159265995
0.552182436 0.363187760 0.155091733
0.594434261 0.374067128 0.163567126
0.637192011 0.381151021 0.160657525
0.684630215 0.387223482 0.158760265
0.732194841 0.399367213 0.166350245
0.777735591 0.404047906 0.158886582
0.828083217 0.408981591 0.165591002
0.878178537 0.416572154 0.170145184
0.923465908 0.424794406 0.177861989
0.967741549 0.426059246 0.182163209
0.998102248 0.427071571 0.189879984
0.998102248 0.425933242 0.188362002
0.158001363 0.341935635 0.139532000
0.163314268 0.341935635 0.133080631
0.168374419 0.343074292 0.129411861
0.177482516 0.342947781 0.132700801
0.187729448 0.339911371 0.140291095
0.203668937 0.348260283 0.134977996
0.216571674 0.347501278 0.134218678
0.231751695 0.345856905 0.135104060
0.248450100 0.346615791 0.135104433
0.264389485 0.346995264 0.136242986
0.286021739 0.345856905 0.133965999
0.308286250 0.346742541 0.135736987
0.331815630 0.348640293 0.140670642
0.352815002 0.348640293 0.140923604
0.375331968 0.350790501 0.143959224
0.401897579 0.353699923 0.148133814
0.426186204 0.355976820 0.150031641
0.458950132 0.365717798 0.159645647
0.484250963 0.375332266 0.154585660
0.520303726 0.385578990 0.160784006
0.555597782 0.393928289 0.156609744
0.595066667 0.400000274 0.158633992
0.637951016 0.408854902 0.162049130
0.686527789 0.414927453 0.161037251
0.733965874 0.426691979 0.165970996
0.782289863 0.437444299 0.170651317
0.828842342 0.440986633 0.163567066
0.880455256 0.444655418 0.169006631
0.926755011 0.451866060 0.176596820
0.966602921 0.455660909 0.184440210
0.999746978 0.458317280 0.189247593
1.000000000 0.456293613 0.195572644
0.160278007 0.374573052 0.146363035
0.169892386 0.374320030 0.149399355
0.174193710 0.376723766 0.146363229
0.181024864 0.378242046 0.146616131
0.190006092 0.378368467 0.149399489
0.208222881 0.375332087 0.146363094
0.219354674 0.374573052 0.143073738
0.231498733 0.376470715 0.142694071
0.247691140 0.379253954 0.143706128
0.268943518 0.382289559 0.152814522
0.287792712 0.379506886 0.147881031
0.308286250 0.378495008 0.145857036
0.331309617 0.378748029 0.147248641
0.358128041 0.378748029 0.150031999
0.376343995 0.378748029 0.153067619
0.403668553 0.383302003 0.157747999
0.430234194 0.388361871 0.159519166
0.453384131 0.392789155 0.157115966
0.483744979 0.404933959 0.157115981
0.525237024 0.416825056 0.164452687
0.564199507 0.427071780 0.160404712
0.603921354 0.435420990 0.153068006
0.649462461 0.441619486 0.164832488
0.697912812 0.447818011 0.167868093
0.744718254 0.458444029 0.170651242
0.791650534 0.467805058 0.170904353
0.840481043 0.473877013 0.168880016
0.892093360 0.479948997 0.171916410
0.937887430 0.486021698 0.177355990
0.974572897 0.488298982 0.184946164
0.996710598 0.490955412 0.195066556
0.999746978 0.500063062 0.204174966
0.154206008 0.398861796 0.161543414
0.169386387 0.395825416 0.164579019
0.170398220 0.399873376 0.148260564
0.180012479 0.401518136 0.143580005
0.198481962 0.399873823 0.152688131
0.202150881 0.402656466 0.155471474
0.217836678 0.399620712 0.149905413
0.230107412 0.402150810 0.154332832
0.243643522 0.406072408 0.159392834
0.259835929 0.406578332 0.155850902
0.283997416 0.403794944 0.156230420
0.307021081 0.402782977 0.154965416
0.329538643 0.403921634 0.157242417
0.352056026 0.406072408 0.162175998
0.373308390 0.406072408 0.162175998
0.396331400 0.408475608 0.160404608
0.424920976 0.415180176 0.160784006
0.453384131 0.422390819 0.160151586
0.483744979 0.429221928 0.160151586
0.525237024 0.438583344 0.157368943
0.565844238 0.448324144 0.164452672
0.607716680 0.457432270 0.164452702
0.655534446 0.465907484 0.164832488
0.701074898 0.475015879 0.167868093
0.751802385 0.485768408 0.168626994
0.800758719 0.495129406 0.167868271
0.849335670 0.501201391 0.165844366
0.898165405 0.507273376 0.168880031
0.939152420 0.513346076 0.171916410
0.974572897 0.514105201 0.177355975
0.996078014 0.515243590 0.188488171
0.996710598 0.524351776 0.207210585
0.152941003 0.432763964 0.162302196
0.158507392 0.424921185 0.158127621
0.171536997 0.428336591 0.165464774
0.173560798 0.431878597 0.152814627
0.190638751 0.430740237 0.157368541
0.205819145 0.433775872 0.156356946
0.209361494 0.436559081 0.163820177
0.229474798 0.431878775 0.159392893
0.246173397 0.433396786 0.164706007
0.262998492 0.433396786 0.161923006
0.284503788 0.435293943 0.161669999
0.306768060 0.436306059 0.161669999
0.328399986 0.434408605 0.160531357
0.348387212 0.433649749 0.162808195
0.369639575 0.435799986 0.167109191
0.393295795 0.435799986 0.162302196
0.420619786 0.440354168 0.163819999
0.452245295 0.447944582 0.165591002
0.486148179 0.454016566 0.165591002
0.525237024 0.462871343 0.167615354
0.567741454 0.475774735 0.164579257
0.608728468 0.485895127 0.167615131
0.654522181 0.495003104 0.164579496
0.702339888 0.504111469 0.163061112
0.747880816 0.515496552 0.163819999
0.799240947 0.523465931 0.165211678
0.848829925 0.528525949 0.165211946
0.897406638 0.534598410 0.168247536
0.933206618 0.538266659 0.168880016
0.974446535 0.546110213 0.182542354
0.998481810 0.545603991 0.189120606
0.998481810 0.548639953 0.198229015
0.149905011 0.467678577 0.165338188
0.152941406 0.461606562 0.162302196
0.160910815 0.460215181 0.156356782
0.174319968 0.463757187 0.164200008
0.182289541 0.463757187 0.163820192
0.201264948 0.465654463 0.166476935
0.210373327 0.468690693 0.165970862
0.224920988 0.471347183 0.168500513
0.248450100 0.466793180 0.166223809
0.267425776 0.466793180 0.166223809
0.288551658 0.465148509 0.166223809
0.309804052 0.466666460 0.166223809
0.332195073 0.467425823 0.166223809
0.351423204 0.462745398 0.163567036
0.372675568 0.467046142 0.165844187
0.397849560 0.467678577 0.168374181
0.420620173 0.470714569 0.163819999
0.450980306 0.476787180 0.169259563
0.485642135 0.482859194 0.170145184
0.521821618 0.488677830 0.168374360
0.564705491 0.503099084 0.170651257
0.608222365 0.515243351 0.167615131
0.651486218 0.523972154 0.164706007
0.700062990 0.534471929 0.163061291
0.747880816 0.544339120 0.160784006
0.793421924 0.553700149 0.162175685
0.844276071 0.557368398 0.164199948
0.892852843 0.563440859 0.165211543
0.932700932 0.566856503 0.170145184
0.969892323 0.570398211 0.176470354
1.000000000 0.577735603 0.195951790
1.000000000 0.575964391 0.196711197
0.141303018 0.501707971 0.172548994
0.147501811 0.499304146 0.173813984
0.153573826 0.498418540 0.165211990
0.165844172 0.498418540 0.160657987
0.180265561 0.498418540 0.165591449
0.194939956 0.498418540 0.176470429
0.208222732 0.500948846 0.175964564
0.224920988 0.503352404 0.170904279
0.248450100 0.505629122 0.168626994
0.269702494 0.505629122 0.168626994
0.291587442 0.500442505 0.168626994
0.312207252 0.498418540 0.169259563
0.335230708 0.498545170 0.168626994
0.360025465 0.495762527 0.168880031
0.382416368 0.501075506 0.166603416
0.407210767 0.502340555 0.167615429
0.432764173 0.504744112 0.170398384
0.454649121 0.509551108 0.168626994
0.485009938 0.515623152 0.171663374
0.518153369 0.518911779 0.168247983
0.558507264 0.528905451 0.167235821
0.603415370 0.544971526 0.167615131
0.649209499 0.551296532 0.164200023
0.698292255 0.563440502 0.162176028
0.746236503 0.573307812 0.159898743
0.794054329 0.581657112 0.160278112
0.840101480 0.587729156 0.163820431
0.888678253 0.593801141 0.161163554
0.931309581 0.597216964 0.168753818
0.972043097 0.598987877 0.177862197
1.000000000 0.602023721 0.188109025
1.000000000 0.605060160 0.203289434
0.123086967 0.538140059 0.172548980
0.141302958 0.538140059 0.178620979
0.147501782 0.537887037 0.171284005
0.157368943 0.537887037 0.166730002
0.174193516 0.537887037 0.171663448
0.183301911 0.537887037 0.168627053
0.205565974 0.540417373 0.174446672
0.226944715 0.541809022 0.172928542
0.248450086 0.542061985 0.168626994
0.269702524 0.542061985 0.168626994
0.293864757 0.539152145 0.168626994
0.313851982 0.537887037 0.170651257
0.335736662 0.539025664 0.171157315
0.363061130 0.541303039 0.168880031
0.393421859 0.541303039 0.171916410
0.415812820 0.541809022 0.164832219
0.440607220 0.543327212 0.163061246
0.466793180 0.545983970 0.165591374
0.491081983 0.545984030 0.168626979
0.524225414 0.549272656 0.171663374
0.563314497 0.554206014 0.172042981
0.606072247 0.564326167 0.170271948
0.649209559 0.578621030 0.164200023
0.700821936 0.590764999 0.152055994
0.747627854 0.600632310 0.147754714
0.794813275 0.609740674 0.148892984
0.843137145 0.618090034 0.154712036
0.891713858 0.624162018 0.160784036
0.932321489 0.627577841 0.168753818
0.972043097 0.627071798 0.177862197
1.000000000 0.626312613 0.187855989
1.000000000 0.629348993 0.200253054
0.093738273 0.596837461 0.166982993
0.109171629 0.594054103 0.164705634
0.125237390 0.596204877 0.170777634
0.137128621 0.596837461 0.167488649
0.155724183 0.596837461 0.170145184
0.174446568 0.596837461 0.171916410
0.191144645 0.599367142 0.171410352
0.218216032 0.600758791 0.172042921
0.245161176 0.599240780 0.169386089
0.272485882 0.595192730 0.171410352
0.299430758 0.597849607 0.168626994
0.327767521 0.594813228 0.170651257
0.352435350 0.595192730 0.172548994
0.379253745 0.597976089 0.171410352
0.402024180 0.597976089 0.171916410
0.432384342 0.597976089 0.170145184
0.459329396 0.597976089 0.166350007
0.488551497 0.599114716 0.166223660
0.517141342 0.599114716 0.162808031
0.549778700 0.601897359 0.163060993
0.585072815 0.603035748 0.166097373
0.626818478 0.609360993 0.166982993
0.670967519 0.622391105 0.164200023
0.711954653 0.629222095 0.152055994
0.759012997 0.639089406 0.146742716
0.805945218 0.646806121 0.149272665
0.853004217 0.653510630 0.156230301
0.894750237 0.657305419 0.160025001
0.938013971 0.663377404 0.171410650
0.974067152 0.664768994 0.178874329
1.000000000 0.661859393 0.191397965
1.000000000 0.659203053 0.211132005
0.053889804 0.644275725 0.162808269
0.070967928 0.643137097 0.163567349
0.095636047 0.642504513 0.161290020
0.113346115 0.646805704 0.164831996
0.133333176 0.647691250 0.164831996
0.157621950 0.646173477 0.166350201
0.189626738 0.646805882 0.166856259
0.212776437 0.649841487 0.166856259
0.242125094 0.649335563 0.164831996
0.271347284 0.644402206 0.166729748
0.296900868 0.647058547 0.163946882
0.328146756 0.647944212 0.168753520
0.357368886 0.646046460 0.168374255
0.385452300 0.647817731 0.166856259
0.414927393 0.646173477 0.166856259
0.443390459 0.646173477 0.164452940
0.473750472 0.647691250 0.159898758
0.504743695 0.648703277 0.159139752
0.536369741 0.649968445 0.155597761
0.567615390 0.648956060 0.160784006
0.601012170 0.648197234 0.160784006
0.637444675 0.649209082 0.160784274
0.679948986 0.658570468 0.158760279
0.717646956 0.666413724 0.150158256
0.763567269 0.672865272 0.148640454
