Assets/EldamarStudio/100 Retro LUTs Pack/LUTs/cube/Mark LUT.cube
DOMAIN_MIN 0 0 0
DOMAIN_MAX 1 1 1
LUT_3D_SIZE 32
0.141176000 0.121569000 0.109803997
0.150284395 0.121569000 0.112839609
0.159392774 0.123719223 0.115875773
0.169766009 0.125489995 0.118912160
0.182289541 0.125869542 0.121569000
0.197469935 0.128905937 0.121569000
0.210119992 0.131941676 0.126628995
0.223908693 0.133332998 0.129411995
0.239089087 0.134092093 0.129411995
0.254269481 0.137128487 0.129411995
0.275268883 0.143074006 0.135230988
0.294497013 0.145098001 0.137254998
0.314990282 0.146236643 0.138393357
0.339026034 0.149272963 0.141429037
0.360278398 0.152308583 0.144465417
0.391144782 0.155344814 0.147501811
0.423023373 0.161416799 0.153573811
0.455914110 0.169259563 0.161416575
0.498418987 0.172295958 0.164452970
0.529791057 0.172548994 0.164706007
0.565844238 0.180138990 0.166603252
0.605313122 0.189247131 0.171663120
0.644781470 0.192536503 0.180644989
0.684250712 0.201644912 0.186717004
0.721441984 0.208476007 0.192789003
0.763440609 0.214547992 0.198861346
0.810500085 0.221126065 0.205439940
0.849968433 0.230234444 0.214547530
0.894749761 0.244655117 0.231625631
0.938519299 0.259835184 0.249841943
0.974825561 0.275015593 0.268058181
0.996078014 0.290196002 0.286274999
0.147248775 0.133712992 0.115875997
0.141176000 0.133712992 0.118912384
0.158886373 0.131562218 0.115496226
0.172801942 0.130297154 0.115875773
0.185325935 0.128905848 0.119291611
0.200506330 0.131941557 0.124604613
0.208096400 0.140037939 0.119544610
0.224162087 0.144086108 0.123592615
0.242125481 0.146236673 0.126375601
0.257305861 0.149272487 0.126375601
0.278305262 0.146489874 0.132194594
0.295509130 0.150158137 0.134218603
0.313851625 0.152308643 0.135357246
0.336748660 0.155598000 0.138899416
0.366350383 0.161416978 0.147501811
0.387602776 0.159645587 0.148134395
0.418469191 0.164452806 0.150537804
0.451612711 0.172928378 0.156609580
0.489310592 0.178367972 0.164452970
0.526249349 0.184186995 0.164706007
0.560910821 0.188487992 0.170398742
0.600253284 0.195319131 0.176723763
0.641872346 0.198608503 0.183681384
0.684250712 0.207716912 0.189753398
0.725996554 0.214547992 0.193548098
0.768121362 0.222011656 0.198861346
0.813535869 0.230234325 0.205439940
0.853004813 0.239342064 0.214547530
0.892473161 0.248450443 0.226312652
0.933712482 0.262871563 0.247311935
0.971410155 0.278937370 0.269829184
0.999114394 0.296267986 0.292346984
0.146869227 0.143706769 0.117647000
0.151549771 0.141555995 0.118532613
0.160531312 0.143706769 0.119418226
0.175458536 0.141935542 0.119670935
0.185452446 0.139785230 0.123339772
0.197090387 0.139278829 0.122327775
0.206831232 0.145224318 0.120430000
0.219481632 0.151043713 0.122580700
0.239469007 0.153320998 0.127640769
0.256040692 0.154965296 0.127640769
0.277040094 0.158633888 0.131309003
0.298292458 0.157622010 0.137380987
0.316002429 0.160531119 0.138772637
0.337507755 0.163314223 0.142061993
0.364073038 0.165591225 0.149272636
0.391524553 0.170904741 0.155471236
0.414294779 0.170904353 0.156989425
0.446426123 0.178747565 0.158127785
0.482858986 0.186337784 0.159645975
0.519291699 0.190258995 0.166856229
0.559519470 0.196331471 0.170651704
0.596458256 0.202403545 0.177482858
0.636938989 0.206578255 0.182669207
0.683491826 0.211638138 0.192789227
0.723845780 0.222770765 0.196584478
0.764958858 0.227451086 0.199620456
0.808475375 0.235547215 0.205945998
0.849588752 0.246299535 0.216698304
0.889057815 0.255407810 0.228462875
0.930297315 0.269829392 0.242378399
0.968374372 0.285389155 0.261100620
1.000000000 0.302340001 0.279064238
0.147627994 0.152814835 0.115116999
0.154206395 0.152308762 0.116381839
0.165085450 0.153573602 0.121442162
0.181530982 0.154080003 0.120177001
0.187602997 0.154459447 0.128146827
0.195825234 0.153194055 0.123845838
0.208728328 0.155218005 0.124098673
0.221505240 0.158380553 0.126375541
0.238962919 0.161416933 0.133206829
0.256673008 0.161923006 0.133206829
0.275268883 0.166477159 0.134851113
0.296521246 0.168501168 0.137380987
0.316634983 0.170778170 0.143453285
0.337760866 0.173940271 0.146616131
0.361036986 0.174952149 0.151675999
0.387729049 0.177229434 0.156483158
0.419861138 0.183048800 0.159772202
0.445414275 0.186084583 0.163441002
0.480582178 0.193927974 0.159899011
0.518279672 0.199999958 0.169006810
0.552182317 0.204933479 0.174952462
0.594687104 0.209993869 0.180012852
0.631878793 0.215939343 0.183048502
0.678178668 0.221252248 0.191777170
0.719924092 0.227324560 0.195825294
0.758127630 0.236559480 0.200126514
0.797090113 0.239595100 0.204174906
0.838076830 0.249461979 0.215559989
0.879190266 0.264009804 0.228969127
0.922960162 0.274636239 0.245414332
0.961923003 0.293738425 0.257938176
0.994939983 0.309677154 0.266667008
0.154459000 0.162302107 0.111321993
0.157115847 0.165717945 0.113978155
0.163693771 0.167994782 0.121947996
0.176217318 0.169259697 0.128905833
0.192916006 0.166982993 0.125869542
0.198988006 0.170018598 0.125869542
0.215559542 0.170524538 0.131309003
0.231372237 0.170145094 0.135862991
0.246173084 0.170524642 0.140796542
0.261353463 0.173561037 0.140796542
0.277292877 0.176597312 0.141176000
0.296521246 0.177988991 0.141935095
0.317014545 0.179886445 0.143453285
0.335736543 0.185958505 0.149526000
0.357115388 0.189120680 0.152688131
0.383933872 0.190132543 0.154965267
0.415432990 0.192789093 0.156863004
0.453384131 0.198608130 0.158507437
0.483744979 0.201644525 0.164579466
0.521695375 0.210246906 0.175458550
0.554712296 0.216698542 0.182289734
0.586337686 0.222517401 0.184566855
0.628968954 0.225679532 0.187855497
0.671726823 0.234534904 0.191397905
0.711195230 0.239089280 0.192157000
0.749651849 0.243896529 0.195319533
0.786464095 0.250221491 0.202277064
0.822896838 0.253257096 0.211385459
0.864263058 0.270714313 0.225047812
0.908032775 0.284882724 0.242252052
0.952435076 0.296394587 0.260974437
0.982795954 0.317647010 0.267046452
0.166602999 0.174446866 0.123465993
0.166602999 0.180518866 0.123465993
0.169259831 0.179633155 0.123971932
0.178368092 0.180139095 0.128526047
0.192916006 0.182163388 0.131941542
0.198988006 0.185198992 0.128905937
0.217710316 0.185704932 0.136495620
0.231878638 0.184060648 0.136875004
0.242757931 0.182289869 0.135104090
0.255281478 0.182669416 0.137760937
0.276280880 0.185705051 0.140670061
0.296521246 0.188741326 0.145224512
0.317773640 0.191271365 0.148007870
0.338772923 0.195066124 0.149526000
0.363060921 0.201138899 0.155598000
0.394054413 0.204301074 0.153953135
0.421884835 0.206831127 0.154965252
0.450600773 0.211005867 0.158760414
0.483744949 0.216824904 0.167615071
0.516888380 0.225427285 0.173687771
0.553194463 0.228842929 0.180771932
0.588108957 0.232890800 0.183301866
0.625932574 0.240859926 0.181783497
0.671473801 0.246931925 0.190891907
0.707400262 0.251233280 0.192157000
0.744592011 0.257052660 0.196331665
0.783554971 0.265654862 0.205439940
0.822896838 0.274509490 0.217457443
0.861985743 0.282858759 0.226565823
0.896647394 0.293991119 0.236685753
0.932700634 0.303984910 0.251359701
0.970651090 0.317647010 0.270082086
0.171157315 0.196711004 0.130549997
0.176217318 0.197723001 0.133080319
0.182669088 0.201644778 0.130929545
0.187729314 0.200632647 0.131815165
0.198734999 0.202024326 0.135483772
0.209107995 0.202909708 0.132447615
0.222770318 0.200885326 0.134471998
0.242378399 0.200885326 0.140290603
0.255661219 0.200253099 0.138393000
0.269575983 0.202024326 0.139658168
0.280328870 0.204933435 0.145224765
0.305629253 0.207969576 0.148260385
0.330170631 0.209867314 0.152688324
0.354459047 0.212017670 0.154332966
0.378747612 0.220367149 0.158127680
0.410246432 0.224035516 0.159392685
0.442125380 0.228589311 0.162555188
0.470335186 0.233902574 0.168247983
0.503731966 0.241872326 0.175458357
0.539658725 0.248197347 0.179253712
0.576849997 0.255407989 0.185325995
0.613915265 0.257685125 0.189374000
0.650347650 0.263630629 0.188235313
0.688678086 0.269702643 0.194939911
0.731941938 0.280328631 0.204048291
0.768880248 0.285515308 0.207590312
0.808349192 0.292979002 0.216065988
0.847818017 0.300062865 0.228209987
0.887286365 0.309171140 0.240227491
0.923212767 0.321821481 0.252877861
0.954332471 0.335989892 0.269702494
0.988867640 0.353067636 0.295888633
0.177482694 0.212776706 0.134977713
0.180265710 0.217710406 0.139658391
0.188488051 0.218216479 0.141682640
0.198861599 0.219987705 0.138646245
0.206451699 0.219228610 0.141303003
0.218595698 0.216698289 0.142061755
0.229981035 0.220746383 0.142441317
0.241871983 0.216065705 0.138899282
0.260847658 0.217583701 0.144212186
0.277798504 0.221505478 0.147754416
0.293737859 0.222896829 0.150284737
0.310056955 0.227577254 0.154332742
0.335104316 0.230613634 0.156230003
0.361669719 0.231625691 0.159013286
0.388741076 0.239342406 0.163440585
0.418595791 0.243643597 0.164072990
0.450474381 0.249715209 0.167109370
0.481467545 0.256546289 0.176091120
0.514864028 0.265654683 0.183174998
0.551043749 0.270335406 0.179886356
0.589373708 0.278051674 0.188108996
0.627830267 0.284123689 0.194180995
0.664263010 0.287918985 0.195572510
0.700695813 0.293990970 0.200126722
0.741682529 0.299683690 0.206831291
0.782795608 0.310436338 0.214547992
0.822770119 0.317773402 0.222138062
0.863377571 0.326122403 0.235420704
0.899556994 0.336495519 0.247564688
0.940417111 0.345856875 0.263124168
0.970271587 0.362808287 0.280961186
0.998355269 0.384060711 0.309803993
0.186590895 0.225679994 0.139532089
0.185831994 0.233270392 0.144086093
0.191524327 0.235927001 0.148007676
0.200379223 0.236686096 0.150031924
0.212903455 0.237065539 0.147375092
0.225427002 0.232131317 0.152688101
0.235041320 0.234914422 0.153700098
0.247185484 0.238077193 0.151802391
0.258570194 0.234282091 0.144971088
0.279822588 0.240354091 0.157115877
0.300315857 0.242125094 0.157621905
0.319544494 0.244655102 0.158886746
0.341176718 0.250347644 0.160784006
0.362429112 0.253384024 0.161290005
0.391271144 0.258950084 0.167361990
0.422390699 0.264136881 0.169386089
0.451233268 0.267931968 0.171663374
0.482859015 0.276407182 0.177735984
0.516382039 0.285389066 0.186717123
0.551802635 0.290449262 0.183681250
0.589373708 0.296521425 0.185578987
0.627830267 0.305376083 0.194180995
0.664389491 0.311574608 0.200379506
0.701454699 0.318279177 0.204680905
0.740923405 0.322833359 0.209234908
0.782036722 0.328652740 0.215306893
0.820999205 0.337255090 0.222391024
0.862997949 0.348893076 0.237318426
0.899050891 0.359519064 0.249841973
0.937760413 0.372169375 0.267046124
0.974066675 0.383301586 0.287033200
0.995319128 0.404554009 0.311322004
0.195698515 0.249968022 0.148640499
0.192662895 0.253004402 0.148640484
0.196204990 0.254143029 0.151043713
0.202403501 0.255408168 0.154079691
0.209867075 0.258317947 0.156483486
0.225047454 0.261353552 0.156483486
0.235041335 0.256419986 0.156736493
0.250727683 0.255914211 0.158380777
0.270714968 0.258570880 0.160151497
0.288930982 0.261606514 0.160151497
0.307273477 0.267678499 0.160657525
0.325616509 0.269449532 0.160657525
0.348387301 0.271979511 0.160784006
0.377609521 0.277672052 0.161290005
0.398861855 0.280708432 0.167361990
0.430107772 0.288678288 0.171030805
0.458823472 0.292979479 0.173940673
0.485894620 0.294623971 0.177735984
0.522327483 0.300695986 0.183808014
0.555850387 0.309677154 0.192789137
0.591270983 0.316635013 0.197343260
0.627830267 0.323845834 0.199746996
0.664389491 0.332826972 0.200379506
0.703857899 0.341935366 0.209487915
0.740923047 0.348639965 0.213788703
0.779000521 0.355977148 0.218342498
0.817963600 0.364579499 0.225426644
0.854396343 0.370651484 0.237571418
0.893738270 0.376976460 0.249841988
0.934724808 0.390385866 0.269070387
0.971031070 0.407337338 0.293105930
0.992283463 0.422769994 0.317394018
0.201897740 0.277166605 0.160658002
0.201771259 0.277293146 0.154839009
0.203036100 0.276027977 0.154839009
0.213409334 0.277798891 0.157115713
0.226439193 0.281720549 0.159013122
0.236558929 0.279696822 0.153953135
0.246679321 0.285262734 0.156483456
0.260720998 0.287286758 0.158507288
0.279190212 0.291587770 0.160784006
0.295255989 0.294623375 0.160784006
0.316381842 0.291840762 0.160784006
0.338646352 0.295888484 0.164831996
0.358633846 0.297912508 0.166602999
0.381657153 0.301960707 0.166602999
0.408222526 0.304996431 0.167361990
0.434281915 0.308032811 0.171030805
0.463630676 0.317646980 0.175584987
0.490575701 0.323845565 0.180645108
0.522453964 0.327640861 0.186717138
0.558886707 0.333712876 0.192789137
0.588614583 0.340796739 0.196078002
0.624035239 0.345857114 0.199114397
0.663883507 0.351043731 0.203162864
0.692219913 0.357368767 0.209487915
0.733965576 0.366477162 0.216318995
0.770271659 0.374573052 0.224161848
0.807716489 0.383681059 0.234787941
0.851360023 0.392156869 0.249335885
0.882479787 0.398228854 0.253510833
0.921189070 0.406072050 0.268437833
0.961669683 0.421758592 0.291334689
0.995066106 0.440986753 0.317647010
0.201897740 0.304491252 0.160658002
0.209993735 0.306514978 0.162681997
0.214168221 0.308412731 0.162934735
0.218469322 0.307906359 0.159139901
0.232890993 0.312080801 0.159139723
0.243643329 0.309045166 0.158001006
0.258823335 0.309551239 0.157495067
0.269576430 0.312334239 0.158886746
0.286274433 0.316888154 0.160784006
0.301454484 0.319923759 0.160784006
0.326501846 0.321189135 0.162808269
0.347754240 0.322200984 0.164831996
0.370904356 0.325236887 0.168626994
0.390765071 0.328273267 0.168880031
0.418089926 0.331309319 0.170651257
0.443390042 0.336369306 0.179126799
0.469196647 0.339405298 0.179127187
0.496647984 0.348133832 0.184313670
0.527008057 0.351170242 0.191777006
0.558886707 0.356989264 0.193801016
0.593421698 0.361164004 0.197975740
0.622011244 0.368121386 0.199114397
0.660088480 0.373307973 0.204301476
0.691207886 0.379379988 0.212270737
0.721821487 0.387729287 0.220366985
0.765717566 0.396837652 0.225047678
0.802150130 0.404933423 0.234788194
0.843137026 0.411005437 0.246932179
0.879443407 0.417457491 0.257558823
0.913346112 0.425300241 0.269449949
0.950790524 0.436179578 0.288551599
0.987981975 0.455155015 0.313598990
0.207969636 0.345477909 0.161416993
0.216698274 0.347375154 0.162935004
0.226818278 0.350411028 0.167994872
0.234028950 0.354585767 0.169386148
0.240481079 0.356862456 0.161416993
0.251865983 0.353826851 0.163693711
0.269070297 0.353320926 0.165338293
0.286274433 0.353320926 0.165338293
0.300696105 0.354079843 0.166097194
0.316634804 0.357115418 0.166476637
0.341176152 0.359013140 0.168247864
0.365591198 0.358633637 0.170145378
0.387981921 0.361669540 0.170904279
0.409740299 0.364452899 0.171157241
0.437065214 0.366603702 0.174193412
0.464263260 0.373181641 0.184439987
0.490828663 0.378874362 0.190132543
0.515749812 0.381277561 0.188361913
0.545603991 0.383807898 0.196457684
0.574826002 0.389626920 0.198355287
0.607083976 0.396078378 0.202529728
0.640480399 0.398102641 0.206577986
0.671094179 0.406577796 0.209867373
0.704490781 0.411637902 0.217963383
0.735610187 0.419987202 0.228209928
0.768374503 0.427956939 0.239089310
0.812903047 0.436559260 0.244655624
0.849968135 0.440227479 0.255660802
0.884123862 0.448197305 0.269702643
0.920556307 0.458317667 0.286527574
0.953447223 0.469196498 0.302972853
0.986084640 0.484376907 0.323466271
0.227704033 0.405693024 0.172548994
0.230487391 0.406199008 0.166983008
0.239721969 0.408096284 0.168753967
0.250601143 0.412650019 0.172548994
0.260721475 0.417583585 0.173560992
0.269829094 0.414547950 0.173560992
0.286274642 0.414295018 0.174320281
0.304744035 0.414295018 0.176470995
0.323466122 0.415053993 0.176976934
0.344718486 0.418089598 0.180012554
0.365717888 0.418216079 0.180139035
0.389247507 0.414674044 0.180645034
0.413029999 0.412017703 0.179759637
0.437824041 0.414548039 0.177229956
0.465148419 0.414548039 0.180265576
0.494876564 0.420999259 0.189247027
0.525237322 0.428589374 0.196078002
0.555471480 0.433650017 0.196963608
0.582795978 0.433650017 0.200000003
0.609867334 0.439216048 0.203289360
0.640986681 0.446679294 0.209867284
0.674130142 0.453004062 0.218216047
0.707400024 0.453383565 0.224161536
0.740670681 0.456672966 0.230107769
0.772548974 0.464010298 0.241240025
0.803794920 0.471980006 0.254775643
0.837698042 0.478052080 0.270714998
0.877166390 0.484124064 0.288930982
0.908918619 0.495003045 0.306894004
0.942820847 0.508918226 0.326375186
0.975711167 0.523845613 0.346995234
1.000000000 0.539026022 0.359140009
0.230740413 0.426945388 0.172548994
0.230740413 0.433017373 0.172548994
0.237824231 0.433523387 0.169133216
0.247564748 0.437950641 0.170524746
0.258191139 0.444907963 0.174066991
0.278937459 0.441872329 0.185704991
0.293105721 0.443896085 0.170524999
0.312207699 0.444654971 0.171537295
0.332068413 0.445414066 0.176470995
0.350790471 0.448450327 0.176976934
0.369133741 0.448576808 0.177103415
0.394054681 0.448576808 0.181151405
0.417330980 0.448450446 0.183681414
0.437824070 0.450980783 0.183301955
0.468184829 0.447944373 0.186337575
0.497912377 0.447944373 0.184566796
0.528272986 0.452877790 0.190765232
0.559266150 0.458317578 0.197343156
0.591903567 0.460974395 0.203036398
0.616445303 0.466540396 0.208855420
0.647058725 0.470714658 0.214295000
0.679443300 0.475015521 0.222011536
0.710436404 0.477672309 0.230234310
0.740797222 0.486780703 0.233269930
0.778621256 0.492346793 0.248324141
0.810626090 0.500442684 0.263883710
0.840227664 0.508412123 0.280075639
0.874130011 0.514484823 0.301074982
0.908286035 0.520556748 0.316634804
0.942820847 0.533206940 0.332447559
0.975711167 0.547501802 0.355091572
1.000000000 0.560278416 0.386464387
0.236179993 0.465022564 0.174952805
0.240986988 0.466287583 0.177355990
0.245287985 0.465907812 0.177355990
0.259202957 0.470714778 0.175837800
0.272106320 0.479443163 0.176596984
0.281214744 0.476407528 0.176596999
0.307021111 0.476028085 0.185072795
0.317267805 0.479063690 0.176723793
0.335483998 0.479822606 0.181277990
0.356988996 0.481214285 0.181277990
0.377608955 0.483744591 0.183681190
0.397849470 0.481720328 0.183681190
0.424414843 0.482479423 0.187855840
0.447185099 0.485009760 0.189373955
0.475395620 0.481973380 0.192409575
0.505755782 0.483744591 0.193041995
0.533080161 0.485262424 0.193042383
0.561669767 0.489183813 0.198481813
0.593294978 0.490448982 0.201012149
0.623149753 0.493864775 0.211891189
0.649335742 0.499936789 0.217963189
0.680708289 0.503478706 0.222011194
0.711322010 0.506641567 0.227071404
0.746236801 0.513472676 0.236938909
0.778874278 0.520303786 0.249083087
0.813915312 0.526375771 0.267172962
0.844275892 0.533965647 0.284882814
0.881467223 0.540037870 0.308032423
0.907653451 0.543706834 0.314357817
0.941050112 0.562175930 0.345477313
0.973307729 0.577229738 0.367235750
0.997596204 0.586337805 0.394560188
0.245288000 0.499937177 0.177988797
0.248323992 0.502973139 0.179506615
0.255914181 0.505376577 0.180391997
0.263251036 0.503605366 0.181657165
0.283870906 0.513978362 0.183428183
0.294876903 0.514358103 0.184187174
0.310563117 0.510816157 0.183175310
0.332448184 0.512460470 0.187349990
0.340797096 0.514737189 0.187349990
0.362808019 0.514737189 0.187349990
0.385705054 0.516128838 0.190259114
0.408475637 0.516634941 0.192789197
0.428589374 0.515875816 0.190512195
0.454775214 0.518659174 0.192662999
0.482100010 0.516887963 0.196963772
0.510309935 0.518659174 0.199114382
0.540670395 0.520177364 0.200632185
0.566224158 0.521947980 0.203668565
0.596584439 0.521062374 0.204554200
0.626944721 0.523845732 0.209614202
0.656925976 0.528779387 0.219480991
0.686274350 0.533839226 0.225553259
0.717014492 0.536749005 0.226944849
0.749272585 0.540037930 0.237697616
0.781910300 0.546109974 0.252119064
0.813915312 0.550790608 0.265907764
0.844782054 0.556736231 0.284376889
0.882226408 0.562808216 0.307652980
0.909930408 0.569260001 0.319417834
0.938014090 0.580392301 0.337887138
0.967868567 0.603289127 0.377735615
0.991524220 0.610626221 0.399114370
0.258064568 0.529791534 0.181657001
0.257431984 0.534598529 0.182921991
0.263251215 0.541303098 0.182921991
0.272992015 0.545477509 0.182922170
0.282858610 0.545477509 0.186337993
0.306388259 0.551043510 0.197975993
0.321188986 0.547628105 0.196837574
0.335989833 0.546489418 0.194054574
0.354712486 0.549398720 0.194686994
0.369892120 0.549398720 0.194686994
0.393801332 0.549398720 0.196963698
0.418089926 0.549398720 0.198734850
0.441366553 0.549904764 0.200252995
0.459835589 0.552941084 0.194940031
0.486400962 0.553320527 0.200632572
0.513725340 0.554459333 0.203668803
0.541935384 0.556609929 0.207337379
0.571031153 0.554712534 0.209107995
0.601392031 0.551676154 0.212144390
0.632384598 0.554206312 0.212397426
0.663377464 0.558507562 0.218089834
0.694117725 0.563567400 0.227450669
0.727134526 0.566603065 0.233396918
0.753952861 0.567109108 0.241492689
0.783554554 0.571030736 0.254522264
0.814547718 0.576343775 0.271473527
0.844402432 0.579886079 0.283617556
0.877545834 0.585958123 0.304490417
0.904996812 0.594054341 0.321062386
0.934092343 0.605439723 0.343959302
0.963061571 0.619734526 0.370524794
0.984314024 0.631878555 0.403921992
0.273245007 0.569260061 0.187729046
0.270208627 0.569260061 0.193801045
0.273877054 0.576217830 0.195066050
0.282732397 0.582542896 0.193801209
0.295003444 0.584946096 0.192410037
0.310183018 0.584946096 0.198482037
0.326122403 0.582922399 0.202530354
0.341049731 0.582922339 0.203162998
0.358001202 0.585958123 0.203921899
0.379000515 0.588868022 0.206831038
0.402909726 0.588867962 0.206831038
0.427197993 0.588868022 0.205060273
0.451486349 0.588868022 0.204807356
0.475016057 0.589373946 0.207084075
0.496268392 0.592409551 0.210120454
0.522833824 0.590385795 0.211006001
0.550158143 0.590891778 0.214295030
0.577103198 0.591144621 0.218216434
0.601392090 0.582037032 0.215180039
0.634535491 0.584566653 0.215433061
0.667678773 0.587602854 0.221125811
0.699810326 0.590891898 0.231245995
0.730171025 0.593927562 0.242504567
0.754459023 0.596963942 0.245540977
0.783554614 0.599747300 0.255914003
0.815306664 0.604427993 0.275268644
0.847438097 0.610247016 0.298797995
0.874762475 0.616318941 0.310942024
0.899936676 0.622390985 0.329158694
0.928020418 0.630487263 0.354206383
0.957495630 0.640986979 0.381657600
0.984314024 0.653131008 0.403922081
0.296774030 0.658823848 0.221631736
0.299304336 0.656040490 0.222137734
0.307020724 0.660341501 0.223908737
0.316887736 0.665022135 0.225173905
0.328273118 0.665401459 0.224794731
0.336243123 0.660594463 0.221252725
0.359013051 0.660594463 0.227324724
0.374952435 0.657811880 0.227324665
0.390891761 0.657811821 0.226186022
0.410119891 0.658823967 0.227197886
0.434282094 0.656167150 0.230107725
0.460594624 0.658191323 0.232131466
0.486780375 0.657811880 0.231752023
0.512207448 0.655661106 0.232637420
0.530930102 0.651107073 0.230613783
0.559392691 0.651739478 0.236053362
0.587096572 0.650601089 0.241366565
0.613155961 0.651739478 0.247438729
0.635294020 0.649083018 0.246553123
0.665148795 0.645540714 0.249082729
0.694750130 0.644781828 0.249082729
0.726375461 0.646046996 0.255534500
0.758380532 0.648956120 0.265907705
0.785326123 0.649335623 0.276913285
0.809614122 0.654648721 0.286780387
0.837571025 0.655408084 0.303099006
0.867172420 0.657305777 0.327134490
0.894496799 0.663377762 0.348387092
0.921821177 0.669449747 0.373813897
0.949778318 0.679063678 0.395952135
0.974826038 0.689183950 0.430487275
0.992662668 0.699430764 0.470714748
0.307779729 0.696015239 0.233396739
0.310815632 0.700569332 0.233396739
0.320303738 0.705882490 0.239088997
0.328652591 0.708159328 0.239088997
0.341176093 0.707147181 0.242251813
0.359392881 0.702592969 0.243769988
0.371157736 0.703478754 0.245920733
0.393801451 0.705123484 0.247059032
0.411005855 0.701834559 0.245540828
0.430360466 0.699557245 0.246679470
0.450600743 0.700442910 0.249588847
0.473118246 0.697659492 0.250727475
0.499304265 0.700695872 0.253763378
0.525869787 0.699177742 0.254522473
0.549019814 0.694749951 0.253131151
0.576849937 0.693484962 0.257305712
0.604174376 0.695003152 0.258823544
0.631119311 0.694117725 0.264516264
0.654901743 0.691587746 0.264516264
0.684503436 0.692599356 0.276787102
0.712966442 0.689563453 0.276027739
0.738266826 0.687539697 0.274003744
0.767994761 0.689689934 0.278810978
0.797090709 0.691460729 0.290955007
0.825933039 0.694117486 0.306894481
