Assets/EldamarStudio/100 Retro LUTs Pack/LUTs/cube/Mark LUT.cube
LUT_3D_SIZE 8
DOMAIN_MIN 0.000000 0.000000 0.000000
DOMAIN_MAX 0.903226 0.903226 0.903226
0.141176000 0.121569000 0.109803997
0.182289541 0.125869542 0.121569000
0.239089087 0.134092093 0.129411995
0.314990282 0.146236643 0.138393357
0.423023373 0.161416799 0.153573811
0.565844238 0.180138990 0.166603252
0.721441984 0.208476007 0.192789003
0.894749761 0.244655117 0.231625631
0.154459000 0.162302107 0.111321993
0.192916006 0.166982993 0.125869542
0.246173084 0.170524642 0.140796542
0.317014545 0.179886445 0.143453285
0.415432990 0.192789093 0.156863004
0.554712296 0.216698542 0.182289734
0.711195230 0.239089280 0.192157000
0.864263058 0.270714313 0.225047812
0.186590895 0.225679994 0.139532089
0.212903455 0.237065539 0.147375092
0.258570194 0.234282091 0.144971088
0.341176718 0.250347644 0.160784006
0.451233268 0.267931968 0.171663374
0.589373708 0.296521425 0.185578987
0.740923405 0.322833359 0.209234908
0.899050891 0.359519064 0.249841973
0.207969636 0.345477909 0.161416993
0.240481079 0.356862456 0.161416993
0.300696105 0.354079843 0.166097194
0.387981921 0.361669540 0.170904279
0.490828663 0.378874362 0.190132543
0.607083976 0.396078378 0.202529728
0.735610187 0.419987202 0.228209928
0.884123862 0.448197305 0.269702643
0.245288000 0.499937177 0.177988797
0.283870906 0.513978362 0.183428183
0.340797096 0.514737189 0.187349990
0.428589374 0.515875816 0.190512195
0.540670395 0.520177364 0.200632185
0.656925976 0.528779387 0.219480991
0.781910300 0.546109974 0.252119064
0.909930408 0.569260001 0.319417834
0.307779729 0.696015239 0.233396739
0.341176093 0.707147181 0.242251813
0.411005855 0.701834559 0.245540828
0.499304265 0.700695872 0.253763378
0.604174376 0.695003152 0.258823544
0.712966442 0.689563453 0.276027739
0.825933039 0.694117486 0.306894481
0.939278543 0.706641495 0.399999768
0.377356261 0.811005533 0.313978255
0.412144095 0.822138011 0.335230798
0.468311191 0.822770536 0.339658260
0.541429281 0.818848550 0.352182001
0.633649528 0.815812767 0.359898657
0.734977722 0.812650263 0.368121088
0.825047255 0.809361279 0.388108552
0.927134633 0.815939128 0.448956251
0.556230247 0.937634468 0.534092546
0.587223351 0.942441523 0.545603573
0.610752702 0.947248697 0.549145639
0.661986232 0.941682637 0.557242393
0.724478304 0.940164804 0.565464914
0.796457708 0.937507927 0.573307514
0.871979833 0.935230672 0.597596169
0.961163819 0.937507927 0.620240450
0.149020001 0.129032448 0.154079556
0.185452446 0.125869542 0.153700009
0.243390545 0.141555548 0.158001453
0.307147175 0.158001363 0.166982904
0.413662404 0.170145184 0.180265889
0.552055657 0.188235000 0.201517999
0.707906604 0.206957698 0.222390994
0.873624206 0.241998971 0.249462232
0.160784006 0.163440555 0.153700009
0.186590999 0.174067006 0.155218109
0.246552646 0.174826086 0.166603550
0.310689658 0.182669088 0.175585091
0.408855170 0.199493751 0.194813341
0.535736680 0.212017745 0.196710810
0.674763024 0.233522996 0.209993795
0.830107570 0.257558346 0.241113544
0.180265993 0.229221642 0.171283543
0.214042008 0.232764095 0.174446538
0.261353642 0.237444997 0.171663180
0.333713084 0.243643194 0.184946090
0.439848006 0.267172992 0.200252742
0.564705610 0.287539482 0.210752890
0.715370059 0.311827987 0.233523279
0.876028061 0.346615911 0.273624182
0.214421466 0.333333462 0.188867897
0.238962904 0.334977448 0.189626887
0.292472839 0.342062265 0.194307283
0.365591347 0.349905163 0.198229000
0.467299253 0.364073247 0.209993988
0.581530631 0.378494799 0.227450728
0.711448550 0.402656525 0.248070985
0.856419861 0.431878567 0.277672380
0.230360389 0.484503716 0.205060259
0.267172962 0.484376729 0.209994003
0.331435978 0.493105739 0.214800999
0.419228345 0.499051273 0.223529190
0.522454202 0.499051392 0.226944730
0.635040820 0.511954546 0.244528994
0.760531068 0.529285133 0.271473736
0.886653960 0.559013009 0.333459526
0.291967452 0.671727002 0.256672829
0.329032272 0.680076122 0.260847270
0.397849262 0.679696739 0.265022010
0.487286359 0.682353020 0.273244977
0.590765178 0.681594133 0.281088084
0.698039472 0.680076182 0.287666023
0.811638415 0.682479441 0.321821570
0.925616801 0.701454699 0.405186415
0.363314241 0.794307709 0.318279803
0.397596568 0.806577861 0.344212562
0.447312117 0.804301083 0.347501546
0.527134657 0.804680526 0.353573442
0.618089557 0.803162396 0.359519094
0.714864016 0.797723293 0.377103269
0.814168274 0.801264822 0.388867825
0.919417918 0.800252855 0.441239446
0.546109915 0.933712780 0.527007818
0.578368008 0.941555798 0.540923417
0.611258388 0.936242759 0.547754347
0.655028462 0.938140571 0.559645712
0.719417870 0.936242759 0.567615449
0.789500475 0.933459401 0.581277609
0.869070292 0.931941330 0.595825195
0.948007822 0.931815028 0.632637441
0.148893088 0.130170897 0.201391101
0.182668999 0.130550444 0.204174548
0.243011087 0.145098001 0.212397188
0.325616628 0.154838547 0.214294747
0.426186115 0.168626994 0.233523190
0.564326108 0.177609354 0.258949935
0.714358211 0.199873298 0.276534081
0.877672434 0.239974707 0.311954290
0.169765636 0.172548994 0.196331561
0.194434002 0.173687443 0.203415543
0.244908556 0.174446538 0.208096445
0.318152994 0.183048546 0.218342632
0.414421380 0.200759009 0.236812115
0.539785206 0.211638004 0.249588832
0.684250534 0.231625557 0.272991836
0.842251837 0.260088563 0.300063282
0.192030087 0.228083193 0.211511999
0.213662460 0.236685991 0.219481096
0.275142193 0.237444982 0.229601189
0.340038002 0.252751559 0.234282181
0.445035189 0.266413987 0.252371907
0.573054850 0.289563626 0.267805070
0.715876222 0.312713295 0.291461021
0.874636233 0.353573799 0.330802917
0.212903455 0.331435919 0.236811727
0.236306444 0.337001801 0.238836184
0.291334271 0.344844818 0.249083102
0.372295916 0.349525750 0.253383815
0.465401828 0.361669570 0.265907645
0.577608764 0.380138814 0.281593621
0.719165027 0.405186534 0.300948739
0.862492085 0.435041249 0.337128252
0.233649895 0.475648284 0.260088384
0.258444101 0.486527175 0.271853060
0.327640980 0.488045275 0.277419120
0.416824967 0.491208196 0.277039647
0.516382039 0.495129555 0.280582011
0.630360544 0.509677410 0.300822198
0.756230295 0.526502132 0.332195014
0.881594062 0.559392691 0.383681178
0.288551986 0.672991812 0.329538435
0.326755106 0.669576108 0.330170602
0.392410010 0.671473444 0.330802828
0.484377116 0.672991514 0.337634206
0.586084425 0.673877239 0.341935545
0.692599356 0.671094120 0.350031555
0.805818975 0.676913321 0.377988368
0.917899787 0.696774185 0.460215241
0.362555265 0.787602603 0.382289380
0.395319283 0.797343731 0.391271383
0.451233268 0.796078444 0.400000095
0.525996029 0.797976017 0.407463610
0.612523556 0.796964288 0.414041549
0.714231551 0.795699060 0.420240641
0.813282788 0.796964288 0.440607190
0.921568334 0.801897705 0.490575552
0.554711640 0.930170536 0.554838717
0.577988386 0.933712780 0.582162976
0.609108090 0.931055963 0.583427846
0.655028522 0.933838964 0.583301306
0.718279302 0.930297077 0.592662692
0.785578609 0.925110698 0.603668451
0.863630712 0.928020239 0.618975282
0.942062080 0.931814969 0.647817671
0.160278350 0.135609999 0.283618003
0.188108996 0.141176000 0.284377098
0.255154639 0.146236643 0.284756631
0.327893645 0.155724362 0.291460991
0.442631394 0.159645647 0.316887647
0.580897927 0.164326251 0.344844878
0.724224925 0.177609354 0.364326298
0.884882808 0.230866447 0.403289169
0.176343992 0.174446642 0.274636537
0.201011747 0.180012539 0.280455202
0.255913734 0.181909993 0.283618003
0.336243004 0.179506898 0.290702075
0.436432362 0.191777468 0.312207550
0.558127880 0.199873388 0.330676973
0.705502927 0.219101653 0.351422936
0.858949840 0.252877861 0.388615102
0.197723001 0.242631555 0.296521634
0.212397099 0.238962978 0.291713834
0.276027977 0.248829737 0.309551001
0.351802289 0.252372086 0.311448544
0.462618828 0.264896065 0.331056446
0.586337864 0.280961335 0.352940947
0.733965814 0.306894541 0.380012572
0.884123802 0.351549447 0.420113921
0.207337350 0.342567921 0.317900270
0.241872460 0.342567921 0.332068205
0.296521544 0.353194267 0.330297261
0.381783634 0.362175912 0.340923637
0.477545679 0.371916294 0.351169884
0.595825374 0.385704935 0.362049103
0.729411602 0.408222884 0.387476563
0.868817031 0.444149107 0.425806254
0.217836991 0.481088161 0.345477194
0.261860013 0.490828544 0.364705801
0.321694732 0.498039305 0.361164063
0.417963624 0.500316620 0.369006962
0.521821380 0.503352582 0.370651275
0.635926843 0.513219178 0.394180983
0.758633554 0.535990000 0.425553173
0.889816523 0.570777833 0.468564272
0.290449232 0.668943822 0.424668014
0.330044210 0.670082450 0.425427109
0.394180983 0.671473682 0.428083837
0.482605875 0.672738791 0.433270395
0.587349713 0.673497677 0.436053038
0.694623590 0.673497677 0.444908381
0.804807127 0.678178787 0.475521982
0.910563171 0.707020819 0.532574296
0.375584900 0.789120555 0.467932016
0.415559918 0.798987985 0.483617991
0.463377714 0.798987985 0.483617842
0.534724951 0.799746931 0.489942938
0.621758461 0.798861742 0.497659802
0.716508508 0.799241304 0.503605366
0.818342924 0.798102677 0.518658936
0.919670999 0.809361100 0.561543226
0.564958990 0.924984157 0.607716799
0.582795680 0.930297077 0.619355142
0.621252358 0.932700694 0.632258058
0.665527999 0.929917634 0.636685610
0.720556617 0.930044115 0.645161390
0.792789519 0.925236881 0.649082720
0.867425680 0.928273022 0.665401578
0.945224464 0.932700694 0.691587210
0.172548994 0.138772801 0.401012182
0.206957802 0.142694190 0.402150840
0.271980107 0.149778903 0.403289288
0.356862813 0.157621816 0.410373360
0.453510374 0.160784006 0.422137976
0.586969972 0.157242462 0.443010926
0.740796566 0.155218095 0.473750770
0.893484950 0.210372955 0.506515026
0.176723540 0.182289541 0.394813180
0.214800909 0.183428183 0.391144812
0.271853179 0.185452357 0.399873555
0.354079455 0.186970457 0.405312926
0.444149196 0.194433898 0.411638021
0.571410537 0.196078092 0.427197933
0.718912184 0.195572257 0.457811534
0.872992039 0.234281987 0.487539321
0.192283109 0.249209195 0.413662404
0.209614545 0.258317530 0.411511719
0.283744097 0.260215104 0.417330533
0.368627518 0.258190811 0.427704185
0.477039993 0.264895976 0.436306179
0.605566263 0.268690974 0.444402009
0.748134077 0.292979389 0.479443371
0.896900356 0.343706369 0.513345778
0.202024266 0.352687895 0.432890475
0.237191632 0.355850726 0.446046919
0.296015203 0.362934828 0.435926557
0.391271740 0.367236286 0.445793837
0.489689827 0.369133741 0.444275796
0.618216217 0.384060830 0.463124812
0.742821097 0.408602268 0.482606113
0.872738719 0.447059005 0.517647028
0.218721986 0.488172203 0.453510374
0.257938087 0.493990898 0.468564183
0.325237185 0.501454949 0.474003971
0.425932646 0.511701167 0.483870745
0.536749005 0.519544184 0.488804370
0.642504454 0.524984360 0.505882442
0.769639373 0.542947471 0.524984241
0.895255983 0.576723158 0.559771955
0.305756003 0.669070363 0.529158890
0.332194775 0.673245013 0.528905630
0.403542161 0.673118353 0.534724832
0.489436716 0.673118293 0.540670156
0.591271698 0.676281214 0.543833196
0.698292136 0.676660717 0.544085741
0.802530050 0.687539756 0.573181450
0.907906413 0.714863777 0.619860649
0.404933572 0.792410076 0.570398450
0.435420483 0.802023828 0.581024587
0.481088072 0.800126553 0.586211324
0.543453455 0.801391542 0.581404209
0.625933290 0.801644325 0.585199296
0.721441925 0.796205044 0.591144919
0.816445529 0.801644325 0.603162587
0.918911994 0.814800918 0.642631292
0.575078785 0.922706962 0.678431094
0.599494040 0.926628590 0.691840351
0.623908818 0.932447493 0.690828502
0.668311179 0.930550277 0.696268201
0.721568406 0.928778946 0.699557304
0.788108706 0.926881611 0.704616964
0.866540253 0.929917753 0.716128945
0.943959594 0.932574153 0.740543962
0.182416260 0.145098001 0.546236694
0.219481274 0.148640454 0.552435040
0.293358833 0.147881359 0.554585814
0.386464119 0.147881359 0.557495415
0.493737906 0.149525553 0.556230009
0.601012170 0.149146006 0.555977404
0.736875534 0.149020001 0.579000711
0.893358767 0.179886073 0.609234512
0.183428273 0.183807731 0.527640641
0.218216345 0.177103281 0.538266718
0.284377217 0.185831994 0.537381172
0.375458628 0.182289541 0.538140297
0.471726716 0.184187189 0.540670097
0.582922041 0.185831994 0.541429222
0.716129005 0.188488349 0.563567162
0.871473789 0.202023789 0.586843669
0.180519000 0.258190840 0.555344820
0.220240280 0.258823812 0.559772372
0.290195942 0.258064836 0.566603124
0.389626712 0.261353731 0.560151696
0.499177724 0.264769197 0.561796010
0.609234452 0.270714730 0.566350222
0.749525607 0.279949337 0.587349653
0.898165762 0.321315795 0.617710412
0.181783646 0.364199907 0.560404480
0.219987452 0.365844131 0.566097140
0.290449083 0.365085036 0.564452887
0.394433767 0.368247896 0.565338194
0.502846301 0.369765818 0.572928369
0.619355083 0.373813927 0.569259942
0.744086087 0.385325998 0.583807766
0.879190505 0.423529476 0.609993637
0.204047725 0.499177724 0.587728977
0.243010730 0.507400393 0.596078336
0.319923848 0.506641150 0.592789412
0.418975383 0.509045005 0.597849250
0.534092188 0.514484525 0.597469747
0.651612639 0.520050406 0.606957495
0.779253542 0.535357177 0.622264087
0.894876361 0.576850176 0.655155003
0.293864995 0.662112474 0.627071500
0.328273058 0.667046189 0.632637560
0.393801391 0.669449687 0.638583183
0.479443282 0.669829488 0.635926485
0.589500070 0.671853244 0.646679044
0.691460729 0.675648212 0.658064485
0.798355520 0.685895026 0.672106206
0.901580870 0.712460697 0.695635557
0.396204740 0.783175051 0.658949971
0.429728091 0.791271448 0.664263487
0.475774556 0.796078384 0.667805135
0.543833017 0.793548286 0.672991753
0.626186132 0.794813097 0.684630156
0.716002285 0.795192540 0.682732463
0.817330837 0.799746573 0.683744431
0.916128993 0.817457378 0.726755261
0.576849580 0.920050561 0.750157773
0.599620402 0.927261114 0.744339168
0.626185656 0.921821535 0.759013414
0.668058395 0.921821773 0.754712105
0.717014670 0.926375389 0.755977571
0.788108647 0.925236881 0.763440788
0.860341549 0.925869823 0.771789730
0.950537682 0.931815028 0.791903615
0.182669282 0.146742716 0.717520535
0.233143553 0.145098001 0.720176816
0.308791906 0.145730570 0.719797254
0.416445613 0.141176000 0.720303595
0.527261138 0.136621997 0.719797254
0.643390000 0.135104299 0.719544709
0.762934804 0.140164286 0.718785524
0.896014929 0.176723644 0.724857688
0.173434705 0.183428288 0.693105578
0.226312265 0.181909993 0.700695992
0.301328361 0.182036892 0.697027266
0.404301077 0.178747997 0.701834321
0.510309756 0.175585181 0.702213764
0.629981041 0.177988902 0.702719688
0.744465113 0.179633290 0.700695992
0.862112761 0.202530116 0.702973068
0.144085899 0.263377786 0.705629468
0.204301357 0.261227131 0.713093042
0.296268195 0.264136910 0.721442103
0.402656376 0.264389753 0.715117216
0.520303488 0.269576281 0.718279421
0.640354156 0.274636447 0.719038367
0.771536529 0.281214178 0.722201228
0.892093480 0.315496266 0.724098802
0.130044281 0.364579260 0.712081194
0.186337993 0.373434275 0.713725448
0.285389036 0.375838071 0.717646897
0.395825624 0.375078976 0.714863837
0.526122749 0.378494620 0.715749621
0.639721692 0.380518675 0.711068571
0.760784209 0.388614625 0.708791912
0.884250700 0.412270725 0.720303893
0.180138990 0.505249918 0.715117335
0.228589371 0.512713492 0.721568346
0.314864099 0.515496254 0.734724700
0.421505332 0.515496373 0.734851539
0.538267195 0.514611065 0.729158700
0.661732972 0.518152952 0.731942058
0.777988315 0.528020203 0.731562257
0.900695503 0.554712296 0.744338989
0.300948709 0.664895773 0.757494807
0.340038180 0.669196725 0.762681961
0.402530253 0.672991633 0.760657549
0.485009462 0.671473622 0.760151684
0.586084664 0.673750520 0.759898603
0.695382774 0.670840979 0.761796236
0.801138759 0.683617711 0.764705718
0.909298062 0.708918214 0.773434103
0.372422546 0.780898571 0.760025561
0.408222526 0.787856042 0.754206538
0.456420273 0.791397572 0.762934804
0.538140297 0.785831571 0.767362237
0.620620012 0.790512383 0.770777822
0.716129184 0.793674827 0.777608871
0.812270582 0.803794980 0.785831869
0.903352201 0.817583680 0.803668261
0.577988148 0.919417739 0.809614062
0.591018319 0.920683086 0.813662231
0.614294887 0.917773426 0.818975091
0.663377225 0.919038355 0.823276401
0.725996375 0.921947777 0.833775997
0.788741469 0.926755071 0.838836074
0.862744987 0.920050681 0.841872334
0.939531624 0.931435525 0.852498472
0.189626992 0.154332995 0.875015616
0.233649999 0.152941003 0.871347368
0.324225277 0.152941003 0.871726871
0.432384282 0.150410995 0.871094584
0.547248483 0.154332995 0.872359455
0.663504422 0.158253998 0.871600389
0.790638626 0.177229822 0.872991800
0.918152928 0.216065779 0.875015616
0.165970847 0.190512091 0.856166601
0.224794358 0.187982082 0.861480057
0.309297830 0.188867703 0.863756776
0.422011554 0.187602535 0.859835744
0.537254810 0.190765545 0.862492204
0.655155063 0.195066094 0.859961987
0.780265570 0.204806834 0.850474179
0.898671567 0.232384652 0.853130817
0.153067917 0.272865355 0.860341609
0.210499644 0.277419120 0.870715082
0.308285862 0.281341076 0.878684640
0.421378851 0.284756362 0.869829059
0.543833077 0.286654115 0.866919577
0.670714796 0.299557418 0.868058443
0.788614750 0.310689360 0.864010036
0.918658912 0.340670168 0.870335519
0.124477915 0.386464119 0.856799424
0.200632602 0.390006214 0.863630652
0.303605467 0.393548429 0.870841146
0.419228107 0.398229122 0.862618446
0.539405346 0.404553920 0.860974133
0.660215139 0.406704813 0.861733317
0.781151354 0.413662106 0.854901910
0.903478742 0.437444746 0.857558370
0.190512195 0.524984360 0.858190954
0.251865745 0.534218788 0.870208979
0.335863352 0.534345210 0.869449615
0.439974636 0.533839166 0.871347427
0.554838538 0.537508190 0.866287112
0.674636602 0.545603991 0.866793036
0.791524470 0.551929116 0.865401745
0.912586987 0.573308110 0.878810763
0.349778712 0.682479560 0.877798915
0.375585020 0.686780453 0.882732511
0.432763845 0.687539518 0.882985413
0.510056794 0.684376836 0.882732809
0.597849429 0.683112025 0.879190385
0.701328516 0.688298643 0.880202651
0.811258852 0.697027028 0.881467342
0.921821833 0.708665788 0.882732809
0.447564542 0.798861444 0.889057815
0.466160804 0.804553807 0.882353246
0.507400513 0.807083964 0.882605910
0.562175870 0.805945635 0.885009527
0.644275606 0.807590127 0.889310539
0.728526175 0.806704462 0.887286663
0.825426817 0.813282788 0.888804376
0.922706723 0.825806260 0.901074946
0.575711489 0.917900026 0.903604925
0.592156768 0.927260756 0.898165464
0.616571784 0.925869823 0.905755639
0.663377643 0.922201157 0.906135201
0.716255784 0.925869823 0.906261802
0.789247274 0.925110698 0.906767905
0.858949900 0.920936227 0.912080765
0.929664671 0.931055963 0.915243804
