Assets/EldamarStudio/100 Retro LUTs Pack/LUTs/cube/Mark LUT.cube
LUT_3D_SIZE 5
DOMAIN_MIN 0.000000 0.000000 0.000000
DOMAIN_MAX 0.903226 0.903226 0.903226
0.141176000 0.121569000 0.109803997
0.223908693 0.133332998 0.129411995
0.360278398 0.152308583 0.144465417
0.605313122 0.189247131 0.171663120
0.894749761 0.244655117 0.231625631
0.177482694 0.212776706 0.134977713
0.241871983 0.216065705 0.138899282
0.388741076 0.239342406 0.163440585
0.627830267 0.284123689 0.194180995
0.899556994 0.336495519 0.247564688
0.230740413 0.426945388 0.172548994
0.312207699 0.444654971 0.171537295
0.468184829 0.447944373 0.186337575
0.679443300 0.475015521 0.222011536
0.908286035 0.520556748 0.316634804
0.315875977 0.709171116 0.236432865
0.398861587 0.729411721 0.263251275
0.554206252 0.725489914 0.273751140
0.745350957 0.720936120 0.298292249
0.941555619 0.737254977 0.414421082
0.556230247 0.937634468 0.534092546
0.604427576 0.948007762 0.552181780
0.689943135 0.942188382 0.563440979
0.815686107 0.936242759 0.580391884
0.961163819 0.937507927 0.620240450
0.145098001 0.129411995 0.189247280
0.230107412 0.140543997 0.194180980
0.365211695 0.163440585 0.207590118
0.601012290 0.189247295 0.253384113
0.882226467 0.243010834 0.300822139
0.183680996 0.212144271 0.194813415
0.250094682 0.222264409 0.212144285
0.385831386 0.244528979 0.227830291
0.613029540 0.273624271 0.257938117
0.885768652 0.335863352 0.312586963
0.219607577 0.409234822 0.240227699
0.294497281 0.428968817 0.248450413
0.461353511 0.436812371 0.260214955
0.655913889 0.462618709 0.291334271
0.898165464 0.518279493 0.373181492
0.307020724 0.695762396 0.319164842
0.387096852 0.711195529 0.329538256
0.545350850 0.708159447 0.337760687
0.730297208 0.706514716 0.355091840
0.927513957 0.730423808 0.452119052
0.557747841 0.931688786 0.544718325
0.597975612 0.936875343 0.570271730
0.682479501 0.933586359 0.581909895
0.811132193 0.931688666 0.604174316
0.944085836 0.933332920 0.640733659
0.171916410 0.141176000 0.335483402
0.242252111 0.146742716 0.333839089
0.375964373 0.159519002 0.346615791
0.619354844 0.157495424 0.396964222
0.875648201 0.219228372 0.448071212
0.195445582 0.227198109 0.347628117
0.257305682 0.227830693 0.345983386
0.401517808 0.235673696 0.361922681
0.623149812 0.251739442 0.400506258
0.879569590 0.320556402 0.457432091
0.212397426 0.413915396 0.383174986
0.287665963 0.422770500 0.396584094
0.459709227 0.440101385 0.417836398
0.659835219 0.462365806 0.438456506
0.888678253 0.518658996 0.501074791
0.303858548 0.686907113 0.475774974
0.390385985 0.699683785 0.490575641
0.543073952 0.701328099 0.490196109
0.722201109 0.703605413 0.503858149
0.910183787 0.730423629 0.579759538
0.562681735 0.923845351 0.641113400
0.604806900 0.926755071 0.657431781
0.686653733 0.927767217 0.661227167
0.810246825 0.926502228 0.679569721
0.942188382 0.930423319 0.707147121
0.182415992 0.146110132 0.587729335
0.277925402 0.145098001 0.598102570
0.448956132 0.145098001 0.600506246
0.646553099 0.145098001 0.601518095
0.895635486 0.182921931 0.640606940
0.170145452 0.237697542 0.600885391
0.270968109 0.242884696 0.605565846
0.454143107 0.245161399 0.612144411
0.654269397 0.250727713 0.612397134
0.904490829 0.298039347 0.646805763
0.185579002 0.440607399 0.622138143
0.287033409 0.449841827 0.634029090
0.477672517 0.454775512 0.635673285
0.687919259 0.462365389 0.637318015
0.907021046 0.512460470 0.670967758
0.304996848 0.692473292 0.653384268
0.387982249 0.701328099 0.674762785
0.542694807 0.702214003 0.674130380
0.724857390 0.713093102 0.693485141
0.905629218 0.742567897 0.728779137
0.578873932 0.921568632 0.767615199
0.621378601 0.927640378 0.774952769
0.689816356 0.925490081 0.776850224
0.808855236 0.922959924 0.783680916
0.949778616 0.931055903 0.806324780
0.189626992 0.154332995 0.875015616
0.297153711 0.151423112 0.871726632
0.487160236 0.153700411 0.870335221
0.699937165 0.160025269 0.872359455
0.918152928 0.216065779 0.875015616
0.167236179 0.254395992 0.869702756
0.287286550 0.258317381 0.874889433
0.484124094 0.261859715 0.871979892
0.698039532 0.278557807 0.867299080
0.918405890 0.319923967 0.868564546
0.158760428 0.461606801 0.867045939
0.297912687 0.471853107 0.877292871
0.500948787 0.480075777 0.875015616
0.709803939 0.490828514 0.875268698
0.916761637 0.521947801 0.878305018
0.358886778 0.713093102 0.877545774
0.433269948 0.718406081 0.885009468
0.565338373 0.718026280 0.882353067
0.731941938 0.719924271 0.878178596
0.922074616 0.742568135 0.886527479
0.575711489 0.917900026 0.903604925
0.610246599 0.924857676 0.906008720
0.689310610 0.922580361 0.906261802
0.806957781 0.926122487 0.906514823
0.929664671 0.931055963 0.915243804
