Assets/EldamarStudio/100 Retro LUTs Pack/LUTs/cube/Martha LUT.cube
LUT_3D_SIZE 5
DOMAIN_MIN 0.000000 0.000000 0.000000
DOMAIN_MAX 0.903226 0.903226 0.903226
0.070588000 0.027450999 0.043136999
0.246805698 0.067678705 0.054269418
0.430233985 0.131435573 0.071220584
0.650348127 0.189247131 0.115749255
0.881593764 0.219734147 0.166096985
0.013030007 0.261227101 0.084376991
0.205945417 0.272991687 0.091208279
0.413914979 0.289310277 0.103352405
0.649083138 0.307273984 0.138266861
0.883238494 0.318785697 0.182795689
0.000000000 0.491081387 0.154965416
0.134091973 0.491713971 0.153953284
0.396964222 0.491081387 0.165464565
0.635926545 0.495256275 0.181783572
0.885515630 0.498924553 0.218469143
0.004933870 0.698418975 0.214800864
0.052245665 0.699051380 0.213156417
0.386843503 0.700948834 0.225553259
0.635673285 0.703226149 0.233396992
0.889816463 0.701202154 0.247565120
0.000000000 0.924604654 0.275774837
0.104996860 0.923339784 0.288424820
0.410120219 0.923339605 0.288425237
0.655281246 0.924857676 0.291967094
0.912966430 0.918026805 0.296900988
0.049589012 0.052624710 0.279822975
0.216065705 0.083364703 0.279190421
0.408349127 0.152688116 0.280835122
0.630740106 0.218342572 0.297533244
0.874636471 0.245161146 0.319417864
0.000000000 0.266793370 0.271347404
0.178494409 0.279190391 0.280834705
0.393928081 0.294876426 0.287033409
0.626818359 0.320050299 0.302087575
0.875648499 0.334471673 0.323339522
0.000632584 0.489437103 0.296141565
0.129538402 0.482226521 0.302087426
0.383554667 0.487792790 0.302720010
0.626185954 0.496647686 0.309930414
0.876281083 0.502846241 0.333839118
0.001644708 0.697659850 0.325363547
0.075774655 0.697407126 0.326249421
0.391144842 0.699683845 0.331182688
0.627198279 0.700316250 0.325869709
0.884124041 0.704237998 0.347501546
0.003668699 0.923971772 0.368880540
0.143706173 0.923339784 0.370777965
0.420240521 0.921315372 0.372042835
0.665148556 0.920683205 0.372675568
0.908285618 0.919038653 0.374319851
0.003289416 0.088930994 0.483870804
0.186969995 0.117393695 0.479570091
0.397596806 0.169386402 0.479949802
0.624541700 0.224920839 0.483238786
0.865148365 0.268058151 0.492346406
0.001265006 0.293611407 0.473371416
0.161796272 0.291334689 0.477292806
0.382542402 0.303352416 0.469449371
0.616065979 0.329538256 0.479570091
0.867172599 0.357621819 0.499556988
0.000000000 0.480582237 0.472105950
0.102719568 0.487792373 0.474003792
0.381909966 0.495635808 0.479949802
0.618342638 0.502846003 0.493358672
0.865148365 0.518532395 0.512713671
0.002277288 0.689563692 0.493611395
0.137254924 0.697407126 0.493105799
0.394687116 0.696394980 0.498924404
0.629728258 0.699683845 0.496900797
0.879949331 0.708159387 0.510942101
0.003289416 0.916002393 0.540923238
0.199747190 0.920050323 0.532953441
0.434914380 0.919417739 0.528272986
0.667805195 0.919417918 0.535863221
0.909044623 0.915369809 0.532320976
0.003922000 0.158001125 0.693485141
0.145224825 0.178241700 0.690828562
0.393674821 0.209614128 0.681973279
0.629728258 0.238330126 0.680708289
0.869196594 0.272991866 0.680708289
0.001012128 0.317140818 0.684250534
0.133080274 0.321062416 0.683617651
0.390765101 0.327893555 0.680708408
0.628842354 0.337381393 0.682605982
0.865907788 0.363946944 0.683618128
0.002277288 0.500189424 0.672486186
0.124098673 0.505755544 0.676786900
0.392409801 0.507779956 0.677419364
0.624921143 0.510689199 0.674510121
0.867805183 0.530929804 0.693232238
0.006831130 0.707147121 0.675016284
0.143453389 0.699936688 0.682226121
0.405819118 0.701328099 0.682353139
0.641619265 0.706261992 0.683744431
0.881846726 0.711069107 0.705629170
0.153447255 0.914484620 0.710183382
0.272612065 0.917141020 0.711827874
0.461100787 0.915116966 0.714484513
0.672359228 0.915496767 0.711448193
0.904237747 0.918026805 0.710563123
0.000000000 0.236685991 0.898418784
0.092979230 0.249968782 0.909677446
0.398987949 0.266160548 0.906261802
0.651360273 0.284503818 0.903099179
0.897279739 0.299557149 0.898418784
0.000000000 0.356736541 0.898165464
0.115622938 0.360025525 0.905882239
0.405819088 0.366856545 0.907273948
0.653763354 0.375331938 0.899177730
0.895382762 0.381277651 0.904743850
0.003289416 0.540164590 0.899809957
0.190891504 0.545098126 0.901707411
0.428463191 0.544085801 0.900442362
0.659582317 0.549019516 0.900062859
0.895256162 0.545350790 0.902466774
0.004047996 0.732321441 0.897406638
0.216824606 0.728146493 0.905376196
0.439215511 0.729791224 0.903099358
0.669449925 0.728399813 0.902087033
0.895255744 0.726502120 0.900442779
0.098924384 0.931182802 0.907653451
0.249841630 0.928652763 0.892346680
0.465148360 0.924604774 0.899809778
0.685135961 0.922327697 0.901327908
0.909044743 0.920682967 0.907653451
