Assets/EldamarStudio/100 Retro LUTs Pack/LUTs/cube/Martha LUT.cube
LUT_3D_SIZE 8
DOMAIN_MIN 0.000000 0.000000 0.000000
DOMAIN_MAX 0.903226 0.903226 0.903226
0.070588000 0.027450999 0.043136999
0.167362556 0.041113548 0.051359549
0.267299175 0.076787099 0.061859995
0.373307914 0.113219641 0.071726643
0.487286180 0.149652198 0.083871193
0.616951227 0.182163253 0.105628990
0.749905288 0.200632572 0.137887001
0.881593764 0.219734147 0.166096985
0.056546904 0.175964534 0.063124545
0.154079542 0.172801629 0.069829002
0.253510654 0.185705081 0.071346998
0.365591556 0.201391280 0.080328740
0.484629720 0.214674085 0.097533450
0.616698325 0.237444997 0.122327998
0.746616304 0.251612812 0.141935095
0.882732809 0.258950204 0.172675818
0.003162904 0.295383006 0.101834096
0.098418549 0.302087516 0.089310899
0.224921092 0.306388080 0.099557005
0.352688074 0.315369725 0.101833999
0.470841259 0.321315199 0.120682992
0.610373378 0.333080202 0.137507826
0.744971395 0.339405179 0.158886895
0.886021495 0.342568099 0.191144988
0.002783356 0.421505272 0.128399998
0.010499546 0.424288630 0.128905639
0.198229089 0.427830368 0.139152452
0.330170631 0.429854631 0.143453285
0.465401560 0.435293823 0.152055994
0.604301095 0.438836277 0.164832532
0.741555929 0.439974934 0.179380000
0.882479489 0.448197454 0.211258650
0.001518192 0.550031543 0.171410188
0.001138644 0.547374725 0.178241536
0.165971190 0.550158083 0.178621188
0.321568638 0.546489716 0.177482635
0.461353362 0.550031543 0.179506987
0.602782905 0.554332614 0.189626798
0.739531755 0.553320408 0.206072196
0.880202472 0.558760166 0.226565376
0.003922000 0.666034460 0.207717001
0.004427552 0.668437660 0.216698557
0.138013825 0.669196546 0.217962995
0.311701268 0.671853185 0.215432987
0.457432359 0.673370957 0.215939447
0.601264715 0.671853244 0.221252725
0.737128556 0.673624456 0.223782435
0.886780620 0.673877478 0.242504731
0.000000000 0.795319557 0.246679276
0.003794996 0.793548703 0.246426240
0.123086274 0.793042302 0.243770003
0.314610988 0.795319557 0.248829648
0.464516103 0.795319557 0.247817904
0.609361172 0.795319557 0.247690991
0.750537276 0.795319557 0.253890276
0.895255983 0.793674827 0.268691003
0.000000000 0.924604654 0.275774837
0.002277285 0.921315789 0.283111811
0.169765890 0.923339784 0.286653966
0.337760925 0.921947777 0.286400825
0.480581820 0.925995946 0.289057642
0.620113611 0.923845530 0.290954888
0.768627346 0.920682907 0.290448964
0.912966430 0.918026805 0.296900988
0.065908000 0.043516546 0.187349990
0.148513541 0.051739097 0.181024998
0.259456009 0.079823092 0.181404442
0.359266639 0.129664540 0.189247549
0.474004000 0.169639647 0.198988080
0.606451452 0.197090551 0.213156283
0.743579984 0.220367000 0.224667832
0.881467640 0.233396843 0.245287701
0.032258004 0.173181087 0.180265993
0.139152542 0.179886550 0.183807537
0.236685991 0.192409635 0.184566647
0.345097810 0.205313191 0.196711093
0.471220732 0.233270347 0.206957906
0.607969701 0.246047005 0.213535741
0.739911079 0.262112528 0.227577537
0.873750746 0.271853566 0.244908258
0.003542452 0.294624090 0.195951998
0.089436993 0.304111093 0.198734641
0.219860643 0.302087545 0.194307178
0.336495727 0.313472182 0.197849542
0.462998182 0.323212802 0.208855540
0.600505829 0.333839297 0.216192096
0.740290642 0.345730364 0.236685798
0.879443467 0.348766387 0.253510445
0.000000000 0.419987291 0.218722090
0.004174544 0.422391087 0.202403545
0.187223181 0.420746207 0.213915080
0.319164842 0.429854631 0.213156089
0.459456027 0.432131648 0.222137734
0.596584618 0.441239893 0.230360463
0.737634182 0.443896353 0.244022742
0.877798975 0.445540637 0.260847449
0.001138644 0.544591963 0.240733907
0.002276998 0.545730591 0.231498927
0.165591657 0.543326795 0.234661743
0.316508293 0.548133790 0.239848092
0.459456027 0.550917149 0.241872549
0.595698893 0.553194165 0.247311741
0.738393188 0.556356370 0.257178992
0.882099926 0.560278356 0.272232741
0.005060257 0.668437660 0.259329468
0.000000000 0.665401936 0.258570313
0.138140544 0.667552292 0.258190811
0.311701268 0.669196546 0.261100978
0.460973918 0.669829488 0.260974109
0.598734915 0.671979666 0.266413808
0.738646269 0.670461893 0.272359461
0.887412667 0.675395250 0.286274552
0.001644712 0.793801308 0.283744276
0.005439708 0.793421865 0.292346984
0.134345472 0.792915761 0.283618271
0.315116912 0.792915761 0.286148310
0.465528101 0.799241006 0.288298368
0.605439723 0.795319498 0.287286758
0.749145985 0.800379694 0.293105990
0.888045490 0.796584725 0.301960528
0.000379548 0.921695054 0.312713087
0.007590272 0.922327340 0.318658978
0.178115174 0.920176864 0.313851625
0.341049641 0.922201157 0.323213011
0.488931209 0.920303464 0.321189165
0.623529553 0.921695054 0.319165021
0.766982973 0.923845530 0.324604809
0.911701560 0.919038355 0.327766806
0.029854808 0.054901998 0.307906270
0.135230646 0.065022089 0.306767642
0.233523190 0.093991093 0.309551030
0.349019736 0.132827342 0.309551001
0.470967978 0.173940286 0.314231306
0.600126326 0.210752890 0.319797188
0.732574522 0.238203704 0.332954079
0.869070351 0.252498180 0.346742451
0.003162904 0.181024984 0.295888543
0.107779540 0.188488543 0.299304187
0.221758097 0.196331546 0.302087575
0.337634176 0.215559900 0.306767732
0.462618828 0.237444982 0.312713116
0.596205115 0.258570284 0.325869560
0.730044246 0.275015980 0.338519812
0.876533866 0.289310902 0.347627729
0.000000000 0.300190002 0.301707983
0.064010352 0.302087516 0.305249631
0.198988095 0.310310096 0.314990193
0.324351370 0.317773640 0.309930474
0.451992393 0.328273207 0.316635102
0.590638518 0.344086111 0.329158992
0.726881564 0.350284368 0.338519812
0.876154423 0.359013200 0.347881079
0.000000000 0.426312268 0.316128731
0.003036093 0.421632081 0.324225456
0.182289556 0.428209752 0.319038093
0.310562640 0.427450836 0.320176750
0.454016626 0.434534907 0.324478090
0.591524243 0.441998988 0.336243004
0.727008224 0.449462622 0.339784861
0.870714784 0.454396069 0.350663841
0.003921806 0.545477152 0.323592275
0.000759096 0.541808784 0.333080292
0.166097298 0.544591963 0.329917878
0.312080830 0.544971526 0.327134639
0.451233268 0.546995163 0.326755196
0.588614821 0.551676214 0.335736662
0.731688797 0.558001101 0.348007292
0.874636412 0.561416984 0.360910833
0.001138644 0.668058217 0.347122192
0.001138644 0.668058097 0.348893106
0.149146169 0.664769053 0.344212830
0.314484626 0.667931736 0.348766387
0.455914170 0.666413963 0.344718367
0.598861694 0.668437481 0.346615821
0.738393307 0.671094060 0.356989443
0.879316866 0.675142646 0.367994845
0.003162904 0.789879739 0.363693893
0.003289005 0.791271567 0.353826642
0.151549384 0.795319557 0.364326298
0.322453976 0.796078444 0.363693804
0.465907544 0.793674827 0.358760178
0.609740913 0.793674827 0.365085065
0.751170516 0.793801367 0.367488801
0.888930917 0.794940054 0.373814076
0.003162904 0.921442032 0.388361931
0.007969640 0.920430064 0.390765369
0.197848976 0.921315491 0.383934170
0.349778265 0.922327459 0.386337817
0.488298625 0.923465967 0.390891969
0.625679553 0.921442032 0.392409891
0.765844345 0.920176864 0.390385628
0.910309613 0.916761637 0.395825326
0.002783356 0.074003644 0.431498647
0.101581454 0.090069897 0.429475099
0.222896636 0.117520280 0.416065961
0.336875290 0.144591644 0.419228286
0.463883400 0.180645347 0.420872986
0.594180822 0.209993988 0.424288630
0.730929554 0.235420629 0.434408933
0.864389539 0.265654773 0.447438270
0.001518095 0.195572540 0.420366645
0.082985282 0.200252637 0.414421201
0.211511999 0.209234998 0.419228196
0.329032272 0.217457533 0.420114070
0.455914170 0.241366193 0.425173670
0.592283368 0.260215193 0.427450836
0.729664922 0.284123927 0.433270007
0.868437767 0.303731740 0.448703349
0.002783356 0.313092738 0.423655748
0.017077995 0.311069101 0.412523717
0.190765545 0.316635102 0.418469191
0.318026364 0.322453827 0.415686637
0.451992273 0.333839089 0.425932735
0.585199296 0.346363068 0.432637274
0.724225104 0.362934977 0.443896621
0.869323075 0.373940498 0.454522371
0.000000000 0.420366645 0.414168626
0.000379548 0.425553292 0.418089628
0.173055187 0.432637274 0.425553203
0.315623283 0.432131648 0.422011644
0.444149196 0.441619635 0.426565737
0.581151485 0.447438389 0.433396369
0.727640808 0.454522282 0.439974636
0.867931426 0.463883460 0.457305640
0.008349358 0.539405525 0.423529625
0.004301354 0.544212520 0.432637393
0.165338203 0.545730591 0.433396369
0.315496445 0.543453634 0.430234075
0.447944283 0.544971526 0.427830279
0.586717367 0.552814841 0.437697649
0.729664862 0.560784459 0.445920378
0.871853590 0.563820541 0.459076464
0.000000000 0.664516270 0.439974636
0.002024260 0.664516270 0.449083000
0.163820639 0.665654838 0.444275975
0.316761643 0.664769113 0.439215660
0.458950162 0.667172790 0.439974815
0.594560325 0.670841396 0.446299762
0.733460009 0.671094120 0.451612622
0.880202472 0.676533818 0.465907723
0.000000000 0.791397572 0.460721284
0.008096253 0.794560492 0.458949924
0.176850215 0.788994491 0.457811654
0.335231006 0.790891945 0.458949625
0.470588207 0.792156637 0.458823740
0.607716501 0.791651070 0.460341722
0.747248292 0.794813156 0.461859643
0.884124041 0.794939995 0.470082194
0.005692822 0.918279409 0.480834633
0.059961751 0.916381776 0.485262632
0.225426689 0.920176864 0.478051931
0.364073277 0.919165134 0.483238429
0.499430627 0.919797301 0.488171875
0.636306107 0.917014599 0.482732445
0.770018756 0.916888177 0.488171965
0.909677207 0.919544637 0.488045633
0.000000000 0.109551191 0.538267195
0.053636741 0.121821642 0.542188168
0.202150375 0.146489292 0.535990059
0.334092647 0.167615190 0.535610676
0.461353362 0.194307387 0.532827437
0.592662752 0.215432987 0.536369443
0.727640808 0.244401991 0.542947233
0.868437767 0.270967841 0.549905002
0.000000000 0.215053737 0.527134359
0.033017099 0.219101533 0.534471989
0.202529743 0.226059631 0.540290713
0.330676973 0.234282181 0.533206701
0.455155164 0.249209195 0.539658606
0.592662692 0.268058091 0.538646400
0.729790986 0.286148190 0.538772702
0.865781248 0.307273984 0.548513651
0.000000000 0.326755196 0.540164292
0.004933543 0.332700640 0.523845613
0.184946194 0.330676973 0.536116123
0.316002727 0.334218740 0.528146446
0.450348079 0.337761104 0.528146446
0.586337805 0.349525481 0.534345269
0.723086476 0.364452809 0.539911211
0.867678642 0.381277829 0.549398959
0.007084001 0.429854631 0.523719013
0.001518095 0.435420543 0.531688809
0.172296003 0.436812013 0.531309187
0.321189284 0.440354198 0.533712983
0.445287853 0.445414424 0.529664576
0.587096930 0.452498525 0.542694569
0.723465860 0.461986005 0.550410986
0.861985743 0.476407200 0.561037421
0.002403808 0.542188168 0.530423582
0.000379548 0.543833196 0.528905392
0.154965103 0.548513353 0.531182468
0.313219458 0.553194225 0.535483837
0.459835559 0.557874560 0.542188168
0.588994265 0.559898794 0.545730591
0.728526473 0.562555254 0.552435160
0.865275204 0.575079381 0.562682211
0.000000000 0.671347260 0.534218669
0.004174738 0.664768875 0.548639953
0.179380029 0.664389551 0.545730472
0.331309289 0.669955611 0.546489716
0.459329605 0.667552233 0.544971406
0.593801260 0.667931676 0.548260629
0.734345317 0.673371017 0.557368934
0.875268936 0.680961370 0.569133520
0.000000000 0.792030334 0.563314378
0.064389713 0.791397572 0.562428534
0.213535458 0.789753497 0.563441098
0.344844908 0.787096858 0.558127880
0.477039993 0.792915761 0.559519291
0.609234750 0.791397572 0.560910463
0.745603561 0.792030573 0.561796427
0.882226348 0.799241006 0.573434591
0.034661908 0.918279409 0.580771387
0.107779831 0.920556426 0.583175182
0.238835886 0.917520523 0.577861965
0.373687714 0.920556366 0.578115165
0.501960695 0.918279409 0.579759538
0.635167718 0.918659091 0.582036853
0.770272076 0.918406188 0.580392063
0.906261742 0.915623009 0.580898225
0.001897740 0.148892999 0.658064485
0.006957804 0.160530984 0.658444047
0.186717346 0.176723629 0.658190966
0.329411536 0.193168640 0.654902101
0.459709167 0.213156193 0.654142976
0.599367440 0.229221731 0.652371705
0.729158580 0.249588743 0.652245700
0.868437767 0.273244828 0.654901743
0.002403808 0.234661534 0.654522717
0.002276998 0.236685798 0.648197234
0.183807641 0.241239995 0.656293750
0.325743169 0.253890097 0.654648900
0.459076554 0.266034335 0.653130770
0.592915595 0.277798742 0.647564709
0.729538083 0.288804531 0.651612997
0.869449854 0.307273716 0.653004587
0.000000000 0.343200177 0.655407846
0.000000000 0.345983446 0.654775560
0.182163447 0.340797216 0.645920217
0.324351400 0.346363068 0.652371943
0.453889906 0.351802379 0.650348008
0.591903687 0.353826851 0.651992440
0.724984050 0.366350561 0.646806002
0.864389598 0.385199338 0.655281663
0.000000000 0.447058648 0.653004646
0.003035997 0.445540756 0.653763413
0.175711632 0.441872358 0.649209619
0.317520529 0.453383625 0.648829997
0.454775512 0.454901814 0.649968565
0.588741064 0.455281377 0.644149482
0.722960293 0.465148896 0.649082899
0.865528166 0.481088012 0.662112474
0.001518192 0.557242393 0.649715483
0.002024260 0.558633506 0.644528687
0.167362288 0.555976927 0.648829997
0.321441919 0.560278356 0.647564709
0.463757187 0.562555194 0.651486754
0.591397464 0.563061655 0.650474429
0.727008283 0.568121195 0.661733031
0.865654409 0.584945977 0.671853244
0.003794996 0.671726704 0.644655764
0.000000000 0.668690920 0.643643022
0.172043085 0.669070363 0.651107073
0.332447648 0.669955432 0.648450732
0.471600175 0.668311298 0.654269457
0.599114478 0.671853244 0.656419754
0.732701004 0.678557992 0.660341740
0.878051698 0.684503615 0.676533818
0.004174544 0.789753318 0.655155003
0.070588380 0.789247334 0.661480188
0.228842452 0.791271508 0.660088718
0.358507365 0.792030275 0.664642811
0.489183933 0.795319498 0.667931736
0.615306973 0.791777074 0.668690681
0.749146044 0.795572042 0.670334995
0.888045549 0.798608422 0.679063678
0.154459253 0.916761637 0.692978919
0.201012164 0.917141080 0.687919021
0.296647668 0.915876031 0.691587567
0.406704724 0.918658853 0.689942896
0.508918166 0.918659091 0.683491528
0.638709605 0.917520523 0.685894787
0.772548795 0.918658853 0.686780453
0.909297585 0.917520523 0.685515523
0.002277288 0.195699275 0.784187555
0.000000000 0.202909291 0.786717474
0.165844470 0.209234908 0.781151175
0.324604630 0.223655924 0.780771613
0.465275377 0.237318277 0.781151175
0.595951557 0.251612991 0.772169530
0.739405274 0.261733294 0.774699271
0.872991800 0.281087846 0.766223848
0.003542452 0.260847360 0.786717474
0.000379548 0.261859983 0.781151295
0.167615294 0.266034544 0.781151235
0.327766985 0.279063821 0.779633284
0.466413736 0.282859176 0.773308098
0.603036344 0.295129538 0.775205553
0.738772810 0.298924834 0.777735710
0.872106373 0.313472092 0.770524800
0.000000000 0.358127832 0.779633224
0.000379548 0.359646022 0.772042990
0.163314372 0.361922860 0.773307979
0.322959900 0.364326179 0.772295952
0.464389563 0.370778024 0.774193347
0.602403402 0.372548848 0.771410704
0.737760544 0.375332177 0.768627286
0.872991979 0.385958254 0.766350329
0.002276998 0.463630557 0.775205612
0.004554092 0.463503927 0.777482271
0.189500481 0.466540128 0.775458753
0.330803216 0.467425644 0.772422254
0.470082372 0.469196558 0.773687601
0.603162467 0.468943834 0.771410704
0.736622155 0.473118275 0.770145535
0.866413653 0.483870625 0.770272076
0.000000000 0.567362249 0.765970647
0.005692640 0.573181629 0.774572968
0.195445880 0.571157157 0.772549033
0.340544283 0.575964212 0.771283925
0.477039993 0.577609122 0.771031082
0.605819166 0.575079203 0.769133568
0.737887502 0.579000592 0.770145297
0.866033971 0.583301604 0.771031141
0.005692737 0.677925467 0.772422552
0.010626377 0.686021447 0.773940325
0.205566078 0.682858884 0.773181438
0.346868962 0.680455744 0.771537006
0.481087893 0.682732463 0.769006968
0.609361172 0.682226419 0.771410525
0.744592011 0.684376776 0.773054838
0.875648499 0.692852676 0.781530738
0.000000000 0.799241006 0.772422552
0.020619888 0.793674827 0.770145237
0.211258382 0.796837389 0.773308158
0.354332626 0.796457887 0.776344001
0.486274481 0.796078503 0.772549272
0.623529494 0.797343791 0.779253542
0.756736577 0.801518261 0.785831809
0.892979205 0.798861444 0.792662740
0.154964998 0.920430243 0.781656861
0.209740311 0.919923961 0.790385783
0.297912449 0.917899907 0.786970139
0.416318744 0.916255593 0.791397572
0.530044258 0.919038355 0.795572162
0.648829937 0.917141140 0.797723234
0.775458276 0.914484382 0.789879918
0.900568843 0.919038355 0.796204865
0.000000000 0.236685991 0.898418784
0.000000000 0.240480691 0.911069036
0.154712364 0.251233637 0.906135261
0.323339462 0.253510624 0.909171224
0.470208824 0.272232622 0.908538759
0.614421189 0.279696465 0.901834011
0.755471408 0.294876814 0.904237628
0.897279739 0.299557149 0.898418784
0.001265167 0.290828794 0.903984547
0.002024167 0.294876516 0.895888686
0.154458836 0.296900690 0.905755639
0.326122701 0.305123329 0.904617071
0.474257022 0.313219368 0.904996634
0.616065681 0.322327822 0.904490829
0.755471408 0.325490087 0.899051130
0.896014929 0.331435680 0.903478980
0.001517998 0.380518943 0.899177670
0.003036286 0.384313643 0.906261981
0.174320176 0.385831922 0.903858006
0.336242884 0.387856007 0.906009018
0.477039993 0.390512347 0.904111266
0.619607568 0.397090167 0.904996634
0.756230295 0.399620175 0.903099000
0.895382464 0.404301077 0.903478622
0.001518189 0.483491480 0.904996634
0.022137892 0.485262424 0.904743612
0.207969561 0.487792760 0.901201427
0.352055639 0.492726475 0.901074946
0.490955144 0.491587818 0.901707530
0.622264385 0.493991107 0.902466595
0.758507073 0.497912914 0.899430335
0.898797929 0.495509088 0.902846158
0.002530012 0.589879870 0.894244194
0.070841029 0.593042612 0.901707590
0.231119812 0.596331239 0.895635545
0.371536821 0.596331179 0.898671448
0.496521175 0.593927979 0.898544908
0.625679612 0.597849369 0.903478444
0.763440967 0.595825613 0.898039103
0.897279739 0.597090185 0.900063097
0.000000000 0.700189650 0.898418784
0.099304020 0.702719629 0.896394610
0.239848241 0.702846467 0.903098881
0.374952257 0.702846467 0.898545146
0.501960635 0.702087581 0.897912621
0.638330460 0.703605533 0.903098881
0.767868340 0.700822413 0.901328087
0.897279739 0.699430764 0.895888746
0.042884335 0.819607675 0.903858304
0.138393328 0.811258793 0.901580930
0.259329706 0.815053701 0.900695622
0.383554429 0.811764538 0.901707649
0.515622854 0.811764538 0.906261861
0.642884135 0.812903285 0.902087092
0.764579535 0.809740663 0.902339816
0.898038864 0.811385095 0.898798227
0.098924384 0.931182802 0.907653451
0.176597163 0.932447612 0.900948346
0.279949129 0.931688547 0.896647632
0.402909636 0.928399384 0.898292005
0.521189153 0.924857557 0.898291945
0.653004408 0.922074616 0.899809778
0.785072684 0.919417739 0.901454508
0.909044743 0.920682967 0.907653451
