Assets/EldamarStudio/100 Retro LUTs Pack/LUTs/cube/Martha LUT.cube
DOMAIN_MIN 0 0 0
DOMAIN_MAX 1 1 1
LUT_3D_SIZE 32
0.070588000 0.027450999 0.043136999
0.085768387 0.030487388 0.049209002
0.111701541 0.027071454 0.050980002
0.140797153 0.028589323 0.050980002
0.167362556 0.041113548 0.051359549
0.188614935 0.056293935 0.054395933
0.219987318 0.061353676 0.052371677
0.246805698 0.067678705 0.054269418
0.267299175 0.076787099 0.061859995
0.285515994 0.085895486 0.074003994
0.312460870 0.095003128 0.065781131
0.341808975 0.104111254 0.066792995
0.373307914 0.113219641 0.071726643
0.405945987 0.122327968 0.074256971
0.430233985 0.131435573 0.071220584
0.456925780 0.140543804 0.077798799
0.487286180 0.149652198 0.083871193
0.521315098 0.159392983 0.088172406
0.557747960 0.171536997 0.097280033
0.585831344 0.175332353 0.098039001
0.616951227 0.182163253 0.105628990
0.650348127 0.189247131 0.115749255
0.683871031 0.192283481 0.121948473
0.720303833 0.195319101 0.131056100
0.749905288 0.200632572 0.137887001
0.780012667 0.205313325 0.145350665
0.812903166 0.208349064 0.153953001
0.843263865 0.211385459 0.160025001
0.881593764 0.219734147 0.166096985
0.915749371 0.223528996 0.170398206
0.947881222 0.223528996 0.176090971
0.984314024 0.223528996 0.188235000
0.064516000 0.060847387 0.049209002
0.094876774 0.063883774 0.049209002
0.107906386 0.069070384 0.053130776
0.134218782 0.070335321 0.055281546
0.165085152 0.076028220 0.056673225
0.191650555 0.080581933 0.054395933
0.215433255 0.088171996 0.059961997
0.244022682 0.096647382 0.060088385
0.267299175 0.106388189 0.061100710
0.285515994 0.113219872 0.061860003
0.315369993 0.113599390 0.068184994
0.344845116 0.122327507 0.063757129
0.374067038 0.131435633 0.067931645
0.402909666 0.140291005 0.074510001
0.427198380 0.146615967 0.074256971
0.453890175 0.153320387 0.073624387
0.485768378 0.163314372 0.080835193
0.520682693 0.172675803 0.087539993
0.554712355 0.177609012 0.094244428
0.582795739 0.192536369 0.106135391
0.612017810 0.192789257 0.110942379
0.644276142 0.195319131 0.116761386
0.677799046 0.198734984 0.119038597
0.714231849 0.210499480 0.131056100
0.750663996 0.215812385 0.142441571
0.783048630 0.219101608 0.150031760
0.816445470 0.219481051 0.156483337
0.849335849 0.217457443 0.160025001
0.882352710 0.220493153 0.166096985
0.917520106 0.225300208 0.172169432
0.950031400 0.229221985 0.179127365
0.984314024 0.235673770 0.191271394
0.062744997 0.096394546 0.050980002
0.093105778 0.097280160 0.055281550
0.110563003 0.100316547 0.050980002
0.129032165 0.105123386 0.052751224
0.159139559 0.108918540 0.056040548
0.182921931 0.115496606 0.061859839
0.212017640 0.116761543 0.064263001
0.237950698 0.121188834 0.067046002
0.264516205 0.130296960 0.067046002
0.285515994 0.136369750 0.065401711
0.311069012 0.140923768 0.066793226
0.339405268 0.144971773 0.070841484
0.370777845 0.151675895 0.071473777
0.400632322 0.158254027 0.078811005
0.430613786 0.162428766 0.078811005
0.459455997 0.172801763 0.083112001
0.486780405 0.177355960 0.086148001
0.520050108 0.186337993 0.093991213
0.551929176 0.190891832 0.100063242
0.586211383 0.198608369 0.109551013
0.615433455 0.206198737 0.116002738
0.646806121 0.205692410 0.121821769
0.680076003 0.208981499 0.124478243
0.712460816 0.219101772 0.134598002
0.746742725 0.224541545 0.140290797
0.781783402 0.227830544 0.149652213
0.815180302 0.228336483 0.155724227
0.848576665 0.228589460 0.160404548
0.886274517 0.228715926 0.166096985
0.919670880 0.237064719 0.177482173
0.953067362 0.238582999 0.182922229
0.986464262 0.241366223 0.190006226
0.061480161 0.135357320 0.054775160
0.089310616 0.131562158 0.057052772
0.109297842 0.133712932 0.058317609
0.129032165 0.136748999 0.057305161
0.155218095 0.139784694 0.055787161
0.175585091 0.147122085 0.060847707
0.204427466 0.151170149 0.067931838
0.231878698 0.151549608 0.070588000
0.259962171 0.155344307 0.070588000
0.285263002 0.161416963 0.070588000
0.308285832 0.166224167 0.070588000
0.337128431 0.171030983 0.073877096
0.363314182 0.177103281 0.078052126
0.396331072 0.180265442 0.083871134
0.429728210 0.183301568 0.084883004
0.460720956 0.188488141 0.088425159
0.489563197 0.197343186 0.094497159
0.518785119 0.201644570 0.100569151
0.550410986 0.208349168 0.106641173
0.586337745 0.213156343 0.115496524
0.617710292 0.218595907 0.119544737
0.650095105 0.219608039 0.123592995
0.683618009 0.222390652 0.129791468
0.713978827 0.231499061 0.138899103
0.746616304 0.236053109 0.142188117
0.780012667 0.238962993 0.146616146
0.814421237 0.238456920 0.153700158
0.849335730 0.239974543 0.161290169
0.882985473 0.242884323 0.168627307
0.920176983 0.247438282 0.177482173
0.952687979 0.255154699 0.190891594
0.985705018 0.249462157 0.192030162
0.056546904 0.175964534 0.063124545
0.081214458 0.167994708 0.061606836
0.101960547 0.167109326 0.061733223
0.124477774 0.170145482 0.064895548
0.154079542 0.172801629 0.069829002
0.172296315 0.175838023 0.057684999
0.200252995 0.181024536 0.062871769
0.227703854 0.184187084 0.068311289
0.253510654 0.185705081 0.071346998
0.283871442 0.191777080 0.071346998
0.306641132 0.194560409 0.071726546
0.334851205 0.197216839 0.074635997
0.365591556 0.201391280 0.080328740
0.390638590 0.207211033 0.085895449
0.424035698 0.210246682 0.088804580
0.455028534 0.212017551 0.092979252
0.484629720 0.214674085 0.097533450
0.513092697 0.219860569 0.103225991
0.549525559 0.228968963 0.109298013
0.585578740 0.233270347 0.117773816
0.616698325 0.237444997 0.122327998
0.647058725 0.241239965 0.124731444
0.683364987 0.238583088 0.130550444
0.713978827 0.247438461 0.138899103
0.746616304 0.251612812 0.141935095
0.780012667 0.254648656 0.145097792
0.813662112 0.257432014 0.151423439
0.853131175 0.254395634 0.163567439
0.882732809 0.258950204 0.172675818
0.915369868 0.263883978 0.181024745
0.950790167 0.268058509 0.190891594
0.981150985 0.265022099 0.200000003
0.038330130 0.203288943 0.066160932
0.065654516 0.203288943 0.075268552
0.090322614 0.201770872 0.071600065
0.113598935 0.203542113 0.068311155
0.138899162 0.206198812 0.066793390
0.163187951 0.206198812 0.063757002
0.188994393 0.209234536 0.066793002
0.216824695 0.212776646 0.070082061
0.244402260 0.216065854 0.072105996
0.274763077 0.222137854 0.077418998
0.305123061 0.222390860 0.080328867
0.329917490 0.222896934 0.078810684
0.358001351 0.225679874 0.079569645
0.387602955 0.231499031 0.082859069
0.420999318 0.234535411 0.082859069
0.451992661 0.242378056 0.092978992
0.483871102 0.246932119 0.100569054
0.515623093 0.249209285 0.106008641
0.546489894 0.247184947 0.109298006
0.580139339 0.256293356 0.115370005
0.612144470 0.258697003 0.123845793
0.644022882 0.260721117 0.131435856
0.680328548 0.262871861 0.139658064
0.713725746 0.268943876 0.139658064
0.746616304 0.270967931 0.145730570
0.780012667 0.272865176 0.152182177
0.813409090 0.275901079 0.160278067
0.847058415 0.278684437 0.166603044
0.881214619 0.280961692 0.173434719
0.915369868 0.280961722 0.178241760
0.951802194 0.281214625 0.185831591
0.987222970 0.283238858 0.200000003
0.025174003 0.230613321 0.071727000
0.047438391 0.235673308 0.070714615
0.079063773 0.239974856 0.079822779
0.103225835 0.240733951 0.079443485
0.126628548 0.241366535 0.079317316
0.153067544 0.237064987 0.078431703
0.184946001 0.239595324 0.077925637
0.208981380 0.242631346 0.079063930
0.236052960 0.245667532 0.078178324
0.268185019 0.249968305 0.080708325
0.296015322 0.255281329 0.083871186
0.326375306 0.255281329 0.086907059
0.355091602 0.256419957 0.086021319
0.386844009 0.260847598 0.088172033
0.417963058 0.263883412 0.095003322
0.451360077 0.266919792 0.099810317
0.483365178 0.272738844 0.108665317
0.516761541 0.275775045 0.114104897
0.549019694 0.276533663 0.117141299
0.582163095 0.279569983 0.122960322
0.615559876 0.282985628 0.129032314
0.647565126 0.283997506 0.136495993
0.682226300 0.286906987 0.143832833
0.713219702 0.288172007 0.146236643
0.746616304 0.291967273 0.153067350
0.780012667 0.293611646 0.159392670
0.812903166 0.295635402 0.166350052
0.844275713 0.294623762 0.170398310
0.882732153 0.300189823 0.176470339
0.916128814 0.303225756 0.182542652
0.953573167 0.301707596 0.188994214
0.993295014 0.301454991 0.202530324
0.013030007 0.261227101 0.084376991
0.027703978 0.265654385 0.074762613
0.060847782 0.271726519 0.078684486
0.090449005 0.274004132 0.083997712
0.113598846 0.274004132 0.086654447
0.143453240 0.271726519 0.087919287
0.174193323 0.271600008 0.089563996
0.205945417 0.272991687 0.091208279
0.229474902 0.275268972 0.088172093
0.261986464 0.277419209 0.087286703
0.292852879 0.281720430 0.090196155
0.323845685 0.285388708 0.091587737
0.351928979 0.286527336 0.095761992
0.383555025 0.289057672 0.097027019
0.413914979 0.289310277 0.103352405
0.445034683 0.293990791 0.110056996
0.479949653 0.295508981 0.116128989
0.513472557 0.298418850 0.121568568
0.546869040 0.301454753 0.124604970
0.581910133 0.306135356 0.128779292
0.613662243 0.307273984 0.133206993
0.649083138 0.307273984 0.138266861
0.683491528 0.309803694 0.143706307
0.712334096 0.312839687 0.148260906
0.748260558 0.313472241 0.157495424
0.781657279 0.315116972 0.165211707
0.815053821 0.317899764 0.171789780
0.846552849 0.317141145 0.177103147
0.883238494 0.318785697 0.182795689
0.920809507 0.319797456 0.187222973
0.953320324 0.321947694 0.192409605
0.992789030 0.319670975 0.202277288
0.003162904 0.295383006 0.101834096
0.009993616 0.296900809 0.086653709
0.034535132 0.301328093 0.085768551
0.072991900 0.305123240 0.088551901
0.098418549 0.302087516 0.089310899
0.131815016 0.304364175 0.092726059
0.162681550 0.306388080 0.093485221
0.194560304 0.306388080 0.097280286
0.224921092 0.306388080 0.099557005
0.255281895 0.306388080 0.096521385
0.287792891 0.308538854 0.097786225
0.321189255 0.311574906 0.099556997
0.352688074 0.315369725 0.101833999
0.377482891 0.317900121 0.107653029
0.407842964 0.314863890 0.110689417
0.438962489 0.319038302 0.115370087
0.470841259 0.321315199 0.120682992
0.507906437 0.322580189 0.126122564
0.541555941 0.325743079 0.129158959
0.576976717 0.330803216 0.133712634
0.610373378 0.333080202 0.137507826
0.641493082 0.333080202 0.140543953
0.680961490 0.333080202 0.143706083
0.710815907 0.337887198 0.149778724
0.744971395 0.339405179 0.158886895
0.782415986 0.339405179 0.168248087
0.816318989 0.340417176 0.174826026
0.849968314 0.343706518 0.183934346
0.886021495 0.342568099 0.191144988
0.920936286 0.342314899 0.193927765
0.958634019 0.341682285 0.198481604
0.988994062 0.341682285 0.201517999
0.000126516 0.331815004 0.117014483
0.000126517 0.328779399 0.101834103
0.011258769 0.330297232 0.099557266
0.040101174 0.333459675 0.100189850
0.083238147 0.335483968 0.098418534
0.116635308 0.332447588 0.104490519
0.147501484 0.337254524 0.100316010
0.181150913 0.339784503 0.101201519
0.215812713 0.339784503 0.105629005
0.246173516 0.339784503 0.105629005
0.276534230 0.339784503 0.102593400
0.309045255 0.341935307 0.103858225
0.341302991 0.346109986 0.107906006
0.371410102 0.351296544 0.113725036
0.401770830 0.348260939 0.116761424
0.434534788 0.352435470 0.119797811
0.466286898 0.353953272 0.122960292
0.498798013 0.352940977 0.126122579
0.538266540 0.359012961 0.129158974
0.571916640 0.362175882 0.137760654
0.605439723 0.363440990 0.144718468
0.637697816 0.363440990 0.149652347
0.668817461 0.363440990 0.152814478
0.708285928 0.363440990 0.158886507
0.740417540 0.363694012 0.164958507
0.773940802 0.363694012 0.171283856
0.810247004 0.364706010 0.177862421
0.846678972 0.370777965 0.186970025
0.882985115 0.366097540 0.196078345
0.915875912 0.365591288 0.197975785
0.950031698 0.369259745 0.198734611
0.992030442 0.375079453 0.207589999
0.000000000 0.362428725 0.114737131
0.002909870 0.365212113 0.117014483
0.000759097 0.364326745 0.110436097
0.018975291 0.365338624 0.113219447
0.059076220 0.366350740 0.114737645
0.110183060 0.365844697 0.110688999
0.141049892 0.362808287 0.114231318
0.174699396 0.366097450 0.114231579
0.209614187 0.367362618 0.116761647
0.239974976 0.367362618 0.114610866
0.270334989 0.367362618 0.114610866
0.302720010 0.369386345 0.117646992
0.337254971 0.370145500 0.119291514
0.370904118 0.370904773 0.120303713
0.398608685 0.375838280 0.128652409
0.431372672 0.377609074 0.129284993
0.469323248 0.381657183 0.134851322
0.505249858 0.382036746 0.140670434
0.537887037 0.383554727 0.143706828
0.571790099 0.386843383 0.146742508
0.605186701 0.387982011 0.153699875
0.638583124 0.387982011 0.158760265
0.670967579 0.387982011 0.162049383
0.704870045 0.387982011 0.170904741
0.737507701 0.387982011 0.174699441
0.769259810 0.389373660 0.180138856
0.805186391 0.390891880 0.184693187
0.846425951 0.392156869 0.184187412
0.880202472 0.392915875 0.195951849
0.916381717 0.390891880 0.207083955
0.951675951 0.390132755 0.211511478
0.992156982 0.388108999 0.216571867
0.002024256 0.390765250 0.117773511
0.005060127 0.391777396 0.116761386
0.001771226 0.394687265 0.119544737
0.002529999 0.394687265 0.119038351
0.032510944 0.394687265 0.123972282
0.090449139 0.394687265 0.122833639
0.126881644 0.396204919 0.122327574
0.167109400 0.394813240 0.127008244
0.203542203 0.395952076 0.128146991
0.233902991 0.394687265 0.123845771
0.272359520 0.396710992 0.127767250
0.298671484 0.398735255 0.129790992
0.330929995 0.401770860 0.134724632
0.365591317 0.400252968 0.133206993
0.398229212 0.399241000 0.133459836
0.432384521 0.404933453 0.141429514
0.465781301 0.407969445 0.144465506
0.504870534 0.409740657 0.151170254
0.536622345 0.408348978 0.152814955
0.569765866 0.411132157 0.153826907
0.605060220 0.412270516 0.160657510
0.638583124 0.413282633 0.166856259
0.672106028 0.414168239 0.170651749
0.707400203 0.412270516 0.172169641
0.740543544 0.414294749 0.178747699
0.772296011 0.415686071 0.185957983
0.806198537 0.418216258 0.193801075
0.845666826 0.418216258 0.196837455
0.880202472 0.420240492 0.198987961
0.917141080 0.416698515 0.205819219
0.952940822 0.417077899 0.217204243
0.990132749 0.414421231 0.223655999
0.002783356 0.421505272 0.128399998
0.004680615 0.420366645 0.126502246
0.003542000 0.422517389 0.126628771
0.000253002 0.424288630 0.126249477
0.010499546 0.424288630 0.128905639
0.065907806 0.424288630 0.131182939
0.110689670 0.426818609 0.135104641
0.153447390 0.427071273 0.133839354
0.198229089 0.427830368 0.139152452
0.228969350 0.425553769 0.134219006
0.269829452 0.424920768 0.138646632
0.302466989 0.426818281 0.141556025
0.330170631 0.429854631 0.143453285
0.360531420 0.432637274 0.145983607
0.395193160 0.428336263 0.140797004
0.430486947 0.430739939 0.146742806
0.465401560 0.435293823 0.152055994
0.499430954 0.438330233 0.157495424
0.533333361 0.436305940 0.158001363
0.566730022 0.438835979 0.160278350
0.604301095 0.438836277 0.164832532
0.638709605 0.438836277 0.171916142
0.671979487 0.441493124 0.177735865
0.707400203 0.438456744 0.176723734
0.741555929 0.439974934 0.179380000
0.778367996 0.443010956 0.187096626
0.811765075 0.445034713 0.197722703
0.847564578 0.444402277 0.205566093
0.882479489 0.448197454 0.211258650
0.918279707 0.447059005 0.213029563
0.953320563 0.442757994 0.216065958
0.985957980 0.445540637 0.227450997
0.000000000 0.457685024 0.145857036
0.000000000 0.454648703 0.145603999
0.000000000 0.455660850 0.145603999
0.000505999 0.457432061 0.143833041
0.002656514 0.457432061 0.138266996
0.042124901 0.457432061 0.138266996
0.093231924 0.459962338 0.144592285
0.144592047 0.459962338 0.147248656
0.191904053 0.457685083 0.142441094
0.225300476 0.460721493 0.145477489
0.264009893 0.455534339 0.148766831
0.297912478 0.453763098 0.149526000
0.329664648 0.454648703 0.149272963
0.363567084 0.457685024 0.150284961
0.393927842 0.457685024 0.147248581
0.426438779 0.459835827 0.152814806
0.460088521 0.462618828 0.157621965
0.493864954 0.465654612 0.158001423
0.530297041 0.468690991 0.161037058
0.564453065 0.471473694 0.166856065
0.602530420 0.470967770 0.172675431
0.641240001 0.468690991 0.177988857
0.671726525 0.468817502 0.180897996
0.705122948 0.466034174 0.183807865
0.739025772 0.467299312 0.187096700
0.775838315 0.470335364 0.192915663
0.816825092 0.472359091 0.201012060
0.850221455 0.469323456 0.204048455
0.886780620 0.474004000 0.214800939
0.922201276 0.475268871 0.221631795
0.956862986 0.472865045 0.224667639
0.981150985 0.472865045 0.227704033
0.000000000 0.491081387 0.154965416
0.000000000 0.488045782 0.151929021
0.000000000 0.487160236 0.151675999
0.002529999 0.487792820 0.152941167
0.007336993 0.487792820 0.153320864
0.014800537 0.487792820 0.150410995
0.079569563 0.490322500 0.145350993
0.134091973 0.491713971 0.153953284
0.180265352 0.489563376 0.158633739
0.216192082 0.485009462 0.151549488
0.249589175 0.485135972 0.157494992
0.286274433 0.485895067 0.156862840
0.321441889 0.487160236 0.154459357
0.357495129 0.488045782 0.153320581
0.396964222 0.491081387 0.165464565
0.427324384 0.491081387 0.162428796
0.461353362 0.491713971 0.164958805
0.496521086 0.492978990 0.166729569
0.530297041 0.496015370 0.167109042
0.569513083 0.496268392 0.172928706
0.602024019 0.496900797 0.177103087
0.635926545 0.495256275 0.181783572
0.668690860 0.493105501 0.186969995
0.702087283 0.496141881 0.186969995
0.740037620 0.495635808 0.192156583
0.775458574 0.497659713 0.198987663
0.810753047 0.499683470 0.207084060
0.844149411 0.496647835 0.210120454
0.885515630 0.498924553 0.218469143
0.916128933 0.502593219 0.224667788
0.949145913 0.502593219 0.227704018
0.990259409 0.500189424 0.230740413
0.000000000 0.519670784 0.159266204
0.000000000 0.516635180 0.158633605
0.000000000 0.517899990 0.162048995
0.000000000 0.518152952 0.163820162
0.003415553 0.517393947 0.166097447
0.007463812 0.513345957 0.163061053
0.061859772 0.518279493 0.174319774
0.123466201 0.521315515 0.164958775
0.171283901 0.521315515 0.169512987
0.209361002 0.516887784 0.165338308
0.250094801 0.516634762 0.168374613
0.285515696 0.514611006 0.168374345
0.320809454 0.518026769 0.167615637
0.355471075 0.520556748 0.167109564
0.388488412 0.521442175 0.168500796
0.427956969 0.519670784 0.173434600
0.459835559 0.516634822 0.171916798
0.495382756 0.516761363 0.172802031
0.530550003 0.523339748 0.171030819
0.567109287 0.523592770 0.179000705
0.602782905 0.525490046 0.185072988
0.634661376 0.527008116 0.187602803
0.668184936 0.526755095 0.190891802
0.703858078 0.525236905 0.195445806
0.739531755 0.525995970 0.199999809
0.776090980 0.527387619 0.206071794
0.809993982 0.529917598 0.213661999
0.845287621 0.528779209 0.218595639
0.879443645 0.528652728 0.219734147
0.918405890 0.529917598 0.230613410
0.950537145 0.528779209 0.237318173
0.994560182 0.522706807 0.243390173
0.001518192 0.550031543 0.171410188
0.000000000 0.546995521 0.168374196
0.001518192 0.545224369 0.171157390
0.001518192 0.546995163 0.175964221
0.001138644 0.547374725 0.178241536
0.001897743 0.544718385 0.175205439
0.050980575 0.547248542 0.178241327
0.112840392 0.548639894 0.186211199
0.165971190 0.550158083 0.178621188
0.207716703 0.547121704 0.180139184
0.245540738 0.546995163 0.176976666
0.283997506 0.549525619 0.180518731
0.321568638 0.546489716 0.177482635
0.355471075 0.550917149 0.179506987
0.385831803 0.550917149 0.177735776
0.417330772 0.551549733 0.179506615
0.461353362 0.550031543 0.179506987
0.494117916 0.545224547 0.180771977
0.528779209 0.551676333 0.180392236
0.563693702 0.550917149 0.182416156
0.602782905 0.554332614 0.189626798
0.637191474 0.556356370 0.195699066
0.670967996 0.558633685 0.196837679
0.704616964 0.555597663 0.201517999
0.739531755 0.553320408 0.206072196
0.774572849 0.556103408 0.210752502
0.808981836 0.558254242 0.217710122
0.846425951 0.557242393 0.225806370
0.880202472 0.558760166 0.226565376
0.913852096 0.557242393 0.229095221
0.953826368 0.557242393 0.239468798
0.997596204 0.550031543 0.247943997
0.003289424 0.582163513 0.188867584
0.002150603 0.579127133 0.184060574
0.001518198 0.577355921 0.183807760
0.003289425 0.576849699 0.185578838
0.003289425 0.576090693 0.188614547
0.000506066 0.578368068 0.186084926
0.039848089 0.580771863 0.183681250
0.102846228 0.579886377 0.183301702
0.160531625 0.578747630 0.185831994
0.209108427 0.575711250 0.191903993
0.241239890 0.576217115 0.185325697
0.280455500 0.578368068 0.185704976
0.315496653 0.581024885 0.188994050
0.354712069 0.578747511 0.186717466
0.385831803 0.579506516 0.187476560
0.416318774 0.580645323 0.188614771
0.451739371 0.582163513 0.189879760
0.496521115 0.582163513 0.186843976
0.526881993 0.582163513 0.192915991
0.561290383 0.580645144 0.191903785
0.598481894 0.581404150 0.193927571
0.638330281 0.586084545 0.198734686
0.674762964 0.586084545 0.204680935
0.706134975 0.583554804 0.207716689
0.738772810 0.581783831 0.211385280
0.772802234 0.581024528 0.214421302
0.807716727 0.585578620 0.217963114
0.847311556 0.582542956 0.229854882
0.881467462 0.584819674 0.233270407
0.914864123 0.584946156 0.233776346
0.949525595 0.582795918 0.238962561
0.998102427 0.582795918 0.245034575
0.000253035 0.609488070 0.191903979
0.006325026 0.606451631 0.191903979
0.003035998 0.607716799 0.191397980
0.000253034 0.611511946 0.190385863
0.000253039 0.615559936 0.188614577
0.000253039 0.609487951 0.191650957
0.022770312 0.609235048 0.191651016
0.083617821 0.606199086 0.191397980
0.157495216 0.603416026 0.191651031
0.206072032 0.609108508 0.191904008
0.231372789 0.611891091 0.192157015
0.276660502 0.610626280 0.193421721
0.319544613 0.608349442 0.195572019
0.348640054 0.606072009 0.195825100
0.385072798 0.612144053 0.201897860
0.423402756 0.610499799 0.200253174
0.460341364 0.609488070 0.200759172
0.496521115 0.609488070 0.202024415
0.526881993 0.609488070 0.198988020
0.565591395 0.612270713 0.202277377
0.600758731 0.611005783 0.204807222
0.634914398 0.610752881 0.207083985
0.668690920 0.613409042 0.207716569
0.705122948 0.613409042 0.210752964
0.738772810 0.615433335 0.216065958
0.773561299 0.615180314 0.220493317
0.810753107 0.612903118 0.224035129
0.853257835 0.609867513 0.230107889
0.887539744 0.612144232 0.239342138
0.920936167 0.613409042 0.240607277
0.954332590 0.613156080 0.242504954
0.988994002 0.613156080 0.254142970
0.002783357 0.636812389 0.200506359
0.000505998 0.644908726 0.197723001
0.002276996 0.644023120 0.197723001
0.002529999 0.642631412 0.201518178
0.005566004 0.641872048 0.204933733
0.005566004 0.640606999 0.205566317
0.013156326 0.639595032 0.206072375
0.068564080 0.639595032 0.207716659
0.144085914 0.637318015 0.206578106
0.194686979 0.639342010 0.200506359
0.239468381 0.639721513 0.206072375
0.271853149 0.640733361 0.204048112
0.315116912 0.640733659 0.203289002
0.347881019 0.640986681 0.201391682
0.381783426 0.639468372 0.199873477
0.420620024 0.640733361 0.208349451
0.458570719 0.639595032 0.208349362
0.495003313 0.639595032 0.209488004
0.529664636 0.639595032 0.208602399
0.565591395 0.639595032 0.208349377
0.601264715 0.642631114 0.213283002
0.635673285 0.642378390 0.217204228
0.670714617 0.643643260 0.218848526
0.701834321 0.646300137 0.216571912
0.738266885 0.644022822 0.219607711
0.773561299 0.644655347 0.223782316
0.810500085 0.643516719 0.227324352
0.850727499 0.642757833 0.233396530
0.887919247 0.642378390 0.239468634
0.921442151 0.641745508 0.246678978
0.956609547 0.642504573 0.248450249
0.993800998 0.646300137 0.254902005
0.003922000 0.666034460 0.207717001
0.002783353 0.671347380 0.212270588
0.000000000 0.672106743 0.205692738
0.000000000 0.672106743 0.208222732
0.004427552 0.668437660 0.216698557
0.005945744 0.669955432 0.221252739
0.007843329 0.668058217 0.207970008
0.061353799 0.669702470 0.216192290
0.138013825 0.669196546 0.217962995
0.191903740 0.668058217 0.209993735
0.233902603 0.671853185 0.213535994
0.275268495 0.671853185 0.217330724
0.311701268 0.671853185 0.215432987
0.348387033 0.673624456 0.213409245
0.385072380 0.670588017 0.212017566
0.419481397 0.671853185 0.212903053
0.457432359 0.673370957 0.215939447
0.493864954 0.673118055 0.216192424
0.530297041 0.671853185 0.217457250
0.564832449 0.669955432 0.217457250
0.601264715 0.671853244 0.221252725
0.633649290 0.673877478 0.224288598
0.668437481 0.673877478 0.225553244
0.704111040 0.675142646 0.226059631
0.737128556 0.673624456 0.223782435
