Assets/EldamarStudio/100 Retro LUTs Pack/LUTs/cube/Mary LUT.cube
LUT_3D_SIZE 5
DOMAIN_MIN 0.000000 0.000000 0.000000
DOMAIN_MAX 0.903226 0.903226 0.903226
0.000000000 0.000000000 0.105881996
0.200758979 0.050980002 0.114358000
0.417203963 0.069322996 0.117647000
0.634661376 0.143200263 0.123592995
0.861859620 0.221125811 0.147754833
0.066413701 0.210246697 0.117014416
0.204680413 0.210879117 0.110436000
0.414294660 0.231498986 0.124225408
0.630360305 0.265148520 0.134977713
0.857937932 0.313598812 0.154964998
0.180518821 0.417203963 0.110436417
0.263883680 0.417583704 0.116381995
0.424415231 0.421125829 0.113724999
0.627450943 0.446299523 0.122580871
0.857937932 0.486527801 0.154332832
0.295256138 0.637697279 0.117773250
0.348260701 0.640860379 0.124604866
0.488551408 0.643769741 0.130803406
0.660088420 0.649335980 0.137381256
0.862871528 0.678178251 0.190385818
0.462997973 0.873750746 0.269575775
0.497533053 0.876913607 0.272106469
0.597722769 0.879570007 0.284250587
0.744592071 0.882479489 0.307020605
0.899809778 0.893358767 0.335230589
0.073876999 0.047059000 0.188614696
0.210246682 0.069322996 0.175205410
0.400885373 0.126881823 0.190259412
0.607463658 0.203668281 0.206577986
0.842630863 0.273371547 0.234787971
0.125236705 0.204680413 0.175837994
0.235420391 0.223655969 0.183048978
0.397596389 0.246552810 0.189626992
0.602909625 0.283491701 0.206957266
0.846552730 0.341049820 0.240227878
0.223655984 0.406071961 0.187982276
0.287413090 0.408349097 0.181404293
0.426059514 0.415559679 0.187349692
0.624921143 0.444402546 0.206957534
0.852751434 0.494750112 0.242378518
0.333839118 0.633396387 0.209613964
0.379253834 0.635040820 0.209740698
0.500948787 0.637950540 0.220113859
0.657558560 0.641872525 0.225679979
0.861227036 0.682099938 0.275648236
0.487666070 0.869196653 0.339278638
0.520050585 0.875268936 0.346236587
0.611890912 0.875015616 0.354712337
0.746869028 0.883111894 0.374952465
0.899177611 0.886780679 0.407210439
0.170018986 0.092220411 0.328272969
0.276281089 0.114484400 0.320430398
0.432258189 0.156988993 0.319164962
0.616698265 0.218089700 0.322833538
0.837697327 0.303478807 0.366223812
0.228589684 0.255028397 0.306388080
0.295888662 0.255028397 0.303099096
0.423403084 0.268437684 0.301454425
0.610119998 0.307021141 0.326248944
0.836432636 0.376723826 0.376091212
0.280582219 0.409360975 0.305376381
0.333839506 0.417204380 0.309677094
0.472105950 0.452498823 0.335483402
0.626438975 0.463630795 0.346615791
0.835041165 0.519924164 0.400379628
0.381277382 0.624162138 0.354206115
0.421125829 0.629095614 0.360151947
0.524477959 0.633649290 0.369892120
0.661732852 0.641872525 0.377988368
0.853763342 0.688931108 0.431119621
0.516634941 0.873750627 0.464389652
0.550031602 0.865907729 0.471600384
0.631119192 0.871094584 0.484123766
0.752308547 0.877925456 0.497533053
0.903099179 0.884123743 0.519544601
0.268691003 0.180518985 0.547501266
0.339405388 0.190639123 0.540544093
0.485515684 0.220746532 0.534725130
0.658191144 0.255028278 0.523972273
0.850094616 0.320176959 0.554964960
0.304364145 0.311575115 0.529411972
0.365844280 0.310942680 0.524478316
0.494623691 0.322707117 0.526881576
0.655534565 0.341429412 0.524224937
0.848450482 0.391777217 0.550284684
0.356356561 0.467551976 0.526248991
0.403794855 0.474762827 0.521062553
0.517267823 0.481340796 0.524224937
0.654648840 0.490196109 0.521062553
0.841239512 0.532953799 0.566729665
0.407969981 0.632764101 0.516255260
0.448197275 0.634661376 0.532953978
0.544339120 0.645414293 0.537634194
0.703226149 0.678810954 0.577862144
0.861226797 0.701960981 0.607969820
0.527640760 0.870335221 0.635800064
0.559139788 0.867045820 0.635547221
0.637950659 0.866793036 0.639848173
0.757621944 0.875015616 0.653510213
0.896900654 0.885135889 0.673497915
0.341429651 0.295761943 0.832004726
0.405439645 0.304870129 0.819860816
0.534218371 0.323845357 0.824161589
0.714358091 0.358127534 0.817330897
0.884123802 0.400379807 0.820366561
0.386211514 0.396078348 0.820493460
0.434534937 0.401011825 0.816951454
0.557748318 0.411764681 0.818216205
0.714104831 0.435041070 0.819607615
0.883744717 0.464516342 0.817583561
0.463883340 0.563820601 0.812270582
0.498671532 0.564453006 0.811638176
0.593801677 0.569639206 0.813030005
0.730423629 0.577482224 0.819228292
0.883491158 0.591271639 0.815053582
0.507147074 0.715622962 0.822517514
0.534218848 0.721062541 0.821125746
0.620619595 0.722327948 0.818595886
0.744844794 0.727514088 0.821631730
0.889057636 0.733080089 0.823529541
0.554585636 0.884250581 0.841113567
0.579759479 0.883870721 0.838836372
0.652624786 0.882858574 0.843896270
0.763061404 0.888045788 0.840480745
0.906261802 0.903731763 0.866034269
