Assets/EldamarStudio/100 Retro LUTs Pack/LUTs/cube/Mary LUT.cube
DOMAIN_MIN 0 0 0
DOMAIN_MAX 1 1 1
LUT_3D_SIZE 32
0.000000000 0.000000000 0.105881996
0.003036387 0.003036387 0.105881996
0.027577773 0.010373225 0.108032770
0.062239319 0.018215999 0.109803997
0.098292544 0.025047095 0.110942543
0.131688923 0.037191868 0.120050937
0.167615637 0.046805676 0.119038679
0.200758979 0.050980002 0.114358000
0.231119186 0.051739097 0.111321993
0.261480004 0.054775488 0.117394000
0.297659725 0.057811871 0.120556869
0.330044508 0.058823999 0.119544744
0.359266639 0.059962351 0.117647000
0.386844009 0.063250996 0.117647000
0.417203963 0.069322996 0.117647000
0.447564602 0.077798799 0.117647000
0.479443192 0.088424996 0.120682992
0.511574566 0.100568987 0.125489995
0.538899064 0.112713009 0.125490010
0.566224098 0.119291715 0.131056011
0.599240959 0.131056249 0.127640739
0.634661376 0.143200263 0.123592995
0.667931974 0.149399474 0.129538476
0.698292017 0.158507109 0.132574096
0.728652537 0.172169283 0.135610282
0.760404646 0.184566662 0.137254998
0.794307113 0.194180995 0.138266996
0.830739856 0.206324995 0.144338995
0.861859620 0.221125811 0.147754833
0.893991113 0.234534964 0.156103969
0.927387595 0.246679202 0.165591389
0.960784018 0.258823991 0.168626994
0.003036387 0.024288775 0.102846384
0.003036387 0.036432773 0.121062383
0.027577773 0.041619383 0.110309608
0.066034153 0.047311932 0.106767610
0.107020706 0.051233612 0.108285703
0.137760922 0.055407867 0.120050937
0.171157315 0.062491998 0.119038679
0.202150315 0.067805097 0.117647000
0.231119186 0.069955677 0.115875997
0.261480004 0.072991490 0.117394000
0.294749856 0.076027870 0.117647000
0.327008098 0.077040002 0.118532613
0.358507246 0.078178644 0.117647000
0.390132695 0.081214741 0.117900029
0.423276752 0.084503382 0.120683387
0.448829770 0.092979185 0.120683387
0.479443192 0.102087192 0.120683387
0.511574566 0.112080574 0.123086810
0.538899064 0.121821411 0.125490010
0.577356100 0.139532104 0.131056011
0.605692744 0.142821386 0.131435737
0.635673523 0.150284648 0.126628861
0.664895594 0.158633634 0.126628593
0.695256352 0.170651868 0.132574096
0.730170906 0.182036757 0.135610282
0.763441026 0.193675056 0.140037984
0.795825422 0.203289390 0.143833056
0.824667871 0.215433374 0.147375390
0.858443797 0.224921212 0.153447390
0.889183939 0.237571359 0.158633977
0.921315610 0.251486361 0.166476995
0.954712033 0.267931610 0.171663389
0.003922000 0.055028774 0.108412229
0.008223000 0.062871777 0.105123222
0.038330544 0.064263001 0.119038224
0.067931771 0.070335321 0.112713322
0.105376095 0.073877767 0.113725454
0.135736868 0.075142607 0.115243323
0.166477084 0.080708548 0.121189453
0.199873462 0.085135840 0.118153065
0.229727864 0.088172093 0.117647000
0.261480004 0.091208071 0.117647000
0.292599618 0.096394643 0.119797774
0.323971748 0.097406775 0.117773518
0.355471134 0.099683776 0.118785642
0.388867795 0.103732027 0.119797774
0.422264457 0.106768124 0.120936416
0.452751756 0.114610791 0.121569000
0.478557974 0.119164996 0.123086803
0.510689318 0.126375347 0.123719223
0.541049838 0.135483757 0.125237033
0.573055089 0.146489725 0.128905788
0.606831014 0.157115996 0.131182775
0.635420501 0.160658136 0.129411995
0.664263010 0.169892535 0.128020242
0.698671818 0.182036817 0.136115998
0.731435776 0.192030758 0.135610282
0.765085518 0.202783078 0.140037984
0.797723055 0.211891294 0.145604059
0.828336418 0.222390980 0.148640454
0.858823538 0.236179829 0.147881225
0.890448689 0.250600934 0.159266412
0.920809388 0.262618601 0.166476995
0.952941000 0.277039796 0.172548994
0.006452000 0.090955153 0.114990160
0.015053999 0.094497159 0.106640995
0.044402547 0.091587387 0.107906163
0.081846990 0.091081321 0.108664997
0.105376087 0.096774541 0.115876220
0.132194862 0.097660154 0.116002291
0.166350469 0.102720156 0.114990480
0.197090685 0.107147448 0.119924292
0.228969082 0.110942155 0.118406095
0.261353493 0.114484489 0.118912160
0.290575564 0.116635151 0.120556869
0.322200984 0.119923994 0.122074746
0.353699923 0.122201279 0.117900006
0.386844009 0.127767324 0.120303839
0.419228226 0.129791573 0.120303839
0.450221419 0.135104343 0.122833841
0.480329186 0.142188162 0.121821962
0.508285940 0.144085735 0.126122564
0.541049838 0.153194144 0.128019989
0.572928727 0.162302524 0.128273353
0.602024138 0.168247998 0.129411995
0.632384419 0.175332129 0.130423859
0.662998140 0.184566975 0.130803347
0.699430645 0.196711004 0.137634262
0.731056154 0.205313116 0.140164137
0.764326334 0.214421466 0.140037984
0.795193076 0.223529220 0.144086003
0.828589439 0.232637599 0.144845292
0.860594451 0.245793805 0.148893163
0.894750237 0.258950114 0.153953180
0.925110340 0.275395155 0.168247983
0.955470979 0.284883022 0.175078988
0.012523999 0.128905535 0.117267452
0.026185997 0.128905535 0.114610612
0.053636998 0.123212866 0.116255321
0.086780548 0.118405707 0.113598928
0.117520086 0.121062547 0.099556997
0.135736868 0.124098934 0.114737384
0.170524865 0.129285544 0.113725543
0.204680398 0.133712828 0.113472544
0.233902633 0.137128085 0.118026547
0.261227071 0.143200085 0.121062934
0.289310426 0.141302869 0.121569000
0.320682764 0.142694384 0.122454189
0.353320360 0.146489277 0.122833453
0.386211485 0.152309030 0.117773518
0.416444957 0.152435541 0.118026547
0.447944134 0.154838741 0.121694997
0.477925390 0.159013093 0.124351643
0.508285940 0.165338129 0.122707412
0.538646102 0.174446523 0.131815046
0.571031094 0.183934346 0.130929813
0.601391733 0.189247355 0.129791453
0.630107701 0.194307223 0.130423859
0.660594940 0.203415573 0.133585989
0.696774006 0.215306550 0.136875361
0.726375282 0.222896546 0.139531702
0.756862402 0.229980752 0.142188132
0.789880037 0.238709614 0.144465461
0.823276401 0.247817993 0.138393462
0.856672764 0.259582520 0.147880971
0.893231988 0.270335168 0.157874659
0.930044532 0.280328959 0.167868525
0.960404575 0.292472988 0.180012539
0.018595999 0.156229943 0.114231065
0.042884000 0.156229943 0.114231065
0.062997773 0.154079705 0.118026547
0.088045381 0.150031641 0.121062934
0.114484482 0.148386940 0.117773771
0.147880882 0.148386925 0.111700997
0.176217645 0.151423320 0.119291708
0.206451640 0.154965222 0.120050937
0.233523190 0.158001035 0.120303839
0.258191437 0.161416873 0.118026547
0.291334778 0.164579004 0.121062934
0.323719174 0.168627501 0.117520489
0.354838550 0.173055157 0.115243062
0.383175105 0.176597029 0.114737131
0.410499483 0.179633409 0.120809898
0.447944403 0.182163134 0.118659131
0.479823112 0.185199127 0.121694990
0.508285940 0.189373851 0.124984063
0.538646102 0.195698917 0.125743046
0.566224098 0.207589939 0.132068008
0.598355711 0.213535726 0.132827058
0.630740106 0.218595982 0.132827058
0.663630545 0.227704346 0.133585989
0.697027028 0.236811966 0.139658004
0.726375282 0.244148925 0.140670061
0.757874310 0.250221252 0.141176000
0.792789221 0.256799847 0.141682059
0.823276401 0.262998402 0.141429067
0.856672764 0.274762928 0.148639888
0.891840339 0.286906898 0.156482980
0.927008212 0.298544973 0.164832264
0.957368910 0.310689002 0.176976934
0.042378314 0.181024641 0.113724999
0.054016646 0.181024641 0.111195318
0.078304641 0.183174863 0.113345549
0.099936478 0.180898160 0.117773518
0.123339541 0.178621098 0.119418226
0.152434930 0.180771321 0.119797774
0.175711319 0.180771321 0.113724999
0.204427376 0.183807716 0.116508357
0.232510865 0.186843738 0.118026547
0.260341674 0.189880133 0.120303832
0.290828884 0.192915782 0.115496226
0.318152964 0.193927646 0.118532613
0.350031585 0.197849646 0.116255321
0.380645365 0.200885609 0.116508350
0.412523717 0.203921407 0.120303832
0.447058916 0.209360987 0.123972185
0.481846988 0.214041695 0.124225184
0.509550810 0.218090057 0.126122758
0.536116421 0.222264320 0.120430015
0.568753779 0.226312652 0.128526330
0.599873364 0.236558884 0.132700577
0.634281933 0.241872251 0.135356992
0.668943524 0.249209791 0.138266519
0.697532892 0.253510416 0.137128323
0.728652537 0.262618601 0.140923023
0.759012997 0.270335287 0.143959343
0.793801188 0.277546316 0.146742582
0.826186180 0.283618301 0.148766324
0.856672764 0.292472988 0.154205829
0.891840339 0.304617405 0.161542982
0.925616562 0.316761613 0.167615205
0.954332650 0.328905642 0.176470995
0.066413701 0.210246697 0.117014416
0.073877372 0.205312982 0.113978386
0.090448990 0.209108338 0.115243644
0.109677315 0.209613949 0.113219254
0.130170703 0.207716703 0.115875997
0.156229943 0.212017462 0.122707218
0.178494319 0.210879117 0.116508357
0.204680413 0.210879117 0.110436000
0.232004806 0.214674398 0.111953996
0.261480004 0.218596190 0.118026547
0.291840732 0.218342826 0.117393963
0.319797665 0.220999405 0.115749255
0.346362978 0.223276407 0.117647000
0.379507005 0.227071702 0.118406028
0.414294660 0.231498986 0.124225408
0.445161611 0.232004687 0.120683193
0.478558004 0.239594892 0.123719193
0.508918166 0.245793968 0.128020406
0.535230994 0.249841735 0.124984026
0.567868412 0.252878040 0.127640635
0.597975731 0.258064657 0.132953972
0.630360305 0.265148520 0.134977713
0.665654480 0.270841688 0.139658198
0.699050903 0.278431475 0.139658183
0.730297267 0.282732278 0.139531702
0.762049377 0.291840643 0.143959343
0.794433773 0.300442994 0.148007870
0.825553536 0.306514978 0.147627845
0.857937932 0.313598812 0.154964998
0.891840339 0.322833389 0.154459000
0.926502168 0.334977955 0.163187608
0.954585731 0.347121984 0.171537295
0.083871007 0.240607098 0.122327901
0.091460995 0.233775795 0.118532613
0.102340095 0.235420540 0.118279576
0.121821322 0.238456920 0.117773838
0.135104552 0.235800087 0.110183448
0.159013093 0.241113096 0.121188901
0.181530505 0.239595413 0.117899679
0.206198394 0.238204092 0.111953996
0.236559182 0.238204092 0.108159088
0.263883621 0.244276091 0.114231095
0.293358743 0.243896320 0.117393963
0.320936173 0.243390262 0.116887905
0.350158274 0.246806100 0.117647000
0.380266011 0.252878100 0.117647000
0.415180057 0.258950084 0.125237316
0.445161402 0.260088384 0.122960292
0.474004000 0.262365282 0.119165190
0.504996538 0.270208687 0.122201420
0.535483897 0.276154190 0.131056041
0.567868412 0.280961365 0.134092093
0.598228812 0.284376979 0.132953644
0.626565397 0.290196240 0.135737002
0.657179058 0.293359101 0.135863483
0.696014941 0.304238111 0.138899103
0.730170786 0.309550822 0.141935095
0.762808621 0.315369755 0.143959343
0.796711087 0.323972106 0.149525940
0.824794471 0.330044091 0.144212201
0.855913877 0.337634087 0.152181819
0.893358350 0.343959272 0.153194115
0.926502168 0.353953063 0.149525598
0.956862986 0.366097093 0.164706007
0.089943014 0.261859506 0.125363514
0.102087006 0.261859506 0.119291522
0.107526787 0.265781015 0.115496218
0.121315658 0.269323051 0.112713180
0.147248566 0.269196510 0.110183448
0.168500945 0.269196510 0.113219067
0.192410126 0.266919851 0.114104524
0.216571957 0.265528530 0.113724999
0.242631182 0.265528530 0.114231095
0.272992015 0.265528500 0.117267475
0.300316364 0.271600515 0.120430343
0.325742990 0.271220744 0.117393963
0.353573442 0.270714670 0.114990160
0.386338025 0.274130523 0.117647000
0.413662404 0.280202508 0.117647000
0.443770081 0.286274523 0.120430328
0.474004000 0.291966975 0.121442482
0.504996538 0.297533095 0.122201420
0.538393021 0.300569475 0.125237048
0.568880260 0.309297621 0.134092361
0.599367440 0.312460005 0.131435752
0.629601717 0.314737290 0.126881644
0.660215437 0.320683509 0.129791483
0.696647465 0.326755524 0.132827103
0.728652537 0.330803216 0.140417293
0.759139836 0.336622149 0.146363169
0.790639102 0.345224500 0.149525940
0.827071846 0.351296514 0.152561545
0.855155230 0.362681478 0.163187459
0.893358588 0.369259715 0.166350231
0.932321191 0.375205487 0.164073497
0.956862986 0.387349486 0.164706022
0.107652999 0.291840732 0.116761133
0.116887867 0.294749856 0.116508126
0.126881644 0.294749856 0.106135130
0.137760878 0.298039049 0.105882168
0.159392551 0.298924744 0.110942543
0.180644929 0.293864757 0.119038805
0.199367642 0.296394438 0.111954421
0.222896993 0.295762002 0.112460159
0.247944087 0.296521097 0.114484094
0.276154101 0.298671871 0.117520474
0.297785997 0.295762002 0.111827999
0.329158872 0.299810261 0.116888136
0.356103718 0.299683750 0.115496226
0.383934200 0.301201880 0.114990160
0.413915396 0.307273865 0.117647000
0.441239774 0.313345879 0.122453995
0.472612321 0.317900062 0.122960322
0.504364133 0.322580725 0.121569000
0.535483897 0.327893853 0.122327916
0.568880320 0.330929518 0.125363529
0.599367440 0.337887347 0.128526121
0.630740106 0.340923488 0.126502126
0.663251162 0.345097989 0.129538476
0.699683845 0.351170003 0.132574096
0.729285121 0.357241988 0.133332998
0.761796296 0.362302244 0.139152110
0.795193136 0.369892657 0.144718334
0.826818824 0.378367871 0.152561545
0.855281770 0.384439856 0.155597836
0.887918890 0.396078289 0.163440853
0.924730957 0.402530134 0.168247983
0.951044023 0.408601880 0.176344007
0.123845249 0.324225247 0.111701258
0.132953644 0.323212862 0.111701258
0.140037760 0.324098259 0.113218993
0.149146155 0.325363427 0.102340162
0.165085271 0.328020245 0.105756000
0.184692934 0.325237244 0.109930687
0.209487379 0.324731171 0.116002418
0.229348436 0.326122493 0.110183448
0.252498090 0.326881588 0.112460159
0.277292520 0.329917997 0.115496218
0.302845865 0.327134609 0.113851741
0.330170482 0.326122522 0.111827739
0.361290365 0.329158902 0.116761386
0.386717021 0.330044508 0.115749255
0.415306538 0.332574487 0.117014416
0.449335754 0.340670258 0.116381742
0.475142360 0.343706250 0.120935932
0.505755782 0.346236587 0.119544744
0.534725010 0.350917280 0.119544744
0.563820422 0.356230140 0.120303646
0.597216725 0.359266251 0.123339742
0.628716111 0.366224140 0.124478124
0.662112772 0.371283770 0.127514243
0.696647823 0.375458479 0.130550355
0.730297267 0.383554757 0.137380987
0.761796296 0.389626771 0.138772666
0.796711028 0.395193189 0.143706322
0.825553596 0.401264817 0.149778709
0.859329760 0.409740508 0.153573573
0.888424873 0.417583704 0.158380717
0.922580183 0.427704245 0.167109326
0.951043725 0.431878507 0.180391997
0.141302645 0.356483281 0.110942349
0.148134038 0.353446871 0.110942349
0.158507273 0.353699923 0.111954227
0.168121442 0.352687806 0.114484161
0.177609280 0.355344623 0.106135450
0.194307268 0.355344623 0.105376355
0.215559602 0.354206264 0.108412325
0.240733340 0.354206264 0.113219060
0.262744844 0.355724245 0.112460539
0.284376800 0.359140128 0.115875803
0.310309500 0.356356770 0.116002284
0.336242497 0.355344623 0.114863642
0.363187641 0.357621640 0.113724999
0.390512019 0.360404998 0.116761386
0.417836398 0.360404998 0.117647000
0.450094610 0.366476834 0.117520481
0.482732385 0.371030629 0.115243189
0.507653534 0.372295767 0.118279576
0.534978032 0.375838250 0.118785642
0.564579368 0.380518645 0.118785642
0.594560325 0.385831743 0.119544737
0.627956748 0.388868123 0.122580871
0.661100864 0.397596270 0.125489995
0.692473292 0.401644528 0.127514258
0.725869656 0.409234911 0.133965701
0.760657668 0.416951627 0.140290678
0.796584547 0.423023641 0.144844994
0.825174034 0.426691830 0.149778813
0.858190954 0.435041100 0.152814806
0.893358529 0.443010837 0.158759981
0.921947837 0.453004599 0.167488605
0.951802671 0.459582627 0.182668999
0.162302062 0.386844009 0.113472030
0.165338397 0.384313643 0.113724999
0.175964773 0.384566754 0.113219000
0.191651151 0.385578901 0.114990160
0.206199035 0.383175015 0.117267452
0.218343034 0.383175015 0.114231065
0.233523354 0.381151378 0.111701317
0.252878010 0.379507005 0.111701317
0.277419180 0.380266011 0.114990160
0.301707983 0.386338025 0.121062942
0.325489998 0.383934200 0.121315971
0.347754270 0.382922053 0.119038746
0.369512677 0.385199070 0.116508357
0.391018093 0.390765071 0.113724999
0.418342471 0.390765071 0.116761386
0.447564602 0.395319104 0.119544737
0.477925390 0.398355097 0.119544812
0.507906497 0.399620146 0.117520548
0.535230994 0.405692935 0.120556943
0.567868412 0.408981651 0.121062934
0.599114418 0.413915008 0.121569000
0.630487144 0.418975145 0.122580871
0.663757026 0.422138005 0.125489995
0.691207886 0.428210020 0.125489995
0.723339319 0.436306268 0.130043998
0.758127332 0.444022983 0.135230675
0.793801188 0.450095057 0.138772994
0.827198267 0.456167042 0.150916994
0.857937932 0.464642853 0.155597836
0.891840339 0.471980006 0.162428781
0.924984157 0.480329007 0.173307627
0.949272990 0.492473006 0.188488036
0.180518821 0.417203963 0.110436417
0.183554441 0.420240372 0.113472030
0.186590761 0.413409024 0.109423995
0.199747160 0.411891162 0.110942163
0.218216538 0.413662255 0.117267452
0.227451414 0.416571379 0.114231065
0.247185722 0.419101715 0.116255321
0.263883680 0.417583704 0.116381995
0.283997059 0.415180057 0.117014416
0.310815543 0.413662404 0.118026555
0.329285324 0.413915396 0.118279584
0.350790679 0.413282812 0.114231586
0.374320060 0.415559828 0.112207353
0.400126457 0.421125829 0.113724999
0.424415231 0.421125829 0.113724999
0.449335814 0.423529625 0.114357583
0.477925390 0.425680220 0.113472365
0.508285940 0.426945210 0.111069001
0.538266659 0.433017313 0.111448564
0.568374336 0.436306030 0.114484236
0.597469747 0.441239387 0.118785650
0.627450943 0.446299523 0.122580871
0.660721421 0.449462384 0.125489995
0.691081405 0.455534399 0.125489995
0.725363553 0.461606383 0.130043998
0.761163712 0.468310952 0.137507662
0.796584547 0.474383086 0.143832996
0.827198267 0.480455786 0.144844994
0.857937932 0.486527801 0.154332832
0.891840339 0.493232369 0.163946956
0.925616562 0.502846360 0.176344007
0.952308595 0.519797385 0.191524416
0.196331799 0.447564602 0.117014796
0.199367419 0.440986395 0.112839609
0.204553798 0.448323786 0.113724999
0.215433151 0.444528610 0.113219313
0.235167533 0.444908261 0.118153259
0.244275913 0.439847857 0.107020877
0.253890306 0.447691113 0.113851517
0.270208985 0.450727493 0.111954197
0.286906809 0.449968398 0.111195296
0.312586516 0.448577076 0.112840004
0.335989743 0.446046799 0.112840004
0.356230259 0.446046799 0.112840004
0.378621280 0.444908440 0.110942349
0.404680818 0.446932554 0.113472030
0.431119800 0.449082792 0.111321807
0.457811773 0.453889787 0.116128802
0.482099801 0.453890175 0.116128802
0.509424329 0.453637183 0.113346003
0.536242902 0.457937956 0.109804004
0.571410537 0.466034234 0.114990450
0.601770818 0.469070315 0.116128802
0.630613267 0.474636376 0.121189192
0.662618697 0.479064077 0.125616506
0.695255995 0.482858777 0.127893806
0.730170548 0.488930792 0.130170509
0.762428641 0.495002776 0.136115983
0.795825303 0.500568867 0.144718319
0.829981029 0.504743874 0.152308807
0.860341728 0.510815978 0.153067827
0.894244134 0.518659174 0.167488948
0.924478173 0.527134776 0.179126978
0.945730209 0.542314827 0.189753190
0.211511806 0.479443192 0.118532613
0.213029608 0.471852988 0.118532613
0.216698200 0.474129975 0.107653007
0.229095355 0.474383175 0.110183008
0.248450205 0.474889189 0.115876168
0.256419927 0.473750442 0.107527062
0.270082504 0.472232521 0.109550677
0.285388976 0.478051901 0.113472000
0.299051166 0.480329186 0.109677091
0.321821392 0.480329186 0.112713479
0.343073726 0.478937507 0.112839997
0.368374228 0.479443192 0.111321799
0.388488263 0.479443192 0.111321799
0.411511987 0.476787031 0.113219000
0.435041189 0.477292955 0.108918227
0.462365597 0.479696393 0.111574993
0.492726386 0.484250188 0.117647000
0.517014384 0.481846988 0.117014423
0.541302979 0.483997226 0.111827806
0.570651710 0.489563555 0.112334006
0.604807198 0.496394724 0.120682992
0.634155333 0.500442982 0.120682992
0.664136469 0.506641507 0.125616506
0.697532892 0.512460470 0.128652900
0.731688738 0.519291580 0.133206889
0.762555122 0.522580564 0.136242509
0.793295085 0.528399587 0.143200129
0.833775878 0.532447815 0.155344889
0.860341430 0.535104394 0.161416799
0.894244134 0.544465363 0.167488948
0.930676997 0.551802754 0.186590582
0.950284362 0.562049389 0.195825189
0.225426570 0.512839735 0.113724999
0.229221702 0.506135106 0.119797774
0.232637301 0.508032560 0.111195430
0.239468724 0.509044528 0.101833992
0.259203106 0.498798072 0.107146986
0.265528142 0.510183156 0.109930344
0.281088054 0.507147133 0.112333678
0.299051434 0.506008685 0.112460010
0.320176750 0.508918524 0.113219105
0.338393539 0.508918524 0.116255492
0.356609553 0.508918524 0.116382010
0.380265385 0.510309875 0.115622744
0.405439258 0.512839735 0.114357576
0.423909009 0.512839735 0.114610605
0.442504525 0.510183513 0.109677143
0.467298925 0.508918524 0.110183366
0.495761961 0.510436535 0.112839997
0.527261555 0.512839735 0.117014423
0.551549673 0.512839735 0.113978021
0.576470733 0.515622914 0.112207338
0.606451690 0.519924164 0.116128996
0.637824118 0.525363564 0.126122564
0.665274978 0.531435549 0.126122564
0.698165476 0.540037870 0.128652900
0.730297267 0.548513830 0.133333430
0.762049496 0.555344939 0.141808882
0.787349701 0.554839015 0.145350561
0.835167468 0.560531557 0.157242298
0.861100376 0.563820541 0.166729718
0.891207755 0.569007099 0.175837770
0.927008212 0.581024528 0.186590582
0.963441014 0.584060907 0.207843006
0.234534994 0.546236932 0.113724999
0.252751738 0.537128568 0.119797766
0.262998134 0.536875248 0.117267445
0.269070148 0.538899064 0.112713002
0.274383545 0.538266599 0.113219008
0.283491939 0.541302979 0.113219000
0.297406644 0.537508011 0.113472030
0.311195493 0.536369324 0.110436007
0.326376051 0.539405167 0.107147098
0.347501963 0.542315006 0.110183485
0.365717977 0.542315006 0.110310003
0.387982488 0.542315006 0.112333737
0.412523925 0.543706656 0.114863642
0.436053038 0.546236932 0.117646992
0.457305402 0.546236932 0.120683379
0.480708569 0.543580174 0.120556936
0.505249918 0.543833196 0.119291782
0.530297160 0.546236932 0.117014423
0.554586053 0.546236932 0.113978036
0.581657350 0.549019575 0.116508357
0.612523735 0.552055776 0.117141008
0.643896163 0.555344880 0.121189140
0.671347022 0.558760047 0.129158959
0.701707840 0.564832032 0.129158974
0.730044246 0.571157634 0.131688714
0.762049317 0.578874350 0.143326685
0.796458125 0.585199177 0.160530970
0.826818824 0.582163513 0.166602954
0.856040716 0.593169034 0.175837860
0.888171852 0.598988235 0.184946164
0.923718810 0.606325388 0.194939956
0.957368970 0.620493054 0.207843021
0.251992702 0.576850057 0.113724999
0.259076774 0.573308349 0.111448415
0.268690974 0.572801948 0.115369864
0.278431356 0.573307872 0.114990160
0.287160039 0.571790099 0.116128810
0.298671603 0.572422683 0.113724999
0.310310304 0.575458407 0.113724999
0.326881707 0.571790099 0.112080708
0.341302991 0.572548985 0.109424256
0.356483161 0.575584888 0.112460129
0.380392343 0.575711429 0.112586647
0.398608357 0.575711429 0.112586647
0.421378940 0.574573040 0.113724999
0.445161372 0.574067354 0.115116671
0.463883400 0.574067354 0.118153058
0.489942819 0.576470554 0.121189445
0.513092816 0.578747392 0.120050810
0.537381113 0.581783593 0.118279576
0.565970957 0.579633415 0.119544737
0.587476373 0.579633355 0.116508357
0.614800751 0.580771744 0.123339735
0.645414293 0.583934367 0.125996351
0.674762845 0.588741302 0.129791468
0.707779825 0.592157066 0.137760654
0.738140523 0.600505769 0.140037939
0.767362297 0.605692685 0.147248343
0.799999774 0.611511767 0.162302062
0.830360472 0.615306854 0.170651346
0.863377392 0.622897208 0.182036325
0.892726004 0.629601479 0.189499974
0.928019941 0.634408593 0.200252846
0.965211630 0.645793736 0.216192365
0.274003983 0.605312765 0.113724999
0.276280999 0.604174376 0.114484385
0.288045704 0.605439663 0.115749709
0.290322542 0.608475626 0.117520481
0.300063103 0.607084453 0.118785642
0.315243483 0.607084453 0.114231065
0.319797635 0.607716858 0.117520481
0.340164691 0.607463479 0.117520481
0.358380824 0.605945766 0.115496732
0.371663481 0.608981729 0.117394000
0.389753491 0.607210457 0.117520481
0.413788706 0.611005485 0.121315472
0.430866361 0.609867096 0.120176829
0.453131020 0.607337415 0.119670764
0.476280689 0.608981729 0.122707151
0.496014774 0.605692625 0.121948056
0.524857402 0.610246480 0.124984443
0.547880888 0.614421070 0.123339735
0.575711727 0.611385405 0.125110954
0.599620342 0.613029718 0.124478377
0.624667764 0.614927471 0.125236988
0.649968147 0.613915324 0.131309256
0.677672207 0.617330730 0.131562248
0.709297895 0.622137904 0.138899103
0.740417540 0.625933170 0.147248283
