Assets/EldamarStudio/100 Retro LUTs Pack/LUTs/cube/Mary LUT.cube
LUT_3D_SIZE 8
DOMAIN_MIN 0.000000 0.000000 0.000000
DOMAIN_MAX 0.903226 0.903226 0.903226
0.000000000 0.000000000 0.105881996
0.098292544 0.025047095 0.110942543
0.231119186 0.051739097 0.111321993
0.359266639 0.059962351 0.117647000
0.479443192 0.088424996 0.120682992
0.599240959 0.131056249 0.127640739
0.728652537 0.172169283 0.135610282
0.861859620 0.221125811 0.147754833
0.012523999 0.128905535 0.117267452
0.117520086 0.121062547 0.099556997
0.233902633 0.137128085 0.118026547
0.353320360 0.146489277 0.122833453
0.477925390 0.159013093 0.124351643
0.601391733 0.189247355 0.129791453
0.726375282 0.222896546 0.139531702
0.856672764 0.259582520 0.147880971
0.083871007 0.240607098 0.122327901
0.135104552 0.235800087 0.110183448
0.236559182 0.238204092 0.108159088
0.350158274 0.246806100 0.117647000
0.474004000 0.262365282 0.119165190
0.598228812 0.284376979 0.132953644
0.730170786 0.309550822 0.141935095
0.855913877 0.337634087 0.152181819
0.141302645 0.356483281 0.110942349
0.177609280 0.355344623 0.106135450
0.262744844 0.355724245 0.112460539
0.363187641 0.357621640 0.113724999
0.482732385 0.371030629 0.115243189
0.594560325 0.385831743 0.119544737
0.725869656 0.409234911 0.133965701
0.858190954 0.435041100 0.152814806
0.211511806 0.479443192 0.118532613
0.248450205 0.474889189 0.115876168
0.299051166 0.480329186 0.109677091
0.388488263 0.479443192 0.111321799
0.492726386 0.484250188 0.117647000
0.604807198 0.496394724 0.120682992
0.731688738 0.519291580 0.133206889
0.860341430 0.535104394 0.161416799
0.274003983 0.605312765 0.113724999
0.300063103 0.607084453 0.118785642
0.358380824 0.605945766 0.115496732
0.430866361 0.609867096 0.120176829
0.524857402 0.610246480 0.124984443
0.624667764 0.614927471 0.125236988
0.740417540 0.625933170 0.147248283
0.862618506 0.650600791 0.185072705
0.359392554 0.740417540 0.156103551
0.373307794 0.742062271 0.163946733
0.422897279 0.738013566 0.163314566
0.491081566 0.745477617 0.166097626
0.570271969 0.744338989 0.172675371
0.663504481 0.746362805 0.182162985
0.760657549 0.748893023 0.191397548
0.874889493 0.763061225 0.230866700
0.462997973 0.873750746 0.269575775
0.480581909 0.874636173 0.266034245
0.508665204 0.876913369 0.270588338
0.567868233 0.877798975 0.281467229
0.639595032 0.880202472 0.291966766
0.722074509 0.882226527 0.303731769
0.812270880 0.885009527 0.323719025
0.899809778 0.893358767 0.335230589
0.025426548 0.039216001 0.146615997
0.113219537 0.036811996 0.145857006
0.227198094 0.069323450 0.152435452
0.335736632 0.102213547 0.154838651
0.460214823 0.137887090 0.159140006
0.591524482 0.170018986 0.169006750
0.716888011 0.204047844 0.174066991
0.851992428 0.246299520 0.189879820
0.046932094 0.121062547 0.145857006
0.125743553 0.129285097 0.146236554
0.226818636 0.145350650 0.150917441
0.339278996 0.161037460 0.153700098
0.460721195 0.186211348 0.158507198
0.587349892 0.217836991 0.169006541
0.718406260 0.244402289 0.174699560
0.854269147 0.277672261 0.191777065
0.117520191 0.226439089 0.147754550
0.164199650 0.234661639 0.152561545
0.229095638 0.234661639 0.146236554
0.344338834 0.247565001 0.146615997
0.459835351 0.268311530 0.152055889
0.586717486 0.288298458 0.158254102
0.720303535 0.320430189 0.175585181
0.855913877 0.346995443 0.188614786
0.169260100 0.348260731 0.146615997
0.204047740 0.348640293 0.154585809
0.272232622 0.352561265 0.143073544
0.360784620 0.353320360 0.143832639
0.469702840 0.368627429 0.148513541
0.589500189 0.387855977 0.152435258
0.722706854 0.415180355 0.171157643
0.852498412 0.438330203 0.193674996
0.235041186 0.472485989 0.149272546
0.254522204 0.469323188 0.149779007
0.309677750 0.470841289 0.148134097
0.393169075 0.474763185 0.151676357
0.488172203 0.479063749 0.147375003
0.597343683 0.493990928 0.158001363
0.727387786 0.515875816 0.176217362
0.858317554 0.543706357 0.205692649
0.287539482 0.601771176 0.157115743
0.314990491 0.600379705 0.152055994
0.366223723 0.601644218 0.153573811
0.439595401 0.603542030 0.156736284
0.527261198 0.608222842 0.166476548
0.624288321 0.611511886 0.168880343
0.737507761 0.623529494 0.182036638
0.864010215 0.651739419 0.216571540
0.366097748 0.737128556 0.203036025
0.387982130 0.738772810 0.197849274
0.429601640 0.735610366 0.196837530
0.491461098 0.739911199 0.202530071
0.574193418 0.747880995 0.208222568
0.662997961 0.745098114 0.214674011
0.762681842 0.748260558 0.229222283
0.872738898 0.761037052 0.261986256
0.474004060 0.877545655 0.288045466
0.486527473 0.873497903 0.306008756
0.520429909 0.871600389 0.303225607
0.574826300 0.872359455 0.307906300
0.642504752 0.876154184 0.317773759
0.722833574 0.881720245 0.331815213
0.807843387 0.887286663 0.346489429
0.907020628 0.884882808 0.362555295
0.084503189 0.049336094 0.205313087
0.147627637 0.057178997 0.199493647
0.244402185 0.080708094 0.190385997
0.347501636 0.110056736 0.197090447
0.460721165 0.149525285 0.200632185
0.576343715 0.199620470 0.215939343
0.701960623 0.239721701 0.230486795
0.837064743 0.283491552 0.250980228
0.114737540 0.147754550 0.185325637
0.164073542 0.149272546 0.192789108
0.242504641 0.156736091 0.192030102
0.343959272 0.176723540 0.197596192
0.457558274 0.205692753 0.206578359
0.574320197 0.238583356 0.218342751
0.702846229 0.271094203 0.231498927
0.841492653 0.307906210 0.253510624
0.143453106 0.236559182 0.184946194
0.189627081 0.238583550 0.195572540
0.271853209 0.258570164 0.196711004
0.352181822 0.264010072 0.202656463
0.454395980 0.280455112 0.208475992
0.576597095 0.306008726 0.220113993
0.701075494 0.332195014 0.235800102
0.844781756 0.363061339 0.255155057
0.205692545 0.345097810 0.193548203
0.238203987 0.345477372 0.199873090
0.289816290 0.352940917 0.201770633
0.371410280 0.355724186 0.201391101
0.464516282 0.370145619 0.204427391
0.581656992 0.392789543 0.217457354
0.711827934 0.419481546 0.235800192
0.844528794 0.449209303 0.258064628
0.264769077 0.469323277 0.205186382
0.285641819 0.466160446 0.206198901
0.339279115 0.470082372 0.206831098
0.400253177 0.473245084 0.207590193
0.488045275 0.471600175 0.209994003
0.595319331 0.491967201 0.220872998
0.719924212 0.515496314 0.238836288
0.847311974 0.547121942 0.270588338
0.319164723 0.596964002 0.221252352
0.338646531 0.596964121 0.222137645
0.381024718 0.598608375 0.222391099
0.450221628 0.600379586 0.231498733
0.532827258 0.603668511 0.231878474
0.620872736 0.605945766 0.235800192
0.731941938 0.624288380 0.253131121
0.855913877 0.652498543 0.288298517
0.388614982 0.730803370 0.259962082
0.410246849 0.727767289 0.272232622
0.445540637 0.734092414 0.266919672
0.502846241 0.738013744 0.273245096
0.579506636 0.736369491 0.280835062
0.666160703 0.740290642 0.285389066
0.762175739 0.747375190 0.294876367
0.873497784 0.764958978 0.325237185
0.489436775 0.870967805 0.353447020
0.497532904 0.872106373 0.352308750
0.531182885 0.874256730 0.362428844
0.586084902 0.874636233 0.364705861
0.651612878 0.876154423 0.375078946
0.724857688 0.880075932 0.385831654
0.808095872 0.884123743 0.397216678
0.900695860 0.887286663 0.419354737
0.142947644 0.071220994 0.279696286
0.195066288 0.082226194 0.276154637
0.281720549 0.101833999 0.269450009
0.371030629 0.123339646 0.269576281
0.468437403 0.160151631 0.270335197
0.582542837 0.200885639 0.276280642
0.706768274 0.246679276 0.297659993
0.836052954 0.299557149 0.324351460
0.171537086 0.170398533 0.267932087
0.209487543 0.169892281 0.262112647
0.276154578 0.175078735 0.262871653
0.359519184 0.184060976 0.260847300
0.464136809 0.210373431 0.264389843
0.578620851 0.243263543 0.283617884
0.706261873 0.283870816 0.302340299
0.839089155 0.330550164 0.329917908
0.197470099 0.261733174 0.258570194
0.227071285 0.261226833 0.246553183
0.299431086 0.271094173 0.260974020
0.369766146 0.272612095 0.256926090
0.465401381 0.291840732 0.267552525
0.576597095 0.316128761 0.283491284
0.703984916 0.352561653 0.312586993
0.832637608 0.392030418 0.342567712
0.228715986 0.354206294 0.262871653
0.257305533 0.352940828 0.257305652
0.320176631 0.363946736 0.265654981
0.405819267 0.383427918 0.283618003
0.484629840 0.385958433 0.282859087
0.585199416 0.406198621 0.290195823
0.701834261 0.435547262 0.316761345
0.835926414 0.466919452 0.343832999
0.287918717 0.472106636 0.282226175
0.312587202 0.468057960 0.274636447
0.360784531 0.474004179 0.281973273
0.425806612 0.479570180 0.286274433
0.498924375 0.480581820 0.287412971
0.602150559 0.496268123 0.302846521
0.717647254 0.522960067 0.325489998
0.843896329 0.559772253 0.355471253
0.348639995 0.593801439 0.308665276
0.365970910 0.596964002 0.309044719
0.406325012 0.596584618 0.303858280
0.464516371 0.598482072 0.313978374
0.538646579 0.602909565 0.315369815
0.627830625 0.607210457 0.320556730
0.733712733 0.627577484 0.338899255
0.854016602 0.658317626 0.375711560
0.427197933 0.729285538 0.362175643
0.434281826 0.734977782 0.354459286
0.466793269 0.728146911 0.355724126
0.520809531 0.733712912 0.359392554
0.593042314 0.733712912 0.367235988
0.672106385 0.738772571 0.367109269
0.763440907 0.744971573 0.379633278
0.867931664 0.764199853 0.405565888
0.514863968 0.865907729 0.441366404
0.517647266 0.867805541 0.431752086
0.550284803 0.870208919 0.438077301
0.599493980 0.872359455 0.444908261
0.660215139 0.873371303 0.451359928
0.734724641 0.874763012 0.459835798
0.813536048 0.880961239 0.467931628
0.904111385 0.887919009 0.481214613
0.203668192 0.113472179 0.386211187
0.238962993 0.121694729 0.376470536
0.318912178 0.140923381 0.377609074
0.400758833 0.159772202 0.371284157
0.495129555 0.182542980 0.367489189
0.592156649 0.210625976 0.362934738
0.714484334 0.254522264 0.389247358
0.844908476 0.306134969 0.416571647
0.227577642 0.200885549 0.374699622
0.259708941 0.199747205 0.366603196
0.322833270 0.210373446 0.367362410
0.401138365 0.216192082 0.361543655
0.493231803 0.229601189 0.362302601
0.587222993 0.251865923 0.364705831
0.714737594 0.289057583 0.386843652
0.841239512 0.335610330 0.411005557
0.259203166 0.286654174 0.351676077
0.283618182 0.298545092 0.353194296
0.335483998 0.297660083 0.362049192
0.406704366 0.301707983 0.355724186
0.482606083 0.307906270 0.352435380
0.587602437 0.322327644 0.363441080
0.708159387 0.358887076 0.393169016
0.833396375 0.398355335 0.422770172
0.288931429 0.378114849 0.353699923
0.306008726 0.378747642 0.345224440
0.356483191 0.386211187 0.354079485
0.422643811 0.395951897 0.361923218
0.499557614 0.395572275 0.358380735
0.593801260 0.414800733 0.374320090
0.709677339 0.446173608 0.402530164
0.834661543 0.483744442 0.432511002
0.311068982 0.477925390 0.361796170
0.334598184 0.476407200 0.357621819
0.380012274 0.481088072 0.363441110
0.445794076 0.491208196 0.370525181
0.540670395 0.516255379 0.402530372
0.619354725 0.519038618 0.401012182
0.723086476 0.537507892 0.417457253
0.837064743 0.571916163 0.455154777
0.363567382 0.594307721 0.385325462
0.381530493 0.594307542 0.387729168
0.423023164 0.596584558 0.387982011
0.488551527 0.603289127 0.404680520
0.557115495 0.606830955 0.408475935
0.636559248 0.613029718 0.409867108
0.737634301 0.632637739 0.434155762
0.853510201 0.664895535 0.470082104
0.435547292 0.728399575 0.442504644
0.455281287 0.725869656 0.443516910
0.488045484 0.729411662 0.445540667
0.539785028 0.730170727 0.454902083
0.604048371 0.733206570 0.457179368
0.680328846 0.740038037 0.461606890
0.763693690 0.744971573 0.471853286
0.873118222 0.764199853 0.496647775
0.523592770 0.868817329 0.519670784
0.536622286 0.867172599 0.520936191
0.560910702 0.866666853 0.519544601
0.609867275 0.869196832 0.529917598
0.665654540 0.868437767 0.530549943
0.737507761 0.878304899 0.539025962
0.815433323 0.878051877 0.547375262
0.902466595 0.887033224 0.564832568
0.258570462 0.166350737 0.509044945
0.286021292 0.170778200 0.507147729
0.349525481 0.183554724 0.505882382
0.435167640 0.201011837 0.498039365
0.529664457 0.222517371 0.494876653
0.622770488 0.236811712 0.489563465
0.721441984 0.261985809 0.492219716
0.848070860 0.317141056 0.520303726
0.278937489 0.231498823 0.499810278
0.303731531 0.229854539 0.489563733
0.356609881 0.241239995 0.495003194
0.441998899 0.252245367 0.494876683
0.528905690 0.260847449 0.489310354
0.624920726 0.277672738 0.490575731
0.722706854 0.296774089 0.488171697
0.843263805 0.347754449 0.520303547
0.306894451 0.329791188 0.490196049
0.325996101 0.324225307 0.487033486
0.377735585 0.326628566 0.480202138
0.443516999 0.333080292 0.484756380
0.528905571 0.340037912 0.487286359
0.623402715 0.347501755 0.481973708
0.719038308 0.364705861 0.491334498
0.846426368 0.407210648 0.530044556
0.334598392 0.414421290 0.482226342
0.350158095 0.418469191 0.479190439
0.396963656 0.416698277 0.476660639
0.460847378 0.422643751 0.483997464
0.532320976 0.428083718 0.483617932
0.618975520 0.433270365 0.482099831
0.716888011 0.445287913 0.496394634
0.842884541 0.489436954 0.541808665
0.351169914 0.509677470 0.486147940
0.374952614 0.508285999 0.486653924
0.416825086 0.511575162 0.483617753
0.475901455 0.516634941 0.486274302
0.555471182 0.527640700 0.494497120
0.632384300 0.529538333 0.495382756
0.733333290 0.544085741 0.514990747
0.849335670 0.577862024 0.549904883
0.387729466 0.603415430 0.481846988
0.400379479 0.604680657 0.489310473
0.445414633 0.604807198 0.501581192
0.495509118 0.612270832 0.499177724
0.572928905 0.620493233 0.512966454
0.669829488 0.646426439 0.538393199
0.751043499 0.648830175 0.541049540
0.856672764 0.672106564 0.575838268
0.438203543 0.729285538 0.532447755
0.461353570 0.730170727 0.528399587
0.493105710 0.732954025 0.539405346
0.545224428 0.732827127 0.547754705
0.618216276 0.738393247 0.551296651
0.692219734 0.747501552 0.563314259
0.767489016 0.747248232 0.566856503
0.869955957 0.772802114 0.598355472
0.526628673 0.868817508 0.609740674
0.545224369 0.864516139 0.605692804
0.564705551 0.865274847 0.608222723
0.612270832 0.869070292 0.616445243
0.670461595 0.870335519 0.623655915
0.737128437 0.875521898 0.627956510
0.817077637 0.879822910 0.641872227
0.897153616 0.885641754 0.652245224
0.295383006 0.220872998 0.662618577
0.327640980 0.227071270 0.658949971
0.386211187 0.234155566 0.656799614
0.467425615 0.247817919 0.654269218
0.560278237 0.264769286 0.654016256
0.655028462 0.283112019 0.650601029
0.756103575 0.302213699 0.644655228
0.855028152 0.328020245 0.643516839
0.315243095 0.279822826 0.657305300
0.346995533 0.276407272 0.652498305
0.390891999 0.285515547 0.650600493
0.472359180 0.293738097 0.653510153
0.560910761 0.304237545 0.653257370
0.656925797 0.323086530 0.649082839
0.750537217 0.333206534 0.644023001
0.854396045 0.355344623 0.644402444
0.346995384 0.365085185 0.646173298
0.366982818 0.365338326 0.644655287
0.412776381 0.368121207 0.643896580
0.485009372 0.372043192 0.643769622
0.566476882 0.381530464 0.646173418
0.653763711 0.386970103 0.639848590
0.747248292 0.403289080 0.640480638
0.847185373 0.414294481 0.643516541
0.379000545 0.460215181 0.643516958
0.402656466 0.457432270 0.636432648
0.443137437 0.461353540 0.641745925
0.501581252 0.464136630 0.636938930
0.575332046 0.469196588 0.637697935
0.660847783 0.477040023 0.636179924
0.750537217 0.480455637 0.636938930
0.847691417 0.496900827 0.650853693
0.405565977 0.549146175 0.638836324
0.424288541 0.551929116 0.638077021
0.463757336 0.554459453 0.638836384
0.522327662 0.557368875 0.638962626
0.592283130 0.558507383 0.638836503
0.667552471 0.562807977 0.639848113
0.752941072 0.567109525 0.643516660
0.849335611 0.584819794 0.660974264
0.438709259 0.641998708 0.646805584
0.453510284 0.646806002 0.643010557
0.486527562 0.649715304 0.646679521
0.543326735 0.649462283 0.645287812
0.609866977 0.651739478 0.650853574
0.680581748 0.654143214 0.652371883
0.765211761 0.658064246 0.653510332
0.861986041 0.681593955 0.681973338
0.471852958 0.741682529 0.663883567
0.478811294 0.737887502 0.656040549
0.505249858 0.741049528 0.654522359
0.559898913 0.742694259 0.657052517
0.625174165 0.745098054 0.660088658
0.698798418 0.753700256 0.674130559
0.793674886 0.774067283 0.697912574
0.877672255 0.783048689 0.708791912
0.526881516 0.871726632 0.705629349
0.545477688 0.864895344 0.712333977
0.569892645 0.866287351 0.709045053
0.616445124 0.870967746 0.717014432
0.673497736 0.871220827 0.719670951
0.747754395 0.875901341 0.732447982
0.819734395 0.879822910 0.739025950
0.895255744 0.891587377 0.745224357
0.341429651 0.295761943 0.832004726
0.366729677 0.294750094 0.826691747
0.420366824 0.305629194 0.819607794
0.495509088 0.315117002 0.824288249
0.591397643 0.332700640 0.825300395
0.690322578 0.351043731 0.822390735
0.783048689 0.377609074 0.822137594
0.884123802 0.400379807 0.820366561
0.366603374 0.339911461 0.826691747
0.384061009 0.336242527 0.822011292
0.432511389 0.345098048 0.822137594
0.505629599 0.356989086 0.820619881
0.589247465 0.369260013 0.821252227
0.689816594 0.385958076 0.820240438
0.785072505 0.400759280 0.820999444
0.884756625 0.427324593 0.816318750
0.398608536 0.417330742 0.817457557
0.414294839 0.414421022 0.822011352
0.455028236 0.423276305 0.816445351
0.522327602 0.429981083 0.817204118
0.603668392 0.438077003 0.816318929
0.692599654 0.447437882 0.814294696
0.787476480 0.465148538 0.815180421
0.884250820 0.479190618 0.816824675
0.438077003 0.516508400 0.812776566
0.450727344 0.520050585 0.813535810
0.493611485 0.518785715 0.816445351
0.547628105 0.524351835 0.814041734
0.619607508 0.528273106 0.817710400
0.702340364 0.533712566 0.817583799
0.787349880 0.541555882 0.814674139
0.882605970 0.550917089 0.812270641
0.472485960 0.609613955 0.807084024
0.488424778 0.608855188 0.815559983
0.520429850 0.610879123 0.815180600
0.569006860 0.612903178 0.812270641
0.635420680 0.613535941 0.814927042
0.711195230 0.620240331 0.816571772
0.796964228 0.621505201 0.815559864
0.885388911 0.629348516 0.815306604
0.502593219 0.693358541 0.820240438
0.509550691 0.695509136 0.818342745
0.536242783 0.698292196 0.819607854
0.588108659 0.700316429 0.821758389
0.649082720 0.701834202 0.818975568
0.722580671 0.704996526 0.820113778
0.801138759 0.708539009 0.818975568
0.885768712 0.712839842 0.821505547
0.526502252 0.793548524 0.830360174
0.538646519 0.787602961 0.832510710
0.563314319 0.789247215 0.825553417
0.602656543 0.790891826 0.828462780
0.667046070 0.790006101 0.831625402
0.734471798 0.790006101 0.824541330
0.809487224 0.800126374 0.827956617
0.891081512 0.802403092 0.836179852
0.554585636 0.884250581 0.841113567
0.566982627 0.880328536 0.843390286
0.590891898 0.882858634 0.843137324
0.629474998 0.881340802 0.838456750
0.682099760 0.883997262 0.842378080
0.744844735 0.888045788 0.838456750
0.819101810 0.886780620 0.848323762
0.906261802 0.903731763 0.866034269
