Assets/EldamarStudio/100 Retro LUTs Pack/LUTs/cube/Megan LUT.cube
DOMAIN_MIN 0 0 0
DOMAIN_MAX 1 1 1
LUT_3D_SIZE 32
0.000000000 0.000000000 0.007843000
0.012143999 0.000000000 0.004807387
0.035040773 0.002150774 0.003922000
0.063630320 0.006452000 0.007716838
0.095129542 0.012903451 0.016445000
0.134597927 0.022011064 0.022516999
0.166476637 0.023529001 0.026059322
0.198481694 0.025173709 0.029095709
0.230360284 0.026691904 0.029854810
0.257685483 0.023655517 0.023782033
0.293738008 0.023529001 0.026438870
0.322074503 0.023529001 0.027450999
0.349778622 0.024667645 0.029727997
0.382922053 0.027704032 0.035799999
0.413282812 0.030740418 0.041871995
0.448450595 0.036179997 0.052751601
0.481846988 0.045287993 0.064895995
0.514104724 0.056799568 0.075774997
0.553573966 0.065907970 0.081847019
0.590259731 0.072233006 0.093485013
0.628589690 0.080202736 0.105628990
0.670082092 0.089310862 0.116761126
0.715495944 0.098544985 0.125995979
0.758000791 0.110688999 0.138140008
0.795951545 0.122833565 0.150284573
0.832384288 0.133586302 0.162428975
0.867299020 0.143200129 0.173560992
0.894623399 0.155344889 0.179632992
0.924604654 0.170145810 0.198987797
0.954965353 0.183554962 0.218469396
0.981783986 0.198355585 0.231372997
1.000000000 0.219607994 0.231372997
0.000000000 0.018215999 0.001771000
0.015180387 0.018215999 0.001771000
0.038077157 0.024667773 0.007337387
0.067931548 0.029475160 0.015053999
0.100442544 0.033396840 0.023655839
0.134597927 0.037191451 0.016445000
0.163946956 0.046299707 0.030107319
0.200379774 0.047817774 0.033523001
0.236432865 0.047944292 0.032131519
0.263757497 0.044907905 0.023782033
0.291081876 0.047691256 0.026438870
0.325110644 0.049842030 0.031498995
0.355850637 0.051992513 0.036938641
0.388741016 0.055028416 0.044908386
0.416318417 0.058064803 0.050980382
0.444276005 0.058697388 0.054649189
0.480329186 0.066540383 0.063377798
0.515875936 0.077419385 0.073371187
0.550537586 0.084123977 0.081847027
0.592789352 0.096015006 0.096268371
0.631625831 0.100695737 0.106767640
0.673118532 0.106514990 0.116761126
0.718532383 0.113725372 0.126122490
0.761037171 0.125869378 0.141176403
0.801264644 0.135736674 0.153320387
0.834281981 0.145730659 0.164073288
0.864769399 0.155344769 0.175079063
0.894623399 0.167488873 0.188741386
0.921947777 0.176976830 0.197470218
0.951928973 0.193168938 0.213662118
0.977862179 0.208728582 0.229727820
0.993928015 0.225679994 0.240480617
0.008601999 0.045034543 0.008601999
0.021632161 0.045034543 0.006451774
0.038962770 0.045034546 0.010752773
0.071347155 0.051612932 0.018595999
0.105755545 0.054649223 0.027071452
0.135609925 0.057684839 0.021505065
0.166097179 0.063630320 0.024035320
0.193421915 0.069449708 0.034281995
0.231119737 0.070714869 0.035294000
0.261227518 0.070461839 0.030360293
0.292852879 0.073244646 0.035040870
0.320177257 0.072233029 0.034029260
0.352182299 0.073877767 0.038583126
0.384566814 0.075901516 0.045414224
0.415686160 0.078937411 0.051486216
0.447311640 0.083871000 0.061606802
0.476154625 0.086906992 0.066160999
0.513725519 0.097153567 0.075268760
0.550158024 0.104743786 0.085894987
0.591903746 0.112080783 0.098418593
0.630613446 0.120429769 0.107906222
0.670841515 0.124730997 0.115749255
0.715116978 0.131056011 0.123972237
0.757621825 0.143200561 0.139152139
0.795699000 0.150917068 0.152055770
0.833776057 0.160025448 0.164199755
0.864390075 0.169133708 0.174067065
0.896394730 0.179632992 0.185958430
0.919797540 0.191271603 0.195825279
0.952435076 0.203921512 0.210246846
0.979127169 0.219987214 0.228462741
0.994307220 0.233902767 0.247437999
0.016951161 0.076660156 0.018215999
0.032890774 0.075395316 0.012650387
0.048071161 0.075395316 0.016066000
0.072612315 0.075395316 0.019608000
0.110183157 0.078431606 0.026818547
0.136621937 0.081467219 0.029095389
0.166476637 0.087033160 0.028589321
0.196457863 0.090195708 0.032005157
0.223782256 0.093232095 0.036559161
0.256167293 0.096268475 0.036559165
0.285768896 0.098039284 0.041112997
0.320177257 0.098292254 0.044908099
0.347501636 0.098671988 0.045288127
0.377988875 0.099178024 0.048956290
0.411385208 0.102213897 0.056040153
0.443516791 0.106388152 0.064389445
0.476660222 0.111195311 0.073498160
0.508918524 0.117899880 0.080835149
0.548387170 0.127008289 0.092979178
0.589373767 0.132068157 0.102593169
0.630613446 0.138140157 0.109676994
0.669070244 0.144212157 0.117773250
0.711448491 0.150284186 0.124731496
0.752814651 0.160151973 0.139911428
0.790765405 0.169007003 0.149019405
0.827198148 0.176470667 0.161163807
0.861606956 0.185072988 0.173307955
0.892726421 0.193421692 0.183175445
0.918026805 0.206451654 0.194813460
0.950664341 0.217837065 0.210499555
0.980898380 0.233016908 0.227830514
0.996078014 0.245541155 0.250979990
0.021125998 0.108918093 0.024288097
0.040860385 0.106641382 0.017077934
0.059709318 0.105376549 0.017583998
0.080202609 0.105756000 0.020367000
0.112839997 0.105756000 0.020746548
0.137127995 0.108791612 0.035926938
0.165717632 0.113978095 0.036685679
0.195698842 0.116761096 0.037318159
0.226059541 0.117520191 0.040354453
0.253383964 0.120556578 0.040354453
0.278937757 0.121062547 0.043643225
0.312587231 0.121442094 0.048323542
0.347501636 0.123339541 0.054016288
0.375079066 0.128652573 0.059835963
0.408348948 0.131435961 0.068690568
0.439342052 0.135230735 0.075774543
0.471600175 0.138646275 0.082226381
0.505882144 0.142568111 0.088804983
0.545351386 0.151676506 0.100949012
0.585199416 0.155218184 0.107906453
0.626565456 0.160151541 0.113219351
0.668311238 0.166223645 0.118532248
0.710942447 0.172295630 0.130676985
0.750916898 0.178368345 0.145604357
0.788488150 0.186717242 0.152814701
0.823782325 0.195445761 0.158886522
0.858570576 0.204048097 0.171410128
0.882859290 0.210120097 0.183554888
0.909804225 0.223023355 0.197976261
0.944086254 0.234661743 0.215180606
0.980139375 0.244782031 0.234661907
0.995319009 0.259962440 0.249841541
0.033269998 0.133206859 0.030360872
0.042378385 0.136242479 0.036432870
0.068564542 0.133965760 0.033523161
0.090069763 0.133965775 0.030740000
0.109803610 0.136115998 0.026818546
0.137127995 0.136115998 0.029854938
0.161416635 0.139152259 0.034914680
0.188361689 0.141049862 0.038582996
0.217710167 0.141808957 0.044149064
0.250347584 0.144845352 0.049462069
0.283491671 0.147881001 0.055281803
0.315370232 0.150411189 0.058823608
0.347501636 0.152941227 0.062365577
0.375079066 0.155976981 0.065907963
0.405439824 0.152941346 0.068943575
0.436305910 0.160531119 0.077798799
0.469702452 0.167109311 0.086401127
0.505629122 0.172675848 0.094370991
0.542315006 0.179000899 0.100949019
0.584566832 0.182542577 0.110309653
0.626565456 0.187475935 0.120809533
0.667046249 0.193548203 0.129411861
0.704870462 0.199620798 0.136748984
0.750410914 0.205692813 0.148893014
0.790385842 0.214041620 0.161543056
0.823782623 0.221758276 0.167994678
0.852625072 0.228336871 0.174573004
0.879822910 0.234408855 0.189626887
0.906767845 0.240480870 0.201770976
0.934092164 0.249842122 0.212650254
0.963946700 0.258950293 0.225553662
0.989247024 0.269070059 0.240733936
0.040353999 0.162555635 0.036433000
0.049462385 0.163061574 0.039974678
0.071473770 0.168247953 0.046046678
0.097659834 0.167615637 0.045414001
0.116128869 0.169006959 0.042630997
0.139152259 0.169006959 0.043516610
0.163946956 0.166476637 0.046552997
0.193169013 0.169513032 0.047944319
0.222264409 0.171916634 0.052245319
0.252118826 0.176723808 0.058317326
0.288045615 0.174699441 0.064389415
0.315369964 0.175711319 0.068437934
0.347248584 0.178241640 0.070335321
0.377862364 0.181277603 0.072232999
0.410499811 0.182795420 0.077545904
0.445667595 0.186970606 0.087792315
0.477798820 0.194433957 0.100063182
0.513219416 0.200506315 0.109930575
0.549652278 0.206578329 0.114105336
0.586591125 0.212397277 0.122959971
0.630993068 0.219228372 0.124478057
0.673118114 0.224920824 0.133459985
0.711321652 0.229474992 0.142567992
0.754458904 0.235546991 0.149905011
0.793168545 0.241619557 0.164326280
0.828209996 0.247691274 0.173940301
0.857179165 0.252624989 0.179632992
0.886527717 0.258697003 0.192789108
0.913852096 0.267299324 0.202782974
0.941176414 0.273371309 0.220240161
0.968500853 0.283491582 0.235041201
0.995825291 0.295888633 0.251866311
0.046425998 0.192915976 0.050727699
0.060468089 0.192915976 0.055408020
0.074256770 0.193927974 0.052371703
0.100316316 0.198735148 0.055913705
0.121948257 0.199114695 0.055913705
0.143200651 0.199114695 0.055913705
0.166982919 0.198229074 0.061733026
0.191271693 0.195192695 0.056546707
0.224668086 0.198987976 0.060341608
0.253763527 0.205059975 0.069069996
0.281594038 0.202403530 0.071852997
0.314863980 0.203035697 0.074256547
0.342567652 0.204174340 0.078431576
0.376217633 0.207463697 0.080455698
0.411005676 0.211890981 0.089310698
0.445161611 0.215686306 0.096900694
0.481593996 0.221758693 0.104490504
0.515749395 0.228463262 0.119164847
0.552182257 0.235547408 0.126249254
0.588615000 0.239974707 0.129917651
0.630740464 0.246299729 0.139658436
0.675268710 0.255408108 0.138646558
0.715622485 0.259835392 0.148892984
0.759645522 0.265907407 0.158000991
0.795951545 0.268690556 0.165970996
0.828209639 0.276154637 0.181151018
0.858823478 0.280708313 0.188994125
0.890322864 0.287918687 0.201138407
0.916382074 0.295003235 0.208981529
0.951929092 0.297406703 0.220240161
0.975711584 0.307906300 0.239721596
1.000000000 0.324604690 0.257179290
0.051739097 0.221758187 0.067425899
0.067678779 0.222517088 0.073497899
0.085389100 0.223276183 0.069576226
0.101075217 0.223023161 0.061986100
0.124984451 0.226059541 0.063883543
0.146236837 0.226439089 0.065780997
0.169259995 0.226439089 0.070335321
0.194307312 0.224794373 0.070968010
0.220873192 0.223276183 0.063377999
0.254269570 0.229348183 0.078557618
0.277545959 0.228210062 0.080708101
0.304617256 0.228463024 0.080708101
0.338013649 0.230739832 0.083744287
0.371157080 0.234282166 0.090069965
0.406577796 0.240860090 0.101707883
0.439848304 0.244528905 0.109045096
0.474004000 0.248323992 0.114357993
0.511701107 0.256293535 0.118026182
0.548386991 0.265654951 0.132827058
0.585578620 0.269196838 0.136369184
0.626945019 0.273371100 0.140923470
0.672991991 0.279696137 0.150790960
0.715495944 0.288804501 0.154079571
0.760404646 0.295509100 0.165591002
0.796078265 0.297786206 0.174699560
0.827450752 0.301201761 0.183428288
0.855787158 0.309804112 0.198608071
0.889184237 0.318658739 0.211005792
0.915369987 0.323592663 0.218595982
0.947248340 0.327387959 0.228969052
0.984060526 0.329158694 0.240480691
0.999240935 0.350411087 0.255661100
0.054775488 0.246046990 0.070461527
0.063883878 0.249082610 0.076533526
0.086274773 0.251992285 0.074003533
0.109171480 0.252371848 0.066540174
0.128020063 0.250347555 0.060847949
0.149272442 0.253383964 0.076027557
0.170524850 0.253763527 0.075395338
0.195192695 0.252118796 0.074510016
0.223908797 0.250600606 0.075522013
0.257305980 0.253636956 0.081594013
0.284883350 0.256799817 0.088045485
0.309930474 0.257558972 0.089816488
0.338013649 0.257685483 0.093232132
0.371157080 0.258570969 0.102213979
0.401517808 0.267678589 0.111321576
0.432131588 0.271853328 0.118153125
0.464136690 0.274889320 0.124225475
0.499557108 0.280581564 0.130170956
0.542061985 0.295761973 0.136242986
0.581530392 0.299557388 0.145477846
0.622770011 0.302593231 0.148513973
0.667425275 0.306767523 0.151043996
0.715495944 0.313092530 0.157115966
0.758000791 0.322200924 0.166223586
0.791524112 0.326628804 0.177735567
0.822011352 0.330929995 0.188235298
0.852751553 0.337128520 0.198608071
0.886147916 0.343200475 0.213788435
0.914231360 0.344085991 0.223529339
0.943200350 0.349652201 0.236053169
0.972295940 0.359139979 0.249336079
0.996204555 0.371663481 0.258697480
0.060720995 0.279063880 0.085135870
0.075648382 0.282100201 0.091207869
0.089057773 0.280834854 0.090828642
0.113346159 0.282353044 0.089310579
0.136495873 0.282985598 0.087539546
0.155217946 0.283491671 0.087539807
0.181530327 0.281467438 0.095129743
0.205186397 0.281087875 0.096521154
0.230487064 0.280075729 0.096267998
0.257432461 0.280961365 0.093738005
0.282099992 0.278178751 0.093990996
0.309424371 0.283238858 0.098039255
0.338013649 0.286148220 0.101201862
0.371157080 0.288424999 0.108032972
0.401517808 0.294876456 0.111827575
0.429474771 0.299177676 0.118532605
0.463883698 0.305250049 0.127640992
0.501328409 0.312334001 0.137128562
0.541556001 0.322959840 0.145477876
0.584060788 0.329790860 0.148766518
0.623655558 0.332953721 0.153826863
0.666160345 0.337001741 0.157874852
0.712333858 0.343073726 0.165970623
0.749272645 0.349398762 0.175078973
0.787223399 0.356229872 0.181909874
0.820240557 0.359898686 0.190006107
0.851107001 0.363440871 0.198608071
0.877292573 0.364705861 0.213788435
0.905375957 0.376090854 0.231625631
0.939784706 0.378874063 0.239721850
0.972675562 0.384819865 0.251486599
0.998987854 0.392915875 0.264643013
0.076913245 0.308412254 0.102339990
0.088045642 0.309424371 0.102340251
0.105249763 0.310183465 0.101960503
0.117900148 0.312207401 0.102719732
0.141050085 0.315623224 0.106134996
0.165844500 0.312334239 0.104743674
0.187602833 0.313851923 0.107273996
0.213282496 0.312460244 0.106767997
0.237571180 0.312460244 0.109424248
0.261860013 0.312460244 0.108412251
0.286147982 0.311574847 0.108159252
0.312460244 0.310562968 0.110183507
0.340923280 0.315496624 0.112081252
0.372675329 0.318279505 0.116635218
0.399494082 0.320809484 0.123212829
0.431499034 0.326502055 0.130676597
0.463377625 0.331056237 0.135231182
0.501707971 0.339025974 0.144592240
0.539784789 0.346742272 0.152308971
0.582036495 0.355091482 0.157874897
0.626438916 0.363061249 0.160910502
0.666160345 0.366350383 0.163946867
0.709297776 0.371410251 0.170904249
0.745730579 0.377482235 0.178114906
0.782163322 0.383554757 0.182922259
0.815813065 0.388235092 0.194560230
0.847565055 0.391271323 0.204174250
0.873371243 0.392789513 0.217836440
0.902339816 0.399367481 0.227577627
0.931435347 0.406198263 0.242251962
0.967488885 0.410120189 0.251486599
0.995952010 0.416192502 0.266667008
0.094749995 0.341429263 0.120556280
0.102719739 0.342567921 0.118659027
0.119417995 0.342567921 0.116761506
0.137254804 0.342947423 0.115243278
0.147122175 0.350537717 0.120176733
0.173687860 0.345224619 0.119417638
0.197596669 0.345603943 0.120809317
0.222770631 0.345856905 0.123465993
0.246299744 0.347374886 0.119671084
0.270209014 0.348133922 0.125363633
0.292219996 0.348133922 0.123339638
0.319670886 0.348133922 0.126502246
0.346995264 0.346995264 0.126122996
0.377356052 0.349778622 0.126375958
0.403415799 0.349778622 0.133712575
0.436053425 0.354585648 0.141682446
0.469829381 0.361796260 0.147754550
0.506262124 0.367868274 0.151423350
0.542694330 0.373940289 0.157495379
0.585831404 0.382795632 0.166982993
0.629095197 0.391904026 0.168880537
0.670588136 0.398988158 0.172928274
0.709676981 0.402150273 0.176091120
0.746109784 0.408222258 0.181151003
0.780265570 0.413156211 0.188361928
0.816192329 0.418975592 0.197216958
0.846553147 0.422011346 0.213915065
0.874510050 0.425047725 0.225426629
0.902213573 0.430740267 0.234535009
0.933712363 0.436179698 0.245287955
0.964073181 0.440986514 0.256546587
0.994433999 0.447312266 0.271221012
0.106387995 0.382416040 0.138520032
0.112460062 0.385958403 0.138014033
0.129790828 0.386591017 0.137507960
0.149019286 0.387097031 0.137760997
0.167362511 0.386464506 0.137887508
0.182542890 0.383428127 0.134851113
0.205059990 0.383175015 0.135104030
0.232637405 0.382289767 0.137381032
0.260468125 0.380519003 0.142694131
0.281720519 0.386591017 0.145730525
0.301075011 0.386844009 0.141050041
0.327134490 0.387097031 0.142315000
0.356103659 0.386211395 0.144592032
0.383428067 0.383175015 0.139278993
0.413788825 0.383175015 0.142314613
0.448197573 0.387729049 0.146995604
0.483112156 0.395319253 0.151549801
0.517141104 0.403795063 0.155724049
0.553573966 0.409867078 0.161796078
0.598355412 0.418469369 0.174193367
0.641745508 0.427577764 0.178747699
0.681720138 0.435167909 0.179000989
0.715116501 0.438203543 0.185072988
0.751422822 0.444149047 0.188235134
0.784060538 0.447691292 0.197596535
0.816698313 0.451866031 0.211385354
0.851866126 0.457432061 0.225806102
0.882226825 0.460468441 0.234914482
0.907779992 0.465908021 0.246679008
0.937128127 0.472232968 0.260594219
0.969639182 0.479190588 0.274003655
1.000000000 0.488298982 0.283112049
0.112459995 0.406704813 0.153700411
0.118532769 0.415812433 0.147628412
0.139658600 0.415053725 0.142820865
0.158127666 0.416445404 0.141808748
0.170651123 0.419734389 0.144212544
0.191650510 0.413788885 0.146995887
0.211890891 0.415812492 0.154079512
0.238709390 0.419860810 0.153067410
0.266034186 0.420999616 0.151802510
0.284756929 0.416950971 0.154838905
0.314737409 0.417203963 0.160784408
0.340543658 0.419228226 0.158254147
0.367362261 0.420493394 0.159392640
0.392536432 0.419607788 0.160531372
0.419860810 0.416571379 0.163566977
0.447817773 0.418975204 0.161796212
0.480075777 0.425680012 0.163693801
0.514104724 0.434155792 0.168627128
0.550537586 0.440227836 0.180012807
0.595319688 0.446299821 0.172169462
0.637065113 0.454902142 0.177608997
0.677166104 0.464010268 0.182795703
0.715116501 0.471599877 0.191144988
0.748513699 0.474636286 0.197217003
0.787096679 0.476027817 0.202656418
0.820493340 0.478052080 0.215559915
0.851613045 0.481720716 0.232131824
0.879190445 0.484756410 0.244022861
0.909551203 0.487792820 0.255787373
0.938646317 0.495003134 0.269702584
0.969639182 0.503478587 0.283111989
1.000000000 0.512587011 0.292220414
0.128146604 0.445414573 0.166476995
0.134218752 0.447312027 0.162808180
0.146742761 0.449968398 0.156736180
0.165465161 0.452245444 0.156988963
0.176470593 0.457937777 0.160784230
0.199746743 0.451865762 0.155724138
0.220999122 0.453384072 0.163820475
0.242251500 0.454775393 0.166350082
0.270335168 0.457811803 0.163314089
0.295129955 0.455028415 0.166350484
0.317773819 0.454775393 0.165085182
0.344085783 0.452751130 0.167109191
0.371030629 0.452751428 0.165591002
0.396837294 0.451992601 0.167109191
0.424162209 0.455407977 0.167994574
0.453889787 0.454775423 0.173434600
0.481214195 0.456293613 0.173434600
0.514104724 0.462112784 0.174572811
0.552308798 0.468184769 0.176091149
0.592283249 0.476660609 0.180771634
0.639721632 0.486527592 0.186843723
0.679696262 0.495129794 0.190385804
0.717646837 0.502466619 0.192915976
0.753320694 0.503225684 0.208095998
0.782163262 0.506262064 0.209613994
0.815559685 0.506388605 0.219607651
0.845414281 0.509424686 0.235800192
0.876533628 0.516255319 0.247944176
0.899304032 0.516887784 0.260088801
0.934977949 0.523466170 0.270461559
0.964579403 0.532574177 0.283491403
0.990386009 0.541682601 0.294117987
0.141809195 0.486401170 0.175584987
0.144845188 0.487919360 0.178620979
0.160404965 0.487919360 0.171916187
0.171790183 0.487919360 0.168374196
0.182542980 0.495888561 0.175584987
0.206830993 0.494370550 0.169892266
0.228589311 0.494370699 0.171410307
0.251359880 0.494244188 0.176976666
0.273371190 0.494244188 0.173181385
0.302213788 0.494244188 0.173940673
0.325363874 0.495762378 0.174193323
0.354712397 0.493738115 0.173181191
0.379000396 0.491840363 0.174319834
0.405945212 0.489437163 0.174193382
0.433270037 0.492979169 0.171663374
0.462998152 0.492726386 0.176470593
0.494876355 0.494244188 0.179506987
0.522200763 0.494876772 0.181277618
0.558127761 0.500063360 0.176091000
0.594560564 0.505882323 0.179633200
0.636685610 0.516888320 0.188361540
0.680202305 0.525996208 0.201517940
0.716002464 0.531435728 0.198481992
0.751043618 0.532827377 0.211132005
0.783681095 0.533586442 0.221758381
0.809614122 0.536622465 0.223149702
0.838330090 0.537255049 0.237824067
0.872738600 0.544338942 0.250980169
0.900062799 0.546995163 0.266160458
0.927387357 0.550790608 0.275016129
0.965970993 0.559898794 0.289436936
0.990386009 0.569006979 0.304744184
0.146489859 0.526502132 0.180391997
0.150284991 0.530170918 0.189500391
0.162808612 0.530424118 0.186970219
0.180898398 0.530424118 0.182921976
0.188867956 0.530424118 0.182542518
0.212902978 0.535990119 0.182289571
0.234661311 0.537634492 0.182921976
0.256925821 0.535989940 0.182036713
0.281847000 0.534345090 0.185325980
0.306135029 0.534345090 0.179253981
0.331056327 0.535989940 0.180012703
0.361543506 0.536875427 0.181656986
0.394686997 0.534345090 0.182795629
0.419481069 0.534851074 0.186084986
0.447184980 0.535610080 0.181530982
0.476913154 0.532574296 0.182542980
0.508159161 0.531941891 0.186843976
0.540290713 0.534977674 0.186211407
0.567615211 0.538014054 0.183175012
0.599873543 0.540417314 0.185705334
0.637697875 0.546616018 0.192536399
0.677166522 0.556989431 0.200379118
0.710562944 0.559898555 0.209360987
0.743959546 0.562428892 0.215432987
0.777355909 0.563820541 0.225426987
0.806577742 0.564579427 0.235294297
0.831878543 0.567615151 0.239848107
0.868058264 0.570651591 0.254902005
0.899177551 0.572422326 0.270840973
0.930802941 0.577229381 0.283870816
0.961037219 0.584187508 0.293612003
0.997470021 0.593295157 0.320936441
0.134345084 0.569006979 0.180392027
0.152561858 0.575078964 0.189500406
0.162808239 0.574446797 0.190006241
0.177988231 0.572928965 0.190259010
0.197975606 0.572928965 0.194686562
0.219227970 0.572928965 0.191650957
0.240733311 0.575964630 0.193927661
0.261985719 0.575458705 0.190132737
0.285009176 0.573940814 0.185832009
0.312207043 0.576849997 0.191398025
0.339405626 0.573940873 0.185326025
0.366477251 0.577482939 0.186084718
0.395699024 0.579380333 0.188867658
0.425553083 0.577355981 0.192157015
0.455913842 0.583428025 0.198229015
0.486021578 0.579380035 0.193675026
0.516381979 0.576597035 0.194687024
0.546362758 0.577482581 0.198355451
0.573687971 0.580518961 0.195319057
0.603794992 0.580771983 0.197849378
0.638203502 0.581024945 0.204680756
0.674130142 0.585072875 0.211764812
0.707526565 0.593294978 0.215433002
0.740923703 0.593294978 0.221505016
0.774320245 0.595825374 0.229854301
0.803541899 0.597217023 0.240607038
0.828842163 0.597976089 0.251992136
0.859202862 0.601012468 0.264136910
0.890069664 0.598735213 0.273877144
0.923972309 0.601517975 0.287286192
0.957242548 0.608475626 0.301707625
0.985326052 0.617583990 0.317900062
0.152814373 0.625427127 0.199873373
0.159898415 0.628715694 0.197849751
0.175964430 0.626185715 0.202656582
0.192662686 0.626312375 0.203415543
0.214674264 0.628968954 0.207210720
0.231119648 0.626565754 0.206578314
0.249841705 0.626565754 0.201012373
0.274130046 0.626059413 0.201644719
0.298418552 0.623782396 0.198988274
0.323719263 0.624794245 0.203036010
0.353826284 0.622011662 0.205819368
0.383175164 0.620999753 0.201771110
0.410120279 0.624415100 0.203289017
0.437191725 0.624920726 0.206578374
0.467551827 0.625932753 0.212650359
0.505123377 0.627197742 0.218722358
0.532068551 0.624920726 0.214168385
0.558001280 0.624288321 0.213282794
0.585325956 0.623023748 0.210246399
0.620999753 0.620493412 0.212776721
0.653257430 0.622391164 0.217710361
0.686780632 0.623276770 0.222897008
0.718153238 0.626818597 0.224541336
0.746236682 0.629474699 0.235926375
0.775079250 0.629474699 0.244275659
0.807463646 0.630613387 0.254775345
0.837444425 0.631119430 0.266919494
0.870081842 0.634155869 0.279064268
0.903099418 0.634535432 0.291208357
0.933586299 0.636938691 0.307526886
0.966223836 0.644781709 0.325616717
0.995446026 0.655787408 0.342694372
0.164579004 0.666034460 0.211638004
0.180138722 0.667172849 0.214294627
0.185072511 0.665654480 0.215559959
0.200252891 0.660847306 0.218595907
0.222264543 0.665401280 0.222391188
0.240480930 0.668437660 0.226944983
0.260088742 0.664136767 0.219987735
0.283238441 0.667425752 0.218849018
0.309803754 0.664389431 0.216824889
0.334092259 0.662112474 0.215306506
0.362302482 0.662998319 0.218342856
0.390765250 0.660088718 0.219228476
0.419987381 0.660088718 0.219607741
0.445541054 0.662112474 0.223403022
0.475901425 0.662112474 0.227830723
0.505882382 0.660214722 0.226312727
0.540796995 0.660214722 0.229348734
0.565085351 0.660214722 0.225933149
0.593675077 0.658443928 0.225426778
0.629348755 0.657305360 0.229854345
0.660088718 0.656166732 0.234787971
0.691461146 0.657179117 0.238835976
0.720556736 0.656420231 0.238962486
0.744339168 0.659455836 0.245793745
0.775458515 0.662112474 0.257558286
