Assets/EldamarStudio/100 Retro LUTs Pack/LUTs/cube/Megan LUT.cube
LUT_3D_SIZE 8
DOMAIN_MIN 0.000000 0.000000 0.000000
DOMAIN_MAX 0.903226 0.903226 0.903226
0.000000000 0.000000000 0.007843000
0.095129542 0.012903451 0.016445000
0.230360284 0.026691904 0.029854810
0.349778622 0.024667645 0.029727997
0.481846988 0.045287993 0.064895995
0.628589690 0.080202736 0.105628990
0.795951545 0.122833565 0.150284573
0.924604654 0.170145810 0.198987797
0.021125998 0.108918093 0.024288097
0.112839997 0.105756000 0.020746548
0.226059541 0.117520191 0.040354453
0.347501636 0.123339541 0.054016288
0.471600175 0.138646275 0.082226381
0.626565456 0.160151541 0.113219351
0.788488150 0.186717242 0.152814701
0.909804225 0.223023355 0.197976261
0.051739097 0.221758187 0.067425899
0.124984451 0.226059541 0.063883543
0.220873192 0.223276183 0.063377999
0.338013649 0.230739832 0.083744287
0.474004000 0.248323992 0.114357993
0.626945019 0.273371100 0.140923470
0.796078265 0.297786206 0.174699560
0.915369987 0.323592663 0.218595982
0.094749995 0.341429263 0.120556280
0.147122175 0.350537717 0.120176733
0.246299744 0.347374886 0.119671084
0.346995264 0.346995264 0.126122996
0.469829381 0.361796260 0.147754550
0.629095197 0.391904026 0.168880537
0.780265570 0.413156211 0.188361928
0.902213573 0.430740267 0.234535009
0.141809195 0.486401170 0.175584987
0.182542980 0.495888561 0.175584987
0.273371190 0.494244188 0.173181385
0.379000396 0.491840363 0.174319834
0.494876355 0.494244188 0.179506987
0.636685610 0.516888320 0.188361540
0.783681095 0.533586442 0.221758381
0.900062799 0.546995163 0.266160458
0.164579004 0.666034460 0.211638004
0.222264543 0.665401280 0.222391188
0.309803754 0.664389431 0.216824889
0.419987381 0.660088718 0.219607741
0.540796995 0.660214722 0.229348734
0.660088718 0.656166732 0.234787971
0.775458515 0.662112474 0.257558286
0.901960731 0.667931736 0.304490983
0.257052273 0.780265570 0.292093575
0.291587710 0.785325348 0.301834255
0.360025167 0.783554554 0.302846283
0.453004628 0.781277537 0.310183614
0.554459453 0.780392110 0.308286071
0.660594285 0.777735710 0.311954498
0.769513249 0.777988255 0.319165289
0.888931096 0.780012488 0.361543566
0.418975562 0.911574781 0.442251623
0.441871881 0.915117204 0.443390310
0.486653686 0.917394042 0.452118665
0.549905241 0.915369928 0.458064437
0.625933170 0.918532789 0.453383952
0.716128767 0.917520523 0.472485572
0.812144041 0.920682907 0.478684127
0.922074616 0.918152869 0.494623601
0.026691999 0.027830547 0.126122996
0.114358090 0.019987453 0.125363991
0.218216553 0.041872449 0.133965984
0.328273177 0.074003644 0.151170090
0.446552992 0.104996897 0.172296181
0.600126207 0.128526181 0.205945283
0.776344001 0.142188549 0.229854822
0.907526970 0.188235521 0.261606365
0.032891002 0.106515095 0.121062547
0.117140636 0.117520094 0.126122996
0.207590193 0.116255544 0.137507543
0.320809722 0.137887090 0.156356558
0.448576719 0.156989351 0.181404337
0.591777027 0.179380089 0.203289017
0.755850554 0.193927839 0.227957100
0.889942944 0.225047529 0.250221223
0.082226098 0.211512089 0.149652094
0.134724990 0.224921003 0.154332995
0.222896636 0.215433195 0.155091986
0.325869381 0.231498837 0.168374181
0.446426392 0.249842077 0.191524535
0.603921533 0.269449979 0.217077792
0.772042990 0.296394825 0.235420644
0.906641424 0.321062446 0.278051794
0.114610821 0.332827181 0.191524431
0.165212184 0.335230976 0.187223196
0.237191379 0.332827181 0.187097192
0.336749166 0.335231006 0.195825174
0.453763813 0.352814615 0.204806924
0.602403224 0.378115177 0.219607934
0.760910809 0.404427618 0.243769825
0.888045728 0.424035639 0.278557837
0.148260817 0.474636167 0.216698542
0.188361734 0.477292687 0.222391188
0.271853179 0.478558093 0.226818636
0.369639367 0.481720299 0.227703631
0.478937626 0.482858747 0.233143643
0.620366454 0.506388545 0.244149357
0.767868280 0.529664457 0.264769167
0.898418784 0.540291011 0.303478539
0.164073348 0.652245700 0.268437445
0.224288747 0.650727570 0.268564075
0.310056984 0.653889775 0.269576281
0.414041817 0.654142976 0.272612274
0.528399825 0.653384030 0.270714730
0.650348008 0.648703337 0.276407480
0.776091039 0.651486576 0.298039079
0.894370556 0.668943644 0.349019527
0.259835571 0.770524859 0.328652829
0.299936533 0.772548974 0.331688672
0.361543179 0.773055017 0.339279026
0.450221151 0.772928596 0.341935456
0.549019575 0.769765973 0.349019349
0.657305360 0.770272136 0.347248584
0.768121123 0.769513249 0.354459077
0.876660347 0.773940504 0.389626622
0.434661567 0.907020807 0.459202677
0.460974038 0.909424305 0.479443163
0.495003164 0.912839949 0.478557885
0.559772372 0.910309613 0.485009313
0.631119609 0.909171224 0.492346555
0.724351764 0.914231598 0.494243860
0.815433383 0.911954343 0.505249798
0.913852036 0.916887760 0.520556331
0.021885095 0.027450999 0.273498118
0.124605000 0.028209999 0.262871623
0.228716180 0.048577003 0.249083087
0.326248914 0.079063997 0.250221550
0.453637064 0.122201189 0.275015891
0.596837461 0.151676357 0.302719831
0.758254409 0.168374375 0.332194984
0.889436960 0.222643808 0.364579350
0.065021999 0.129285082 0.236559182
0.131941631 0.130423620 0.243643194
0.218596101 0.137507543 0.240101531
0.319671184 0.150031641 0.248324096
0.439974725 0.175458282 0.279823005
0.582415879 0.201897547 0.304111183
0.741049707 0.207337543 0.323972106
0.879949570 0.246932209 0.355092019
0.093231998 0.225679994 0.246047094
0.150031537 0.225679994 0.244402185
0.238962993 0.235041186 0.258570164
0.327893734 0.243263736 0.264389753
0.437065303 0.263251275 0.282732397
0.583807707 0.278557748 0.310562819
0.755091488 0.299304396 0.338393271
0.888551593 0.338772923 0.373561174
0.146489188 0.328905374 0.274130076
0.184060887 0.331309199 0.273371100
0.254142821 0.335990071 0.285136104
0.338772744 0.343074292 0.285515726
0.446426392 0.355597496 0.300063193
0.593801200 0.376976639 0.314105093
0.752814472 0.406451583 0.338646740
0.875901341 0.430993110 0.374572933
0.174826086 0.464516282 0.308792114
0.208981559 0.469955474 0.309044689
0.280581981 0.473118365 0.314104974
0.366477162 0.471852928 0.309424281
0.476154387 0.473877251 0.314990193
0.612144172 0.500442564 0.329917908
0.756230295 0.522580385 0.354079485
0.877799094 0.546868920 0.397976011
0.181150913 0.643643141 0.352308452
0.233902454 0.640480816 0.358633369
0.316382110 0.644402206 0.355217844
0.414800733 0.644402206 0.359139830
0.527766943 0.643137336 0.361922920
0.642504454 0.644402206 0.362048894
0.763187647 0.649082899 0.387602687
0.882479608 0.671853185 0.440733761
0.305629283 0.762428761 0.411764652
0.336875379 0.767615557 0.427451253
0.397596627 0.767235994 0.425806582
0.469070256 0.765844226 0.430992991
0.560657501 0.766350329 0.433143675
0.657558739 0.764326274 0.434787899
0.756862640 0.763187647 0.444528729
0.874383330 0.772422433 0.472358882
0.476154357 0.904364347 0.544465542
0.489183843 0.904237568 0.542314768
0.527513921 0.906388581 0.550664067
0.579126954 0.907653451 0.549778402
0.647691131 0.907653451 0.553446949
0.729158640 0.908412337 0.558759928
0.816571772 0.911068678 0.567741692
0.911321938 0.914357960 0.571031094
0.038709641 0.043769997 0.414800644
0.137001976 0.055154640 0.406198621
0.257305741 0.075142287 0.402656376
0.355976909 0.099810354 0.388488293
0.459076464 0.130550355 0.388235450
0.596964180 0.152435258 0.413662374
0.760657549 0.169259995 0.448956281
0.890954912 0.239721596 0.473497629
0.101201996 0.157495096 0.384945929
0.158254102 0.161416918 0.381530404
0.245540634 0.168121457 0.383048385
0.348640174 0.170398653 0.377609193
0.446173638 0.180898085 0.374825805
0.586970091 0.202277005 0.414041728
0.750917137 0.215812728 0.445034981
0.876913369 0.269196332 0.466287196
0.123971924 0.257431746 0.383807361
0.177482545 0.258190751 0.374320179
0.260088354 0.261733115 0.379886299
0.343074083 0.262112737 0.378368288
0.443769842 0.267931849 0.383048385
0.590891838 0.284376979 0.419861078
0.756483197 0.311068803 0.452877998
0.874889195 0.367109150 0.483618021
0.158001363 0.353699923 0.382922292
0.194307193 0.348133922 0.383048296
0.274130076 0.354458928 0.390132993
0.364959270 0.364959270 0.398608267
0.469070375 0.376850098 0.415180206
0.600126207 0.388108730 0.427198023
0.742188215 0.418848544 0.454142988
0.856799543 0.467551917 0.496647894
0.173687637 0.469955564 0.409740448
0.222770095 0.468311280 0.406072021
0.285641849 0.479822844 0.415559739
0.388615012 0.489942998 0.425300270
0.492726386 0.496267915 0.432763815
0.620113969 0.509930372 0.451233447
0.744718254 0.533459723 0.477166384
0.858190954 0.576217473 0.522074521
0.204427615 0.644149363 0.465528280
0.248703361 0.639848173 0.467678368
0.339152098 0.641745448 0.470967829
0.432511032 0.641366124 0.478937656
0.533079982 0.644528806 0.478051841
0.641239822 0.642504454 0.485642284
0.747248709 0.651739478 0.514104843
0.861100435 0.683870912 0.556609690
0.389753550 0.753826261 0.536875308
0.417963535 0.760531247 0.537508070
0.459582448 0.757748246 0.543326676
0.512966275 0.760025322 0.545477867
0.586717248 0.760910630 0.546363115
0.671473682 0.759772003 0.547628224
0.762302279 0.760025561 0.554964960
0.866160512 0.777608931 0.577103078
0.513852119 0.897532761 0.620619774
0.520176947 0.903605223 0.617204130
0.559139669 0.899304211 0.623529315
0.602150798 0.902846158 0.621631563
0.663504124 0.902087033 0.626312613
0.733839333 0.904237568 0.630486786
0.820113897 0.908791780 0.630487144
0.912713408 0.910309613 0.636938453
0.083617993 0.088424996 0.579633176
0.162428632 0.099810444 0.581277370
0.281088084 0.113599092 0.579633415
0.398735285 0.127640992 0.563441038
0.517773569 0.137887180 0.562428355
0.625047445 0.148892999 0.547880888
0.766982734 0.177735567 0.575838089
0.889057577 0.247817621 0.578368187
0.115496635 0.186717346 0.559013307
0.191650540 0.192789182 0.563693523
0.282352835 0.193548188 0.567868352
0.394813240 0.194307193 0.559645772
0.504364192 0.203415647 0.552941382
0.610120237 0.202529728 0.541935384
0.750284672 0.221252441 0.560910583
0.876407087 0.276913166 0.575331807
0.143453285 0.289184093 0.545983434
0.201897457 0.287792623 0.559013009
0.285895288 0.292979211 0.547375202
0.392536253 0.287918836 0.547501445
0.500569165 0.289057374 0.545098305
0.609361351 0.288677841 0.540670216
0.755218387 0.310816199 0.569639385
0.873118222 0.379253894 0.587729037
0.158507198 0.392030656 0.553320765
0.197849542 0.396331370 0.546236753
0.289436847 0.391903818 0.546616256
0.390132993 0.393169284 0.547122002
0.496521264 0.389626831 0.541935444
0.609487832 0.390006274 0.545857072
0.744212568 0.427071720 0.573687732
0.850600779 0.481594056 0.600379765
0.158380806 0.503858209 0.543453574
0.213409543 0.502973139 0.554965019
0.295383006 0.507653236 0.559392393
0.397849262 0.510689378 0.557748377
0.531056345 0.531056404 0.578115404
0.630739987 0.536622405 0.585325599
0.738393247 0.564073265 0.601138473
0.844402075 0.609234810 0.632005036
0.220493272 0.640986681 0.578241587
0.262745172 0.643263638 0.581783712
0.348386914 0.642504632 0.584313631
0.461100459 0.642504454 0.588741064
0.566097677 0.651992321 0.603415370
0.653510511 0.653889954 0.610625923
0.745224297 0.667552173 0.620619953
0.859076440 0.696520925 0.653889894
0.404807091 0.754712284 0.615053654
0.432890445 0.758507371 0.622138202
0.477039993 0.758507371 0.627703905
0.540291011 0.759012997 0.632890582
0.614294589 0.760151684 0.636306167
0.679696441 0.760531127 0.639721751
0.761543334 0.761543572 0.644908488
0.867299139 0.784187376 0.665148735
0.512587011 0.898291945 0.684376776
0.533080101 0.899177492 0.688551545
0.565971076 0.897027075 0.692093611
0.620113611 0.898165703 0.688678265
0.668311179 0.897406578 0.693105578
0.738899529 0.902213573 0.691460967
0.822390676 0.908032835 0.700695932
0.910689414 0.908791780 0.705249786
0.140796989 0.144844994 0.722959757
0.204427287 0.153067544 0.721315563
0.303478748 0.164073437 0.720429897
0.417204529 0.168627739 0.720303357
0.539152145 0.182416186 0.711448252
0.654142976 0.193674728 0.709044993
0.761922777 0.201771170 0.701834679
0.882226527 0.253130883 0.696394682
0.159266338 0.218343079 0.703225732
0.212017283 0.222137541 0.708665550
0.304744095 0.223529533 0.707147598
0.418722540 0.227450818 0.707906544
0.525996089 0.229854539 0.701707959
0.638583481 0.238836274 0.693484962
0.749398828 0.237191558 0.688677967
0.865780950 0.277925164 0.696774244
0.189626813 0.323592484 0.708159387
0.230486810 0.325110376 0.701075256
0.317520738 0.317141205 0.704491079
0.422264248 0.326628566 0.701328337
0.529538393 0.324225277 0.697280467
0.640101373 0.328399837 0.691714287
0.751423061 0.331562012 0.693105638
0.868058443 0.382669181 0.703352332
0.210879087 0.420746028 0.688045859
0.261859536 0.428716004 0.692726195
0.335483551 0.427451164 0.688551307
0.427830517 0.427324265 0.685388982
0.526249290 0.431246251 0.683870971
0.627071738 0.432384908 0.683617711
0.735230923 0.434914678 0.680328727
0.851612747 0.485515594 0.698292017
0.259076446 0.530043900 0.698165655
0.300569117 0.542062163 0.691840351
0.374319822 0.542062044 0.691967010
0.465275109 0.551802933 0.689942956
0.557241917 0.558760107 0.684503675
0.641998887 0.558760107 0.687413156
0.736622453 0.565843999 0.690322459
0.850980341 0.603541911 0.712840140
0.341935158 0.650348008 0.699557245
0.369386375 0.650727570 0.700569391
0.431119561 0.653510392 0.699304223
0.507906735 0.657305360 0.697406471
0.587223113 0.661986470 0.695508718
0.674003959 0.671979725 0.703352749
0.753446758 0.678431451 0.711827755
0.854016602 0.706641495 0.731941581
0.414041549 0.751675963 0.702214003
0.433902740 0.755091846 0.698671758
0.486780524 0.754459262 0.712334096
0.542062044 0.752941132 0.712586820
0.609993935 0.755724013 0.713851988
0.692219734 0.761922777 0.719291270
0.763693511 0.768121123 0.720809281
0.868943572 0.789880037 0.737634361
0.512460470 0.897786021 0.756103516
0.529285252 0.896268189 0.761669636
0.553573847 0.897786021 0.758760214
0.606578052 0.897027135 0.754965067
0.669829130 0.897279739 0.759266496
0.744844615 0.898544908 0.765211701
0.819734395 0.903984785 0.773813844
0.907653451 0.909044743 0.778747439
0.209740564 0.219228283 0.838456571
0.251865834 0.219607830 0.833902538
0.334472090 0.230993271 0.837823987
0.436559290 0.235546991 0.837317944
0.543706179 0.250474364 0.828209996
0.645287752 0.262239277 0.823276579
0.757748246 0.277040005 0.821125805
0.865148604 0.305376381 0.815686524
0.216698274 0.265781105 0.826186001
0.262365550 0.268311262 0.818848550
0.335736632 0.270208985 0.827197850
0.434534907 0.275648177 0.823276639
0.537887514 0.285009474 0.821379244
0.640986741 0.296774089 0.815812707
0.747248530 0.309171557 0.809993565
0.856926084 0.324098349 0.803542078
0.269323260 0.358633459 0.819228292
0.300189644 0.363820434 0.820366740
0.364073098 0.367362469 0.818089664
0.448450655 0.371916682 0.818469226
0.548513353 0.379000366 0.817330718
0.649589062 0.386337727 0.815307021
0.756103575 0.400000095 0.810246527
0.858443737 0.424541295 0.812144041
0.339532197 0.475015819 0.809866905
0.366476923 0.478937268 0.806451678
0.415053815 0.483364910 0.809740841
0.485641927 0.486148268 0.811638296
0.569765806 0.488804817 0.806577921
0.657684982 0.494750142 0.802403390
0.745477557 0.504743874 0.799241006
0.843137383 0.513472438 0.793295264
0.397343278 0.582669199 0.804554284
0.432005167 0.584693134 0.810752630
0.477545649 0.596964061 0.802277148
0.538899422 0.605692506 0.805945575
0.598481894 0.604048193 0.800000072
0.673877299 0.604807258 0.796078503
0.755470932 0.607969582 0.798608363
0.845414400 0.612397075 0.799493790
0.465148568 0.687539577 0.806325257
0.482352972 0.689057708 0.819481373
0.521821439 0.689057589 0.811638296
0.571663618 0.694244027 0.808222830
0.631878734 0.698165417 0.807590008
0.696647227 0.697026789 0.800885260
0.768754244 0.695129573 0.802783012
0.863630652 0.702340305 0.817331016
0.482606262 0.763946533 0.799620271
0.495762289 0.766223788 0.800379515
0.531182468 0.766223848 0.809361279
0.579000592 0.770145297 0.810499907
0.634787977 0.771031201 0.805566132
0.701834500 0.775332034 0.804427743
0.781910241 0.781910300 0.813282788
0.877799094 0.801012039 0.823782146
0.518279493 0.892093599 0.835167348
0.533839226 0.890322804 0.848197579
0.559519053 0.891081512 0.841239929
0.604427576 0.895255983 0.844149053
0.661353648 0.899809897 0.840733528
0.732574522 0.900063217 0.841365874
0.822643936 0.903731763 0.854016244
0.910309613 0.909930170 0.859455943
0.299683630 0.303604960 0.959898651
0.324984372 0.309171319 0.954965055
0.392283082 0.316129029 0.953446925
0.473750651 0.323212951 0.954964817
0.570272207 0.339152277 0.949398816
0.670208752 0.360278368 0.945603788
0.776091099 0.386337906 0.946109831
0.880075991 0.422770411 0.940290630
0.312207639 0.338519782 0.948766589
0.338899344 0.338899344 0.950917244
0.396078408 0.350790650 0.949019372
0.476154149 0.360025048 0.949398875
0.566223860 0.370904624 0.945098221
0.668690979 0.388108552 0.939531624
0.772169411 0.410372883 0.935357213
0.876660764 0.435926616 0.932320833
0.372169584 0.434661865 0.939531744
0.401770949 0.436053067 0.945224285
0.443137139 0.444402009 0.942820966
0.513978481 0.454395890 0.941555798
0.599493980 0.465907753 0.941682577
0.690448940 0.482226431 0.941935539
0.786084890 0.497280270 0.938013911
0.881467640 0.520556688 0.933586299
0.454649031 0.553447247 0.938266814
0.474509746 0.559392750 0.940797031
0.507273793 0.562555373 0.937634230
0.557748079 0.566856205 0.937887430
0.629728138 0.570524871 0.936748803
0.702972889 0.573560953 0.931562304
0.785451889 0.577229500 0.928399384
0.881214619 0.583175361 0.928273261
0.523592770 0.656166971 0.932320774
0.541808784 0.660468161 0.932447672
0.564452827 0.660088599 0.935357153
0.602909625 0.657305658 0.934851408
0.659835637 0.658570826 0.935104489
0.725490153 0.657684803 0.930044115
0.801138699 0.657432139 0.931688547
0.885388911 0.664009988 0.927640557
0.550916970 0.736622512 0.938393414
0.560530841 0.741682708 0.937254608
0.585199058 0.743579984 0.940670371
0.628463149 0.745477736 0.936369359
0.678937376 0.742441416 0.939531684
0.740923643 0.743579984 0.940417647
0.814421415 0.743453562 0.930929422
0.897026956 0.744212568 0.935610533
0.549652040 0.818216026 0.934598029
0.569639564 0.818216562 0.940544248
0.592030168 0.817963362 0.936369658
0.633396566 0.821125686 0.942567885
0.683618009 0.821125746 0.930549920
0.752055526 0.820999563 0.933080494
0.825300097 0.824035227 0.939911187
0.909930170 0.828336358 0.936622322
0.577988803 0.910309613 0.942820966
0.595319450 0.907020807 0.947122037
0.624035835 0.908412337 0.945983529
0.657305419 0.910309672 0.946616173
0.709804118 0.910436392 0.946868777
0.771916330 0.912081063 0.946109891
0.844781756 0.915117204 0.945603609
0.929917574 0.928525925 0.948133945
