Assets/EldamarStudio/100 Retro LUTs Pack/LUTs/cube/Megan LUT.cube
LUT_3D_SIZE 5
DOMAIN_MIN 0.000000 0.000000 0.000000
DOMAIN_MAX 0.903226 0.903226 0.903226
0.000000000 0.000000000 0.007843000
0.198481694 0.025173709 0.029095709
0.413282812 0.030740418 0.041871995
0.670082092 0.089310862 0.116761126
0.924604654 0.170145810 0.198987797
0.046425998 0.192915976 0.050727699
0.191271693 0.195192695 0.056546707
0.411005676 0.211890981 0.089310698
0.675268710 0.255408108 0.138646558
0.916382074 0.295003235 0.208981529
0.112459995 0.406704813 0.153700411
0.238709390 0.419860810 0.153067410
0.419860810 0.416571379 0.163566977
0.677166104 0.464010268 0.182795703
0.909551203 0.487792820 0.255787373
0.176723242 0.696394980 0.222770125
0.291334689 0.693738282 0.239089534
0.481973797 0.691461146 0.243643537
0.688425004 0.688551247 0.255028248
0.894876599 0.698039293 0.320683241
0.418975562 0.911574781 0.442251623
0.468943268 0.917141020 0.446299583
0.585452020 0.917520344 0.458064437
0.740923405 0.917773485 0.471726745
0.922074616 0.918152869 0.494623601
0.021884711 0.025173709 0.239342406
0.199114695 0.037950993 0.220999405
0.385831803 0.094876409 0.231498972
0.637318134 0.153953135 0.293611586
0.893485069 0.214294508 0.333965510
0.076533988 0.196837395 0.214168116
0.208602399 0.204680413 0.225932688
0.378621399 0.229854703 0.248829693
0.635420322 0.258317411 0.294623554
0.895129800 0.311701655 0.345983535
0.162175566 0.394939810 0.271347404
0.241239995 0.402530104 0.276913255
0.412017375 0.407716721 0.276281089
0.652371943 0.451865822 0.303478807
0.890575349 0.497659802 0.371536791
0.191524521 0.681340992 0.340164244
0.300948411 0.680075824 0.339531839
0.481973380 0.679696143 0.350917131
0.677419305 0.679063678 0.354205936
0.886021674 0.695129633 0.427577347
0.472106457 0.907653451 0.527261317
0.506767750 0.910183787 0.531435728
0.607336879 0.911574781 0.533459902
0.752688110 0.906388581 0.546362817
0.914863944 0.915116906 0.555344582
0.056926407 0.064769410 0.493738204
0.240986690 0.090954989 0.485262364
0.428336382 0.123592407 0.473497808
0.647817969 0.157242283 0.485009521
0.886653900 0.238203794 0.523086786
0.137001693 0.249462694 0.456799507
0.246552825 0.250095129 0.454522401
0.418216109 0.251106977 0.453510523
0.635420561 0.266792983 0.485262394
0.877546072 0.343832910 0.531941712
0.164073423 0.423782796 0.466919810
0.267425835 0.423782796 0.466287196
0.443389952 0.443389982 0.489183784
0.658823311 0.467046052 0.508159220
0.850094795 0.554711759 0.582162857
0.246932656 0.664642513 0.534345210
0.345983356 0.671600401 0.534345388
0.521315336 0.667932153 0.556862533
0.674130380 0.675142527 0.560784578
0.854902089 0.713472426 0.608854771
0.523845375 0.895256162 0.651866257
0.560278237 0.893864632 0.652624786
0.631625772 0.899177313 0.657811582
0.757621944 0.901201546 0.659456134
0.910942197 0.915622771 0.668310940
0.158001125 0.161037251 0.752308369
0.283491701 0.174699247 0.749272227
0.474383116 0.193674833 0.744085848
0.686527252 0.213915259 0.739405274
0.881720662 0.256672919 0.731309116
0.207084119 0.306388289 0.741302967
0.304111570 0.309045136 0.737887561
0.476660401 0.313598692 0.734851241
0.673751116 0.324098527 0.731941700
0.874889195 0.367488474 0.734978020
0.280455112 0.488551825 0.723213255
0.363187671 0.505882084 0.720177174
0.514104664 0.514104664 0.720556676
0.666034102 0.523212969 0.713725567
0.846426368 0.560784221 0.731688797
0.393548369 0.679696143 0.721821249
0.454143137 0.680075943 0.727640986
0.562049091 0.687159836 0.724731147
0.700316250 0.700316250 0.731688976
0.860847652 0.732700944 0.755218029
0.511701643 0.896267891 0.776597083
0.553826690 0.897786021 0.782036662
0.630613685 0.898165464 0.775837898
0.763567090 0.900821924 0.787223399
0.908918619 0.909297705 0.794939756
0.299683630 0.303604960 0.959898651
0.374825954 0.313092917 0.955976903
0.516002357 0.331055939 0.950663805
0.700316250 0.365844607 0.945857108
0.880075991 0.422770411 0.940290630
0.360531360 0.413156301 0.947375000
0.416318476 0.416065753 0.948639810
0.545477211 0.437065184 0.946742415
0.712460279 0.461986005 0.940923214
0.881467640 0.505376339 0.938646376
0.508918643 0.617963195 0.935610354
0.537255049 0.619354784 0.940923631
0.617963135 0.620620191 0.939025760
0.743200541 0.626818478 0.934724927
0.886780679 0.630360842 0.937760770
0.548639834 0.750031650 0.937381506
0.584440231 0.759519219 0.941176474
0.653257608 0.761416674 0.938013911
0.762428939 0.761796236 0.934345365
0.899557054 0.764452815 0.938393652
0.577988803 0.910309613 0.942820966
0.611891329 0.908918619 0.939405322
0.681467652 0.908286035 0.950158179
0.791903794 0.913852096 0.946868777
0.929917574 0.928525925 0.948133945
