Assets/EldamarStudio/100 Retro LUTs Pack/LUTs/cube/Melissa LUT.cube
DOMAIN_MIN 0 0 0
DOMAIN_MAX 1 1 1
LUT_3D_SIZE 32
0.125489995 0.090195999 0.062744997
0.125489995 0.090195999 0.062744997
0.127640769 0.092346773 0.064895771
0.130676836 0.095382839 0.067931838
0.133712545 0.098418549 0.070967548
0.136748940 0.101454936 0.074003935
0.142315000 0.107020997 0.074510001
0.146742716 0.111448288 0.076154292
0.150537997 0.115243196 0.079949193
0.156609997 0.121315978 0.086021967
0.162681997 0.130297124 0.089184128
0.168753996 0.137380987 0.094243996
0.175964639 0.144591644 0.101454645
0.184819996 0.153447002 0.110309996
0.190891996 0.159519002 0.116381995
0.201770991 0.165591002 0.124857798
0.213914990 0.174699381 0.135483995
0.226059139 0.186843976 0.148260564
0.238203943 0.198988020 0.163440987
0.247564644 0.208349362 0.173055366
0.258570462 0.219354987 0.184060991
0.272738993 0.233522981 0.198228985
0.290701985 0.251612484 0.216318488
0.302846014 0.266792923 0.231498897
0.319544584 0.284250557 0.253510565
0.337760985 0.305249959 0.279190630
0.356989145 0.329538137 0.306008995
0.381277889 0.353826880 0.330296963
0.405565947 0.375458777 0.359898597
0.428083152 0.402023911 0.388488144
0.451992184 0.433269799 0.418469161
0.482353002 0.466666996 0.454901993
0.128526390 0.093232386 0.059709385
0.128526390 0.099304385 0.068816997
0.132827386 0.099304385 0.070967771
0.136748835 0.102720000 0.070208997
0.139784545 0.107147381 0.068311386
0.142820939 0.107526928 0.074003935
0.145857319 0.110562682 0.077039681
0.151423395 0.116129026 0.084124021
0.155850902 0.120556675 0.089816682
0.159645617 0.124351583 0.089057587
0.165717617 0.130423605 0.095129609
0.171790123 0.137380987 0.100315988
0.177862391 0.144591644 0.105249643
0.185325995 0.153447002 0.110563032
0.196963996 0.159519002 0.119418383
0.207842991 0.170398608 0.130297378
0.216950983 0.177735761 0.138519987
0.226691559 0.187476560 0.148260564
0.241239563 0.202024415 0.163440987
0.250600964 0.211385041 0.173055366
0.263504118 0.224288344 0.187855989
0.275775135 0.237570986 0.202276990
0.287919372 0.251738995 0.216444999
0.305882394 0.269829303 0.234535292
0.324857652 0.289563656 0.258823633
0.342441648 0.309930652 0.281087965
0.360025376 0.332574397 0.303984731
0.384313494 0.356862485 0.333333373
0.408602238 0.381151229 0.357621342
0.432890326 0.408096343 0.390764952
0.457178801 0.439342350 0.422770172
0.485389382 0.472739011 0.454901993
0.135863230 0.100569226 0.065275222
0.138014004 0.104490995 0.074383393
0.135863215 0.108412229 0.072738774
0.140670389 0.107147388 0.074510001
0.144085780 0.110562995 0.071727000
0.148892939 0.114105001 0.077799000
0.151929319 0.116635226 0.081341229
0.154965281 0.119670831 0.084376842
0.160531223 0.125237226 0.093485229
0.164958522 0.129664510 0.094623528
0.170904547 0.135609999 0.100315996
0.176976532 0.141682506 0.106387995
0.183048993 0.146615908 0.111321643
0.189626992 0.153953001 0.115116999
0.201770991 0.163819999 0.126122639
0.211764768 0.172548831 0.135483980
0.222390965 0.183175415 0.146110192
0.230360523 0.191144973 0.153447181
0.244022757 0.204807207 0.165591210
0.255787343 0.216571644 0.177356362
0.266792983 0.227577463 0.190259725
0.280708492 0.241492778 0.206198767
0.291334957 0.254016250 0.218722254
0.309551001 0.274256825 0.238962814
0.327893496 0.292599499 0.261859506
0.347754568 0.312460572 0.285009563
0.364706069 0.333966076 0.305249751
0.387349755 0.359898746 0.335610092
0.409487635 0.386337638 0.369259715
0.433775932 0.414168358 0.393548161
0.461606175 0.444528937 0.427577347
0.492726237 0.476660222 0.459203005
0.143706322 0.110942319 0.074383162
0.148007557 0.112713546 0.080961548
0.146742389 0.114484549 0.079316840
0.147501171 0.117520154 0.079569995
0.150537550 0.115243539 0.079949543
0.155724168 0.120430157 0.085136160
0.160531327 0.126502156 0.088678159
0.162302449 0.128273278 0.090449288
0.166097164 0.132068187 0.094243996
0.172169164 0.138140321 0.100316003
0.176976725 0.142947152 0.105123155
0.184313819 0.147754505 0.112460315
0.191524476 0.154965341 0.119670674
0.197723001 0.158507064 0.123212993
0.207842991 0.168627307 0.133332983
0.217583790 0.178367794 0.143073797
0.225427032 0.187476188 0.152182192
0.235167816 0.197216973 0.161922976
0.247311860 0.209361017 0.171663210
0.259456158 0.220240176 0.182289705
0.274130136 0.234914303 0.197596565
0.286274135 0.248070970 0.212776959
0.298545331 0.260594487 0.225300491
0.315623015 0.279569924 0.244275898
0.332574159 0.297280163 0.266540140
0.352055341 0.316761345 0.289310336
0.370778084 0.336496085 0.309551150
0.392030418 0.363820434 0.339911312
0.412017614 0.389879942 0.373054594
0.438836247 0.420240372 0.407463372
0.463124275 0.449715555 0.432637542
0.498039007 0.479696155 0.465275019
0.151297003 0.122707449 0.083871000
0.156230450 0.122707449 0.086527832
0.156989321 0.123086996 0.084250540
0.156989098 0.123592839 0.084123708
0.162302107 0.126628548 0.090954997
0.165338501 0.129664943 0.093991384
0.171283990 0.137760773 0.097786225
0.174066991 0.141935095 0.099177547
0.175584987 0.143453196 0.100695543
0.181656986 0.149525970 0.106767543
0.185199410 0.153067678 0.110689409
0.191903830 0.156483263 0.117394246
0.200252652 0.161037445 0.125743359
0.209361047 0.170145050 0.134851038
0.215559542 0.176344275 0.141049549
0.224794343 0.184440196 0.149145812
0.232004985 0.193927750 0.158254206
0.239342079 0.203668535 0.167994991
0.251486123 0.215812564 0.180139020
0.264010280 0.225932896 0.190259352
0.278811008 0.239595070 0.204300985
0.295762092 0.256799132 0.222643659
0.307906091 0.272106022 0.237824038
0.322833449 0.287539452 0.253004462
0.338393271 0.303099275 0.272359312
0.355597645 0.321062654 0.293991178
0.376850069 0.342568070 0.315623134
0.398102432 0.369892418 0.345983863
0.416698068 0.394560635 0.376343936
0.443390012 0.423782557 0.409487337
0.474130481 0.455408096 0.443643123
0.498418540 0.482732534 0.470967561
0.169512987 0.131815061 0.096014999
0.166476592 0.131815061 0.096014999
0.171410605 0.133965835 0.098671839
0.173434868 0.133965835 0.101454869
0.174446866 0.132700548 0.106135383
0.174446866 0.135736942 0.097026996
0.182542607 0.143833324 0.105123378
0.186210990 0.148007870 0.108285934
0.187729001 0.149525866 0.109803937
0.193800986 0.155597970 0.115875944
0.199873745 0.161670014 0.124857798
0.205439940 0.167235926 0.130929932
0.210879222 0.171663642 0.136369348
0.215433031 0.176217824 0.140923038
0.224541411 0.185325444 0.150031418
0.237950727 0.191524059 0.156229928
0.246046737 0.201138392 0.164326191
0.251486152 0.212776914 0.174066976
0.263630897 0.224920943 0.186211020
0.278558224 0.239848301 0.201138377
0.289437175 0.250221670 0.213408977
0.303099245 0.262871742 0.230613247
0.320050836 0.278178006 0.253004432
0.332194865 0.296394825 0.268184841
0.349398911 0.314104915 0.285641909
0.365717649 0.333206654 0.307147324
0.382922053 0.354459077 0.330424011
0.404174417 0.375964403 0.352055848
0.422770649 0.400632620 0.382415920
0.448070794 0.428462923 0.412776351
0.477166265 0.458443880 0.444149196
0.501454949 0.485768914 0.474003941
0.180139318 0.145983323 0.105629317
0.179633245 0.145983323 0.105629317
0.178747639 0.145983323 0.105629317
0.182795838 0.148640171 0.108285837
0.184440225 0.148893103 0.112713225
0.186590999 0.151928946 0.112207383
0.189120680 0.154965326 0.113219641
0.194939718 0.160784289 0.119038604
0.198102415 0.163946763 0.122201093
0.205945641 0.171789989 0.130044326
0.212017730 0.172801986 0.133965552
0.218089983 0.178874001 0.141050190
0.225300640 0.186084643 0.148260668
0.231372640 0.192157000 0.154332325
0.238203734 0.198987901 0.161163405
0.249715313 0.210499316 0.172675595
0.260215014 0.216824695 0.180518448
0.265527904 0.226312727 0.189626575
0.275774986 0.236559018 0.199873343
0.290702373 0.251486361 0.214800686
0.303985000 0.264768988 0.228083313
0.313725471 0.275521934 0.240227580
0.327387989 0.289310604 0.258444279
0.344339013 0.307526827 0.280834913
0.358760267 0.328020275 0.302846551
0.378114969 0.347880960 0.322960287
0.395572394 0.369133383 0.346616387
0.412776738 0.390385747 0.371916741
0.436432332 0.414294928 0.396078259
0.459962279 0.442125231 0.428209901
0.491334587 0.473370880 0.460215211
0.522201002 0.503984630 0.492220312
0.194180995 0.159518987 0.118026696
0.190891996 0.159518987 0.116381988
0.195825696 0.162808403 0.122959986
0.194560528 0.160278082 0.120429985
0.196457699 0.162175834 0.122327246
0.198228940 0.165211767 0.125363633
0.202909380 0.168248028 0.126755312
0.205945417 0.171283990 0.131435990
0.210499793 0.175837785 0.135989785
0.219608188 0.184946179 0.145098180
0.225806698 0.188614696 0.150031537
0.231878698 0.192662686 0.153446794
0.237950698 0.198734701 0.159519568
0.246553034 0.207337022 0.168374419
0.254016697 0.214800701 0.177229404
0.261606693 0.222390696 0.184819594
0.273750693 0.234534681 0.196963981
0.281340688 0.242125422 0.206830844
0.291460991 0.252245456 0.216951385
0.301201642 0.263630360 0.231625348
0.314484715 0.276913404 0.244908407
0.326628715 0.291081429 0.258064538
0.336748958 0.304743975 0.271347672
0.354965001 0.322959989 0.295635730
0.369259983 0.341808975 0.319924265
0.385831684 0.361669660 0.341429681
0.407337129 0.383681059 0.363947123
0.425933123 0.407210410 0.392410129
0.447438359 0.429474920 0.415433347
0.471852899 0.454016626 0.440100849
0.500948846 0.485262275 0.473497838
0.536621988 0.518658698 0.506894290
0.211638093 0.173181191 0.134725094
0.207843199 0.173181191 0.132447794
0.209487766 0.176723450 0.136369094
0.215812936 0.179253772 0.143200204
0.213156104 0.173940092 0.138266653
0.213156104 0.176596940 0.141302943
0.217457190 0.180392414 0.143326998
0.221884713 0.182669476 0.145098001
0.225679979 0.186464190 0.151170179
0.234788373 0.195572585 0.160278574
0.241745993 0.202529997 0.167236000
0.247817993 0.208602205 0.172042832
0.253890008 0.214674190 0.176217377
0.260215044 0.220999151 0.182543054
0.269323409 0.230107397 0.194180995
0.276787102 0.237571076 0.202277094
0.284377068 0.245161086 0.209867090
0.296521068 0.257937670 0.222643659
0.308665097 0.270208955 0.234914958
0.316761106 0.280328751 0.250600725
0.326628566 0.291334569 0.263883561
0.338014007 0.304744005 0.277799129
0.350410998 0.322960019 0.293105960
0.368627191 0.341176182 0.316129029
0.381530672 0.358633667 0.339658469
0.397217155 0.377609164 0.361922979
0.415939242 0.396837175 0.381657183
0.439974964 0.423908502 0.411764979
0.461606860 0.445919871 0.434155881
0.486148030 0.470461488 0.458697021
0.512333810 0.495888650 0.484123647
0.545730233 0.529285073 0.517520070
0.226818502 0.191397980 0.155977502
0.229854897 0.191397980 0.155977502
0.228210211 0.193548203 0.153700218
0.229475006 0.195445538 0.153826669
0.234408498 0.195192501 0.156483442
0.234408498 0.195192501 0.159519047
0.236938819 0.200379655 0.165085003
0.240101263 0.203036502 0.167615011
0.243896008 0.204680979 0.169386193
0.249967992 0.210752994 0.175458983
0.259076387 0.219860613 0.184566632
0.266034007 0.226818517 0.191524014
0.272106022 0.232890978 0.197469786
0.278431028 0.239215940 0.203795463
0.287539393 0.248323530 0.212903067
0.296647787 0.257431805 0.222137809
0.304111481 0.264895499 0.229601488
0.311701447 0.273118079 0.237824053
0.323845506 0.288298488 0.253004491
0.335989475 0.300569028 0.270841002
0.347880960 0.312586963 0.285135955
0.359013349 0.325743347 0.299304485
0.368627012 0.341176003 0.317393988
0.386843801 0.359392822 0.335610002
0.398229241 0.375332236 0.356356263
0.413030118 0.393422127 0.377735138
0.434156030 0.415053964 0.399873167
0.455408394 0.439341933 0.427198321
0.476787269 0.461100250 0.449336261
0.503352404 0.487665832 0.475901395
0.533459663 0.516888022 0.505123019
0.563947022 0.544465482 0.532700479
0.241998866 0.212523863 0.180139005
0.245034516 0.209613994 0.180139005
0.250221670 0.211764768 0.177988768
0.250727743 0.213535741 0.176217735
0.253131181 0.213915199 0.177609324
0.255660862 0.216444865 0.180644929
0.253131181 0.216444865 0.181150869
0.257052869 0.221758544 0.186463863
0.262112737 0.225806862 0.190512061
0.268184751 0.231878862 0.196584836
0.271346867 0.235040992 0.199746996
0.278431535 0.242124856 0.206830859
0.286780745 0.250474393 0.215180159
0.296647727 0.260341823 0.225047827
0.305755377 0.269449443 0.234155446
0.314863771 0.278557658 0.243263677
0.323972166 0.287666053 0.255408049
0.332700849 0.296394736 0.266919702
0.344844878 0.309297860 0.279822856
0.354206234 0.318912238 0.289437234
0.364326507 0.332827479 0.307273746
0.375458866 0.345983863 0.321441978
0.386464238 0.359266251 0.335736483
0.396331668 0.374699682 0.351169854
0.414547861 0.392915845 0.373940408
0.429727972 0.410120308 0.394433707
0.449968278 0.430360854 0.415179938
0.473624408 0.454648852 0.442504466
0.497532934 0.478937507 0.467172772
0.519038260 0.502213657 0.490448892
0.545097828 0.529411554 0.517646790
0.573434830 0.556735992 0.544971704
0.265275240 0.233776242 0.200379506
0.266287118 0.232764110 0.200379506
0.267425537 0.234028757 0.198228776
0.272233158 0.237065136 0.197723165
0.273371696 0.237444699 0.198861688
0.276407331 0.237191305 0.201897308
0.280455291 0.241745755 0.206451237
0.280708671 0.243390039 0.208095953
0.285642177 0.248324066 0.213029593
0.290448993 0.253131241 0.217837214
0.295635372 0.258317620 0.223023623
0.298671514 0.261353254 0.226059243
0.305882633 0.268563896 0.233269885
0.317141265 0.279823005 0.244528994
0.328020066 0.290701836 0.255407840
0.335104048 0.303858042 0.274636298
0.344212443 0.312966436 0.283744305
0.352688253 0.321442246 0.296015143
0.362049282 0.330803275 0.305376530
0.373434365 0.342188358 0.316761613
0.384440482 0.353194475 0.327767253
0.392663240 0.367236257 0.345730513
0.402909756 0.379506737 0.360025227
0.415813148 0.394687176 0.375205159
0.431752235 0.412144244 0.393168807
0.448576897 0.430360585 0.416065902
0.467172503 0.449589252 0.435926497
0.491460890 0.473877221 0.461732656
0.511701465 0.494117349 0.482352883
0.535989404 0.518406153 0.510183215
0.558380425 0.542694449 0.534977436
0.584567010 0.568880498 0.561163962
0.293738276 0.258444279 0.223149985
0.293738276 0.258444279 0.223149985
0.294876635 0.260594517 0.223276511
0.295003176 0.262491792 0.223908797
0.297659993 0.265148640 0.226565629
0.299936712 0.262871355 0.228842333
0.303225636 0.265148640 0.232131273
0.308791667 0.270714909 0.237697348
0.313346088 0.275268734 0.242251724
0.317140788 0.279064119 0.246047124
0.320809275 0.282732636 0.249715641
0.325995892 0.287919015 0.254902005
0.327893645 0.292093277 0.257937908
0.337255001 0.301454633 0.267805278
0.349398971 0.313598633 0.281720281
0.360151619 0.328146428 0.300063223
0.367741823 0.340290815 0.316761732
0.376850218 0.348766625 0.327134341
0.383428305 0.354838639 0.334724933
0.395066291 0.366476655 0.346363306
0.403795123 0.378621101 0.357368618
0.415939629 0.390765637 0.369512886
0.422517627 0.403162599 0.387350142
0.436685920 0.419354916 0.402530015
0.454143256 0.435673624 0.421125859
0.472106278 0.453889966 0.439595282
0.488298714 0.472612709 0.460847706
0.511954248 0.496268243 0.484503239
0.532068253 0.516381860 0.506894290
0.551549554 0.539278626 0.529917836
0.577608824 0.562681854 0.558506906
0.602403641 0.586717606 0.582795620
0.323846012 0.289058030 0.254016042
0.323846012 0.289058030 0.254016042
0.325490266 0.290702254 0.256166816
0.327514052 0.292726070 0.260215044
0.327514052 0.292726070 0.265528023
0.327514052 0.292726070 0.265528023
0.327767015 0.292979032 0.265275061
0.331056029 0.296268016 0.268564075
0.337381124 0.302593112 0.275395185
0.346489519 0.311701506 0.284503579
0.347122043 0.312334061 0.285136044
0.351170063 0.316382080 0.289184034
0.355471075 0.322454065 0.294370621
0.355724037 0.328779101 0.297913015
0.367868036 0.340923101 0.316128999
0.381403834 0.354458809 0.331435829
0.394560218 0.367615193 0.344592214
0.403668612 0.376344055 0.354459524
0.412777036 0.382416070 0.369639188
0.424415052 0.393801123 0.381783724
0.431625754 0.405945480 0.392283350
0.437444985 0.417837054 0.402150244
0.449715495 0.430360556 0.414548010
0.461986035 0.448703110 0.429854929
0.478431553 0.464389324 0.449336290
0.496647954 0.480961323 0.469196975
0.515117109 0.499431103 0.487666100
0.536369443 0.520683467 0.508918464
0.557368815 0.541682780 0.535230815
0.577103019 0.566730142 0.561037421
0.597849190 0.592030585 0.584819973
0.628210008 0.613283038 0.609108031
0.351170391 0.322454393 0.290448785
0.351170391 0.322454393 0.290448785
0.349019617 0.320303619 0.292599559
0.349778563 0.321062565 0.295635641
0.351802796 0.323086828 0.298924387
0.351802796 0.323086828 0.298924387
0.354332477 0.325616479 0.296394706
0.358380407 0.329664379 0.298924804
0.363693506 0.334977478 0.305755913
0.367741883 0.339025885 0.314864308
0.371031255 0.342315257 0.318152934
0.375458807 0.346742809 0.322580367
0.381530792 0.352814823 0.328652382
0.386084765 0.359139860 0.334344983
0.389120370 0.368248224 0.343453377
0.394054204 0.373181403 0.354459196
0.408728600 0.387855589 0.370904565
0.424920976 0.404047966 0.387096941
0.434029371 0.412776798 0.396964282
0.443137079 0.421632171 0.406577915
0.454775453 0.433270216 0.418216467
0.464010268 0.444402546 0.428716093
0.474003464 0.454649299 0.438835979
0.489183903 0.475901693 0.457052797
0.503731668 0.489690214 0.474636376
0.520935953 0.505249798 0.493484944
0.539152145 0.523466110 0.511701107
0.557621837 0.541935802 0.530170798
0.576217353 0.560531318 0.554079354
0.596837163 0.586464345 0.580771565
0.616571605 0.612650394 0.604807377
0.637318432 0.631498992 0.624288380
0.378494769 0.351043791 0.324477792
0.383301795 0.355850786 0.329285383
0.379000783 0.351549804 0.320682824
0.379506588 0.352055609 0.326249301
0.382922232 0.355471253 0.331941843
0.380897969 0.353446990 0.329917580
0.383428276 0.355977267 0.332194924
0.386464298 0.359013289 0.332447886
0.391777396 0.364326388 0.337760776
0.396458089 0.369007081 0.345224470
0.399493843 0.372042835 0.348513722
0.404553980 0.377102971 0.353573591
0.407210618 0.382036626 0.358507246
0.409487784 0.386843801 0.363314420
0.414674163 0.393801391 0.370271981
0.420113593 0.400505990 0.376976579
0.424667776 0.405059785 0.384566784
0.440860152 0.421884537 0.403289109
0.455281734 0.438076943 0.424794734
0.464389443 0.447185338 0.433902442
0.477292538 0.460088700 0.446805507
0.489942968 0.472738773 0.459456235
0.500695288 0.483491480 0.470208853
0.515875697 0.500189900 0.486147821
0.524224818 0.516888261 0.504364550
0.540417314 0.531941712 0.522580564
0.558127642 0.549651802 0.540290654
0.574446678 0.565970838 0.556609631
0.592662752 0.584187567 0.575331748
0.617963195 0.609487534 0.603162169
0.638456643 0.634535193 0.626691937
0.653636992 0.649715602 0.641871989
0.404300988 0.382922381 0.360910565
0.408855200 0.384440184 0.363946974
0.409361184 0.384946197 0.360152006
0.407084346 0.382669359 0.356862396
0.413282841 0.387729377 0.367615551
0.414800435 0.385831654 0.366856426
0.410752714 0.386337698 0.367362499
0.415306896 0.390891880 0.371916652
0.418343097 0.393928111 0.374952465
0.423655987 0.399241000 0.380265564
0.425300300 0.400885314 0.381910235
0.430360198 0.405945569 0.386970371
0.436432481 0.412017554 0.393042386
0.435041338 0.415686399 0.396711200
0.439848185 0.421758384 0.402783185
0.444402397 0.426312178 0.407337368
0.453510374 0.433902383 0.414927155
0.458949953 0.439974368 0.420999348
0.472739130 0.456799179 0.444276124
0.487160027 0.471473753 0.459709048
0.503099084 0.487413108 0.475648105
0.516255498 0.500569224 0.488804519
0.527640581 0.512333691 0.500443161
0.538646281 0.527514100 0.514231503
0.550031424 0.541176260 0.531688511
0.561669350 0.557748258 0.549905241
0.579886138 0.575964391 0.567109406
0.596078575 0.592156589 0.581277609
0.612397313 0.608475626 0.597596288
0.631625354 0.627704322 0.619860351
0.660215199 0.657178938 0.651106775
0.674889386 0.672486186 0.667678595
0.430486709 0.417457551 0.398482114
0.433522940 0.416318715 0.400379509
0.434408545 0.415433109 0.397343516
0.435041159 0.416698277 0.395066559
0.437697977 0.418975562 0.403415143
0.446046621 0.418722540 0.406451464
0.442504853 0.419355124 0.407590121
0.440986961 0.422011524 0.410246521
0.446300030 0.427324623 0.415559620
0.449335635 0.430360228 0.418596029
0.450094700 0.431119114 0.419355124
0.452877730 0.433902502 0.422138125
0.459582269 0.440607518 0.428842545
0.465654999 0.446679503 0.434914529
0.469070107 0.452751517 0.440986514
0.472106338 0.456419915 0.444655329
0.479064107 0.462491721 0.450727522
0.489310533 0.470335126 0.458570123
0.492346942 0.476407140 0.464642912
0.507400572 0.491714269 0.479949564
0.526249290 0.510563135 0.498798311
0.545983672 0.530297399 0.518532693
0.555218518 0.539531589 0.527767539
0.562302530 0.554206073 0.539911568
0.571031153 0.567109168 0.554712117
0.585325480 0.581403852 0.573560834
0.603035569 0.599114597 0.591271579
0.621125817 0.617204130 0.603542149
0.637318373 0.633396387 0.618975341
0.654269516 0.650347948 0.638203442
0.672991574 0.669323564 0.661985755
0.697280407 0.696648002 0.695383012
0.463883966 0.444782019 0.428842992
0.466919571 0.450854003 0.437950611
0.467805028 0.451865971 0.439848006
0.467805028 0.453131139 0.438077182
0.468058050 0.455408454 0.436812401
0.468058050 0.452372074 0.439848036
0.471347362 0.454649359 0.442884356
0.473371327 0.457432270 0.445667267
0.476660132 0.460721135 0.448956132
0.479696512 0.463757485 0.451992512
0.482732862 0.466793090 0.455028892
0.483491957 0.467552006 0.455788016
0.487413287 0.471473694 0.459709346
0.496015072 0.480076015 0.468311012
0.502087057 0.486148000 0.474382997
0.505502820 0.489816815 0.478051811
0.511575222 0.495888770 0.484124213
0.519671440 0.503731608 0.491967350
0.522707045 0.506767988 0.495002985
0.531309426 0.515623391 0.503858447
0.544971704 0.529285252 0.517520726
0.562682092 0.546995223 0.535231113
0.582542956 0.566856086 0.555092037
0.594686985 0.579000831 0.567236066
0.599494338 0.591398001 0.577103317
0.608855307 0.604933679 0.592536628
0.624288082 0.620367050 0.612524033
0.639468431 0.635547459 0.627704382
0.657558680 0.653636932 0.645287871
0.675521970 0.671600401 0.663250923
0.693737984 0.689817011 0.681973159
0.712460041 0.708792031 0.701455057
0.508412361 0.488804400 0.475901753
0.511448681 0.492093742 0.479443341
0.512334108 0.493864745 0.482099742
0.512334108 0.493864745 0.482099742
0.512334108 0.495003402 0.480961382
0.512334108 0.494370818 0.481593817
0.512334108 0.493864745 0.482099742
0.515117049 0.495003402 0.488172114
0.518152833 0.496900648 0.493485004
0.521189213 0.499936521 0.496520877
0.518658936 0.502972901 0.491207898
0.523719072 0.508032739 0.496268004
0.526375651 0.510689378 0.498924673
0.531688750 0.516002655 0.504237771
0.535231113 0.519544363 0.507780075
0.543706298 0.528020144 0.516255260
0.547501564 0.531815588 0.520050585
0.553447425 0.537761092 0.525996387
0.558633745 0.542947710 0.531182766
0.567236066 0.551549375 0.545351148
0.568753958 0.558760464 0.550664008
0.579633296 0.572296083 0.563314319
0.598988354 0.591650784 0.582669377
0.616445363 0.609107852 0.600126445
0.630866706 0.623529315 0.609993696
0.641493082 0.633396387 0.619102061
0.656673133 0.644402027 0.633776426
0.671853542 0.659582496 0.648956776
0.687033236 0.674762845 0.664136469
0.706894219 0.694623530 0.683997154
0.723465979 0.714737654 0.706767499
0.735989749 0.734851360 0.732574403
0.544465482 0.524857461 0.511195719
0.547501385 0.529791117 0.518026352
0.548386991 0.530676723 0.522707224
0.549652159 0.530676723 0.520176888
0.549905121 0.530676723 0.518911719
0.548386991 0.530676723 0.518911719
0.552182436 0.532574475 0.518911719
0.553826749 0.534218729 0.522201121
0.555344582 0.534471691 0.528779447
0.556103885 0.536368966 0.530676723
0.557115614 0.539405346 0.530676484
0.558254182 0.542567730 0.530803204
0.563187599 0.547501326 0.535736561
0.565970719 0.551043689 0.539025724
0.567362428 0.557368815 0.543706417
0.569512963 0.559519231 0.549652398
0.580139160 0.570145428 0.560278177
0.584313869 0.574320316 0.564452887
0.589120746 0.579127491 0.569259703
0.594181120 0.584187090 0.576091111
0.603288949 0.593295157 0.587476492
0.602276862 0.598355532 0.590512037
0.615939498 0.612017512 0.604174495
0.632384777 0.628462732 0.620619774
0.652118981 0.648197055 0.639595032
