Assets/EldamarStudio/100 Retro LUTs Pack/LUTs/cube/Melissa LUT.cube
LUT_3D_SIZE 8
DOMAIN_MIN 0.000000 0.000000 0.000000
DOMAIN_MAX 0.903226 0.903226 0.903226
0.125489995 0.090195999 0.062744997
0.133712545 0.098418549 0.070967548
0.150537997 0.115243196 0.079949193
0.175964639 0.144591644 0.101454645
0.213914990 0.174699381 0.135483995
0.258570462 0.219354987 0.184060991
0.319544584 0.284250557 0.253510565
0.405565947 0.375458777 0.359898597
0.151297003 0.122707449 0.083871000
0.162302107 0.126628548 0.090954997
0.175584987 0.143453196 0.100695543
0.200252652 0.161037445 0.125743359
0.232004985 0.193927750 0.158254206
0.278811008 0.239595070 0.204300985
0.338393271 0.303099275 0.272359312
0.416698068 0.394560635 0.376343936
0.211638093 0.173181191 0.134725094
0.213156104 0.173940092 0.138266653
0.225679979 0.186464190 0.151170179
0.253890008 0.214674190 0.176217377
0.284377068 0.245161086 0.209867090
0.326628566 0.291334569 0.263883561
0.381530672 0.358633667 0.339658469
0.461606860 0.445919871 0.434155881
0.293738276 0.258444279 0.223149985
0.297659993 0.265148640 0.226565629
0.313346088 0.275268734 0.242251724
0.327893645 0.292093277 0.257937908
0.367741823 0.340290815 0.316761732
0.403795123 0.378621101 0.357368618
0.454143256 0.435673624 0.421125859
0.532068253 0.516381860 0.506894290
0.404300988 0.382922381 0.360910565
0.413282841 0.387729377 0.367615551
0.418343097 0.393928111 0.374952465
0.436432481 0.412017554 0.393042386
0.453510374 0.433902383 0.414927155
0.503099084 0.487413108 0.475648105
0.550031424 0.541176260 0.531688511
0.612397313 0.608475626 0.597596288
0.544465482 0.524857461 0.511195719
0.549905121 0.530676723 0.518911719
0.555344582 0.534471691 0.528779447
0.563187599 0.547501326 0.535736561
0.580139160 0.570145428 0.560278177
0.603288949 0.593295157 0.587476492
0.652118981 0.648197055 0.639595032
0.714737594 0.699051261 0.691081643
0.680581808 0.669829547 0.656420290
0.676154256 0.672485828 0.669576108
0.684630156 0.680708349 0.672865391
0.694496870 0.690575600 0.682732642
0.702593267 0.696394563 0.692093611
0.718785763 0.714863777 0.707020760
0.738140285 0.731562257 0.722074568
0.779253840 0.777609110 0.769766092
0.809613764 0.805692732 0.797849476
0.811258495 0.809993327 0.807463288
0.811637998 0.809108019 0.810372829
0.818722606 0.818722606 0.816192567
0.829601645 0.824288607 0.824414790
0.832384706 0.832384706 0.832384706
0.849715173 0.849715173 0.847185194
0.865780950 0.865780950 0.865780950
0.132953539 0.097659551 0.069449551
0.133712545 0.098418549 0.070208549
0.158380896 0.123086900 0.094876900
0.187349886 0.155597642 0.113219641
0.223402992 0.184566543 0.145730376
0.272232741 0.233396277 0.194560736
0.331688523 0.296394527 0.265654534
0.413788497 0.383681238 0.368121177
0.150538012 0.122327998 0.090575546
0.166224003 0.130930007 0.095635995
0.183428094 0.144591644 0.109297641
0.207717001 0.168501019 0.133207008
0.241366208 0.202150211 0.166476741
0.291460991 0.252245486 0.216951087
0.342567831 0.307273835 0.279822797
0.417077512 0.394940078 0.376723498
0.204933554 0.169639558 0.134345546
0.223782554 0.184566647 0.145350650
0.229980722 0.190765530 0.151929095
0.257811278 0.218595996 0.180139095
0.289816469 0.250601083 0.215307087
0.331056327 0.297280341 0.269829452
0.390385628 0.363693625 0.340923518
0.465401769 0.446173340 0.433143586
0.298039556 0.262744814 0.228968814
0.303226084 0.265148729 0.228589371
0.310562730 0.275268734 0.241492718
0.329032272 0.296015292 0.268943638
0.368121296 0.340670288 0.312334269
0.401897460 0.378241479 0.356230289
0.454142958 0.434535265 0.418848544
0.525616884 0.509930134 0.498165876
0.407463282 0.386084586 0.363314360
0.412903368 0.388488352 0.367995083
0.413915038 0.394307673 0.373814046
0.432004929 0.412396997 0.393421918
0.453637183 0.436306179 0.419481516
0.501581013 0.485515386 0.473750472
0.549905121 0.537634075 0.524731517
0.615938962 0.607463837 0.601138353
0.543200731 0.529411495 0.513852000
0.545098126 0.529411495 0.517647088
0.550537705 0.535989702 0.524604678
0.560151577 0.549019516 0.538772523
0.578494966 0.568500698 0.558633924
0.597343743 0.587349415 0.580771685
0.649841785 0.645920277 0.638077319
0.705376089 0.699936807 0.696648002
0.672359288 0.663504064 0.652751267
0.680202246 0.670588553 0.660847843
0.684376776 0.675522029 0.669323266
0.693737984 0.684123874 0.680202127
0.700695813 0.696774125 0.688930988
0.714863837 0.710942745 0.703099191
0.735230863 0.731309235 0.723465800
0.774572849 0.774446487 0.767868400
0.807337046 0.803415477 0.793042183
0.813156188 0.811891019 0.809360981
0.814421058 0.808602214 0.807589948
0.821125865 0.814927161 0.813915312
0.828463018 0.822264314 0.821252227
0.839848101 0.834788084 0.831498861
0.850094616 0.844275773 0.844023049
0.864515781 0.864515781 0.863756776
0.142694190 0.107399993 0.079949193
0.146236554 0.110942446 0.083491549
0.159139901 0.123845898 0.094876900
0.191271096 0.153574005 0.113978639
0.227957085 0.191903993 0.155850902
0.280834824 0.243643075 0.207210734
0.343833089 0.308539093 0.277799070
0.422138035 0.397722960 0.376470536
0.168627098 0.134851098 0.105122998
0.171283647 0.133206993 0.093991093
0.186211452 0.148134097 0.112080991
0.212397203 0.174699187 0.137887195
0.250727296 0.211511984 0.174699292
0.299683750 0.261226833 0.225932822
0.355977118 0.321442008 0.291081458
0.430992782 0.405692577 0.391903818
0.203795090 0.170019105 0.140291005
0.219860643 0.180645451 0.141809106
0.234282076 0.198229000 0.162935004
0.263630748 0.224414736 0.189120740
0.299304157 0.260847479 0.225553289
0.342820823 0.309044838 0.280834764
0.394054174 0.371157587 0.349146187
0.475268632 0.460847765 0.446552783
0.301960737 0.266666710 0.233649731
0.309803724 0.274509728 0.241492733
0.321948171 0.286654174 0.253637195
0.337254643 0.304237634 0.271600276
0.371789604 0.341808915 0.315116823
0.408475757 0.384819746 0.365844131
0.458823472 0.445161223 0.429348648
0.532827258 0.519417763 0.506894290
0.408096284 0.394054174 0.376723468
0.413535476 0.393928111 0.373434484
0.423782289 0.404174477 0.383681297
0.437444746 0.419354737 0.403668821
0.459835351 0.445794106 0.429222286
0.508032739 0.490322471 0.476533741
0.557748258 0.542062104 0.530297279
0.616950989 0.609234810 0.602656603
0.548766673 0.536495447 0.521695077
0.551423192 0.536875010 0.522833645
0.558001220 0.542314708 0.530550241
0.568880379 0.554585457 0.543959618
0.581656992 0.569386244 0.564326108
0.604807198 0.592536092 0.587476492
0.654143035 0.650221348 0.642378330
0.708918571 0.704996526 0.697153568
0.677799106 0.667425573 0.665781498
0.680328846 0.675268531 0.671979725
0.689436972 0.680581808 0.672865570
0.691714287 0.687792301 0.679949284
0.703478634 0.699557245 0.691714048
0.718785763 0.712460637 0.711827755
0.735736847 0.732574582 0.727008045
0.784439981 0.775205553 0.773181498
0.810120046 0.806957603 0.799114645
0.810878932 0.809613764 0.806324720
0.812397063 0.811131895 0.804806888
0.818216324 0.818216324 0.815179944
0.829348624 0.822770476 0.822896957
0.837571025 0.836305857 0.829980910
0.849715173 0.848450363 0.842125237
0.865780950 0.865780950 0.865780950
0.160278350 0.123845994 0.088551998
0.164199650 0.127766997 0.092473000
0.175964639 0.139532000 0.104237996
0.190512002 0.156356648 0.118785642
0.231119186 0.191904187 0.156609803
0.287918717 0.248703733 0.213409245
0.350916982 0.315622985 0.284882993
0.428842604 0.405439407 0.391018271
0.184187099 0.148893103 0.119924091
0.194813460 0.155597642 0.120303638
0.200252742 0.161037460 0.125743449
0.213915110 0.174699277 0.136622638
0.251865715 0.212650359 0.174573004
0.306767762 0.268311441 0.234534815
0.364579648 0.334851444 0.306894362
0.438835889 0.421632081 0.408348858
0.223782539 0.184946090 0.146868736
0.232257828 0.190765426 0.152688101
0.257052183 0.217837006 0.179380089
0.269576192 0.231119365 0.195825100
0.307906061 0.269449979 0.234155387
0.350537807 0.317520827 0.288931161
0.408981651 0.386084646 0.367109478
0.481973708 0.465907454 0.454143167
0.291460991 0.253383636 0.220366642
0.299683720 0.261606365 0.228589371
0.317646831 0.282352626 0.249335825
0.349778622 0.316761643 0.284883291
0.379633009 0.354459018 0.333206654
0.415559620 0.397090256 0.378494620
0.471979916 0.453510553 0.438962907
0.539531708 0.528399646 0.515117049
0.417584181 0.393169194 0.373813927
0.417077750 0.399367452 0.378494799
0.435547292 0.415939301 0.395446092
0.448450536 0.429222286 0.413914919
0.468816936 0.450727642 0.438962728
0.512713552 0.497027069 0.485262603
0.561669707 0.545983315 0.535736740
0.620240331 0.616318703 0.608475626
0.555344582 0.540417492 0.527134478
0.562428653 0.546742260 0.534977674
0.564832330 0.553700447 0.540417254
0.572295725 0.562302470 0.550158203
0.590385854 0.580392241 0.567488909
0.607084453 0.603162467 0.591271460
0.657305241 0.653384149 0.645540774
0.712839842 0.708159387 0.702593565
0.682732642 0.676027834 0.676533878
0.689310312 0.681973577 0.671979785
0.690575600 0.686653912 0.678810894
0.697912574 0.693990946 0.686147988
0.708538890 0.703478515 0.699051201
0.722706795 0.718785763 0.710942745
0.741555929 0.736495793 0.732068241
0.781656981 0.778367877 0.777735651
0.814800620 0.810878932 0.797722995
0.815686226 0.812902868 0.807336867
0.817583978 0.813282430 0.809993565
0.823908806 0.821378767 0.820366621
0.829348624 0.828083456 0.823276401
0.843516767 0.835799932 0.831751823
0.853637040 0.851612866 0.849462450
0.871473789 0.869955957 0.862112582
0.181024805 0.144212380 0.108917996
0.184946194 0.148133993 0.112839997
0.195066288 0.158254102 0.122960091
0.216318801 0.177103192 0.139405385
0.241365984 0.202150390 0.166856378
0.283111721 0.246299922 0.211764544
0.353953183 0.326502174 0.299683362
0.439721614 0.420113981 0.403415769
0.207716897 0.169639543 0.134345531
0.212776542 0.175964639 0.139152557
0.224541530 0.185325637 0.146489277
0.235420749 0.196204752 0.158507556
0.259329170 0.224921182 0.184819892
0.303225964 0.265528262 0.233270273
0.375584930 0.343326926 0.317393810
0.448829979 0.426565409 0.413282633
0.257811278 0.220872983 0.184060991
0.274762660 0.230234176 0.193422005
0.276660204 0.239721894 0.202909276
0.287918717 0.254269451 0.214168444
0.311828077 0.273371160 0.237191379
0.352941006 0.319924027 0.291334480
0.418343067 0.393928081 0.373434663
0.491460890 0.476786643 0.464263022
0.305123627 0.271853268 0.229222268
0.312080711 0.283997536 0.244528726
0.334851623 0.299557626 0.272106618
0.371663749 0.338646710 0.312334061
0.382669032 0.357495010 0.336242914
0.423656166 0.404048353 0.388741016
0.478051722 0.461606920 0.449082911
0.545730352 0.530044258 0.520556271
0.396458000 0.372042954 0.348513365
0.408222377 0.379000366 0.356103569
0.419102192 0.399494201 0.379000545
0.444528848 0.427956820 0.410752714
0.484882981 0.466793180 0.452625364
0.523339570 0.505629420 0.493864924
0.562555254 0.551423371 0.542694211
0.624920785 0.616066039 0.612903118
0.554585636 0.538519740 0.526755214
0.556862593 0.541555941 0.531309009
0.567868471 0.552182436 0.545983434
0.582922339 0.571790159 0.558507442
0.598608434 0.588614702 0.577988446
0.614927471 0.611005485 0.599114418
0.666287005 0.662365973 0.654522538
0.713598907 0.709677458 0.701834440
0.689310253 0.678557992 0.666666448
0.688551366 0.684630156 0.676786780
0.695635259 0.691714287 0.683871269
0.705123544 0.701201558 0.693358541
0.716888011 0.714484334 0.706641316
0.728273034 0.725869715 0.718026698
0.745098054 0.742694259 0.734851301
0.791397870 0.788994551 0.784187376
0.820240438 0.815053940 0.804553807
0.818722367 0.813915312 0.818595827
0.822517753 0.817457438 0.814674377
0.825047433 0.823782265 0.821252227
0.832131624 0.830866814 0.828336477
0.840480626 0.840480626 0.837950647
0.854775488 0.852498531 0.851107001
0.871220827 0.871220827 0.871220827
0.213535741 0.174319729 0.137127995
0.219860539 0.180645451 0.143453285
0.229980826 0.190765351 0.153573900
0.243263736 0.204047725 0.164832532
0.265527993 0.226312459 0.188615188
0.303478748 0.264262736 0.228968725
0.349272251 0.313978255 0.283238262
0.440353900 0.420746356 0.405059874
0.234661728 0.197849542 0.166603550
0.242125273 0.202909276 0.165717542
0.251106828 0.211891338 0.174193531
0.265907735 0.226691723 0.191018283
0.284756631 0.245540738 0.210246727
0.316002727 0.280708730 0.253257722
0.363820523 0.333080083 0.307147622
0.448830068 0.426185906 0.411385059
0.291840643 0.258064806 0.225806743
0.301581085 0.263124466 0.228589475
0.307147056 0.269829363 0.238329828
0.315243632 0.277672559 0.247311980
0.335990071 0.302214086 0.269955456
0.362428844 0.334724814 0.309171379
0.407716841 0.384819835 0.365844220
0.495255888 0.481087893 0.472358882
0.340164632 0.308918625 0.283491373
0.352308542 0.321821362 0.294244379
0.382289499 0.350790441 0.325237006
0.395192742 0.365971029 0.346742272
0.408855051 0.385199189 0.365464538
0.433523118 0.409867108 0.391271293
0.473750561 0.456799805 0.441492647
0.555471301 0.539784908 0.528020263
0.414674103 0.394307643 0.377862126
0.423655987 0.403289378 0.383174896
0.437444955 0.419354737 0.405566394
0.464516163 0.446426392 0.432637721
0.509171367 0.491461128 0.479696631
0.523592710 0.507906616 0.496141702
0.572928607 0.557242215 0.545477629
0.626944721 0.623023272 0.611891270
0.532574475 0.517014503 0.501201451
0.532700479 0.520177305 0.503984690
0.547121823 0.531435847 0.519670844
0.568247676 0.552561760 0.540796757
0.598102570 0.582415938 0.573687911
0.630739927 0.620746195 0.614927471
0.666160703 0.661100805 0.653636694
0.712966561 0.702972770 0.693105578
0.683238268 0.674383581 0.664389312
0.681720257 0.678178489 0.670715034
0.691714287 0.687792301 0.676660299
0.700695932 0.696773887 0.685641885
0.721568286 0.717647254 0.709804296
0.734092295 0.730170786 0.722327292
0.752435029 0.748133957 0.741429090
0.794813454 0.793169022 0.789880037
0.815939248 0.811511517 0.807463706
0.816065788 0.811764598 0.808475435
0.817963541 0.816698372 0.814168334
0.824541330 0.824541330 0.824541330
0.836432517 0.836432517 0.836432517
0.845414519 0.842251658 0.834408641
0.859076798 0.859076798 0.856546462
0.876280785 0.876280785 0.870967746
0.262365282 0.223150283 0.185578987
0.264389545 0.225174025 0.187602744
0.277293026 0.238076985 0.200506285
0.292093277 0.252878278 0.217583984
0.314105004 0.277166277 0.241872266
0.340417743 0.307274014 0.273877263
0.379000545 0.348260581 0.323086262
0.429475069 0.409867048 0.394560605
0.275522292 0.244275793 0.214800537
0.283238739 0.247438267 0.207843125
0.297280461 0.257685065 0.223529547
0.311068892 0.274130195 0.239595175
0.331309170 0.295129448 0.262492001
0.354838580 0.323339581 0.294496894
0.394307554 0.367615551 0.340797007
0.430107772 0.415306568 0.401012063
0.331941575 0.304490983 0.276407182
0.343833268 0.307020903 0.281088024
0.347628176 0.317141205 0.288804352
0.361922801 0.331182361 0.303732097
0.379000336 0.351549357 0.324731350
0.399114639 0.375079274 0.356482923
0.433776081 0.414168090 0.395192653
0.486274540 0.469702423 0.455913991
0.402023911 0.382415891 0.363440901
0.415180355 0.392662913 0.374067366
0.421758443 0.398355365 0.385452002
0.428336293 0.409867227 0.395319283
0.445540667 0.429348826 0.413662076
0.464009911 0.447817534 0.432131469
0.494497210 0.478810608 0.467046201
0.542947292 0.527261019 0.515496612
0.444022477 0.425933242 0.411764443
0.454269469 0.439468682 0.423656195
0.479317069 0.461986184 0.450221360
0.518532515 0.501201630 0.489437163
0.541302979 0.523972034 0.512207270
0.554585516 0.538899481 0.530170441
0.575078964 0.566223681 0.555218399
0.622770488 0.611638129 0.603668630
0.557621539 0.541935444 0.530170560
0.563187778 0.553193986 0.542567730
0.577609122 0.561922908 0.550158083
0.592536271 0.576850057 0.567362368
0.613409162 0.603415906 0.594307303
0.653510273 0.643517017 0.634408832
0.669070303 0.665148735 0.654016256
0.714737594 0.710815787 0.702972770
0.659709275 0.650853574 0.641366243
0.660341263 0.656420231 0.645287812
0.666540563 0.662618577 0.654775500
0.681594253 0.677672267 0.669829249
0.699557304 0.695635259 0.687792301
0.726249278 0.723971963 0.716129005
0.760657549 0.756736577 0.748893023
0.797469676 0.793169081 0.786464512
0.808728516 0.806072235 0.800759196
0.813156188 0.810878932 0.802529931
0.817836761 0.814800739 0.810625970
0.820999324 0.820999324 0.818722367
0.832005143 0.832005143 0.832005143
0.849335670 0.843516767 0.841366529
0.861100674 0.861100674 0.861100674
0.882099628 0.877545655 0.879822910
0.338899642 0.308918625 0.278810799
0.342188656 0.312207639 0.282099783
0.352687895 0.322706878 0.292599559
0.369892776 0.339911461 0.315116912
0.389246941 0.361795962 0.335736930
0.413408935 0.393548429 0.371916354
0.444655538 0.427703798 0.414674520
0.494623601 0.478937626 0.467172623
0.351549625 0.328652650 0.305123061
0.361289918 0.326754868 0.299683332
0.369513214 0.339531928 0.314737469
0.386337817 0.356356800 0.331562221
0.403668821 0.376723766 0.354965329
0.428336650 0.406198621 0.387982398
0.457178980 0.437571079 0.421884656
0.497280061 0.488425225 0.474383622
0.403415799 0.385325789 0.366350353
0.409108192 0.389500171 0.371284157
0.416065872 0.396457911 0.378241897
0.428210318 0.410879314 0.394054085
0.445034862 0.429980993 0.413156122
0.473624408 0.456672996 0.443643451
0.499051094 0.484630257 0.470335215
0.538772702 0.528778970 0.518912017
0.477039814 0.461353779 0.449589074
0.479063749 0.463377744 0.451612830
0.485768706 0.470082194 0.458317697
0.498165578 0.482479274 0.470714569
0.512840092 0.497153431 0.485389143
0.531941593 0.516255617 0.504490614
0.553953290 0.538266599 0.526502311
0.586464405 0.574193478 0.563567400
0.528272986 0.517140746 0.503857970
0.540417671 0.528146744 0.515243649
0.566223741 0.550537467 0.538772702
0.582669079 0.566982865 0.555218160
0.593674600 0.577988625 0.566223621
0.608222604 0.595951855 0.586084783
0.624920785 0.616445363 0.607590139
0.650727391 0.643390179 0.634408832
0.601517916 0.585831523 0.579380333
0.606577992 0.590891898 0.584440172
0.614041686 0.598355472 0.591903627
0.629854262 0.617963433 0.611258566
0.668817163 0.661480188 0.653257191
0.691966832 0.680075884 0.673371434
0.704237521 0.700316548 0.692472935
0.724604487 0.720682919 0.712839842
0.701581538 0.694243789 0.693611503
0.701075256 0.698418498 0.690575421
0.707273602 0.703352511 0.694749951
0.718785644 0.714863837 0.706261873
0.729664862 0.725742996 0.717141032
0.750537336 0.746616125 0.738772810
0.788867533 0.785325944 0.777482450
0.804427207 0.799873233 0.799620509
0.795192659 0.792662621 0.793927789
0.798735023 0.796205044 0.797469854
0.799873471 0.797343493 0.798608363
0.810878932 0.809613764 0.807083786
0.820366621 0.819101751 0.816571772
0.840227723 0.836305857 0.828462899
0.858064353 0.856799483 0.848956108
0.891966701 0.889436781 0.896014929
