Assets/EldamarStudio/100 Retro LUTs Pack/LUTs/cube/Melissa LUT.cube
LUT_3D_SIZE 5
DOMAIN_MIN 0.000000 0.000000 0.000000
DOMAIN_MAX 0.903226 0.903226 0.903226
0.125489995 0.090195999 0.062744997
0.146742716 0.111448288 0.076154292
0.190891996 0.159519002 0.116381995
0.272738993 0.233522981 0.198228985
0.405565947 0.375458777 0.359898597
0.194180995 0.159518987 0.118026696
0.205945417 0.171283990 0.131435990
0.254016697 0.214800701 0.177229404
0.326628715 0.291081429 0.258064538
0.447438359 0.429474920 0.415433347
0.351170391 0.322454393 0.290448785
0.358380407 0.329664379 0.298924804
0.389120370 0.368248224 0.343453377
0.464010268 0.444402546 0.428716093
0.576217353 0.560531318 0.554079354
0.576850295 0.559266269 0.542568088
0.588235557 0.569639623 0.557621539
0.599367380 0.593548536 0.580518365
0.636685431 0.629728258 0.622897148
0.737001777 0.721315801 0.717393816
0.809613764 0.805692732 0.797849476
0.812143803 0.810878932 0.806324899
0.822011232 0.816698194 0.816825032
0.836685658 0.836685658 0.836685658
0.865780950 0.865780950 0.865780950
0.138899282 0.103605285 0.071600288
0.152309000 0.117014416 0.085009411
0.208222702 0.170651406 0.135357410
0.297533423 0.258317441 0.222391009
0.418848842 0.396711081 0.375205487
0.190891996 0.155598000 0.123592407
0.213788986 0.178494424 0.143200427
0.263883680 0.224668115 0.187096819
0.338772804 0.303478837 0.273497850
0.459835798 0.443896472 0.428842306
0.354712099 0.325996101 0.298545092
0.367488801 0.337128103 0.314610779
0.393295079 0.371157497 0.351549506
0.466287225 0.451612711 0.435926676
0.582416058 0.571031034 0.562934697
0.583681107 0.568627536 0.555597544
0.588614821 0.579759359 0.567741871
0.605313122 0.591524541 0.582416117
0.634661376 0.630740106 0.622897089
0.731435776 0.724477947 0.717647135
0.811891019 0.807969451 0.797596514
0.812649906 0.808601916 0.801770747
0.822644055 0.819355071 0.818469346
0.841619074 0.839595020 0.834787905
0.865780950 0.865780950 0.868310928
0.168626994 0.132700577 0.097406581
0.181404293 0.145477712 0.110183284
0.215812817 0.177861989 0.138013557
0.304111242 0.268184811 0.232890412
0.429728210 0.410120189 0.394434214
0.232764408 0.193548411 0.154332414
0.244528994 0.205312997 0.169386417
0.272992104 0.233776107 0.198482111
0.355723977 0.325742960 0.302213848
0.472865224 0.454902083 0.442504942
0.346615821 0.311321825 0.283870816
0.361290097 0.332574099 0.308412075
0.413282782 0.392409801 0.375458837
0.476786643 0.463377684 0.447058976
0.584692717 0.578874171 0.563820541
0.592789531 0.574826300 0.563061297
0.599114656 0.585325420 0.574193716
0.612523556 0.605565846 0.592915952
0.645793736 0.641872525 0.634028971
0.733459771 0.728146970 0.719291806
0.815433145 0.809613764 0.802403331
0.819101930 0.814168215 0.812523901
0.824541390 0.822011232 0.823276222
0.845161378 0.837950647 0.839974463
0.869702637 0.869702637 0.868437648
0.223655999 0.184439987 0.145224258
0.236053407 0.196837410 0.158633709
0.265527964 0.226312250 0.187096983
0.322707146 0.284503281 0.251233250
0.437318057 0.417710483 0.402024060
0.287792563 0.248197272 0.217204392
0.295256138 0.259962142 0.227957115
0.323086411 0.283870846 0.256799549
0.368247986 0.342061996 0.318532407
0.484376907 0.468690902 0.456925929
0.386463970 0.353193969 0.331309110
0.407463819 0.381657094 0.365085214
0.456167102 0.442125380 0.425173819
0.492472976 0.476154387 0.464389652
0.597723067 0.585072458 0.577609003
0.566982985 0.549399257 0.535610259
0.576470554 0.560784578 0.553573549
0.609740973 0.597090304 0.586337924
0.662112415 0.658191144 0.650348067
0.734724939 0.730802894 0.722959936
0.816445291 0.812523603 0.804680586
0.817710459 0.816445291 0.809867024
0.829474926 0.829474926 0.829474926
0.849715471 0.846805632 0.840986609
0.877292931 0.877798915 0.874256611
0.338899642 0.308918625 0.278810799
0.349398792 0.319417775 0.289310604
0.377482355 0.347501338 0.322707176
0.417709947 0.403415680 0.385072768
0.494623601 0.478937626 0.467172623
0.396078527 0.371916473 0.351676524
0.403668761 0.378494650 0.361290187
0.423276186 0.406957775 0.389626890
0.465781212 0.452371776 0.436053216
0.529917598 0.519164920 0.509044647
0.520050347 0.504364192 0.492599368
0.530803084 0.515117049 0.503352046
0.551423192 0.535104573 0.522707164
0.572548926 0.564832449 0.550410867
0.623908818 0.616192520 0.608348727
0.623276412 0.614421129 0.605692804
0.630487084 0.621632099 0.612903059
0.658950031 0.650094688 0.643896401
0.714737236 0.705882311 0.699683964
0.747122109 0.741935253 0.737887084
0.795192659 0.792662621 0.793927789
0.800379813 0.799114585 0.796584606
0.812776387 0.811511338 0.808981359
0.843516767 0.840606868 0.832763970
0.891966701 0.889436781 0.896014929
