Assets/EldamarStudio/100 Retro LUTs Pack/LUTs/cube/Michele LUT.cube
DOMAIN_MIN 0 0 0
DOMAIN_MAX 1 1 1
LUT_3D_SIZE 32
0.027450999 0.050980002 0.137254998
0.033523001 0.054016385 0.134218603
0.052498545 0.057052772 0.137633994
0.074256994 0.058823999 0.141176000
0.093232095 0.059203450 0.141555548
0.117520869 0.062239062 0.144591942
0.141809002 0.067805000 0.145098001
0.167741701 0.067299001 0.145098001
0.192030102 0.061986096 0.144338906
0.207210511 0.058950488 0.141302511
0.236938745 0.061733127 0.141176000
0.261227250 0.064769253 0.139152259
0.287033647 0.067805350 0.139532000
0.320177078 0.070588000 0.144592002
0.350537807 0.070588000 0.138520002
0.388108760 0.075394996 0.137254998
0.427577555 0.078431003 0.140290990
0.467678964 0.080328569 0.146362990
0.510183036 0.089436978 0.152435020
0.552687764 0.092979357 0.158507019
0.595192492 0.096015260 0.151296273
0.637697279 0.100062996 0.142188132
0.680328488 0.106008507 0.145224512
0.725869715 0.109044902 0.148260906
0.769133568 0.116635285 0.146742716
0.811638296 0.124351986 0.146489680
0.853131115 0.130423993 0.150031999
0.889563859 0.136495993 0.156103998
0.928652763 0.147880971 0.154206172
0.968121111 0.154712215 0.158254206
0.996963620 0.159519374 0.167362601
1.000000000 0.168626994 0.176470995
0.036559388 0.066160388 0.125110999
0.051739775 0.060088385 0.134218603
0.057811774 0.065274999 0.137633994
0.072992161 0.069196776 0.141176000
0.090955384 0.070968002 0.141176000
0.120556474 0.071347453 0.141555548
0.137254924 0.074383065 0.142061606
0.163314402 0.076660000 0.143706322
0.186717391 0.075648099 0.144338906
0.195066512 0.077166483 0.141302511
0.230613738 0.074130133 0.141176000
0.263251245 0.076913260 0.145224512
0.291967273 0.078811005 0.145224750
0.323466420 0.079949416 0.144844964
0.356609821 0.082732774 0.141555622
0.391777605 0.085135967 0.142694429
0.429095775 0.090575382 0.144845188
0.466413975 0.094876379 0.149399385
0.504111052 0.101580985 0.155471385
0.552181721 0.110689364 0.147628039
0.591397464 0.112333998 0.148640007
0.632637382 0.114231519 0.146236390
0.677419364 0.118532754 0.151296511
0.725869715 0.130297288 0.154332906
0.775964797 0.133333102 0.157368705
0.816572011 0.139531955 0.153067693
0.854143143 0.146110326 0.149525940
0.895635843 0.154711992 0.153067604
0.929411709 0.155470997 0.159139603
0.968121111 0.164326191 0.162554979
0.996963620 0.171663582 0.169512823
1.000000000 0.180771768 0.176470995
0.047817998 0.083491549 0.132321224
0.067299388 0.079569772 0.134977609
0.071727000 0.077798776 0.135483772
0.079064161 0.080075935 0.140290618
0.093232550 0.081341222 0.141176000
0.118279770 0.083112001 0.141176000
0.138140321 0.083491452 0.145477548
0.158254400 0.084882773 0.142188132
0.185326099 0.085641868 0.144465417
0.198355794 0.088678256 0.145604059
0.227071732 0.090195909 0.143326774
0.255407989 0.091208033 0.141302511
0.287286490 0.091967136 0.146995738
0.318659276 0.091461003 0.146995738
0.357748389 0.096394636 0.143959358
0.393548608 0.099430963 0.141429037
0.428463191 0.102466576 0.144465417
0.466160744 0.108538568 0.146869227
0.507147014 0.116128780 0.149905235
0.548260510 0.120683134 0.152814642
0.594939470 0.127893776 0.145603999
0.634155273 0.130423769 0.145098001
0.678557754 0.134598508 0.148640007
0.725110769 0.140670776 0.149652138
0.769513011 0.148134246 0.150537699
0.816951513 0.153952852 0.154964983
0.853637040 0.160278276 0.151170224
0.894497097 0.166097313 0.152561545
0.935483754 0.171536773 0.151802763
0.967109323 0.180391952 0.159645528
0.995698750 0.189373761 0.166096985
1.000000000 0.197217003 0.172169447
0.063757159 0.099177994 0.141176000
0.078684390 0.093611613 0.142441168
0.089942999 0.092726000 0.140290618
0.093738161 0.095255993 0.138519838
0.101328447 0.092979379 0.141176000
0.115496613 0.096015215 0.141176000
0.134219006 0.099051155 0.144971475
0.154459238 0.097785994 0.145730585
0.179506928 0.098545089 0.141935095
0.201771334 0.101581477 0.147501796
0.228842705 0.104617454 0.144844964
0.257937998 0.106388420 0.146868899
0.284503311 0.108286157 0.146109805
0.314864069 0.105882294 0.151043996
0.353320807 0.110942155 0.146995753
0.388488293 0.117140956 0.142694190
0.428463191 0.120176956 0.145224184
0.463124543 0.124477722 0.147627994
0.507400036 0.133586124 0.147628009
0.549905121 0.137128517 0.148134008
0.590638757 0.142062157 0.149146006
0.637191296 0.148134157 0.146110132
0.680328488 0.154332668 0.146363169
0.725869715 0.159646064 0.146363169
0.769133568 0.163693994 0.146363169
0.811638296 0.168627635 0.149146155
0.853637040 0.177229315 0.152688101
0.893105388 0.181024611 0.150411010
0.932700634 0.186717153 0.154079676
0.971916199 0.196837172 0.154332757
0.994307458 0.208475605 0.161669612
1.000000000 0.214168161 0.167362154
0.083871000 0.111701541 0.141176000
0.090701990 0.103352152 0.144212395
0.101075090 0.101075098 0.142567769
0.112333708 0.102466546 0.141176000
0.120303549 0.107779540 0.141935095
0.117267162 0.110815927 0.141935095
0.130423635 0.116002545 0.143706322
0.148766696 0.117520384 0.143453285
0.171157554 0.116002090 0.141935095
0.198481962 0.119038478 0.144971490
0.225426868 0.122454315 0.142947227
0.256419778 0.124225549 0.146868795
0.288677752 0.124225549 0.152561545
0.319544524 0.124984518 0.155597940
0.350158274 0.128273115 0.149905458
0.381277531 0.135736793 0.145350948
0.418469012 0.141808897 0.145350739
0.463124543 0.145730123 0.152561560
0.502593040 0.154838517 0.152561545
0.546869099 0.158760354 0.147754535
0.589753270 0.163693994 0.145477548
0.631498814 0.169766098 0.145351037
0.679948986 0.175838083 0.148387417
0.725490153 0.184693456 0.148640454
0.769133568 0.190006241 0.149020001
0.811258733 0.193421766 0.150664434
0.852878034 0.196964085 0.155344933
0.892346382 0.203036085 0.146236554
0.930297136 0.208728537 0.154964969
0.967741668 0.217583507 0.161163554
0.996963620 0.227071151 0.163187608
1.000000000 0.230107546 0.166224003
0.096014999 0.126881927 0.141176000
0.108158998 0.123845540 0.144212395
0.119291544 0.124098703 0.140797004
0.131435871 0.124098703 0.139025778
0.141555935 0.122959927 0.141935095
0.141555935 0.122959927 0.148007870
0.146109864 0.125996321 0.145477548
0.155850708 0.127893925 0.143453285
0.170778006 0.128146768 0.141935095
0.195445567 0.131182477 0.144971490
0.219860792 0.137127995 0.148007870
0.248703495 0.142694578 0.148007870
0.279569924 0.145477936 0.147248656
0.310436130 0.146236897 0.143453166
0.346868873 0.155344501 0.146489546
0.382289678 0.161036909 0.150411054
0.419228107 0.166097179 0.149905130
0.460341185 0.169765860 0.149525940
0.502593040 0.176090911 0.149525940
0.542062104 0.182415932 0.149525940
0.588235497 0.187981993 0.148513943
0.633270204 0.194054261 0.146489680
0.676913381 0.200126857 0.142314643
0.722453833 0.206198871 0.145351037
0.767994881 0.215053633 0.147881344
0.810246587 0.221758276 0.147628322
0.849715173 0.227324858 0.146616071
0.886274397 0.233396858 0.146236554
0.931056440 0.236812025 0.150410995
0.967995107 0.242124915 0.159266204
0.994433880 0.248323530 0.167741925
1.000000000 0.251359940 0.178368002
0.115749314 0.142062321 0.141176000
0.120303638 0.139025927 0.141682073
0.132447645 0.138140321 0.140417457
0.145857155 0.140797168 0.139784992
0.158127770 0.140291095 0.143706322
0.160277992 0.138140321 0.145477548
0.165338635 0.145730644 0.146489680
0.171410635 0.145477608 0.145098001
0.178874314 0.144592002 0.143706322
0.192536339 0.145856842 0.144971490
0.221885055 0.151802316 0.150537550
0.246173307 0.157874316 0.151549682
0.275521964 0.165085316 0.153826684
0.306388378 0.170019031 0.153826326
0.342821121 0.179127216 0.154585421
0.381657094 0.183427840 0.145604014
0.421252370 0.189373702 0.152435198
0.462997824 0.194054633 0.152815014
0.507399976 0.200126663 0.149020001
0.549651802 0.208728313 0.146489680
0.587223172 0.218595788 0.150284678
0.630234003 0.223908961 0.150537819
0.671220958 0.226945311 0.145983621
0.714358211 0.233017325 0.141808584
0.764452577 0.241366595 0.138013676
0.810499609 0.250474274 0.141682342
0.851739466 0.256673008 0.144085750
0.888172209 0.258697003 0.150158003
0.927514136 0.262112796 0.152941316
0.969512820 0.268690854 0.159013301
0.995572269 0.275521964 0.168247983
1.000000000 0.280202627 0.180391997
0.130423695 0.160531700 0.141176000
0.135104388 0.157495305 0.142820716
0.146236703 0.158254400 0.143959478
0.155850694 0.156989232 0.139658377
0.169512987 0.158507437 0.143832833
0.176343754 0.155471042 0.145098001
0.183554634 0.159266308 0.140164301
0.194560692 0.166729987 0.145098001
0.200632691 0.163693801 0.145098001
0.206704691 0.162808403 0.145098001
0.222897023 0.168627411 0.149272710
0.242631271 0.176343694 0.149652004
0.270335197 0.183554336 0.151929006
0.301961035 0.192409694 0.157242045
0.339785099 0.200126395 0.155850723
0.376976758 0.206071898 0.152814731
0.419481158 0.213662088 0.145224527
0.460847408 0.219987690 0.152561873
0.503352046 0.226059720 0.149526000
0.547754467 0.233270064 0.149525642
0.591397464 0.242631167 0.143959299
0.628842354 0.252751708 0.145983309
0.668690979 0.254522681 0.142821088
0.714231789 0.263630688 0.144338906
0.758633971 0.271979988 0.139910996
0.806071997 0.278305024 0.136621997
0.850348115 0.286400706 0.141682059
0.887919128 0.288677692 0.148513451
0.927008033 0.291334540 0.153953120
0.968121111 0.296268165 0.157115981
0.996963620 0.303605586 0.164958984
1.000000000 0.308918685 0.177102998
0.144086093 0.180265903 0.141176000
0.147881001 0.178747699 0.143453300
0.160404786 0.179253772 0.144212589
0.171790004 0.179759830 0.148007870
0.178621098 0.178241551 0.140796646
0.190765187 0.176723242 0.141555950
0.201138422 0.174193323 0.139025673
0.212017804 0.180392191 0.136748701
0.226439089 0.185705096 0.145098001
0.232511088 0.182669476 0.145098001
0.239342183 0.188361987 0.148007870
0.249462187 0.194939926 0.149272829
0.264262825 0.204047844 0.147375003
0.297659934 0.213409200 0.152941003
0.336116284 0.220493183 0.150411323
0.373181492 0.226565182 0.148260906
0.411132246 0.235673383 0.147501811
0.457937628 0.247818142 0.145098001
0.495002985 0.254143208 0.148007870
0.538267076 0.260215193 0.148766652
0.583807707 0.268184751 0.147248268
0.628842354 0.277040094 0.142947093
0.668690979 0.283238590 0.136622101
0.717267811 0.294750214 0.141302913
0.761290550 0.303858399 0.142820716
0.803036213 0.310942501 0.139658004
0.845035136 0.314990252 0.140164062
0.884503543 0.321315289 0.143200457
0.923212767 0.323972017 0.150410995
0.965211451 0.328779191 0.155471116
0.996204555 0.333965600 0.160404980
0.999240935 0.337002009 0.172548994
0.171410501 0.195445538 0.141176000
0.168374091 0.198481932 0.141176000
0.178620785 0.199114501 0.137001514
0.190006003 0.197975844 0.138899356
0.196837112 0.196457565 0.146869421
0.208981887 0.205565944 0.131689042
0.221125975 0.193927661 0.137507677
0.231499195 0.194307432 0.139278710
0.241619498 0.203921884 0.139026001
0.253763497 0.206957504 0.145098001
0.262745380 0.212650016 0.148007870
0.273750991 0.216698274 0.153067991
0.285894990 0.222264618 0.155344829
0.300695539 0.231625974 0.152941003
0.334091902 0.243769974 0.152940989
0.370145112 0.250853986 0.148007527
0.405060083 0.259961993 0.145224512
0.442758024 0.272106171 0.145098001
0.494370550 0.284250975 0.145097986
0.534219086 0.290576011 0.139658511
0.577735722 0.298545271 0.139658257
0.623276353 0.307653189 0.144212127
0.668690979 0.316635013 0.151802495
0.717267811 0.325743437 0.139658466
0.761290550 0.332700968 0.139784694
0.802403569 0.338899523 0.138393000
0.841998756 0.345351070 0.134092063
0.881467819 0.354459435 0.137128457
0.918279409 0.355471462 0.148133978
0.960151553 0.359139979 0.156482980
0.993168831 0.364326417 0.163314119
0.996204555 0.367362052 0.172548994
0.184186995 0.228083611 0.138266876
0.192789346 0.222391129 0.138266876
0.194054514 0.227577731 0.136116102
0.208728909 0.225300580 0.137128159
0.223023608 0.220493287 0.146110132
0.230107740 0.229601666 0.143580064
0.242251873 0.220999092 0.138519675
0.256040573 0.216065586 0.137887001
0.269196957 0.222896993 0.136622220
0.283491731 0.228083387 0.144844994
0.289816737 0.236938745 0.145098001
0.300948888 0.240986466 0.144085869
0.308538884 0.242883980 0.145224258
0.313851893 0.246679157 0.143959165
0.331309259 0.256166995 0.141303003
0.367109478 0.275521785 0.148513809
0.406578243 0.288678050 0.144971490
0.446047097 0.301581323 0.142820701
0.490828902 0.311448812 0.145098001
0.536875308 0.320809513 0.142314643
0.580392301 0.330803454 0.140164122
0.624921143 0.339911610 0.139152005
0.668311477 0.346995741 0.138013661
0.708538949 0.353320777 0.128652990
0.757115662 0.360151857 0.127893701
0.800885439 0.367615521 0.133712664
0.841366112 0.375205725 0.136748806
0.878431439 0.381910294 0.139784575
0.917899907 0.391018689 0.148133948
0.952814579 0.393548489 0.156482980
0.985831976 0.395825475 0.164326206
0.998987854 0.394813597 0.175458863
0.204427496 0.257432252 0.135230735
0.211511642 0.255408227 0.135230735
0.214294761 0.249842241 0.133080482
0.221125990 0.254649103 0.133839250
0.239721820 0.249335781 0.140670449
0.252372265 0.251866192 0.139025748
0.265528500 0.253383845 0.138519675
0.279316783 0.244528502 0.138772726
0.293738186 0.245667234 0.134598166
0.307653725 0.249209240 0.138646230
0.316128969 0.256166875 0.141050011
0.324225217 0.265275240 0.143073738
0.336369246 0.269449502 0.138898998
0.340670288 0.272232503 0.137381047
0.352308661 0.283111632 0.137887418
0.372169316 0.291713774 0.142441541
0.407084286 0.308412373 0.146995738
0.447438508 0.323719233 0.142567694
0.488551736 0.337001979 0.142820701
0.531815410 0.348133892 0.140290901
0.579253495 0.357241958 0.137254521
0.623908997 0.368248105 0.136116147
0.666540265 0.375585228 0.131309256
0.709804177 0.385452241 0.127893895
0.748007238 0.395572245 0.127893701
0.796584308 0.400252908 0.126754999
0.839848340 0.408096313 0.132194743
0.877798855 0.415686488 0.136748552
0.920935750 0.420366794 0.143073574
0.956862569 0.427703947 0.155723929
0.984061003 0.431878448 0.164326206
1.000000000 0.432258487 0.176470995
0.228715986 0.285894990 0.132194638
0.234788269 0.284756631 0.132194638
0.238836274 0.283870995 0.132321134
0.243896276 0.280455470 0.129664987
0.255660832 0.282352626 0.134977996
0.271600485 0.278557926 0.132700697
0.286148310 0.279443324 0.131055996
0.299051553 0.279822648 0.132700711
0.314990282 0.274509728 0.134218901
0.327893943 0.274130285 0.131182507
0.338266760 0.281087637 0.132827222
0.349651873 0.286906898 0.132447749
0.363314271 0.296015292 0.135483652
0.375205308 0.302087277 0.130423650
0.384313673 0.312460274 0.134345412
0.399493903 0.322074294 0.137507990
0.416191906 0.326628387 0.140543997
0.448956460 0.340670556 0.141176417
0.486907005 0.359392643 0.139152035
0.529158771 0.376596957 0.137254715
0.574320138 0.386843383 0.130803272
0.620872915 0.397975773 0.131815135
0.663504124 0.407463640 0.129159003
0.709045112 0.419607937 0.127134994
0.748892963 0.428336293 0.130550340
0.789752960 0.436305940 0.130550012
0.836812437 0.440860271 0.127008066
0.876280785 0.450601071 0.133712634
0.919923723 0.454396069 0.138645992
0.959518969 0.459202886 0.146615833
0.986717403 0.465274900 0.162681624
0.998861372 0.471347630 0.175332353
0.253004044 0.316761047 0.128905997
0.258823812 0.314231455 0.129158959
0.264896035 0.314737320 0.130297184
0.274257064 0.316255063 0.131309122
0.285262585 0.316002041 0.128652960
0.294370949 0.309930056 0.128652960
0.305503011 0.308918059 0.125869676
0.317267716 0.308918059 0.127134711
0.328400016 0.307400107 0.128146902
0.346616000 0.304364502 0.125110507
0.359519094 0.312207192 0.124983996
0.373687267 0.317773312 0.121442005
0.390385687 0.323592663 0.118532613
0.411132097 0.332954079 0.121315971
0.420240462 0.339026064 0.127387956
0.434155792 0.349146008 0.128905997
0.446805865 0.356230110 0.128905997
0.459076166 0.359645575 0.129538417
0.489437014 0.380897999 0.132574037
0.528399765 0.403668731 0.132826999
0.573561192 0.419987321 0.125743002
0.618090272 0.431372225 0.119671062
0.660341978 0.446173072 0.128526449
0.705502927 0.458064824 0.122833967
0.747501314 0.463883758 0.125363961
0.789499938 0.467172682 0.128020316
0.833776116 0.471221060 0.127261028
0.873244464 0.483365059 0.136369407
0.915369630 0.487792850 0.139658198
0.953826308 0.492599994 0.144971400
0.983933985 0.498672038 0.155344963
0.996078014 0.504744053 0.173560992
0.277292818 0.353193790 0.122834004
0.280329198 0.356230199 0.125869617
0.286148369 0.351549804 0.119670808
0.298545539 0.348640054 0.118152767
0.315243810 0.346615821 0.119544588
0.315623313 0.346362799 0.119544588
0.322201401 0.345350802 0.114484586
0.339405388 0.345350802 0.120556712
0.358254045 0.342314810 0.127134904
0.373940378 0.331688881 0.119038515
0.392157137 0.331562400 0.118912004
0.407083958 0.339532077 0.118912004
0.421125650 0.349652171 0.117647000
0.435420811 0.363314033 0.118279584
0.450601220 0.375458807 0.118279584
0.464515984 0.379126996 0.121948399
0.479696155 0.388614774 0.122834004
0.493611366 0.397596627 0.123466425
0.510689378 0.408222377 0.126502037
0.524351418 0.418342769 0.126754999
0.569386542 0.441998720 0.122960001
0.618090272 0.462492079 0.116634868
0.660341978 0.479570210 0.116381682
0.696774006 0.485642225 0.119418077
0.746489406 0.495256126 0.118279584
0.791397691 0.501707375 0.122327574
0.833523095 0.507147074 0.127513990
0.870208800 0.513725817 0.139405027
0.912333965 0.520556748 0.137887418
0.947754323 0.525996327 0.144971386
0.976723135 0.532068372 0.160278156
0.996078014 0.538140416 0.185704991
0.308791786 0.389626592 0.107147403
0.309424371 0.390259176 0.112586819
0.312460750 0.388994545 0.107020974
0.323339790 0.386970431 0.105502650
0.340796977 0.385072559 0.110436201
0.340796977 0.376976579 0.110436201
0.353067786 0.386590570 0.105376199
0.362428784 0.378367871 0.105882190
0.382921875 0.374572784 0.114990398
0.401391268 0.369006783 0.110815711
0.419481516 0.366097599 0.105629206
0.435674042 0.368121326 0.105629206
0.448576748 0.375331968 0.104490854
0.459962040 0.386463851 0.103226013
0.477293193 0.398608625 0.103226013
0.492472947 0.410752803 0.100822210
0.510688961 0.418342590 0.102340400
0.526375353 0.430487126 0.101075411
0.538013756 0.441366434 0.098798268
0.557621598 0.448070943 0.108665213
0.573561072 0.459076583 0.118152946
0.615054131 0.483870924 0.114610873
0.653637230 0.506135464 0.109044515
0.699177802 0.519038737 0.112080909
0.737887084 0.529664814 0.106008723
0.786211133 0.537507594 0.113978527
0.829728127 0.544085622 0.123592749
0.869955838 0.552055657 0.130043998
0.911701560 0.555724561 0.143326834
0.945351124 0.560025334 0.145603970
0.974193335 0.566350341 0.163567171
0.998481810 0.573940575 0.195445806
0.339152187 0.429095358 0.091967009
0.339152187 0.429095358 0.095003009
0.338266939 0.425426930 0.096394770
0.346363336 0.423656166 0.089816839
0.363946855 0.426059365 0.097533002
0.369639188 0.418469340 0.099810004
0.377735704 0.417457372 0.093231812
0.392789185 0.423908651 0.090701811
0.404933393 0.411005348 0.095255814
0.423908859 0.409487367 0.095255807
0.440733939 0.406578243 0.092472807
0.461480230 0.406072289 0.087412819
0.475521982 0.409107924 0.087412819
0.485515207 0.414547384 0.085262649
0.502466798 0.422897011 0.086527810
0.521315575 0.433523387 0.085642204
0.536495566 0.450221568 0.078052014
0.557747960 0.461732954 0.077419430
0.570398390 0.472991943 0.072232828
0.589120567 0.479570001 0.078305028
0.606957495 0.490955174 0.095382743
0.624162138 0.502087295 0.107527010
0.654522479 0.526249170 0.101454675
0.696141660 0.545603871 0.104490712
0.739405274 0.564579368 0.102972716
0.777482271 0.576723337 0.102213666
0.823149920 0.582542419 0.119038805
0.867678642 0.589626789 0.125110537
0.907147348 0.591903985 0.137254611
0.945351124 0.596458137 0.148639977
0.972675562 0.600379348 0.161796182
1.000000000 0.608855188 0.196964011
0.367109120 0.469702542 0.076660454
0.366476536 0.470335126 0.077925444
0.364958704 0.467299104 0.077546068
0.368880689 0.462492108 0.078684710
0.383302003 0.462492108 0.076786876
0.397975624 0.462492108 0.082858875
0.407463580 0.458064526 0.078178123
0.417836994 0.455660999 0.071473464
0.431625187 0.458949685 0.071473464
0.443769932 0.452877671 0.071473464
0.459456414 0.449715406 0.070841052
0.480708539 0.447438508 0.068058044
0.501707673 0.446679473 0.063630462
0.514357746 0.449968100 0.063883491
0.529917538 0.453383952 0.066919878
0.546742380 0.461859763 0.063124917
0.565591335 0.475775152 0.060847897
0.581404090 0.495129943 0.049968898
0.602656543 0.504237592 0.046932511
0.621758163 0.511195123 0.049462669
0.638709247 0.521694839 0.061986469
0.654522240 0.534851253 0.079443887
0.669702649 0.544212580 0.086148381
0.700063050 0.566982567 0.092220120
0.735863149 0.589373529 0.096774004
0.778747261 0.611891150 0.101581089
0.814674199 0.623529196 0.112207547
0.862618446 0.626818538 0.124604560
0.901834011 0.627830505 0.137381122
0.938899338 0.631372511 0.150284335
0.971410573 0.636179507 0.162428603
0.998735011 0.642251551 0.192789420
0.397469968 0.503099024 0.049335986
0.394433558 0.506135404 0.055407979
0.393800974 0.506767988 0.050221212
0.398608327 0.503731966 0.045920055
0.410626471 0.498924971 0.046426021
0.419734061 0.498924971 0.052498020
0.434408307 0.496394694 0.053510018
0.447185427 0.493105739 0.046172999
0.458823830 0.492852986 0.038077001
0.468058020 0.498418957 0.038077001
0.486021787 0.495256096 0.035167877
0.508032978 0.490196019 0.034408975
0.530044317 0.484630018 0.032764331
0.547754943 0.480328977 0.030487031
0.565970898 0.486400962 0.033523418
0.574319959 0.497027040 0.017331228
0.587729394 0.510436237 0.011512049
0.605692983 0.525490046 0.013536066
0.623908997 0.537634075 0.007464059
0.645161390 0.546742380 0.009993669
0.664262950 0.555597723 0.018722069
0.682226300 0.565212131 0.031625357
0.700063527 0.574573457 0.043643516
0.715243936 0.589753091 0.064895913
0.736496210 0.605692327 0.082352936
0.773434520 0.628589332 0.096267939
0.820746183 0.653890014 0.109171145
0.854143322 0.662998438 0.127387896
0.896773875 0.666287124 0.142441779
0.937001586 0.670840979 0.160911113
0.970904589 0.675141990 0.179380298
0.992662966 0.675647974 0.195825055
0.422264725 0.544844747 0.013662264
0.422011673 0.547881186 0.014168259
0.425427049 0.548766792 0.015939258
0.431752056 0.547501624 0.012523621
0.443516910 0.543326914 0.012523621
0.452625155 0.540923774 0.013788618
0.464263082 0.540923774 0.017330941
0.477545738 0.539785087 0.017583974
0.490449101 0.537128747 0.013788885
0.503605306 0.535104692 0.015812628
0.515875757 0.535231233 0.012903502
0.536116302 0.534219086 0.011891631
0.557368636 0.528526425 0.010752987
0.575838387 0.521568716 0.007969629
0.596584737 0.525110424 0.008475689
0.612397552 0.531183004 0.009108273
0.622644067 0.542568088 0.002656835
0.636433005 0.555850744 0.006198994
0.648197770 0.567994714 0.004427995
0.674763143 0.580138743 0.001138643
0.692219973 0.591144860 0.004174736
0.710562468 0.601138592 0.009614345
0.730423570 0.610246539 0.014042115
0.745603919 0.620113850 0.014041815
0.758507609 0.630740047 0.046679456
0.781024992 0.646299720 0.074889243
0.819481373 0.670588017 0.098798111
0.857431948 0.693358481 0.121568874
0.893485248 0.705123723 0.147754773
0.928652763 0.708538830 0.165211946
0.964199960 0.712713301 0.185452223
0.994939625 0.714611113 0.204427361
0.444655746 0.589247167 0.003794996
0.452245742 0.588488102 0.000000000
0.456546724 0.593168736 0.001897740
0.460088730 0.590638757 0.000632579
0.469323277 0.587349474 0.000379548
0.478431672 0.585831642 0.001897740
0.493864745 0.585325718 0.002530322
0.504364431 0.583681464 0.007210997
0.516255498 0.583428502 0.005439902
0.530297220 0.579633474 0.003921519
0.546362758 0.579380453 0.003036131
0.558886766 0.575585485 0.002024260
0.581277490 0.573308170 0.002024260
0.601518035 0.565464735 0.000000000
0.624415159 0.565211833 0.000000000
0.640860558 0.572549105 0.000000000
0.656040907 0.580139279 0.000000000
0.669196844 0.589373708 0.002024260
0.680835009 0.596457779 0.002024258
0.699051380 0.610499501 0.001138643
0.720683455 0.622643411 0.001897740
0.735863030 0.633776128 0.002909872
0.754964769 0.643010437 0.002024260
0.768374383 0.653889656 0.000759096
0.786970317 0.662998021 0.004554091
