Assets/EldamarStudio/100 Retro LUTs Pack/LUTs/cube/Michelle LUT.cube
LUT_3D_SIZE 5
DOMAIN_MIN 0.000000 0.000000 0.000000
DOMAIN_MAX 0.903226 0.903226 0.903226
0.121569000 0.101961002 0.125489995
0.208602399 0.113724999 0.121569000
0.453889787 0.135989994 0.121569000
0.717014372 0.183428124 0.138393119
0.899683595 0.261606663 0.212017640
0.097659715 0.222011700 0.124857992
0.233776107 0.232131392 0.126502275
0.446679384 0.247565106 0.137887418
0.710056841 0.301454991 0.157242134
0.887539506 0.349525511 0.229348511
0.003922000 0.569513202 0.185704991
0.212144285 0.587223232 0.190891996
0.557115793 0.596331775 0.209993392
0.732574105 0.542315066 0.220998988
0.864389777 0.515369773 0.261606812
0.266287357 0.769766152 0.374826252
0.362428665 0.780898273 0.386844128
0.532700539 0.776343703 0.392409980
0.728526115 0.770778000 0.422770143
0.864769161 0.753067434 0.445034951
0.596584618 0.845793843 0.553320765
0.619860709 0.847438097 0.566097319
0.662998021 0.845161378 0.572043240
0.738520086 0.841619134 0.584187150
0.814547956 0.839215994 0.602909803
0.116635293 0.106515005 0.232131407
0.232131407 0.100316294 0.224920988
0.486907095 0.071853429 0.255660981
0.704870284 0.179253414 0.272359133
0.881720483 0.289183795 0.323718816
0.151675984 0.195825696 0.210246682
0.254396379 0.225932702 0.239974394
0.446046829 0.246552810 0.253383696
0.685894966 0.299430996 0.271347404
0.871473908 0.367488980 0.323466092
0.152687699 0.525363684 0.312207699
0.285135955 0.545351267 0.319418073
0.544971526 0.566603065 0.324983984
0.693991065 0.515496671 0.319038540
0.846299708 0.521188915 0.346615970
0.391144842 0.750537395 0.434534967
0.446046650 0.761290610 0.448197544
0.571536839 0.761290133 0.454143107
0.734472156 0.763567269 0.471853524
0.858570516 0.747880995 0.477040142
0.628842533 0.845161021 0.581403971
0.643896043 0.844781756 0.593674958
0.683238804 0.841872156 0.603795111
0.746236384 0.840227842 0.607210636
0.815053880 0.834408700 0.630360842
0.122959986 0.110436417 0.475395381
0.317520678 0.085262299 0.467552394
0.541555762 0.037191592 0.455787390
0.800252795 0.165338114 0.491334528
0.904869974 0.330550194 0.461606801
0.179506689 0.277292788 0.431878686
0.295256078 0.263251096 0.443010688
0.534598053 0.255408108 0.450474381
0.756862521 0.329031944 0.462871820
0.869196653 0.420619816 0.461606383
0.300189376 0.468817413 0.430233955
0.393674821 0.490449190 0.439721674
0.566223800 0.544718385 0.474003375
0.677040160 0.515243828 0.451866239
0.828336358 0.557874501 0.476787210
0.547754526 0.714231133 0.539785147
0.566603541 0.722454190 0.542694390
0.621505499 0.739405274 0.547248423
0.741049707 0.751802564 0.561669648
0.833776295 0.731942117 0.543074131
0.689943135 0.832763970 0.633523285
0.689816356 0.837697864 0.641998529
0.723086774 0.834661543 0.657811642
0.775079072 0.833017290 0.665654778
0.820240438 0.834029138 0.688551426
0.212903127 0.171790123 0.653257251
0.348134279 0.174066827 0.655787408
0.573055089 0.164958999 0.653131008
0.778620958 0.210120261 0.642378151
0.923971951 0.423149735 0.638836265
0.279063672 0.342947274 0.631246150
0.377988845 0.342694849 0.631499410
0.563946724 0.337507814 0.631245971
0.761669993 0.365717679 0.628336310
0.903984547 0.519291341 0.644908130
0.415939242 0.554206133 0.595193148
0.482985258 0.566223860 0.598228991
0.591650367 0.573434770 0.607084155
0.735863090 0.577735543 0.612650275
0.870082378 0.636559129 0.640354574
0.529664993 0.695256114 0.592409968
0.570398271 0.699177861 0.601517856
0.644655406 0.707400382 0.610373557
0.746363103 0.736496150 0.644276142
0.826692104 0.714358091 0.616571844
0.716887653 0.824667931 0.688045621
0.733080387 0.823023200 0.701834083
0.765211582 0.827577770 0.711954355
0.791650951 0.829474986 0.711954415
0.831119657 0.831119657 0.726628661
0.344085813 0.341682583 0.784313977
0.418342471 0.343959302 0.785578489
0.554458976 0.361290604 0.787096798
0.730550349 0.396584451 0.773181677
0.886400819 0.473750740 0.771410644
0.437697768 0.478304595 0.773054898
0.481467396 0.476280779 0.775331974
0.590133071 0.484756172 0.773054898
0.740923584 0.498798311 0.764832079
0.873877227 0.546109796 0.766476870
0.577609181 0.653889835 0.748387277
0.599999905 0.650347948 0.753826380
0.648576856 0.644149184 0.757748246
0.746995509 0.641745627 0.757368684
0.858191431 0.659835398 0.754965365
0.625047445 0.751169801 0.744844735
0.645793796 0.750537753 0.734471798
0.693485081 0.755470932 0.741050065
0.758380949 0.757747948 0.739405453
0.837318182 0.768880367 0.745350957
0.705123425 0.815812826 0.734724998
0.719923735 0.820366979 0.740164280
0.745350838 0.816445410 0.740037978
0.795319319 0.823655784 0.742314994
0.827450991 0.831498861 0.747754812
