Assets/EldamarStudio/100 Retro LUTs Pack/LUTs/cube/Michele LUT.cube
LUT_3D_SIZE 5
DOMAIN_MIN 0.000000 0.000000 0.000000
DOMAIN_MAX 0.903226 0.903226 0.903226
0.027450999 0.050980002 0.137254998
0.167741701 0.067299001 0.145098001
0.350537807 0.070588000 0.138520002
0.637697279 0.100062996 0.142188132
0.928652763 0.147880971 0.154206172
0.130423695 0.160531700 0.141176000
0.194560692 0.166729987 0.145098001
0.339785099 0.200126395 0.155850723
0.628842354 0.252751708 0.145983309
0.927008033 0.291334540 0.153953120
0.277292818 0.353193790 0.122834004
0.339405388 0.345350802 0.120556712
0.450601220 0.375458807 0.118279584
0.618090272 0.462492079 0.116634868
0.912333965 0.520556748 0.137887418
0.466919988 0.633776248 0.005819002
0.530676663 0.629221857 0.004174870
0.649082959 0.608981669 0.001012128
0.761163950 0.665148258 0.004933870
0.890954912 0.747881114 0.126122653
0.652624965 0.912839949 0.002530012
0.688298523 0.910309613 0.001012124
0.808855176 0.907779753 0.004554423
0.965844035 0.899809778 0.003288990
0.996078014 0.927260756 0.176597133
0.044781707 0.070588000 0.190259412
0.148133695 0.073876999 0.187602997
0.315243393 0.097406581 0.196458116
0.604048133 0.128526285 0.224667683
0.916255593 0.162555113 0.254648715
0.058823999 0.166729987 0.187602997
0.171663702 0.161163718 0.189247280
0.313978404 0.197849274 0.208602399
0.600126386 0.249209538 0.220999569
0.914610863 0.297533244 0.259329706
0.228589684 0.354458958 0.183681414
0.308665395 0.350917071 0.174826279
0.433270067 0.359392703 0.172548994
0.600759149 0.459203213 0.216698289
0.901454508 0.522200942 0.259962112
0.434535265 0.636432648 0.098038986
0.494117677 0.628842592 0.101328149
0.625553370 0.614547551 0.045287859
0.754079282 0.656672835 0.103099696
0.886780798 0.747121930 0.279569745
0.620240092 0.918026805 0.167488813
0.660847485 0.916382074 0.148892924
0.784313679 0.908032894 0.091081463
0.955977023 0.900821924 0.031752080
0.993547976 0.924857676 0.296774060
0.033270430 0.085009828 0.333585978
0.163820282 0.095762290 0.323339671
0.315876365 0.104616992 0.322454393
0.596584260 0.101328418 0.385325640
0.900442362 0.174193785 0.459202945
0.042757720 0.199114278 0.314864099
0.159266531 0.193548411 0.320809662
0.325742930 0.207969815 0.333206654
0.588994503 0.240986705 0.384313524
0.895635426 0.312334120 0.469449729
0.000000000 0.396331787 0.332194805
0.043263905 0.402277201 0.310310096
0.404174805 0.376091212 0.315243810
0.585452080 0.462112665 0.403288931
0.886148214 0.521947742 0.487413198
0.218090177 0.664516211 0.325996280
0.352687865 0.657684922 0.346616238
0.552941561 0.635673285 0.311068535
0.730803132 0.643896401 0.317900389
0.868437767 0.749145925 0.513598621
0.511574805 0.923339665 0.452371985
0.560151875 0.919038475 0.446173280
0.704869986 0.914864182 0.409740597
0.912966609 0.898544908 0.352687836
0.987096965 0.924604595 0.486401021
0.002023998 0.118659131 0.619102120
0.161037385 0.112080708 0.615813017
0.390891939 0.109803997 0.613156140
0.609361410 0.108791865 0.609234393
0.898924887 0.205692619 0.658823550
0.000000000 0.247185394 0.600126386
0.092219979 0.240733415 0.594560266
0.375838071 0.243643269 0.598482251
0.606704414 0.253130823 0.598481834
0.889437020 0.347754329 0.668690503
0.002277288 0.455028355 0.598102510
0.003036126 0.457305372 0.603035867
0.355597526 0.462492079 0.611258566
0.618469536 0.498418391 0.638583541
0.869196594 0.562175930 0.694750071
0.002909872 0.716129243 0.611132145
0.004301290 0.714104831 0.602403283
0.302719891 0.705629230 0.581783414
0.666034102 0.665148258 0.581783354
0.875648379 0.755597770 0.699683785
0.013156378 0.953067482 0.591271043
0.228082985 0.945857048 0.604047954
0.566476703 0.931562304 0.661733210
0.792409897 0.917141080 0.648956239
0.973307908 0.922074616 0.674383104
0.156483218 0.176723644 0.857811749
0.297912598 0.177355811 0.860847533
0.514864028 0.182669207 0.851992369
0.745224357 0.198228747 0.856040478
0.965338469 0.250221431 0.847311974
0.144971520 0.326502353 0.855660915
0.296521276 0.321695089 0.853257656
0.514610887 0.335989684 0.848324060
0.740796745 0.353067338 0.842884183
0.956609607 0.383807480 0.842504680
0.053130552 0.541555762 0.850727201
0.273624361 0.547374785 0.843896389
0.535357416 0.571663618 0.840859950
0.728779197 0.579886079 0.835546792
0.937887549 0.590639055 0.841619194
0.001644704 0.785072803 0.831499100
0.116128817 0.781657159 0.830107570
0.455913842 0.767109215 0.832384646
0.717267931 0.767741978 0.833016992
0.905502796 0.787982106 0.830107629
0.243389964 0.972928822 0.806704640
0.346868753 0.968374670 0.807716548
0.536748528 0.958506942 0.812776327
0.723592758 0.951043427 0.819987476
0.937760592 0.935104489 0.825047791
