Assets/EldamarStudio/100 Retro LUTs Pack/LUTs/cube/Michelle LUT.cube
LUT_3D_SIZE 8
DOMAIN_MIN 0.000000 0.000000 0.000000
DOMAIN_MAX 0.903226 0.903226 0.903226
0.121569000 0.101961002 0.125489995
0.143832549 0.106261544 0.125869542
0.238962993 0.112966098 0.122327901
0.368880272 0.121062644 0.118785642
0.538899362 0.139405385 0.127640992
0.685642004 0.174319729 0.137381002
0.804174244 0.214674279 0.165337995
0.899683595 0.261606663 0.212017640
0.123971999 0.135989547 0.129032448
0.151676551 0.140291005 0.118026547
0.231878281 0.151676446 0.125869542
0.363061637 0.168880552 0.131815091
0.526122749 0.194307089 0.130676657
0.672612011 0.225173920 0.140670449
0.787223101 0.255534261 0.170904279
0.894370735 0.287286818 0.207084104
0.079443708 0.256926090 0.129411995
0.150537997 0.265907645 0.127767086
0.270968169 0.267046213 0.132574096
0.409614295 0.288172185 0.127766997
0.515370369 0.286654174 0.133965984
0.666793287 0.315623194 0.157495096
0.787602663 0.340797096 0.179380089
0.883997619 0.370271921 0.238709539
0.006704646 0.458190918 0.164199650
0.057179265 0.472738534 0.164579093
0.291461200 0.481846899 0.161669731
0.473118275 0.498418927 0.166476637
0.616065919 0.500948727 0.167489082
0.669070363 0.447691441 0.184819892
0.757748246 0.436052918 0.197849348
0.861100674 0.458696932 0.255534619
0.002403808 0.643516958 0.227830380
0.013788991 0.651359975 0.248450205
0.260088384 0.650474370 0.242758080
0.434408635 0.651612699 0.243769735
0.608222365 0.655281365 0.266160369
0.749399185 0.657558560 0.281847000
0.792536378 0.592536390 0.277166247
0.851233661 0.566983044 0.285768449
0.224794731 0.756609976 0.354585737
0.277166218 0.756103516 0.358633548
0.354838729 0.760404944 0.362808108
0.464895636 0.763946712 0.369386643
0.591271400 0.761543632 0.380645186
0.709297955 0.756609976 0.395446002
0.824794531 0.764453173 0.414421469
0.870335102 0.724730849 0.416951180
0.425300539 0.822517276 0.450221568
0.451866090 0.820493460 0.457811534
0.481467277 0.816824913 0.463630259
0.537633896 0.819228292 0.466919571
0.608855128 0.814547777 0.475521982
0.693232000 0.816698432 0.481973261
0.777735531 0.812397003 0.495635271
0.858444452 0.815180480 0.521315277
0.596584618 0.845793843 0.553320765
0.609993339 0.847438455 0.561416507
0.627956569 0.848197162 0.564326406
0.646552980 0.845793843 0.568754137
0.683112025 0.845667362 0.578621030
0.726628780 0.842378139 0.583427787
0.767994821 0.841872156 0.589500070
0.814547956 0.839215994 0.602909803
0.128652990 0.106261544 0.155218095
0.151297003 0.102340452 0.151676551
0.247185647 0.105122998 0.164958552
0.361037165 0.110183455 0.162555546
0.510309756 0.135104448 0.177103177
0.670334995 0.171157748 0.198734552
0.783301592 0.217710093 0.217963248
0.884377062 0.271979511 0.248956069
0.136875451 0.135230541 0.155218109
0.156736091 0.136369094 0.160278544
0.226439074 0.147754550 0.163440645
0.351676255 0.161416993 0.172801733
0.498039365 0.182542980 0.181024894
0.652751327 0.218216538 0.202656552
0.768627524 0.254143029 0.214674085
0.879316986 0.296900690 0.250853807
0.132953554 0.236559182 0.175964534
0.161037549 0.238456741 0.176723540
0.269450068 0.247058734 0.178621083
0.377482355 0.259962082 0.183681443
0.505629659 0.281973302 0.195572451
0.649209559 0.313345879 0.202024087
0.772169709 0.339531630 0.228589371
0.873371243 0.371410191 0.266919374
0.039468810 0.428842455 0.213662177
0.132068440 0.437950820 0.224035189
0.282606184 0.446932256 0.222011626
0.451359808 0.462112904 0.221505180
0.589373827 0.470588297 0.224668190
0.652245581 0.429222196 0.224288434
0.749019563 0.435547173 0.241619244
0.856420159 0.455028534 0.276533991
0.014168538 0.623023391 0.274509847
0.115243554 0.624920726 0.282352924
0.281088084 0.631119847 0.283491373
0.445034981 0.637191594 0.290828526
0.602656245 0.639595389 0.301201731
0.729917824 0.639088988 0.311195552
0.782289326 0.586590648 0.307021111
0.846552849 0.563567281 0.306135356
0.279696614 0.741176546 0.379507005
0.317267537 0.746615708 0.386084467
0.380392164 0.744971514 0.389120549
0.481594175 0.749019504 0.395066738
0.595951915 0.749019563 0.406198531
0.712207735 0.746995270 0.413662106
0.819987476 0.754838467 0.436306238
0.862871587 0.718405902 0.431499273
0.448830098 0.811385274 0.461859375
0.470588267 0.811005712 0.467931807
0.492219836 0.815306723 0.467172652
0.544592142 0.813029706 0.473497927
0.621379018 0.811005712 0.484630197
0.698418975 0.808728576 0.491840303
0.778494537 0.810752749 0.511195779
0.856040597 0.812776744 0.532574475
0.606451750 0.843137026 0.565464914
0.614294767 0.845161200 0.567489028
0.635547400 0.842504799 0.577735305
0.652624965 0.844149411 0.579633057
0.687666118 0.843010783 0.582289517
0.728272796 0.845161259 0.589247048
0.773307800 0.837571263 0.600632548
0.817457199 0.837571263 0.616698325
0.109044902 0.102719903 0.264010191
0.173181176 0.105122998 0.259708732
0.265528202 0.095762104 0.251486301
0.422897249 0.069576360 0.290195823
0.575838089 0.065148808 0.293105900
0.686147869 0.126881719 0.285768360
0.784566283 0.226186082 0.309424073
0.874889433 0.294749796 0.340417355
0.132953554 0.155977100 0.235041186
0.174066991 0.141429543 0.227198094
0.259329200 0.144212097 0.247185543
0.407716721 0.148893192 0.274257004
0.529538393 0.165338099 0.277672172
0.653510273 0.214294747 0.289184183
0.763693988 0.266793549 0.308791816
0.869955540 0.317773640 0.332953990
0.163061097 0.220114097 0.241366193
0.204933643 0.236179635 0.256672651
0.296900988 0.261606187 0.271853179
0.390133083 0.261606395 0.271094114
0.514737427 0.288298279 0.283617973
0.647691667 0.317646950 0.295888633
0.760910511 0.346995354 0.310183376
0.862112582 0.387982011 0.344465643
0.221632197 0.403541893 0.314105183
0.240733817 0.415306807 0.310942352
0.311195642 0.429728359 0.319544286
0.445034921 0.440733463 0.312839746
0.551043749 0.437318027 0.309803724
0.633396804 0.419861078 0.297533274
0.742694557 0.440607101 0.317520440
0.845414400 0.470461905 0.348133713
0.224288374 0.597975969 0.360531181
0.267678410 0.600632727 0.363187611
0.346869290 0.613662362 0.365085185
0.466919392 0.618343115 0.370145738
0.605819166 0.623782277 0.380771369
0.706894279 0.619101882 0.381909937
0.761164010 0.569639385 0.360278368
0.832258105 0.565591216 0.370018899
0.393421918 0.729031980 0.433270186
0.412144005 0.731688738 0.439089000
0.452118903 0.733965874 0.440606833
0.525363684 0.732068419 0.452624619
0.616698265 0.737634242 0.455155164
0.714484632 0.742820740 0.462239057
0.809108078 0.746236384 0.475521892
0.855787575 0.713978469 0.460594565
0.501328111 0.802656233 0.501581073
0.512840092 0.805565834 0.504490733
0.538140237 0.804427505 0.506135345
0.579886258 0.803921580 0.510436416
0.639468670 0.806704521 0.521695137
0.714610696 0.807463288 0.531182468
0.781656981 0.805313110 0.542947471
0.849968255 0.811385274 0.565085292
0.633396626 0.843390167 0.591776967
0.639721394 0.844275832 0.594433606
0.648956060 0.843010962 0.599240959
0.669070244 0.841492653 0.601771235
0.698671877 0.841113210 0.607716680
0.739405513 0.837444901 0.612270772
0.779000700 0.836306393 0.622011542
0.814041913 0.836685956 0.630360842
0.101454645 0.108158998 0.408601910
0.206072092 0.095256351 0.408601910
0.329032123 0.077292547 0.395698994
0.440606922 0.060974360 0.391777277
0.647564769 0.010878997 0.446806073
0.758254111 0.120556630 0.429854512
0.827704310 0.212650269 0.404680640
0.881846964 0.317899972 0.412903458
0.113219641 0.166097194 0.380012304
0.180898175 0.169639647 0.371663600
0.304617286 0.157495096 0.377988636
0.425679922 0.145350635 0.385072649
0.624794722 0.154206291 0.427198023
0.727261305 0.203035831 0.413029969
0.804553926 0.267552286 0.401138395
0.874256790 0.344212413 0.413156003
0.169639453 0.271726966 0.371410191
0.216571733 0.279949725 0.361923069
0.316887736 0.278431565 0.376850188
0.452371806 0.278811097 0.392663002
0.605692446 0.304237843 0.405439645
0.687413156 0.330929667 0.396078527
0.772295833 0.375964552 0.403921545
0.851992607 0.430740058 0.423655987
0.239974633 0.386337936 0.364959270
0.278052092 0.399746895 0.376091272
0.373561084 0.426059395 0.395192742
0.483238280 0.454648912 0.417584002
0.551549435 0.434661478 0.395319462
0.645161211 0.444149375 0.393422008
0.745351255 0.462998003 0.406957626
0.838203788 0.497786075 0.423529446
0.353699923 0.574066937 0.434914380
0.397849262 0.579127252 0.448703527
0.447691619 0.590891957 0.451486170
0.506514609 0.607083738 0.447438180
0.615559757 0.616825044 0.456926227
0.679190636 0.594813347 0.439215660
0.730802834 0.555597425 0.415686339
0.826438904 0.585072637 0.437191576
0.505502999 0.706388116 0.509677410
0.507273734 0.709424317 0.504364431
0.526881814 0.713219464 0.504364491
0.571663558 0.722706974 0.508539021
0.639468431 0.729791105 0.520556271
0.726375580 0.733586311 0.529538274
0.791777253 0.730550051 0.527387679
0.838962674 0.706135511 0.500569403
0.559013247 0.794560373 0.550410867
0.568121552 0.796078563 0.548513532
0.586084604 0.794813335 0.551676035
0.620493233 0.798481882 0.559898973
0.666540205 0.801265001 0.564958990
0.726248860 0.800506175 0.578241587
0.790132999 0.805186570 0.586843610
0.844528735 0.807716906 0.603415549
0.670967817 0.839468598 0.616824627
0.674636126 0.839721978 0.629095614
0.683617830 0.841492891 0.630613446
0.702846229 0.837950826 0.634029210
0.725490034 0.836053014 0.640227497
0.757748127 0.832764149 0.647438347
0.792283654 0.834029138 0.657685101
0.821884990 0.835547328 0.668310940
0.155976996 0.115875989 0.533712983
0.238709539 0.111195281 0.531309187
0.368248075 0.090069897 0.528905392
0.501328230 0.059076540 0.522960007
0.636306167 0.054395989 0.529791415
0.779506564 0.134851277 0.539911389
0.868564188 0.269702464 0.535484195
0.919923782 0.364958793 0.517267227
0.155344546 0.196204737 0.517773569
0.225932926 0.195825294 0.510816157
0.355724186 0.184819996 0.514737308
0.494497180 0.165970996 0.515243530
0.615559757 0.163187638 0.508538961
0.760151684 0.228463277 0.534471989
0.849842131 0.323339820 0.523845732
0.906135321 0.389373899 0.513472378
0.223150089 0.330550104 0.497659862
0.262239158 0.330677003 0.497659892
0.352435172 0.315623194 0.489563286
0.484124184 0.307780176 0.499936998
0.619102001 0.313219339 0.508539081
0.745477438 0.374193490 0.526628494
0.819987178 0.423656166 0.523466170
0.886021674 0.467805088 0.514484406
0.272359252 0.445287913 0.476407200
0.315875918 0.448450714 0.482352823
0.400885433 0.456166893 0.486906826
0.498798281 0.466413617 0.492852390
0.614041805 0.473750442 0.507780015
0.707021117 0.500442564 0.511321723
0.772928357 0.511195421 0.501581371
0.839342356 0.533333242 0.508918524
0.353067547 0.550031602 0.485136181
0.402656376 0.557494998 0.480708569
0.471726894 0.568248093 0.493738085
0.556230426 0.597217143 0.518532574
0.631119192 0.613662243 0.522833347
0.668943882 0.585831642 0.502972543
0.738267183 0.586970210 0.500063062
0.825173974 0.606577992 0.509424388
0.519038498 0.687159956 0.539278984
0.539784610 0.689436793 0.548133969
0.575964272 0.691334367 0.557242215
0.614548087 0.703858256 0.558507383
0.652498424 0.715623200 0.561164141
0.729538381 0.725869417 0.575332046
0.771663606 0.710183263 0.552688181
0.821378827 0.684503496 0.532827318
0.619861245 0.778494298 0.605692446
0.629854739 0.778747678 0.604300976
0.645034969 0.785452068 0.603542089
0.653763413 0.788614810 0.597090483
0.687413275 0.795699239 0.605819166
0.736116290 0.796584487 0.619481444
0.794181108 0.798102498 0.635420501
0.838709772 0.801644564 0.634535253
0.704743803 0.832005024 0.667046189
0.712333739 0.829601347 0.667046070
0.719418108 0.832005024 0.665148497
0.732827246 0.834788322 0.669196665
0.741935372 0.832890809 0.668943822
0.774952710 0.832511306 0.680328965
0.797596455 0.835041225 0.683618069
0.824541390 0.832763970 0.700189590
0.199746996 0.156609997 0.630992949
0.265654981 0.154585734 0.628842771
0.380518734 0.152561471 0.629981101
0.498418778 0.140670463 0.628083587
0.639215827 0.137001917 0.617963731
0.754332721 0.169639200 0.621125758
0.861353576 0.273118287 0.616319001
0.929790914 0.421884716 0.625679970
0.221125737 0.233016819 0.614927411
0.272865534 0.230993077 0.619987249
0.372043192 0.228209823 0.616318882
0.496015251 0.221125841 0.613156199
0.625047624 0.216192201 0.607337058
0.740290880 0.246679202 0.613535464
0.847312272 0.327767074 0.614421248
0.913978636 0.459329516 0.622138023
0.281340927 0.361669660 0.599367440
0.321188986 0.355850905 0.595446050
0.397469908 0.358127952 0.605945468
0.499683559 0.355091810 0.599367440
0.627324581 0.357368857 0.602909625
0.732827485 0.373813927 0.595445931
0.834029257 0.443516910 0.616066039
0.900948942 0.531688750 0.627450824
0.366603106 0.490955263 0.579253614
0.391650915 0.495762259 0.581530392
0.456546277 0.499557287 0.583934247
0.522833645 0.495256126 0.581024647
0.620620012 0.494876355 0.582163334
0.721188962 0.505123258 0.588615119
0.808601916 0.558507383 0.608855128
0.878431618 0.595319331 0.618595600
0.426818281 0.583175123 0.572043002
0.450474292 0.586337745 0.570524991
0.502340257 0.596331239 0.571663558
0.563061416 0.602530181 0.577988625
0.636179626 0.610499680 0.586590886
0.716255486 0.624920785 0.595319510
0.790259063 0.638583124 0.609740257
0.845540464 0.645793855 0.604174316
0.507400751 0.674003959 0.574193716
0.531309307 0.669702888 0.576596916
0.561796427 0.677925527 0.580771387
0.602403760 0.683870733 0.581024647
0.673750758 0.695256174 0.604680717
0.727134764 0.715243757 0.620999753
0.759012938 0.687792718 0.589626729
0.827703953 0.693611503 0.592283607
0.605566263 0.763694048 0.620873213
0.619861245 0.766856551 0.627071321
0.637824357 0.768880248 0.631625354
0.675901651 0.774066925 0.642504454
0.714864254 0.780012310 0.651612997
0.749525607 0.791397750 0.659456015
0.801138580 0.799620271 0.672739029
0.828842580 0.785831511 0.656546593
0.722454011 0.825680017 0.691334665
0.723339558 0.828083336 0.691967130
0.745477438 0.822517097 0.697280288
0.759392619 0.827577770 0.701707602
0.766856551 0.827450991 0.700063288
0.782289565 0.827703774 0.705882132
0.806324840 0.828842640 0.716128945
0.826565564 0.830360591 0.722833633
0.252245575 0.226059571 0.721821249
0.300948977 0.230993271 0.721568704
0.386338115 0.231498986 0.713219583
0.498165667 0.235040903 0.722959876
0.619102001 0.236812264 0.712460458
0.741556168 0.254016548 0.713725746
0.840480983 0.315876275 0.700568974
0.919797659 0.414294779 0.700189769
0.284630001 0.293105841 0.711827993
0.322201133 0.293231815 0.712333977
0.399999738 0.298671544 0.713472724
0.501455069 0.298545003 0.706768036
0.615559876 0.303225726 0.706768095
0.733965755 0.318406075 0.698671758
0.831499279 0.366223663 0.697912693
0.908791959 0.447311848 0.691967249
0.352941096 0.417457312 0.700316250
0.388108641 0.416951209 0.703225791
0.438709378 0.419734359 0.696774304
0.526628554 0.419607460 0.697026849
0.623782456 0.422770381 0.696774244
0.729285002 0.431499362 0.692093432
0.822391212 0.464136541 0.694496989
0.898165643 0.526249170 0.691587448
0.458697259 0.549905300 0.668057859
0.474130005 0.554206133 0.674763024
0.505629480 0.541935503 0.676281095
0.561037302 0.542062283 0.679822922
0.642251849 0.540417552 0.681467652
0.725363731 0.545224428 0.681847155
0.809234619 0.558886945 0.682099879
0.877419412 0.605439663 0.686906815
0.496647567 0.624415100 0.659202993
0.514990628 0.632004976 0.657684922
0.549019635 0.635420561 0.661985993
0.599873424 0.640733838 0.669955671
0.650474191 0.630107462 0.667425752
0.722327471 0.634029090 0.672485769
0.800379395 0.645035028 0.681846976
0.857684970 0.682605863 0.691334486
0.553193986 0.702973008 0.653384030
0.564326286 0.700948894 0.657811582
0.584693313 0.705376446 0.665401220
0.624288738 0.704237759 0.659203172
0.673118353 0.714105010 0.666666746
0.732320964 0.712080777 0.670967758
0.797723055 0.723466218 0.684882998
0.841365993 0.748639822 0.699430525
0.598608613 0.753194273 0.665907562
0.601012290 0.753320277 0.652751267
0.623023570 0.754838586 0.661480069
0.657937944 0.762175918 0.666413665
0.700569212 0.768121362 0.670967817
0.757241964 0.777988553 0.689690292
0.796331286 0.791777253 0.704491019
0.822390974 0.770904481 0.673498154
0.702340066 0.820113719 0.704111099
0.711954296 0.818216443 0.707273722
0.727261126 0.821252346 0.713219166
0.745224416 0.819987178 0.710942566
0.773940504 0.821631908 0.722454071
0.799240708 0.825300515 0.734218538
0.813029945 0.830487251 0.740670562
0.832763970 0.830487251 0.750031233
0.344085813 0.341682583 0.784313977
0.366223544 0.341935337 0.785199165
0.436812043 0.346236706 0.787096977
0.507020772 0.355850399 0.785704970
0.608222365 0.365211576 0.784440160
0.703985035 0.387223393 0.777989030
0.807083845 0.421631873 0.774446368
0.886400819 0.473750740 0.771410644
0.380265623 0.391144693 0.782922208
0.398988158 0.395193011 0.782795548
0.451359898 0.400885493 0.782795548
0.526122868 0.404427320 0.778241575
0.612397015 0.413029492 0.784060717
0.709803760 0.430866480 0.777735353
0.805945396 0.454901844 0.771410525
0.879443407 0.499936789 0.766096950
0.457179129 0.503351927 0.770524859
0.475268424 0.502593160 0.775332034
0.510309875 0.505376101 0.771283925
0.565970719 0.507779896 0.773307920
0.637571156 0.511195362 0.772675812
0.719164908 0.521062732 0.769639671
0.804174542 0.529917717 0.764832139
0.871600211 0.560277998 0.764199853
0.535863042 0.605060101 0.757621586
0.546616197 0.606957614 0.756356597
0.568627119 0.605060160 0.761543393
0.610752642 0.604301274 0.758886755
0.661859632 0.602403581 0.763946533
0.728146553 0.598355293 0.756483078
0.800506055 0.606325269 0.759645700
0.861733198 0.626691937 0.754712164
0.582415760 0.677672505 0.741176009
0.595572174 0.686147988 0.746236324
0.617077708 0.685262740 0.744212627
0.647944450 0.680075884 0.745097995
0.683364987 0.677040160 0.751802683
0.736116350 0.675774992 0.751802325
0.795825481 0.675901532 0.749525428
0.852371991 0.693105638 0.751422882
0.606325030 0.737760723 0.747121871
0.624288440 0.737128615 0.743074059
0.643263698 0.739911377 0.737507939
0.669449687 0.740290880 0.740923703
0.707653344 0.746110201 0.739784777
0.745477557 0.744844735 0.740670264
0.797343612 0.744465232 0.744212508
0.841366053 0.755217791 0.748386919
0.660088301 0.779253662 0.736875355
0.667931497 0.781656981 0.738140225
0.671979785 0.781150877 0.737381458
0.696774006 0.785452187 0.739405394
0.730676711 0.785831690 0.735483944
0.764705777 0.788994193 0.734471679
0.796331465 0.796078682 0.744465649
0.831119359 0.806072295 0.750158191
0.705123425 0.815812826 0.734724998
0.708791792 0.817583680 0.740290999
0.723212957 0.821125805 0.738646030
0.740164816 0.818468988 0.738772810
0.762808204 0.817330658 0.742441416
0.788235188 0.821631908 0.741808891
0.811891139 0.823655784 0.749145806
0.827450991 0.831498861 0.747754812
