Assets/EldamarStudio/100 Retro LUTs Pack/LUTs/cube/Michele LUT.cube
LUT_3D_SIZE 8
DOMAIN_MIN 0.000000 0.000000 0.000000
DOMAIN_MAX 0.903226 0.903226 0.903226
0.027450999 0.050980002 0.137254998
0.093232095 0.059203450 0.141555548
0.192030102 0.061986096 0.144338906
0.287033647 0.067805350 0.139532000
0.427577555 0.078431003 0.140290990
0.595192492 0.096015260 0.151296273
0.769133568 0.116635285 0.146742716
0.928652763 0.147880971 0.154206172
0.083871000 0.111701541 0.141176000
0.120303549 0.107779540 0.141935095
0.171157554 0.116002090 0.141935095
0.288677752 0.124225549 0.152561545
0.418469012 0.141808897 0.145350739
0.589753270 0.163693994 0.145477548
0.769133568 0.190006241 0.149020001
0.930297136 0.208728537 0.154964969
0.144086093 0.180265903 0.141176000
0.178621098 0.178241551 0.140796646
0.226439089 0.185705096 0.145098001
0.264262825 0.204047844 0.147375003
0.411132246 0.235673383 0.147501811
0.583807707 0.268184751 0.147248268
0.761290550 0.303858399 0.142820716
0.923212767 0.323972017 0.150410995
0.228715986 0.285894990 0.132194638
0.255660832 0.282352626 0.134977996
0.314990282 0.274509728 0.134218901
0.363314271 0.296015292 0.135483652
0.416191906 0.326628387 0.140543997
0.574320138 0.386843383 0.130803272
0.748892963 0.428336293 0.130550340
0.919923723 0.454396069 0.138645992
0.339152187 0.429095358 0.091967009
0.363946855 0.426059365 0.097533002
0.404933393 0.411005348 0.095255814
0.475521982 0.409107924 0.087412819
0.536495566 0.450221568 0.078052014
0.606957495 0.490955174 0.095382743
0.739405274 0.564579368 0.102972716
0.907147348 0.591903985 0.137254611
0.444655746 0.589247167 0.003794996
0.469323277 0.587349474 0.000379548
0.516255498 0.583428502 0.005439902
0.581277490 0.573308170 0.002024260
0.656040907 0.580139279 0.000000000
0.720683455 0.622643411 0.001897740
0.786970317 0.662998021 0.004554091
0.892725825 0.731688678 0.139785051
0.561037242 0.759645820 0.004553996
0.572548866 0.755850852 0.004174544
0.614041567 0.753447533 0.000000000
0.691207886 0.748386860 0.001138644
0.765844584 0.741808653 0.001517999
0.835041463 0.750031710 0.004933716
0.895256519 0.784819543 0.009107990
0.939278781 0.816698074 0.089689717
0.652624965 0.912839949 0.002530012
0.664389789 0.916128755 0.001644715
0.698418856 0.910309613 0.000000000
0.766603053 0.909044743 0.003668657
0.857052505 0.900063097 0.001518192
0.949398696 0.898038864 0.005312988
0.987602353 0.913093090 0.005186845
0.996078014 0.927260756 0.176597133
0.047059000 0.063124545 0.162681550
0.085388996 0.062744997 0.154079556
0.168880552 0.072485551 0.166603461
0.256040275 0.092473000 0.167362556
0.399367452 0.104237802 0.178241640
0.570398390 0.125489995 0.180771738
0.759266257 0.137887001 0.186085001
0.927514195 0.154332995 0.198734552
0.050980002 0.115243100 0.171789989
0.115622543 0.114104547 0.154838547
0.161417097 0.116761185 0.168627083
0.263503909 0.129285187 0.170145094
0.398608476 0.150411084 0.178368449
0.570777833 0.177103281 0.182922244
0.755218267 0.197722837 0.183302000
0.924730778 0.217457250 0.195445538
0.119797193 0.178621098 0.149652094
0.159013093 0.175078735 0.164706007
0.214674100 0.178621188 0.154838547
0.254901737 0.200506091 0.163820088
0.402150631 0.232511178 0.175205439
0.567235887 0.268184632 0.172801733
0.752561510 0.302719623 0.177988902
0.920050621 0.324225366 0.192156821
0.214294642 0.284250289 0.163188010
0.240101635 0.284376979 0.156103998
0.300442636 0.274509728 0.149778903
0.353573620 0.290575385 0.156483367
0.405945718 0.323339462 0.162681565
0.564579368 0.386464119 0.165970653
0.746109962 0.429222077 0.171663180
0.913725197 0.454396069 0.192789286
0.315623194 0.426818371 0.129285365
0.338772833 0.421379179 0.121568561
0.396710813 0.411384910 0.121062808
0.467172742 0.406071931 0.117520362
0.531435847 0.445667386 0.112333901
0.597090185 0.484250724 0.135230541
0.736242771 0.563061178 0.159772456
0.904237628 0.593042374 0.193295270
0.435294181 0.592536032 0.035040919
0.448071003 0.589247167 0.027324632
0.504111528 0.582163095 0.019734273
0.572422326 0.574826360 0.008855104
0.654016554 0.570398271 0.002024260
0.721315622 0.616192281 0.013282558
0.782163024 0.659329534 0.092346460
0.886780620 0.728273213 0.205945790
0.538773000 0.763187826 0.001897740
0.554332852 0.762808263 0.004553996
0.607084274 0.753320634 0.000000000
0.672738552 0.750031590 0.001138644
0.766223490 0.739278495 0.002277288
0.832005143 0.752182126 0.000000000
0.884503245 0.788108587 0.000758999
0.938646495 0.817077637 0.161922663
0.634661496 0.915117204 0.035167433
0.654016852 0.913093030 0.026185885
0.693484962 0.911195338 0.009487825
0.763693810 0.905502856 0.002656643
0.843643188 0.900063097 0.001265167
0.943579972 0.897532940 0.003036184
0.987602353 0.908285797 0.033776186
0.991271257 0.925995886 0.226312459
0.048576996 0.070588000 0.206198901
0.092852548 0.070967548 0.199114203
0.172422096 0.080708094 0.196711004
0.259203196 0.088551998 0.209614560
0.391524285 0.102719903 0.223276183
0.558001220 0.114104733 0.233270362
0.745603740 0.139531702 0.259202987
0.914231598 0.166096985 0.277419120
0.057937995 0.117140636 0.196078002
0.098671995 0.116381541 0.192409649
0.162175998 0.124984547 0.199493647
0.252498746 0.136748642 0.207590088
0.393169194 0.148893192 0.226185739
0.558380485 0.174699470 0.241113544
0.740164399 0.197343186 0.256420076
0.917140961 0.226185545 0.277166367
0.054269806 0.187223092 0.196710989
0.092093542 0.191145003 0.194434091
0.198988110 0.180139184 0.199873090
0.260467827 0.200885743 0.215560004
0.384440362 0.233523190 0.224161997
0.554079711 0.264642477 0.231625631
0.738519847 0.297659904 0.252372086
0.911574721 0.328652948 0.283618093
0.141429439 0.297659993 0.198355094
0.190765530 0.290954828 0.196710989
0.272991747 0.286274642 0.196711093
0.338393271 0.290575385 0.194054559
0.404048175 0.321062475 0.215812743
0.555977225 0.379380018 0.236812189
0.732194722 0.423656076 0.256167173
0.901075244 0.455028534 0.282605916
0.273371190 0.433776289 0.175585002
0.295256317 0.432258189 0.188235104
0.363441110 0.423656166 0.169260010
0.446046948 0.410373360 0.168627277
0.514611125 0.436179489 0.175711706
0.584187210 0.483112276 0.208728641
0.731562436 0.563820302 0.253637075
0.891714096 0.592156827 0.295762181
0.396837533 0.596710682 0.154459193
0.418722540 0.593548238 0.149019822
0.467552483 0.591144443 0.133966088
0.548640013 0.576344371 0.121315457
0.637064934 0.564199924 0.096521005
0.702972710 0.610879481 0.137254998
0.777103424 0.659076929 0.208475724
0.883491695 0.730676770 0.310689151
0.494370461 0.762808561 0.114990383
0.526881754 0.760151863 0.109803736
0.571157575 0.759772360 0.099304385
0.649842083 0.751549780 0.050853997
0.745603740 0.741682529 0.015433194
0.825553417 0.743959546 0.015180282
0.877419412 0.781024575 0.153826460
0.931941986 0.815939188 0.280835152
0.606071889 0.914231598 0.211258799
0.625933290 0.915876210 0.202656522
0.665148497 0.912333846 0.187602594
0.735863268 0.914610803 0.172043219
0.826944888 0.906388581 0.128146648
0.934471726 0.894496918 0.054016378
0.982542634 0.909550667 0.172548875
0.995572209 0.924604595 0.321568459
0.048703004 0.075648353 0.271853268
0.099051543 0.083112001 0.275016069
0.178621188 0.090575546 0.270588636
0.255660921 0.092473000 0.269576281
0.393169194 0.106261648 0.302340180
0.556103468 0.096015260 0.324351460
0.732194841 0.104870282 0.343200624
0.901201725 0.164579406 0.385704935
0.058444452 0.134851098 0.261606276
0.102213643 0.135230631 0.264010280
0.173940092 0.130803093 0.266034424
0.253763199 0.141429543 0.268691003
0.381656915 0.152055904 0.295256197
0.548513889 0.157495096 0.314357936
0.727008164 0.187223181 0.340164721
0.901201725 0.228589371 0.388741255
0.050727356 0.200632200 0.267172992
0.093991093 0.198608547 0.256419837
0.172675654 0.206831098 0.275395632
0.278052092 0.225553185 0.291840643
0.389500052 0.234534934 0.302340269
0.544971466 0.263503850 0.322327852
0.729158640 0.299557328 0.357874572
0.894623578 0.334092557 0.402403533
0.000000000 0.320682913 0.280834645
0.021758361 0.317900270 0.266414076
0.178368464 0.315623283 0.265275449
0.328525901 0.299936980 0.262871623
0.393422008 0.331182480 0.299177974
0.541429102 0.382922381 0.328905463
0.725363553 0.422770560 0.364452928
0.898924708 0.454269260 0.409740597
0.053131357 0.459455997 0.259203255
0.164705902 0.456546456 0.261226833
0.297280461 0.444781452 0.269829601
0.399367452 0.433522940 0.248703435
0.499683380 0.434155732 0.253763169
0.576470435 0.487413108 0.310183406
0.719038427 0.560910583 0.378368080
0.882858574 0.588614821 0.428336352
0.298545092 0.610120356 0.279443383
0.329791069 0.611764550 0.272612303
0.406830996 0.603415728 0.261606276
0.500822127 0.592409849 0.249082997
0.611891270 0.570904315 0.214294642
0.686021566 0.611005485 0.254902005
0.760910809 0.659076810 0.329285383
0.870335102 0.733965456 0.451612830
0.427577347 0.770271897 0.292852610
0.448830098 0.770651579 0.289437264
0.509298086 0.768374383 0.276913196
0.602530003 0.757368565 0.257431984
0.699177802 0.749525547 0.222264469
0.813029647 0.740164340 0.200253174
0.868817508 0.774699330 0.291840643
0.924604595 0.816951454 0.409867227
0.543200314 0.919291556 0.367615223
0.569259763 0.917773783 0.369133353
0.616318703 0.919038355 0.361163706
0.689943016 0.914231598 0.338519841
0.787349582 0.910689175 0.316761494
0.900948644 0.901075244 0.270714790
0.973181427 0.907400131 0.310436517
0.990891755 0.926122427 0.440859973
0.012017814 0.087792799 0.405819178
0.092472993 0.093611546 0.398988008
0.188741088 0.100316092 0.392915577
0.285515606 0.107020639 0.393548638
0.385325581 0.107400186 0.386843383
0.557495296 0.103099257 0.437824190
0.729032338 0.112713285 0.478431284
0.897659600 0.186337784 0.523339510
0.011005807 0.153194353 0.385452032
0.083997808 0.149272740 0.383174986
0.181657180 0.154838547 0.384440273
0.281973273 0.153953537 0.387349844
0.382922381 0.154712543 0.382163197
0.557115674 0.162555456 0.431751937
0.732574165 0.184313625 0.474889010
0.891840577 0.249462336 0.525616467
0.005439998 0.227830380 0.371790349
0.075901359 0.233775839 0.378494799
0.170778006 0.237318084 0.386843383
0.271600246 0.236938730 0.383933932
0.389120489 0.241998985 0.404933393
0.549272895 0.265907675 0.436938465
0.722833455 0.302213877 0.479949445
0.884250402 0.356482923 0.541556001
0.000000000 0.325743169 0.390512645
0.011511551 0.327766895 0.395446211
0.151043355 0.335483909 0.399367452
0.278557628 0.354585528 0.412270814
0.413535565 0.367995083 0.438836098
0.552055597 0.395446181 0.453257382
0.716128886 0.426312625 0.491840720
0.883870780 0.464769006 0.548766375
0.000000000 0.492473155 0.406198561
0.002403808 0.490575820 0.390385836
0.003036008 0.491081476 0.377482355
0.304996938 0.482099742 0.392283380
0.480075985 0.452625364 0.367489189
0.569765925 0.497153431 0.437571168
0.718279421 0.555344462 0.509045184
0.873497784 0.590638816 0.549272716
0.000000000 0.645034909 0.343833208
0.007590089 0.639468849 0.351549447
0.225173816 0.629601657 0.391524374
0.415559709 0.617077470 0.408602357
0.553067446 0.595571995 0.362934738
0.675648212 0.597849190 0.368247896
0.746995509 0.661859751 0.474636197
0.868311226 0.725363672 0.570018888
0.223023534 0.791144550 0.417077541
0.290954918 0.787223577 0.430107594
0.399494171 0.781783760 0.450853765
0.514484465 0.775078833 0.434408367
0.640101492 0.764452636 0.403921634
0.772549093 0.748387039 0.355597794
0.846552849 0.770777643 0.436053008
0.907400310 0.821505249 0.534471810
0.448450565 0.928146780 0.511321962
0.481593817 0.928273201 0.516002238
0.538266778 0.926122427 0.518785357
0.617330611 0.922201097 0.503605306
0.725237072 0.915496767 0.484250337
0.847311795 0.908159316 0.447565019
0.959013283 0.908285797 0.443516761
0.984566629 0.924730778 0.538393319
0.000000000 0.113598995 0.571536958
0.023782620 0.113598995 0.575205922
0.189374179 0.112586640 0.565211892
0.318279654 0.110562906 0.566856325
0.434155822 0.111827739 0.560025454
0.559772432 0.109803997 0.559645414
0.741049528 0.124351278 0.601391435
0.898165822 0.200379789 0.630486846
0.005945744 0.167362556 0.562302291
0.002403808 0.168121547 0.555850446
0.170398459 0.167109534 0.562681973
0.311954737 0.165717542 0.557874799
0.427197933 0.167615101 0.549145997
0.558254242 0.167615086 0.556356907
0.732194543 0.192915633 0.600000262
0.896394491 0.258317769 0.642251670
0.002024261 0.272486001 0.555597425
0.001138645 0.266287088 0.557242334
0.142568186 0.260467917 0.548007488
0.281340718 0.263504028 0.550031722
0.418469101 0.264262944 0.548134267
0.561416566 0.268057913 0.563820422
0.726249158 0.311575174 0.598608255
0.884123802 0.377609015 0.648450434
0.000759096 0.382416099 0.558633804
0.004807100 0.378874153 0.559013367
0.091334730 0.376850009 0.557242095
0.274889261 0.386843383 0.560404718
0.428589791 0.396584719 0.576344430
0.565338373 0.410373360 0.586970091
0.713092983 0.452625155 0.611764848
0.870967805 0.500316262 0.662239075
0.004048004 0.511574924 0.569513202
0.004301451 0.512460709 0.575205922
0.002024273 0.520050466 0.579127073
0.255660832 0.527008235 0.586337745
0.420366645 0.537254632 0.583048940
0.578494489 0.542441547 0.600759089
0.721821547 0.572801888 0.633523226
0.870841265 0.605313182 0.676280975
0.003922000 0.673624456 0.573687732
0.000000000 0.673624456 0.561922669
0.001517998 0.671600103 0.551043570
0.183554664 0.664895594 0.541049540
0.455534607 0.652751267 0.570145488
0.628589749 0.622643471 0.540290475
0.728779018 0.675901473 0.614674449
0.877672434 0.722960353 0.673624754
0.001897740 0.813662291 0.517267466
0.000758999 0.816698313 0.516508281
0.009108197 0.810626388 0.526375711
0.334345460 0.802782893 0.567236125
0.551423192 0.784946561 0.598608315
0.695635557 0.763061225 0.557748079
0.820620000 0.768121302 0.557874978
0.893232226 0.820999563 0.660341442
0.085768715 0.949272811 0.575078726
0.218722060 0.943453431 0.580518663
0.371789932 0.936242819 0.604300797
0.530297160 0.931308985 0.637191772
0.654269159 0.925363302 0.641745746
0.777735829 0.916128814 0.620366812
0.924984336 0.907273948 0.584566534
0.977862060 0.924098670 0.648323655
0.000000000 0.132321283 0.735863566
0.042757642 0.133332998 0.737507999
0.228969276 0.129285097 0.734851301
0.369639218 0.126628637 0.732194841
0.504743636 0.121442288 0.730803370
0.637697697 0.120303743 0.721948087
0.768121243 0.122833565 0.727640808
0.914610863 0.218975067 0.732321084
0.001897740 0.191903993 0.731056273
0.009235092 0.193801254 0.734218836
0.209108204 0.191777080 0.731941938
0.361669660 0.194180980 0.732068181
0.499557376 0.187602371 0.728779256
0.630866706 0.188994527 0.724478245
0.767741859 0.200126365 0.718026578
0.906388581 0.277166337 0.736875236
0.004554190 0.301454782 0.726881742
0.001644712 0.304996818 0.725237429
0.174572736 0.305249870 0.728652775
0.342188179 0.303352475 0.724098682
0.485894740 0.307653308 0.722327411
0.621505558 0.309550822 0.721062660
0.755597711 0.327261090 0.724604487
0.892220140 0.387729108 0.734345317
0.000000000 0.431751907 0.724857926
0.005945647 0.428715914 0.717899919
0.128146455 0.426944822 0.722580671
0.333965898 0.435673922 0.724224925
0.486401081 0.442631274 0.724478364
0.616445184 0.444655538 0.717773736
0.749525547 0.458697259 0.725869656
0.882606030 0.511701584 0.741556287
0.000000000 0.565338492 0.720556378
0.002403808 0.565844119 0.729411662
0.020493476 0.568500698 0.720177174
0.288804710 0.564326167 0.718279362
0.471094370 0.571790397 0.722454250
0.620113552 0.580392301 0.730297446
0.740164578 0.597596467 0.730803370
0.875648618 0.630866587 0.758127749
0.006451736 0.707653224 0.724098802
0.000758999 0.713978529 0.722706854
0.002277106 0.710309565 0.718406022
0.256799519 0.708538890 0.731056333
0.454269379 0.704996526 0.727387667
0.610373139 0.704111278 0.733459711
0.746236563 0.714104772 0.742947280
0.878684521 0.739026010 0.770904303
0.004933716 0.839721560 0.710689247
0.000000000 0.837571263 0.702214003
0.051612735 0.834282339 0.703605354
0.288172185 0.831246018 0.700695872
0.451233566 0.827451110 0.703225672
0.630866647 0.812270522 0.719291508
0.788108528 0.780898511 0.707400262
0.879822910 0.827324271 0.757747889
0.003542456 0.954079628 0.681214452
0.009108185 0.958760083 0.678431571
0.152561247 0.950790763 0.691587329
0.351170301 0.949904978 0.690575242
0.542314768 0.939785004 0.718532264
0.726881564 0.931182742 0.745097935
0.855660796 0.919417739 0.722580433
0.963946581 0.922960222 0.745730042
0.156483218 0.176723644 0.857811749
0.222897157 0.176976368 0.857305646
0.325489938 0.181404054 0.862618506
0.450727403 0.176723644 0.855534375
0.581657112 0.188740984 0.852877975
0.712586522 0.195192620 0.852498591
0.846679270 0.221252352 0.847944498
0.965338469 0.250221431 0.847311974
0.139910921 0.241239786 0.862491906
0.211764842 0.239342049 0.852498829
0.319417983 0.242884085 0.855155051
0.449082613 0.245919868 0.852877975
0.576849818 0.252245694 0.853004515
0.709297478 0.266919494 0.851233125
0.841998458 0.281214595 0.848323822
0.974699140 0.300569177 0.843643069
0.160151958 0.358380824 0.851865828
0.230866313 0.359772027 0.846552730
0.327893674 0.359139740 0.850474596
0.451739132 0.366982758 0.849589229
0.579506338 0.372801960 0.843516767
0.708159328 0.386211097 0.847944558
0.841872334 0.392662644 0.842883885
0.954838634 0.413156152 0.841492474
0.121568248 0.479822427 0.849082828
0.211764708 0.486274630 0.846426368
0.348639846 0.496268332 0.842504442
0.474636197 0.504111230 0.843642950
0.586590946 0.511068881 0.840733767
0.703225732 0.516002476 0.834155679
0.821884871 0.519797504 0.836179376
0.942188561 0.529285252 0.838456810
0.011005608 0.610246599 0.845667243
0.097912401 0.609867036 0.844149172
0.270714462 0.606577933 0.842757642
0.435293883 0.610499680 0.837697625
0.588867903 0.632257938 0.834281802
0.704490483 0.636559427 0.837065041
0.813282788 0.639342189 0.836306274
0.921948135 0.646552920 0.835546970
0.001897740 0.750411391 0.835040867
0.001517991 0.748134017 0.830740154
0.202150255 0.744212449 0.837444782
0.385072768 0.739405453 0.837824047
0.542947292 0.731562436 0.830234110
0.694750369 0.740164578 0.834281802
0.810626507 0.751549900 0.833016992
0.903984606 0.762934625 0.826565742
0.002530012 0.884882808 0.827703953
0.000000000 0.882985592 0.823656023
0.113219440 0.884250760 0.823402703
0.357494891 0.877292991 0.830740213
0.521189332 0.865022361 0.828589618
0.663377643 0.855534494 0.828083456
0.800379276 0.850980461 0.836432397
0.906768024 0.864516079 0.842757940
0.243389964 0.972928822 0.806704640
0.281340599 0.971663594 0.811638057
0.374952495 0.965844333 0.802403510
0.478684425 0.963820636 0.807590008
0.590511978 0.958380401 0.816445291
0.700063407 0.953320801 0.819228411
0.812523723 0.945477784 0.823529363
0.937760592 0.935104489 0.825047791
