Assets/EldamarStudio/100 Retro LUTs Pack/LUTs/cube/Michelle LUT.cube
DOMAIN_MIN 0 0 0
DOMAIN_MAX 1 1 1
LUT_3D_SIZE 32
0.121569000 0.101961002 0.125489995
0.124604613 0.104996607 0.122454390
0.127640769 0.108032770 0.128020227
0.133206829 0.108538836 0.130803004
0.143832549 0.106261544 0.125869542
0.165084928 0.109297931 0.128905937
0.183807641 0.112333678 0.124352001
0.208602399 0.113724999 0.121569000
0.238962993 0.112966098 0.122327901
0.269323051 0.109930478 0.125363514
0.299683750 0.112713128 0.119671002
0.332068235 0.115749255 0.117647000
0.368880272 0.121062644 0.118785642
0.411385059 0.129917994 0.121569000
0.453889787 0.135989994 0.121569000
0.496394604 0.134851187 0.121569000
0.538899362 0.139405385 0.127640992
0.580771506 0.150284991 0.136622429
0.620240033 0.156357020 0.133586049
0.654143095 0.165211648 0.138898998
0.685642004 0.174319729 0.137381002
0.717014372 0.183428124 0.138393119
0.750284970 0.192662984 0.153193995
0.780645013 0.204807013 0.159266010
0.804174244 0.214674279 0.165337995
0.826818287 0.222390980 0.172801659
0.851107001 0.230486989 0.182415992
0.875395000 0.248702973 0.194559991
0.899683595 0.261606663 0.212017640
0.925743103 0.275522172 0.230233938
0.949525595 0.292473346 0.248450205
0.964706004 0.313724995 0.266667008
0.121569000 0.111068614 0.119417995
0.124604613 0.104996607 0.128526390
0.127640769 0.114484549 0.125490218
0.131941989 0.116382062 0.128526166
0.141555920 0.111953996 0.128146842
0.168121323 0.112333544 0.125869542
0.186843395 0.115369931 0.123845927
0.208349019 0.120050378 0.124857992
0.235167697 0.122074485 0.126122996
0.263251036 0.119038865 0.122327909
0.296520859 0.121821508 0.125363514
0.337128371 0.124857634 0.123718992
0.374573022 0.127893731 0.123718992
0.410879046 0.133206651 0.124857634
0.447817773 0.142061993 0.127640992
0.487918794 0.148133993 0.122833997
0.529790998 0.150031582 0.124604993
0.572295725 0.156356990 0.132447988
0.614168048 0.162429020 0.136622414
0.650853753 0.176850364 0.128020018
0.682606041 0.184566766 0.134724736
0.713978469 0.192536518 0.140417382
0.747248590 0.201897860 0.153193995
0.777609348 0.216951013 0.159266010
0.803415358 0.222264290 0.165337995
0.826818287 0.232637644 0.174193323
0.850601077 0.244149446 0.185452387
0.872359335 0.254775763 0.197596386
0.901960313 0.265021950 0.215053350
0.921694815 0.280328989 0.227956817
0.943073809 0.299430937 0.244149193
0.964706004 0.322833389 0.266667008
0.123719223 0.118026547 0.130549997
0.124604613 0.118405774 0.128905609
0.134092003 0.114484549 0.118659221
0.138393551 0.122833841 0.121947996
0.145224765 0.120176770 0.127640769
0.163693935 0.120176770 0.128146827
0.183428004 0.120556317 0.127261326
0.206577703 0.123592705 0.122581005
0.233649507 0.128399670 0.125869900
0.263757288 0.128146708 0.123972222
0.294749856 0.135230899 0.126628906
0.328146756 0.138267040 0.129664510
0.372043282 0.140164778 0.127513990
0.408475786 0.142441541 0.125237033
0.443010807 0.149652183 0.124478415
0.488298565 0.158506989 0.128905997
0.526249170 0.166097194 0.127387807
0.567488849 0.171663567 0.130929798
0.609993756 0.179253787 0.132448003
0.646932483 0.185072601 0.137507647
0.681467474 0.196457967 0.137887478
0.712080956 0.203795135 0.144718632
0.744085729 0.212903500 0.153067514
0.772422850 0.224035650 0.157115787
0.800379753 0.234408289 0.165337995
0.826059401 0.240227669 0.175584644
0.851107001 0.252878070 0.188994288
0.874003649 0.261986434 0.202782989
0.894623697 0.275395662 0.209487736
0.921441674 0.284503281 0.229474932
0.939531565 0.302466810 0.243643358
0.962555230 0.325489998 0.266667008
0.125489995 0.125363842 0.137381166
0.125489995 0.127134606 0.133839160
0.130297169 0.128399774 0.128020003
0.143706322 0.126628995 0.112333991
0.151676551 0.130423710 0.123718999
0.166477159 0.133080319 0.127640769
0.181151167 0.133080319 0.128146827
0.203035697 0.133459866 0.127387837
0.231878281 0.136496052 0.123592936
0.265275478 0.139531672 0.126628682
0.294497162 0.145857036 0.127134696
0.328146756 0.152182266 0.131435737
0.363820642 0.156357005 0.132194638
0.405945867 0.157115996 0.126249164
0.441366225 0.163187996 0.122201420
0.485515594 0.170398340 0.127640828
0.526755214 0.178241193 0.127134964
0.564452946 0.187982142 0.132700562
0.606957853 0.197723120 0.133459806
0.642631412 0.201264799 0.136495814
0.678431571 0.209361061 0.143706307
0.708792090 0.216445193 0.148766965
0.738646150 0.225173980 0.152308628
0.767109394 0.235420734 0.159898743
0.793169141 0.241998866 0.164958864
0.820493519 0.251106828 0.174319804
0.847311974 0.260721147 0.188488096
0.871600151 0.270588428 0.202150270
0.896900654 0.279949814 0.210499838
0.914864123 0.296647727 0.224162161
0.936495781 0.309297562 0.244528964
0.956989169 0.330549985 0.265401840
0.123971999 0.135989547 0.129032448
0.125489995 0.136369094 0.129791453
0.127640769 0.138519764 0.130803213
0.136116609 0.139911547 0.129411548
0.151676551 0.140291005 0.118026547
0.172928929 0.149399385 0.124098547
0.188868001 0.151676551 0.126628548
0.207210526 0.152055994 0.125869542
0.231878281 0.151676446 0.125869542
0.265275478 0.154712066 0.128905937
0.292093873 0.157748416 0.127261132
0.325110972 0.162808537 0.128778994
0.363061637 0.168880552 0.131815091
0.402530044 0.175205573 0.129285485
0.441998392 0.181404084 0.123593003
0.485894859 0.187855542 0.128399730
0.526122749 0.194307089 0.130676657
0.561037123 0.200505689 0.123972401
0.603541970 0.212650493 0.139152020
0.638835967 0.217583746 0.138772815
0.672612011 0.225173920 0.140670449
0.705755711 0.235041410 0.146489590
0.730170965 0.238203540 0.149652451
0.760277987 0.249841541 0.164073110
0.787223101 0.255534261 0.170904279
0.812523663 0.260974199 0.176344112
0.839342117 0.270588547 0.186211482
0.863630831 0.282732546 0.195319086
0.894370735 0.287286818 0.207084104
0.918279588 0.300189823 0.224162161
0.934219062 0.320303112 0.244149506
0.949399471 0.341555536 0.262365550
0.111827999 0.157241940 0.125996053
0.123971999 0.160278335 0.132068053
0.127640769 0.162808090 0.128526062
0.137001991 0.163314149 0.127767161
0.154712155 0.161543384 0.127134934
0.172928929 0.164578989 0.121062934
0.201770991 0.171157703 0.132194921
0.224161685 0.174573213 0.132447928
0.245161131 0.174825996 0.128146842
0.265275449 0.169892445 0.125869542
0.287033856 0.172928795 0.131815046
0.317394227 0.177988917 0.128272995
0.354712337 0.184060931 0.126501992
0.396458030 0.190385967 0.126249090
0.435926378 0.199494347 0.129285470
0.477798581 0.208096057 0.128399998
0.519291639 0.216698125 0.134471744
0.557748437 0.224035442 0.137381077
0.597469985 0.227830887 0.133080035
0.639974713 0.239974946 0.139910996
0.669576406 0.244908109 0.140670061
0.697912931 0.251486182 0.144718185
0.727134526 0.259455919 0.152688056
0.754458904 0.265527934 0.158760071
0.786843836 0.272611946 0.168627277
0.814547896 0.278178364 0.175331980
0.839342117 0.285768926 0.183428124
0.863630831 0.297912925 0.198355481
0.885262787 0.304743916 0.210119918
0.910309911 0.315623194 0.225806460
0.932194650 0.330929846 0.243643582
0.952435076 0.344591916 0.259329915
0.107273676 0.188614964 0.122960322
0.114357680 0.189121038 0.131561995
0.130803213 0.190006644 0.131182775
0.142061993 0.192662805 0.128020316
0.160657555 0.192536324 0.129411995
0.181024551 0.193421707 0.127640992
0.201770991 0.198987633 0.121569000
0.240354106 0.206704691 0.128779292
0.270208746 0.209993541 0.128399670
0.293738276 0.205692321 0.130676508
0.312333852 0.205818862 0.133839324
0.335610509 0.204807252 0.139911309
0.366350591 0.207084313 0.137001678
0.402783304 0.211132348 0.135357037
0.439974397 0.224794731 0.133839414
0.484250396 0.236306310 0.139278993
0.523845673 0.244022638 0.136496007
0.562935114 0.252118886 0.138646320
0.604301333 0.258950293 0.136369318
0.641493082 0.262744993 0.138898998
0.680202305 0.271094471 0.146868736
0.708032787 0.275774956 0.150790319
0.736622036 0.283112109 0.158507019
0.761543155 0.286780298 0.169386640
0.784313560 0.297406316 0.173181340
0.816698313 0.303984672 0.184566647
0.843896091 0.310563236 0.194054320
0.866160512 0.320682973 0.203162447
0.887792468 0.330044299 0.218216300
0.910816073 0.339658260 0.232131496
0.935989916 0.353194207 0.251359969
0.960531294 0.365338653 0.271473676
0.097659715 0.222011700 0.124857992
0.108664997 0.218722701 0.130676612
0.121694840 0.220366985 0.132827058
0.139911622 0.224162146 0.128526285
0.159266263 0.227197856 0.127767280
0.183048651 0.225932688 0.127767280
0.212523729 0.229348406 0.137507990
0.233776107 0.232131392 0.126502275
0.281594187 0.244275793 0.127260998
0.316888213 0.248323619 0.129790992
0.342061669 0.248197109 0.132953867
0.361037195 0.244528651 0.133080304
0.385325700 0.242631391 0.139152303
0.414421380 0.242125392 0.138140038
0.446679384 0.247565106 0.137887418
0.480455399 0.257052690 0.135483995
0.524478376 0.270714879 0.141555995
0.563061535 0.277166396 0.139784977
0.606578290 0.285262674 0.143832996
0.640228033 0.287160039 0.144971341
0.676660717 0.295382470 0.150157735
0.710056841 0.301454991 0.157242134
0.737507701 0.307400495 0.162681714
0.764832079 0.310436487 0.171790093
0.790132999 0.317014396 0.178747699
0.812776685 0.327767044 0.190132648
0.843390107 0.334598631 0.205312997
0.864642441 0.343706250 0.213661984
0.887539506 0.349525511 0.229348511
0.913851619 0.362049341 0.239595175
0.935483873 0.374193370 0.256546557
0.959772289 0.386337996 0.280075699
0.079443708 0.256926090 0.129411995
0.093864612 0.253890097 0.133965611
0.111321680 0.253510416 0.134850994
0.129285231 0.257558346 0.131562099
0.150537997 0.265907645 0.127767086
0.179759935 0.263630241 0.129285082
0.210879549 0.264895409 0.137887225
0.244402692 0.267046183 0.145477399
0.270968169 0.267046213 0.132574096
0.325617015 0.288298607 0.126502097
0.364579201 0.295256287 0.130676761
0.389879704 0.293485194 0.128146827
0.409614295 0.288172185 0.127766997
0.433649331 0.287666172 0.134092033
0.459962338 0.281594187 0.138140410
0.485009789 0.282100201 0.136243090
0.515370369 0.286654174 0.133965984
0.555344939 0.301834553 0.139405563
0.600252926 0.308286101 0.151170105
0.633396685 0.310310096 0.152941003
0.666793287 0.315623194 0.157495096
0.700949073 0.325743198 0.161796138
0.728526413 0.331688672 0.164958999
0.759518981 0.334724903 0.171030998
0.787602663 0.340797096 0.179380089
0.814295053 0.347501636 0.190132648
0.838077188 0.355091989 0.209361061
0.859329522 0.363440633 0.221252084
0.883997619 0.370271921 0.238709539
0.908791900 0.378874272 0.250600994
0.939278603 0.390891969 0.261859685
0.954459012 0.403035998 0.283112109
0.052118529 0.296394497 0.129411995
0.064263299 0.302466512 0.138519600
0.085135981 0.303731531 0.140922993
0.109044820 0.305123150 0.137128159
0.135357589 0.308412433 0.130803496
0.177862361 0.311448067 0.142947495
0.202024311 0.311701000 0.131815165
0.235420927 0.313472211 0.131309226
0.277040213 0.315623015 0.135610506
0.319545001 0.315623045 0.129538491
0.380012721 0.339785278 0.138013616
0.419228464 0.348893225 0.134724781
0.445667595 0.348133981 0.130423844
0.467046499 0.342314959 0.134092033
0.488298863 0.336242974 0.143200412
0.507400513 0.330170989 0.147248805
0.529032409 0.323086828 0.146869302
0.555344939 0.320050597 0.145477578
0.585705101 0.335231006 0.148513958
0.622264266 0.341682523 0.151929125
0.656546235 0.345604241 0.158633739
0.689057291 0.350032002 0.164579496
0.719417989 0.355977446 0.164958999
0.752814412 0.359013081 0.171030998
0.781530321 0.366603285 0.183934271
0.808854997 0.374193490 0.197343469
0.835041523 0.379379988 0.209361061
0.856293917 0.379380018 0.218469441
0.882859290 0.393042296 0.235673442
0.904743969 0.404174685 0.248576716
0.927893579 0.411764890 0.261986196
0.960530996 0.415179998 0.286148489
0.018975131 0.347501606 0.138140127
0.022391040 0.347754598 0.123972490
0.058191035 0.349525630 0.137381107
0.092852451 0.352055609 0.142441168
0.125237226 0.356736302 0.139911443
0.162681997 0.359772563 0.134345129
0.207716435 0.362808138 0.138899446
0.241872236 0.364832282 0.140796870
0.283112198 0.368627608 0.148134097
0.325617015 0.372928619 0.144212872
0.371030867 0.375837743 0.138140127
0.427704155 0.396078497 0.141176000
0.467425853 0.404680610 0.138140127
0.497533053 0.405439585 0.139151990
0.518785417 0.396710753 0.140290543
0.537634611 0.388235539 0.146995738
0.558886707 0.378621221 0.155092001
0.581277549 0.367488772 0.159013301
0.600252867 0.362175852 0.157495096
0.619481564 0.366224229 0.160531491
0.649462640 0.370271981 0.161669880
0.680834949 0.373308122 0.166730002
0.713219464 0.377609342 0.170777991
0.746615946 0.386210948 0.176849991
0.770904243 0.389247149 0.185199291
0.796963632 0.395698875 0.197722986
0.822770417 0.401770860 0.210879132
0.841619551 0.406577885 0.227198318
0.876154721 0.411890864 0.236306012
0.898924947 0.422770172 0.253763407
0.920683146 0.430992991 0.268943846
0.952055871 0.436052859 0.289184123
0.007843000 0.397090495 0.151296258
0.004807135 0.399114758 0.142188370
0.009614546 0.401138484 0.140417740
0.056420088 0.403668493 0.150537357
0.098924860 0.408981472 0.152434990
0.148513615 0.410373151 0.144971326
0.196584582 0.417457402 0.148007318
0.247058645 0.418848723 0.146109998
0.288425118 0.422264487 0.152941003
0.329664737 0.428336501 0.151170224
0.377102852 0.429474860 0.151296780
0.422643751 0.436558992 0.151296258
0.475016028 0.451360136 0.149019256
0.515749395 0.458570719 0.147501290
0.551170111 0.460088342 0.149272516
0.565970838 0.448956311 0.150031596
0.584187269 0.436812311 0.154585809
0.605565846 0.424161762 0.163314328
0.620746195 0.412017733 0.163061306
0.632637739 0.403668851 0.169639617
0.648956716 0.397217035 0.168880522
0.674762964 0.398608238 0.171790123
0.704996705 0.400758982 0.178874239
0.736495912 0.407969356 0.184946254
0.764832258 0.410499275 0.189247027
0.787476301 0.416318655 0.203921378
0.813662231 0.423023254 0.217963129
0.834914625 0.429095238 0.233143866
0.860974312 0.435167253 0.245414391
0.892093897 0.443010449 0.258064419
0.911068976 0.451233268 0.273371607
0.936875522 0.457305253 0.288172275
0.006704646 0.458190918 0.164199650
0.004047998 0.458950281 0.158127651
0.001012130 0.465401798 0.160784408
0.004807401 0.467425555 0.160404831
0.057179265 0.472738534 0.164579093
0.122454226 0.472738534 0.163061276
0.185831964 0.475774586 0.164832294
0.236812398 0.478810906 0.165464640
0.291461200 0.481846899 0.161669731
0.332827151 0.488677919 0.162049279
0.383301377 0.488930941 0.162681863
0.426438749 0.491587520 0.167995021
0.473118275 0.498418927 0.166476637
0.521948099 0.507527232 0.160910636
0.569260180 0.516634822 0.163061410
0.602024257 0.515749574 0.167109638
0.616065919 0.500948727 0.167489082
0.632384300 0.485135972 0.170524701
0.646552563 0.471979886 0.173560977
0.658443987 0.459835589 0.182163358
0.669070363 0.447691441 0.184819892
0.683238626 0.434534788 0.180771634
0.706514597 0.433522791 0.188741490
0.730803192 0.434534937 0.191777363
0.757748246 0.436052918 0.197849348
0.788235247 0.439088941 0.206957281
0.812018037 0.446679294 0.227197707
0.835673630 0.451486260 0.239974886
0.861100674 0.458696932 0.255534619
0.886021495 0.466539830 0.269449800
0.911574960 0.477419227 0.287286580
0.930043995 0.484250277 0.297659993
0.003922000 0.536116123 0.173560992
0.006451613 0.533839405 0.169513077
0.003542000 0.540291011 0.172422737
0.000253032 0.548134089 0.176217765
0.008096153 0.548134089 0.171410128
0.087033696 0.548134089 0.183554903
0.165465191 0.545856774 0.184819996
0.229728401 0.543579757 0.183428317
0.279823184 0.543074012 0.182669088
0.334472001 0.555218041 0.185705483
0.387855709 0.555977106 0.182922199
0.431119502 0.556230128 0.187729284
0.472106278 0.557115734 0.190512389
0.520683050 0.559899032 0.182669029
0.572296143 0.569006622 0.182669029
0.621505558 0.575711608 0.189626798
0.655155182 0.571663678 0.194687068
0.669829428 0.553953171 0.194307476
0.678937078 0.535737097 0.197343111
0.693611383 0.522580326 0.205692396
0.705249727 0.509930074 0.208855003
0.715117037 0.496773958 0.207337007
0.727514029 0.481846571 0.202024013
0.739911020 0.472738922 0.199620187
0.760151565 0.469450027 0.204680324
0.788741291 0.471727014 0.215812653
0.822644055 0.477040023 0.230487064
0.843896449 0.477040023 0.245667443
0.870461822 0.485009819 0.265148818
0.895761967 0.493864775 0.283365160
0.919670641 0.504490674 0.301707923
0.940923035 0.519671082 0.325995982
0.003922000 0.569513202 0.185704991
0.000885613 0.575585186 0.203921765
0.001265006 0.573307991 0.195572257
0.001265161 0.578494549 0.195445895
0.010120506 0.584566832 0.198229223
0.065781333 0.584566832 0.198735282
0.139658228 0.584566832 0.193169087
0.212144285 0.587223232 0.190891996
0.273751199 0.589120686 0.193295404
0.328400016 0.588614404 0.203921467
0.368500888 0.592030287 0.201138854
0.415180355 0.594434083 0.204174817
0.459962279 0.595699251 0.207463771
0.508539081 0.596331835 0.203921407
0.557115793 0.596331775 0.209993392
0.606325150 0.603036225 0.214800388
0.648829997 0.609108388 0.221505344
0.677039981 0.606325209 0.223150253
0.694117427 0.593422234 0.215559870
0.708791733 0.575205505 0.221378818
0.722074389 0.558254242 0.222390667
0.732574105 0.542315066 0.220998988
0.742694378 0.527387679 0.220239997
0.760910392 0.518279314 0.232384801
0.773307920 0.506894410 0.229980946
0.792157054 0.502846420 0.233649388
0.816572070 0.504617333 0.242125064
0.837824404 0.507399976 0.251739442
0.864389777 0.515369773 0.261606812
0.888172150 0.522706926 0.280329168
0.911828041 0.531182587 0.302972943
0.937887430 0.543959796 0.332067966
0.003922000 0.610120535 0.205059782
0.003289417 0.608981729 0.216065764
0.000253030 0.608601987 0.223529771
0.001265161 0.611891091 0.221505225
0.010753090 0.620620012 0.225679979
0.065401860 0.618595779 0.213535994
0.135230631 0.618595779 0.222770452
0.203162089 0.618595779 0.216951489
0.265401661 0.623149812 0.217710584
0.315117210 0.625047088 0.226565599
0.362428874 0.623023450 0.224161863
0.399873495 0.622011364 0.219101995
0.445414484 0.625426948 0.225933000
0.493232250 0.627451003 0.229221821
0.535357177 0.623149991 0.228842586
0.583933949 0.627956986 0.237317771
0.630992949 0.632511139 0.241871983
0.671979725 0.638962805 0.247058973
0.706134975 0.640986741 0.246805817
0.723972142 0.625679851 0.249209613
0.737254798 0.607463598 0.251486599
0.749398768 0.591271579 0.249968395
0.759898484 0.577356398 0.249841884
0.771283805 0.561416626 0.250600785
0.784945786 0.550031543 0.255914271
0.798481822 0.540670574 0.254522592
0.816698253 0.538140535 0.258064538
0.834155619 0.537381172 0.263377428
0.853510797 0.536116362 0.274889618
0.880835116 0.545224309 0.287539542
0.904237986 0.552814364 0.306641370
0.930044234 0.563440979 0.330929816
0.002403808 0.643516958 0.227830380
0.002403808 0.645034790 0.238456562
0.001771226 0.643516600 0.237191573
0.000000000 0.641745389 0.240227968
0.013788991 0.651359975 0.248450205
0.082100034 0.649462223 0.239342183
0.138267010 0.648956180 0.235799983
0.198608294 0.650474370 0.245793700
0.260088384 0.650474370 0.242758080
0.307906479 0.655028343 0.246553183
0.353320748 0.653890014 0.246932313
0.396837503 0.652372122 0.246426374
0.434408635 0.651612699 0.243769735
0.481087923 0.656293154 0.253510237
0.520556569 0.650221169 0.250474602
0.564199746 0.652245402 0.257052362
0.608222365 0.655281365 0.266160369
0.651865900 0.657685220 0.268564194
0.694750011 0.666287243 0.272865176
0.731941521 0.668564200 0.279190540
0.749399185 0.657558560 0.281847000
0.761543214 0.638330400 0.280835122
0.773434222 0.624541879 0.280455679
0.781150937 0.607716799 0.280202270
0.792536378 0.592536390 0.277166247
0.808855057 0.581783712 0.278810978
0.823276341 0.575585186 0.279822975
0.836432457 0.571536958 0.283870757
0.851233661 0.566983044 0.285768449
0.873244941 0.564958930 0.295129716
0.897912800 0.573181152 0.315622807
0.920935810 0.581656992 0.337002188
0.000000031 0.668437541 0.250853986
0.000000034 0.674509525 0.264263123
0.007590138 0.675648153 0.261985928
0.018342638 0.675015569 0.257937700
0.022517279 0.675774574 0.260215104
0.108791865 0.676280558 0.265528142
0.161290511 0.676280558 0.260847390
0.206578374 0.677292705 0.260341257
0.255408168 0.679569960 0.267678618
0.310056984 0.679569960 0.264643013
0.350537747 0.679569960 0.267425656
0.393042505 0.678937554 0.271726787
0.433776230 0.680708468 0.274762899
0.472991586 0.683744073 0.277798563
0.512081087 0.678810537 0.275521964
0.553953409 0.678051770 0.278304756
0.593675196 0.679569960 0.288045317
0.631245971 0.679569960 0.295256138
0.667678833 0.679569960 0.295256138
0.716128886 0.691587746 0.302340329
0.752561510 0.696647942 0.310183376
0.770651579 0.688045800 0.311195105
0.782669067 0.666793525 0.308032990
0.789247155 0.650601208 0.309550643
0.800505936 0.637318254 0.307020545
0.814295053 0.625553429 0.303731531
0.833523452 0.616445124 0.303225607
0.842631161 0.610246718 0.308918148
0.855028689 0.602909565 0.306261539
0.871726930 0.597343504 0.307273507
0.892979026 0.595698714 0.316255242
0.911195040 0.601770699 0.349652439
0.000000182 0.695762038 0.269070059
0.000000196 0.701834023 0.287286818
0.025806727 0.701454818 0.287793010
0.065528244 0.698671818 0.285262793
0.110562675 0.697027028 0.287539572
0.143959820 0.703099012 0.284503937
0.189753667 0.703605056 0.284756988
0.230866730 0.703605056 0.285642236
0.273371220 0.703858078 0.289184123
0.322201043 0.703858078 0.291967481
0.353573769 0.703858078 0.294750124
0.393042535 0.701834321 0.301834255
0.433270305 0.702467024 0.308159381
0.469955981 0.708032966 0.311195046
0.506387889 0.711068571 0.314231426
0.547880590 0.706135035 0.307147205
0.585831642 0.703858078 0.310183406
0.619102001 0.703858078 0.319544971
0.649462044 0.703858078 0.319545001
0.691460848 0.709424078 0.322327644
0.736622214 0.718152761 0.333459765
0.771790147 0.719923854 0.341555834
0.791777492 0.709297597 0.338393062
0.800885916 0.688045979 0.332321048
0.814294636 0.678684413 0.331562012
0.826438665 0.671853006 0.331055999
0.836559117 0.665022075 0.330550075
0.845667481 0.655914485 0.327514470
0.860088766 0.644402325 0.330550134
0.873244941 0.634535253 0.334597975
0.886400998 0.628589928 0.341555625
0.899051011 0.629095972 0.352688104
0.144718960 0.734219074 0.323466092
0.158633605 0.737507701 0.330550164
0.165085390 0.737128496 0.333713144
0.185705215 0.734092534 0.332068592
0.213788390 0.731435716 0.334724754
0.237570941 0.732700706 0.334092319
0.253257751 0.733712733 0.325996071
0.285009801 0.735357463 0.325237036
0.317647099 0.735737026 0.328652501
0.354079396 0.733712733 0.335736871
0.385199100 0.739278734 0.330423862
0.415559888 0.739278734 0.337507993
0.450474650 0.738140404 0.345477760
0.483365387 0.740164459 0.349652082
0.517267644 0.738140643 0.347627789
0.553700268 0.738773048 0.350664198
0.587855935 0.734977901 0.347628117
0.618089974 0.733712733 0.352814794
0.648450077 0.733712733 0.354965031
0.681594133 0.736496091 0.360531747
0.724098802 0.736875296 0.363567352
0.765718043 0.743453324 0.376217604
0.795572162 0.746995211 0.385578930
0.809993565 0.741682649 0.382163107
0.821379185 0.724984467 0.376091093
0.833270073 0.713219404 0.372296125
0.843390048 0.703478694 0.371031016
0.857052445 0.698924482 0.377102822
0.871473849 0.689816892 0.376723379
0.877798975 0.679569840 0.376090974
0.888551593 0.672232985 0.380898058
0.906388342 0.670335770 0.391903728
0.224794731 0.756609976 0.354585737
0.241872072 0.757748365 0.360657722
0.250853479 0.758380771 0.365970731
0.263757050 0.757874787 0.357874811
0.277166218 0.756103516 0.358633548
0.293864399 0.754585743 0.366223723
0.311321616 0.760278463 0.362428904
0.330044389 0.758633733 0.361543208
0.354838729 0.760404944 0.362808108
0.380644768 0.758507252 0.369639218
0.409108222 0.762302518 0.366097450
0.435673505 0.766223729 0.362555236
0.464895636 0.763946712 0.369386643
0.494244277 0.762175679 0.374193728
0.524351656 0.759139657 0.372802049
0.556356788 0.758507252 0.374572814
0.591271400 0.761543632 0.380645186
0.617457390 0.759645879 0.382416308
0.642757833 0.758380711 0.385452241
0.681594133 0.757368624 0.393168718
0.709297955 0.756609976 0.395446002
0.746742606 0.756609738 0.397469729
0.780391812 0.766856194 0.409993768
0.806198657 0.770904601 0.414041847
0.824794531 0.764453173 0.414421469
