Assets/EldamarStudio/100 Retro LUTs Pack/LUTs/cube/Mike LUT.cube
LUT_3D_SIZE 8
DOMAIN_MIN 0.000000 0.000000 0.000000
DOMAIN_MAX 0.903226 0.903226 0.903226
0.000000000 0.090195999 0.109803997
0.085768551 0.102720000 0.118785545
0.194307193 0.114484094 0.123086996
0.308918625 0.124984354 0.127766997
0.455028564 0.148133993 0.133332998
0.616698205 0.170524731 0.139152259
0.768500566 0.195066288 0.146742716
0.918152928 0.220998988 0.154332995
0.000379548 0.158760548 0.125489995
0.076787002 0.158760548 0.129411995
0.190386102 0.170145094 0.132194549
0.314864188 0.180645540 0.133712634
0.455028564 0.197849542 0.133332998
0.611385047 0.222137541 0.137254998
0.765211582 0.245667547 0.146742716
0.919797122 0.258570641 0.156609684
0.000759096 0.241366193 0.129285082
0.070462003 0.249209195 0.132447988
0.173814192 0.242884189 0.133332998
0.306641638 0.259708732 0.139278546
0.451866269 0.283617973 0.133333191
0.613788784 0.307526737 0.141935095
0.766097367 0.327514112 0.141809002
0.920176864 0.338899255 0.159519166
0.003415642 0.360404998 0.142820999
0.091081642 0.362302542 0.130043998
0.211385086 0.364326268 0.143579900
0.319544286 0.370525271 0.140544012
0.458570719 0.390133083 0.129538193
0.611005485 0.416445643 0.132321358
0.764073193 0.434408635 0.135609999
0.916887760 0.449335814 0.147881359
0.027198186 0.509297967 0.123339616
0.126122907 0.506768167 0.127514347
0.241998985 0.506009161 0.120935805
0.354712248 0.512333989 0.116128810
0.488804370 0.514737189 0.120050803
0.620746195 0.528399825 0.120050810
0.768500566 0.552182376 0.118279576
0.922453761 0.565338314 0.143959656
0.091713727 0.654016495 0.100189745
0.167109534 0.655408025 0.107906260
0.276027739 0.651739478 0.103984743
0.393674731 0.652877867 0.109171100
0.516129315 0.658064485 0.107526809
0.638330460 0.662112474 0.102087006
0.781910300 0.669955432 0.112333730
0.920809746 0.685768604 0.142061919
0.173434272 0.803162515 0.127387568
0.222264379 0.801138699 0.129158705
0.316255391 0.800632417 0.135357082
0.424415290 0.803794980 0.131182641
0.540417194 0.802277148 0.130550280
0.670208991 0.803036034 0.131056443
0.801138520 0.806072235 0.135230988
0.926375508 0.810120225 0.171157569
0.286906749 0.927134633 0.228083432
0.309930444 0.936242759 0.222137779
0.384187132 0.935736895 0.224667877
0.476154447 0.933965862 0.227577448
0.581024587 0.936369658 0.238582969
0.694876492 0.935104489 0.240353867
0.820240498 0.937634468 0.250853747
0.940290630 0.934977651 0.260594785
0.000000000 0.106261544 0.155597553
0.077546000 0.106640995 0.158381000
0.176217183 0.123086996 0.163440645
0.289436728 0.143832743 0.171663284
0.434661567 0.164199546 0.178747997
0.602403462 0.182163253 0.181530550
0.756357014 0.206451744 0.184313804
0.910309613 0.221378535 0.195066094
0.003922000 0.162681550 0.161543012
0.066160537 0.159519553 0.158760563
0.166856200 0.164958552 0.163061112
0.287033647 0.184946090 0.172928452
0.435799927 0.203795195 0.173687354
0.600379705 0.231119275 0.180392191
0.756989121 0.247691289 0.183807731
0.913852036 0.265148818 0.193674996
0.011764904 0.231498733 0.162681550
0.075521648 0.236306548 0.164579198
0.175837725 0.241366088 0.166603461
0.291334271 0.258949816 0.176850349
0.440480798 0.283997625 0.169386193
0.598102570 0.307526618 0.176344186
0.758127809 0.329791397 0.179380283
0.915369868 0.346236348 0.197849452
0.014421450 0.350917280 0.160278454
0.102213547 0.352435291 0.168121442
0.205945283 0.358380735 0.164579093
0.316002637 0.362681985 0.163061097
0.449588984 0.386590749 0.161037445
0.606578052 0.412144363 0.167868108
0.762555122 0.435294002 0.170398444
0.913345754 0.450221539 0.189753190
0.045667540 0.502593577 0.153700203
0.126881897 0.506514728 0.159645557
0.236432284 0.506514788 0.159140006
0.356356353 0.507273734 0.159519449
0.478558183 0.509550750 0.157242358
0.614041567 0.524857461 0.157621816
0.766856253 0.548387229 0.163820192
0.920430183 0.565970778 0.185072809
0.102592990 0.644655287 0.152561545
0.174446478 0.651739240 0.159140006
0.271600097 0.654522538 0.149778813
0.384060740 0.654142976 0.150917456
0.514231622 0.651739240 0.151423097
0.638456464 0.661100447 0.148007467
0.775838017 0.668311179 0.160531089
0.921062350 0.686274529 0.193674818
0.186843559 0.794433832 0.178494379
0.228968814 0.798228800 0.174320266
0.316381991 0.798228681 0.175711542
0.429474920 0.801518261 0.178368077
0.546995759 0.798987746 0.180012375
0.669323206 0.801518261 0.177229643
0.794307232 0.805059850 0.182416275
0.927008152 0.808222532 0.213029623
0.291334569 0.933206618 0.266034245
0.316129327 0.937760592 0.260720879
0.386337608 0.932447612 0.264895409
0.481214404 0.933460057 0.265148431
0.583934188 0.934724927 0.266160697
0.704996705 0.936369658 0.279696703
0.819607675 0.933460057 0.285262316
0.942947447 0.936369658 0.294497281
0.003162904 0.113724999 0.212397203
0.074003644 0.118405998 0.208476007
0.166856200 0.128525987 0.210120097
0.283870727 0.148640364 0.223023444
0.430740297 0.159266204 0.226565197
0.586590588 0.178747997 0.236811996
0.744971573 0.207590193 0.249209389
0.901707530 0.235420823 0.264769167
0.014041998 0.167362556 0.195952103
0.086147994 0.164199635 0.194686636
0.167235658 0.175964534 0.210499555
0.283870727 0.184946090 0.218216449
0.426818460 0.204933658 0.227703646
0.581530690 0.228462920 0.240227625
0.748007536 0.252751440 0.254775375
0.904364288 0.275521815 0.264263123
0.018090004 0.232764095 0.211511999
0.092852645 0.238204092 0.218342543
0.170651287 0.242884189 0.216319010
0.290195823 0.259329259 0.217457548
0.428336442 0.286021173 0.226438880
0.591397464 0.307906181 0.240986824
0.745603561 0.329791397 0.249841794
0.903731763 0.351423025 0.261733115
0.012903451 0.352561265 0.216319010
0.100948997 0.352561265 0.223023549
0.198481739 0.355217934 0.224921092
0.306135267 0.356862724 0.220619738
0.444022357 0.381530374 0.229221627
0.595572054 0.407716841 0.234661639
0.754332483 0.433270007 0.247565001
0.909297824 0.449715376 0.263757467
0.064895995 0.495003283 0.228083193
0.130929723 0.491081536 0.227577642
0.240354091 0.499810278 0.227324292
0.351296723 0.500948846 0.225300446
0.472359270 0.502087176 0.224161997
0.606578052 0.521315813 0.229601175
0.761416674 0.546110153 0.240607291
0.915876150 0.569133520 0.262112617
0.119923919 0.648576438 0.229980722
0.184693277 0.647058666 0.229475096
0.278304726 0.650221467 0.228716090
0.386843562 0.648196995 0.230739832
0.511827767 0.650980353 0.231625453
0.632890403 0.652118742 0.233016834
0.769133449 0.665781379 0.243643284
0.917899728 0.688678086 0.274889112
0.200000256 0.796078444 0.255408108
0.244781658 0.792283058 0.259835571
0.330423355 0.795951545 0.260721385
0.431878626 0.796837389 0.257938027
0.546742380 0.800759196 0.261353552
0.670208991 0.798734844 0.265781015
0.794433713 0.800759017 0.268564373
0.926628530 0.811638415 0.294370472
0.314610749 0.932447612 0.331182897
0.334977865 0.935989976 0.330550194
0.398734957 0.932574451 0.332320899
0.490069538 0.933965862 0.333712876
0.592536032 0.931688488 0.334977746
0.705249786 0.932827175 0.338646501
0.820872962 0.932194591 0.342441589
0.939784825 0.935610533 0.351423174
0.007843000 0.121062644 0.284756631
0.086780183 0.126628637 0.283997625
0.176976278 0.142314643 0.278557628
0.284250289 0.150158361 0.282479644
0.432764024 0.161922649 0.303225994
0.586084843 0.169639632 0.309803605
0.739405274 0.197343290 0.320050627
0.896141350 0.247058615 0.346489429
0.032005094 0.177482635 0.280581981
0.096268088 0.180265993 0.268311530
0.177735284 0.181404546 0.273877531
0.284629822 0.188868001 0.281720549
0.428336561 0.201391190 0.298545092
0.581151485 0.218595892 0.312333852
0.734598398 0.249968082 0.327387571
0.900442719 0.280328780 0.356609911
0.043895997 0.247691199 0.270968080
0.098165534 0.249209180 0.271473736
0.198229089 0.257431805 0.284123629
0.299937099 0.268817186 0.286780268
0.433396727 0.281214178 0.291334361
0.583175004 0.303984970 0.309044719
0.742188156 0.332954109 0.331056446
0.899303973 0.361923099 0.356736213
0.020240286 0.355344623 0.290322661
0.104490638 0.352561265 0.295129538
0.206324741 0.363441080 0.286780179
0.310057282 0.362681985 0.290322632
0.443642944 0.388235450 0.298165619
0.589626491 0.410120100 0.311701387
0.743326843 0.436052918 0.329032302
0.901201725 0.457179099 0.355597645
0.046805725 0.497533381 0.302972645
0.136495829 0.492219985 0.295256287
0.242757991 0.492346823 0.300822258
0.351296604 0.496267915 0.306388170
0.470335007 0.500948787 0.302340180
0.605060220 0.520936251 0.316887736
0.755091786 0.546362996 0.331309289
0.907147586 0.571030915 0.362175822
0.154079378 0.640354216 0.316508293
0.197976187 0.639342368 0.323086619
0.290069729 0.643137336 0.322074175
0.392283380 0.645793796 0.322707266
0.513852179 0.644781649 0.326248914
0.628463209 0.652118683 0.328526020
0.770777583 0.667805076 0.336749077
0.914990544 0.688677847 0.366603374
0.233396620 0.788108587 0.353826553
0.267172903 0.793168902 0.351170212
0.339278936 0.790385842 0.355471253
0.439468563 0.792662501 0.350411206
0.555471182 0.795192778 0.361416727
0.669702649 0.797849298 0.357621551
0.790385842 0.799367130 0.362808198
0.924098611 0.809740663 0.380012900
0.331941754 0.932068110 0.410246432
0.359519064 0.929917574 0.402529955
0.414041400 0.928525925 0.410879433
0.495256066 0.930044115 0.406957418
0.597090185 0.930423677 0.416065574
0.707653224 0.930423617 0.418848395
0.824794471 0.934471905 0.425806433
0.943200409 0.929790795 0.428336650
0.050727185 0.137254998 0.381656975
0.117267378 0.149399459 0.380391836
0.213029996 0.155218095 0.372169286
0.317141265 0.158380806 0.369765997
0.431499183 0.168626994 0.380771369
0.592283189 0.179000542 0.401138395
0.744844615 0.202024281 0.420746446
0.893358767 0.256673157 0.442251831
0.056293383 0.199873194 0.371410191
0.123339541 0.196710899 0.363441169
0.215686455 0.202277005 0.368627548
0.310057044 0.200252742 0.365085393
0.425174356 0.211258739 0.371283978
0.588108659 0.225300536 0.401517749
0.743706167 0.248323783 0.418595761
0.895256162 0.301834255 0.449209541
0.067931995 0.271853179 0.363441080
0.125616640 0.274256885 0.363061517
0.216065988 0.271853179 0.359519273
0.315623075 0.273877472 0.360405087
0.439342380 0.283491492 0.375964373
0.587729037 0.305882454 0.393928081
0.737634242 0.341556013 0.423782259
0.891461074 0.385325640 0.455281287
0.071600355 0.361543447 0.351676285
0.133459643 0.367868513 0.364199996
0.227450833 0.370525151 0.369765967
0.347248644 0.390512466 0.386338085
0.459709346 0.397090256 0.385704935
0.596078277 0.416698396 0.404553950
0.742947280 0.443390280 0.425553441
0.896394551 0.469196647 0.456672966
0.083112366 0.496647358 0.380518585
0.157242090 0.497912824 0.385705024
0.256673068 0.502973139 0.394054383
0.369639456 0.502087176 0.390512645
0.480961382 0.506009161 0.391651005
0.608222723 0.524477959 0.412144393
0.754459262 0.548387229 0.428589493
0.906261742 0.570777833 0.455913961
0.197722971 0.638456464 0.411638111
0.240986556 0.641239882 0.414800733
0.310309887 0.638836086 0.411638141
0.404933482 0.642378330 0.416318923
0.513978362 0.641872048 0.416445434
0.630107880 0.648197234 0.419860959
0.769639313 0.666666448 0.439342380
0.916508317 0.690195858 0.466413707
0.280834883 0.788108587 0.452751487
0.306008995 0.791651011 0.454775512
0.363314390 0.786464274 0.447944283
0.446426243 0.788867652 0.447564721
0.554459393 0.790385842 0.449589014
0.670840979 0.795572102 0.454269260
0.787982285 0.795192599 0.454775542
0.929538190 0.806451619 0.477672368
0.353447109 0.928399384 0.501581192
0.369259626 0.927640617 0.494370490
0.419860691 0.932321429 0.500316262
0.503731906 0.930044115 0.497280359
0.601138711 0.928525925 0.499683857
0.711321890 0.930929422 0.502340019
0.825679839 0.931562304 0.511954308
0.942820966 0.929031968 0.513725102
0.101707987 0.162681744 0.493484974
0.165464833 0.168121457 0.495382756
0.256799459 0.171410352 0.492219806
0.363820523 0.171663374 0.484376848
0.472485751 0.178874195 0.491967171
0.598987937 0.188108996 0.495508701
0.753068030 0.210752696 0.513219476
0.901201725 0.268184811 0.529158771
0.100189798 0.213282809 0.479443282
0.160404786 0.211891338 0.484629959
0.255281389 0.212397292 0.488804370
0.357368737 0.218975455 0.481594086
0.468184590 0.220999077 0.477292806
0.599114478 0.231625736 0.485641986
0.751802742 0.258064628 0.511068881
0.894497097 0.307653159 0.535104394
0.098418884 0.296901107 0.480581760
0.159645885 0.295635641 0.481214553
0.245794088 0.297027111 0.479696721
0.357368737 0.296142012 0.479316980
0.471473575 0.299683720 0.474636286
0.597469747 0.310562819 0.487286478
0.749146223 0.348513365 0.513093054
0.899177492 0.396205068 0.539658487
0.108285829 0.397217005 0.480455637
0.168753743 0.398355633 0.479443282
0.263377666 0.399494082 0.478178650
0.371916264 0.401391536 0.481593996
0.481214553 0.407716513 0.483238310
0.607084453 0.428083658 0.492093354
0.744591773 0.454269469 0.509930313
0.892852485 0.492599636 0.549652219
0.130423665 0.509424627 0.476786733
0.183048472 0.507527173 0.478558183
0.273624450 0.513093174 0.480961293
0.387729377 0.520556808 0.492725998
0.513219595 0.540290952 0.505376458
0.627324700 0.542062163 0.506388724
0.761796296 0.561669588 0.533839047
0.897912502 0.591397762 0.562934935
0.215053469 0.642378449 0.499304205
0.261732846 0.638836026 0.499430507
0.332447827 0.645414412 0.504870594
0.429222375 0.649335504 0.514357805
0.527893662 0.650221467 0.513852000
0.640227735 0.654269457 0.516888022
0.773687720 0.668690741 0.535230756
0.915369749 0.690195799 0.564073503
0.331436008 0.782289803 0.547501266
0.352435023 0.782289803 0.546109915
0.409867078 0.785325885 0.543580174
0.482985437 0.788488090 0.549778461
0.565844059 0.786843836 0.548387229
0.673244715 0.794686794 0.555597663
0.792156577 0.794054329 0.551676214
0.930550516 0.810373247 0.574319780
0.451865852 0.921442032 0.610499799
0.468564183 0.924604297 0.596078575
0.498165816 0.922200918 0.606578052
0.543326795 0.927260756 0.601391554
0.608475566 0.928146601 0.592536271
0.712839842 0.930423677 0.597975671
0.825174034 0.931182742 0.602023840
0.945603609 0.928652644 0.608096182
0.168880269 0.183301702 0.635167539
0.219228089 0.186590701 0.630613565
0.310942292 0.188108698 0.631372452
0.414927274 0.193421990 0.627324581
0.538772464 0.195825383 0.629728198
0.651359737 0.198988289 0.616445541
0.782163084 0.216950983 0.621758223
0.913852036 0.280961365 0.629728258
0.164326280 0.238709569 0.629095554
0.218089536 0.238330096 0.620620012
0.304490894 0.240227833 0.621884823
0.421758443 0.238583550 0.625174105
0.532447696 0.242884278 0.627703905
0.654902160 0.247691289 0.619481564
0.785452545 0.264262825 0.621378779
0.908665299 0.319291323 0.626692295
0.158001274 0.325743109 0.623529434
0.213535368 0.325490117 0.616318583
0.303732097 0.328905582 0.622643590
0.416951001 0.332447737 0.618848562
0.534724534 0.333712995 0.614800870
0.650727391 0.336622179 0.612017810
0.776723564 0.353194118 0.620999575
0.904996812 0.402909905 0.630360365
0.175078988 0.438962638 0.616571546
0.222897261 0.439721733 0.611132205
0.315749705 0.437697470 0.614421248
0.420619905 0.442884237 0.604933619
0.535357118 0.442125112 0.610626042
0.647185087 0.445667267 0.610120416
0.778115153 0.464136660 0.619987190
0.904364049 0.501201451 0.636053085
0.194054186 0.549905300 0.607843101
0.238836184 0.550664186 0.614168465
0.323339671 0.548260570 0.613156378
0.425173998 0.549905300 0.610373259
0.540417373 0.552182138 0.611764669
0.654269516 0.555724204 0.619607627
0.780139267 0.574952662 0.628842354
0.906261623 0.603541911 0.649589181
0.220999435 0.665275216 0.611638546
0.258823633 0.668564200 0.618216097
0.333965838 0.667299509 0.611258805
0.432764053 0.666666448 0.613662183
0.549272776 0.666919947 0.619481564
0.674129963 0.678178489 0.636179268
0.791903555 0.688678145 0.646173537
0.914863646 0.715243518 0.673497915
0.334851265 0.788108587 0.628589511
0.351802826 0.794686794 0.627704024
0.417204261 0.793548405 0.629854262
0.500695646 0.793674827 0.638456523
0.598355353 0.796710610 0.644022822
0.694497049 0.799873531 0.653636992
0.799873531 0.799873531 0.663251519
0.926881313 0.810499728 0.681720316
0.466540337 0.922327340 0.676154196
0.479317039 0.925869703 0.683618069
0.519671202 0.923339784 0.679316759
0.591777265 0.921062469 0.686780512
0.672991693 0.926754951 0.704870284
0.739658356 0.928146541 0.696900606
0.828842521 0.928525925 0.694623351
0.942694128 0.929790735 0.702087343
0.248703614 0.222390980 0.779632747
0.286527365 0.226312652 0.776976585
0.370272070 0.230993062 0.775711417
0.482226253 0.230107442 0.782162786
0.601138711 0.238329992 0.777103126
0.721695185 0.246552870 0.771157324
0.856672943 0.261353344 0.775331855
0.967868447 0.297153622 0.761163771
0.238709345 0.283491641 0.773054600
0.282100171 0.277925372 0.774067223
0.369133413 0.276786625 0.779759467
0.481846690 0.282606274 0.771789730
0.598608375 0.288172364 0.774193227
0.725489974 0.298292071 0.772422433
0.848956227 0.306388229 0.762808621
0.965970576 0.335863084 0.753952980
0.262238771 0.371790081 0.768753707
0.301201642 0.371284097 0.771284044
0.380897909 0.373054922 0.776217282
0.483364880 0.378241777 0.770651340
0.602150321 0.381657004 0.766982794
0.725743532 0.387602568 0.766603589
0.845287740 0.393928081 0.764832199
0.963946760 0.413535774 0.763820410
0.279443234 0.481214404 0.757368565
0.319165230 0.486653984 0.761290610
0.387729377 0.490575910 0.763188004
0.492852598 0.494117439 0.764073253
0.598608375 0.494117439 0.762681603
0.720050752 0.494117439 0.762175679
0.837064922 0.498039156 0.758127689
0.959392786 0.514990628 0.758633733
0.269449592 0.596837163 0.760910749
0.310056865 0.593421757 0.767489016
0.379126966 0.592915833 0.762428999
0.490828425 0.601138532 0.765970767
0.606072187 0.600759149 0.761543214
0.713345647 0.603036225 0.762049258
0.832510948 0.600000083 0.760910928
0.948260427 0.619228244 0.760025442
0.286400974 0.710815787 0.760277927
0.320809424 0.711574793 0.764452696
0.391903818 0.711701632 0.763567388
0.481087804 0.711195350 0.760404706
0.590638518 0.707273483 0.761796355
0.715875983 0.708032608 0.766350448
0.829980731 0.708032608 0.760784268
0.942441523 0.726249397 0.766223609
0.306388438 0.838709474 0.763693750
0.335231066 0.836306155 0.755091369
0.403795272 0.832131386 0.764579415
0.497659892 0.829221904 0.764199734
0.601265073 0.822770178 0.766856313
0.709677219 0.818342805 0.766729951
0.827197969 0.822770536 0.775838077
0.945857048 0.831372559 0.788362026
0.465907753 0.937760592 0.761163771
0.476913124 0.936749101 0.764452815
0.527260900 0.934471667 0.766982675
0.595445812 0.933586240 0.768880248
0.673877180 0.933586240 0.771663606
0.772295654 0.932447553 0.786084771
0.856799185 0.932447612 0.798608601
0.946868777 0.929790795 0.811005771
