Assets/EldamarStudio/100 Retro LUTs Pack/LUTs/cube/Mike LUT.cube
LUT_3D_SIZE 5
DOMAIN_MIN 0.000000 0.000000 0.000000
DOMAIN_MAX 0.903226 0.903226 0.903226
0.000000000 0.090195999 0.109803997
0.167741701 0.111448288 0.123845711
0.381277382 0.136622414 0.136622414
0.658191144 0.173561126 0.140164137
0.918152928 0.220998988 0.154332995
0.000000000 0.221631989 0.132321298
0.148766696 0.221631989 0.133332998
0.377356231 0.249462694 0.135610282
0.651739538 0.288045704 0.141176000
0.916887760 0.317140967 0.157242119
0.005187006 0.437571228 0.133965582
0.196584105 0.434282213 0.133332998
0.395699203 0.443389952 0.129411995
0.648450375 0.477672517 0.125489995
0.920809627 0.509424388 0.146489665
0.110942118 0.694497287 0.098165996
0.248197258 0.689942837 0.102972873
0.458443820 0.691587389 0.106894128
0.678810954 0.694497287 0.100062996
0.923339784 0.719670951 0.146362945
0.286906749 0.927134633 0.228083432
0.364199638 0.938013911 0.224667609
0.525869787 0.936369658 0.235799760
0.726249099 0.936116338 0.240354195
0.940290630 0.934977651 0.260594785
0.001644708 0.113724999 0.198734999
0.142567992 0.120935991 0.198734984
0.351549506 0.151043415 0.209866986
0.630107522 0.190891996 0.224920824
0.902466595 0.234408706 0.246552974
0.010499994 0.213788986 0.192536712
0.142567992 0.217077985 0.198102415
0.353193790 0.251739413 0.209867403
0.631119609 0.290954828 0.223276705
0.904743910 0.324351400 0.242251873
0.033017289 0.419860810 0.206577986
0.196204975 0.425427109 0.210499570
0.391144812 0.429981083 0.207590118
0.640986681 0.474130213 0.216065705
0.915243506 0.507147074 0.242631227
0.129538000 0.686021268 0.212776855
0.262618512 0.684377015 0.214801133
0.457179248 0.689310670 0.214547813
0.674889266 0.696142018 0.219354704
0.925743103 0.714990497 0.256166935
0.307273507 0.933459759 0.313725680
0.376217604 0.936369658 0.310815781
0.534977794 0.935737073 0.316761374
0.734092176 0.936369658 0.322201222
0.940037847 0.935357511 0.329158634
0.014420994 0.132700577 0.332827389
0.171663702 0.143832996 0.322707117
0.347248405 0.162808418 0.324984401
0.628842354 0.179506868 0.361669809
0.894623578 0.251866221 0.394307226
0.056925990 0.240607411 0.313219398
0.172675416 0.243896395 0.313851982
0.354459405 0.254016280 0.325996101
0.623276711 0.285136014 0.355091572
0.895255923 0.348893076 0.403541923
0.034661576 0.429728210 0.329537988
0.201138273 0.426692069 0.334471673
0.398355365 0.438836217 0.342694789
0.636685371 0.472105950 0.366856396
0.905123413 0.516002178 0.406830996
0.196331233 0.669955671 0.374446511
0.284756303 0.678431094 0.369766116
0.461100399 0.679696560 0.373055249
0.676534116 0.688298523 0.384187102
0.913345873 0.718658805 0.417077512
0.341682434 0.929790795 0.456040204
0.401644230 0.927260935 0.453383774
0.548007786 0.933839619 0.459202766
0.738013506 0.932447612 0.463504076
0.937002003 0.931815207 0.470335364
0.116888121 0.166730002 0.527893245
0.245667264 0.172928542 0.527134657
0.429095805 0.178494990 0.517014384
0.645541191 0.193168864 0.524857342
0.902213871 0.271220952 0.553953111
0.106514573 0.279949397 0.511701524
0.235167682 0.278304666 0.510309696
0.424541235 0.281847000 0.512460530
0.644529104 0.297912687 0.518659234
0.900189579 0.374446392 0.560151696
0.125996277 0.460467815 0.506261826
0.254143119 0.463377684 0.510183275
0.447058529 0.473497629 0.519291699
0.652119279 0.492093682 0.528526366
0.896647751 0.546362936 0.581656933
0.246426120 0.679823160 0.531688988
0.329664379 0.681088090 0.529664874
0.496774107 0.689563394 0.547754526
0.683744431 0.688678265 0.552308381
0.920176923 0.721315265 0.587602973
0.451865703 0.921695054 0.626185954
0.503731787 0.922959924 0.626818657
0.591650903 0.925995946 0.625933051
0.736369193 0.931182742 0.618468940
0.942314744 0.926881671 0.631878614
0.248703614 0.222390980 0.779632747
0.345224500 0.231246084 0.779000640
0.537002206 0.234155819 0.776344001
0.756103694 0.251865983 0.768880248
0.967868447 0.297153622 0.761163771
0.255913794 0.344718367 0.769512713
0.350031376 0.348007560 0.776723444
0.539658606 0.354838669 0.770018935
0.755850494 0.363314122 0.764579594
0.964705586 0.390259326 0.767868400
0.267678380 0.542188227 0.773054779
0.367362082 0.545097947 0.759012818
0.546868742 0.546110094 0.763946772
0.744339228 0.550031185 0.761290431
0.952941000 0.569639385 0.766603589
0.291207790 0.741935313 0.755723894
0.365338266 0.744338930 0.757748008
0.538014114 0.737381518 0.763567328
0.741682172 0.739658415 0.768121421
0.942694485 0.755344748 0.770777702
0.465907753 0.937760592 0.761163771
0.511827648 0.939278781 0.766476750
0.629221737 0.935104430 0.771663606
0.794560194 0.931435406 0.789373577
0.946868777 0.929790795 0.811005771
