Assets/EldamarStudio/100 Retro LUTs Pack/LUTs/cube/Mike LUT.cube
DOMAIN_MIN 0 0 0
DOMAIN_MAX 1 1 1
LUT_3D_SIZE 32
0.000000000 0.090195999 0.109803997
0.009108387 0.093232386 0.112839609
0.031119771 0.096268229 0.118026547
0.058444161 0.099304162 0.120303839
0.085768551 0.102720000 0.118785545
0.113092929 0.108792000 0.127893925
0.140417323 0.109803997 0.126881674
0.167741701 0.111448288 0.123845711
0.194307193 0.114484094 0.123086996
0.218595982 0.117520481 0.129158989
0.248703733 0.117647000 0.126502126
0.277040243 0.119671255 0.125489995
0.308918625 0.124984354 0.127766997
0.347881019 0.133586034 0.133586034
0.381277382 0.136622414 0.136622414
0.417077601 0.142061993 0.134851187
0.455028564 0.148133993 0.133332998
0.495762527 0.154838577 0.133965567
0.541303039 0.163946971 0.137001961
0.575711429 0.167488649 0.137254998
0.616698205 0.170524731 0.139152259
0.658191144 0.173561126 0.140164137
0.691840470 0.176850468 0.137634501
0.731308937 0.185958102 0.146742910
0.768500566 0.195066288 0.146742716
0.806324959 0.201391682 0.147880986
0.845288098 0.205439940 0.152435064
0.881720841 0.214547530 0.149399459
0.918152928 0.220998988 0.154332995
0.954585314 0.225300208 0.162175745
0.984819591 0.228336602 0.168626994
1.000000000 0.231372997 0.168626994
0.000000000 0.108411998 0.118912384
0.003036386 0.108411998 0.121947989
0.029348772 0.111448385 0.127134383
0.053384159 0.114484549 0.126881778
0.075522088 0.117520839 0.122960381
0.116129316 0.120935999 0.140037924
0.133333072 0.121947996 0.121315360
0.165211722 0.123592705 0.122960031
0.195825398 0.126628667 0.126122996
0.215559587 0.129664481 0.123086996
0.248577192 0.132700861 0.129159003
0.279063970 0.132827386 0.124478392
0.308538884 0.135989994 0.123592749
0.342315048 0.142694429 0.128020033
0.381277382 0.145730808 0.136622414
0.414674401 0.148766592 0.132448003
0.450474381 0.155724198 0.130297378
0.487792313 0.163314387 0.132194787
0.526122630 0.170018971 0.140037581
0.574446380 0.176343992 0.143073976
0.609108210 0.179633126 0.141429260
0.649083257 0.183681384 0.140164137
0.688804865 0.188994497 0.137381479
0.728273273 0.198102877 0.140670136
0.767741621 0.204933777 0.147501796
0.803541958 0.210499704 0.148134395
0.839215994 0.214041606 0.149905384
0.875648081 0.220619529 0.149399459
0.912080824 0.227071658 0.156989142
0.950284541 0.231372535 0.159898624
0.981783748 0.236179590 0.166097209
0.996963620 0.243516997 0.174699768
0.000000000 0.124477774 0.125870004
0.007337387 0.122327544 0.126755387
0.021125998 0.124477774 0.121188991
0.055787545 0.124984160 0.128526166
0.078684546 0.126249447 0.125870004
0.112334087 0.129285067 0.133459985
0.134218678 0.136242777 0.129158914
0.159266114 0.134598061 0.122959830
0.194687098 0.136622325 0.130803317
0.217077792 0.139658287 0.126122996
0.251992613 0.144844875 0.131688997
0.279316962 0.145857006 0.129665002
0.311701268 0.148134008 0.128147006
0.344339013 0.153953046 0.131435767
0.380012393 0.156989425 0.131056413
0.418975383 0.166476965 0.134598225
0.452372164 0.169512957 0.131562218
0.489436865 0.176091194 0.131562218
0.528905749 0.180645019 0.136116043
0.570018768 0.186717018 0.139658362
0.612903237 0.192789480 0.140797004
0.646806121 0.196078643 0.140037641
0.685895205 0.201012000 0.139405221
0.727387905 0.208096132 0.140417099
0.764706016 0.217078000 0.145730570
0.804174364 0.220367000 0.149020001
0.839595318 0.223149762 0.150031999
0.876027763 0.229221761 0.153320998
0.914610565 0.239594877 0.152688146
0.951043308 0.242125213 0.163566962
0.982163250 0.247438207 0.168627217
0.996078014 0.257811785 0.180771992
0.000000000 0.140923321 0.128146827
0.007843226 0.137887374 0.128146827
0.024668001 0.139152542 0.125490218
0.047944319 0.140923321 0.121442162
0.082859002 0.138267159 0.128652990
0.109297767 0.140417382 0.126882002
0.135357320 0.145983323 0.128146842
0.159266114 0.152308449 0.126502290
0.191145092 0.149272263 0.132574096
0.218469501 0.151296645 0.129538476
0.250727594 0.155976996 0.131435826
0.284124136 0.160531327 0.134471834
0.312966436 0.162808329 0.131815478
0.349146187 0.168627292 0.137001961
0.382542551 0.171663418 0.131941840
0.418216228 0.178115159 0.131815195
0.457179338 0.186970189 0.133332998
0.491840690 0.191271573 0.134597987
0.533712983 0.195572376 0.135862991
0.573434412 0.200126171 0.136116356
0.611638069 0.206198305 0.137254998
0.651107192 0.212271094 0.138266861
0.685136139 0.215686321 0.141429022
0.725363612 0.221758321 0.143706322
0.765844405 0.228842437 0.144465402
0.801138699 0.233776152 0.150284842
0.840101123 0.234282091 0.149778903
0.876533687 0.239594996 0.153574005
0.919417739 0.248450294 0.156736165
0.957115293 0.256040305 0.158760116
0.983807564 0.258696675 0.171789736
0.994813144 0.270461857 0.184313998
0.000379548 0.158760548 0.125489995
0.005313001 0.156483158 0.125869542
0.022517323 0.157368779 0.125869542
0.047564775 0.159140006 0.127134621
0.076787002 0.158760548 0.129411995
0.101074994 0.158760548 0.123339996
0.132574409 0.161669776 0.128779218
0.163061693 0.165591091 0.132953539
0.190386102 0.170145094 0.132194549
0.217710510 0.167109489 0.129158929
0.246173412 0.170271680 0.127261132
0.278810948 0.174572960 0.129158542
0.314864188 0.180645540 0.133712634
0.350790977 0.186717540 0.137001991
0.384060830 0.189879671 0.134345129
0.418595791 0.193295360 0.133712545
0.455028564 0.197849542 0.133332998
0.494117975 0.204174578 0.134597987
0.533586442 0.213282973 0.140670002
0.573054969 0.216824740 0.139152363
0.611385047 0.222137541 0.137254998
0.648829818 0.227830261 0.138646409
0.688298941 0.233649999 0.141555548
0.724983990 0.239216000 0.147122264
0.765211582 0.245667547 0.146742716
0.803921402 0.249715552 0.147501528
0.837444961 0.250221491 0.152814522
0.873876989 0.253257096 0.149778917
0.919797122 0.258570641 0.156609684
0.961289883 0.265022516 0.162175670
0.989879608 0.271220922 0.167995036
0.992915988 0.280328542 0.183175445
0.003415935 0.173940927 0.125489995
0.000379548 0.176976547 0.128526390
0.018216548 0.176849931 0.128905937
0.044528935 0.177355990 0.130170777
0.073750615 0.176976532 0.132447600
0.095002994 0.173940927 0.129411995
0.124351643 0.179000929 0.128399998
0.155218467 0.181277871 0.129917935
0.184314087 0.183048770 0.129158840
0.211638525 0.185325474 0.126122534
0.247691736 0.191018000 0.131815046
0.278557897 0.192535937 0.130297258
0.311068714 0.195825353 0.129917935
0.344718188 0.201897934 0.130929992
0.375078917 0.207969934 0.137001991
0.415559649 0.213535860 0.136748940
0.455028564 0.219101921 0.135230750
0.493864954 0.225173920 0.134597987
0.530550063 0.231498957 0.140670002
0.570019126 0.235041350 0.143959358
0.611385405 0.241872117 0.140291005
0.651866078 0.248450056 0.139278993
0.691334546 0.251866013 0.144591942
0.730803013 0.251866013 0.144591942
0.767488539 0.259709299 0.145604059
0.804933310 0.266919911 0.146489680
0.840354145 0.271473855 0.150031880
0.873876989 0.274509490 0.152814522
0.912966430 0.277545780 0.155091897
0.952182293 0.284630209 0.159139708
0.983301938 0.291461319 0.163946658
0.998987973 0.295508921 0.174067065
0.001391678 0.199241325 0.133080319
0.003415935 0.194687262 0.128526390
0.019734319 0.195572644 0.129411995
0.045287836 0.196837485 0.129411995
0.073624097 0.198102325 0.131182775
0.097027257 0.197216943 0.132447615
0.123339638 0.199241325 0.131941676
0.153700396 0.202024326 0.130297393
0.182542995 0.202783227 0.130170897
0.208096176 0.205818832 0.130676508
0.241619095 0.209234640 0.133839324
0.276028097 0.213282377 0.135863319
0.309171289 0.216065601 0.134471998
0.343959093 0.222138315 0.134471998
0.376597136 0.228210315 0.135989994
0.414168090 0.236685500 0.139658198
0.455028564 0.241366193 0.138266876
0.494497508 0.245793909 0.135230750
0.532827377 0.249968663 0.135609999
0.572042763 0.260847688 0.138899356
0.611511886 0.261986315 0.141935259
0.651360273 0.269196779 0.138772815
0.689184248 0.275142640 0.140164480
0.726248920 0.275142640 0.142567679
0.763440549 0.279696614 0.144844964
0.802656293 0.287160307 0.147880986
0.841366112 0.292220324 0.151549682
0.876786768 0.293232203 0.152561545
0.915496111 0.298798144 0.155597836
0.951423287 0.300063312 0.162175745
0.980898380 0.306894600 0.168500587
0.997469664 0.313219637 0.177608997
0.000000000 0.221631989 0.132321298
0.004680675 0.220493704 0.127893999
0.019481711 0.218722701 0.132700995
0.045034871 0.219987541 0.130171001
0.073497705 0.221505255 0.128652990
0.102846153 0.217710406 0.127893776
0.128020316 0.221885026 0.134977713
0.148766696 0.221631989 0.133332998
0.179127485 0.222391084 0.131056279
0.205186740 0.225426927 0.133206517
0.239847854 0.230107561 0.136242867
0.273244739 0.233143434 0.138899282
0.306641638 0.238456339 0.137760922
0.342567772 0.244782016 0.137001961
0.377356231 0.249462694 0.135610282
0.413915485 0.256293595 0.136369199
0.454902083 0.263883382 0.136369199
0.494497508 0.268311292 0.135863408
0.533966005 0.273371667 0.136875033
0.575079143 0.279822975 0.137760639
0.611258507 0.286021709 0.139152259
0.651739538 0.288045704 0.141176000
0.689437270 0.296394974 0.138772801
0.725869715 0.299430996 0.138772815
0.763946533 0.303985000 0.143453285
0.801770926 0.307273984 0.147880986
0.843516827 0.312334061 0.153447062
0.881087840 0.313472718 0.154585719
0.916887760 0.317140967 0.157242119
0.952814579 0.322959989 0.157242462
0.981783986 0.323845595 0.166350082
0.997722745 0.331435978 0.175458297
0.000759096 0.241366193 0.129285082
0.004554003 0.245161489 0.124731287
0.020746550 0.244529098 0.129411906
0.044276159 0.246553034 0.137760997
0.070462003 0.249209195 0.132447988
0.104617000 0.241240025 0.127134994
0.134724736 0.240987003 0.132447898
0.154838696 0.245161474 0.136369377
0.173814192 0.242884189 0.133332998
0.204174995 0.245920584 0.133332998
0.238835990 0.251866102 0.136242867
0.272485644 0.255154938 0.137760743
0.306641638 0.259708732 0.139278546
0.340291053 0.268564105 0.136748940
0.376723796 0.272106409 0.134724677
0.414674580 0.278305113 0.134850994
0.451866269 0.283617973 0.133333191
0.493738413 0.290955156 0.131562412
0.533206940 0.300190061 0.140417039
0.574699759 0.303731740 0.141935095
0.613788784 0.307526737 0.141935095
0.647944272 0.311575174 0.140417099
0.690322459 0.317520648 0.140670091
0.727387726 0.322960109 0.139531896
0.766097367 0.327514112 0.141809002
0.805565894 0.332321107 0.146362990
0.844529033 0.333333105 0.152941078
0.883744419 0.336622447 0.156483456
0.920176864 0.338899255 0.159519166
0.955091476 0.345983148 0.160531238
0.980265975 0.349651814 0.160278469
0.998481989 0.352688193 0.169386089
0.003795482 0.265655011 0.144465491
0.000759104 0.271726996 0.135357097
0.017457552 0.269070506 0.132953510
0.045288168 0.268311501 0.137254670
0.076534010 0.273497999 0.144592002
0.094750017 0.273497999 0.144592002
0.131435961 0.265528202 0.141808674
0.158760488 0.266919732 0.139405236
0.179886192 0.273245007 0.136369392
0.210246980 0.273245007 0.133332998
0.240606993 0.279190511 0.136242867
0.271220505 0.281214535 0.135230735
0.303984791 0.283618003 0.133586004
0.340291053 0.289816529 0.133712545
0.376723796 0.295888513 0.136748925
0.417963564 0.304237813 0.139531687
0.455661178 0.310183316 0.139405191
0.490702033 0.315243185 0.137634411
0.530170560 0.327387989 0.140670016
0.569639623 0.331056148 0.143959343
0.611132503 0.335989505 0.144971475
0.650221586 0.341935307 0.142947495
0.684250534 0.347881466 0.137634471
0.723718941 0.350917101 0.143706486
0.763061345 0.351802528 0.144844994
0.802530050 0.354838520 0.145098001
0.841492653 0.360657513 0.146869078
0.877925396 0.366729498 0.155977458
0.919797599 0.367362052 0.159519166
0.960151553 0.376343697 0.162555218
0.988741100 0.385831594 0.166223988
0.992410004 0.383049011 0.172422484
0.001012129 0.295762002 0.142188132
0.015433479 0.296014994 0.138899475
0.027450867 0.297785997 0.134092093
0.052751452 0.297027171 0.138393313
0.084503546 0.300695866 0.146869317
0.115369856 0.300695866 0.139279008
0.133586511 0.300695866 0.139279008
0.165464982 0.297659725 0.141555876
0.190259188 0.300695866 0.141555995
0.216318980 0.300695866 0.136369377
0.240859985 0.303605020 0.136242867
0.271220505 0.305629015 0.135230735
0.303858280 0.307906270 0.134471640
0.340291053 0.313978761 0.136242867
0.376723796 0.320050746 0.136622414
0.413156599 0.328525931 0.142061993
0.456167161 0.337634176 0.136495680
0.495762110 0.344085723 0.129158691
0.532953858 0.351675928 0.132194906
0.572422266 0.358254015 0.132447869
0.613788545 0.363314360 0.137254998
0.654269397 0.367362618 0.139279008
0.689689994 0.369639874 0.137254998
0.726375759 0.375458837 0.137760997
0.768121421 0.380771726 0.141555697
0.806831300 0.382036746 0.143579811
0.843769908 0.384566665 0.146109998
0.877798855 0.388234854 0.152814582
0.916887760 0.399620533 0.156609967
0.955597460 0.404174596 0.159645647
0.985957980 0.410626143 0.162681744
0.995066106 0.407590002 0.166730002
0.000000000 0.328146756 0.143200263
0.013156130 0.324098259 0.138140380
0.036558997 0.324098259 0.135104224
0.057305317 0.326628596 0.130803004
0.086527549 0.330044508 0.138393492
0.119923927 0.330044508 0.140796810
0.146742374 0.330044508 0.141303003
0.171537131 0.331688792 0.141303003
0.200379446 0.331309319 0.143580005
0.224668235 0.330044508 0.137508005
0.253004253 0.330929875 0.139278740
0.279316485 0.335989743 0.141302988
0.309677243 0.335989743 0.138266608
0.344086021 0.340038210 0.139531776
0.378747523 0.344338953 0.141303003
0.417204589 0.354838967 0.135989740
0.453637362 0.363946557 0.137507945
0.496394783 0.371157259 0.128146678
0.534218967 0.374446273 0.131182700
0.573434412 0.384566754 0.133459985
0.611005485 0.386843771 0.129664987
0.651233256 0.393675119 0.133206993
0.687792480 0.396837503 0.133333474
0.726122558 0.401012242 0.135230735
0.767109334 0.407084227 0.139531702
0.806831062 0.410373241 0.141176000
0.843263865 0.411385238 0.144085869
0.878178418 0.415939063 0.150158256
0.916887760 0.420872897 0.151549846
0.954585314 0.427704006 0.158127755
0.984819591 0.433522999 0.162554994
0.998102248 0.433902264 0.166729733
0.003415642 0.360404998 0.142820999
0.015559642 0.356609493 0.137887359
0.037318062 0.355976909 0.136242867
0.066792965 0.357368320 0.135357007
0.091081642 0.362302542 0.130043998
0.122200929 0.361543626 0.139151990
0.150537312 0.360404998 0.140290678
0.181783393 0.362049550 0.142820999
0.211385086 0.364326268 0.143579900
0.236053333 0.361670107 0.138646364
0.262744993 0.363820642 0.139025763
0.292219907 0.365591645 0.140923262
0.319544286 0.370525271 0.140544012
0.349905074 0.370525271 0.137507617
0.382416010 0.372675478 0.138772771
0.420619756 0.380645245 0.135610193
0.458570719 0.390133083 0.129538193
0.495003462 0.399240851 0.127134994
0.533966005 0.400758952 0.129664689
0.574573040 0.409614354 0.133839354
0.611005485 0.416445643 0.132321358
0.647438288 0.418469638 0.130297348
0.684123993 0.427324265 0.130423874
0.724604547 0.431372553 0.131435737
0.764073193 0.434408635 0.135609999
0.804933310 0.437697649 0.138898998
0.841366112 0.439215720 0.139910996
0.877798855 0.445920289 0.145983607
0.916887760 0.449335814 0.147881359
0.953446984 0.451233387 0.154332757
0.983681023 0.456040233 0.163440600
0.998861372 0.462365270 0.169765636
0.011259001 0.392030090 0.137001961
0.024668030 0.391777068 0.134218603
0.045667544 0.393421829 0.134724736
0.073245153 0.396204919 0.138013840
0.105503000 0.398987591 0.140417039
0.129790992 0.395951957 0.140417039
0.157368347 0.392915785 0.136115998
0.188361391 0.393421769 0.134724677
0.222770125 0.395699054 0.137254938
0.250094503 0.395699054 0.140290558
0.272358924 0.401012063 0.138266876
0.299683511 0.403036058 0.136495963
0.328652680 0.404174626 0.134724960
0.356230110 0.406957984 0.129411995
0.386590838 0.406957984 0.126375616
0.423655778 0.411512017 0.125489995
0.461859375 0.417331070 0.123719163
0.498292118 0.423782587 0.122074999
0.534724951 0.432890981 0.122075006
0.576217771 0.439216048 0.126629010
0.613029718 0.445288002 0.127514258
0.647691309 0.451107055 0.127007991
0.684123993 0.457305521 0.132700518
0.726375759 0.463504016 0.129664898
0.764579535 0.465022027 0.131435737
0.802403569 0.465275079 0.133586034
0.841872096 0.466540098 0.134344995
0.878304839 0.475648463 0.140416995
0.917140782 0.479696214 0.144085869
0.953067541 0.481214076 0.151423007
0.981151402 0.483617663 0.163946599
0.996331036 0.492726058 0.173054993
0.005187006 0.437571228 0.133965582
0.032511391 0.434534818 0.133965582
0.056673180 0.432131559 0.129032001
0.083365150 0.431625783 0.129917577
0.111574993 0.432637662 0.134218544
0.135862991 0.435420305 0.131309420
0.170271635 0.432384700 0.133839101
0.196584105 0.434282213 0.133332998
0.223276183 0.438203812 0.133206680
0.253130943 0.438203812 0.131182939
0.283365160 0.438203812 0.137128428
0.311827779 0.439468801 0.131182745
0.339911252 0.440607160 0.127387583
0.365338475 0.443389952 0.126375616
0.395699203 0.443389952 0.129411995
0.428463191 0.445793748 0.126375616
0.466160595 0.449462563 0.122454002
0.504364133 0.453763813 0.120177150
0.540796995 0.460215360 0.128146976
0.577229738 0.466540396 0.122580990
0.613029718 0.472612411 0.124731265
0.648450375 0.477672517 0.125489995
0.687160373 0.481594265 0.126628518
0.723592401 0.490701914 0.123592913
0.763567388 0.492346406 0.127388000
0.802403569 0.493738085 0.132827401
0.842378139 0.496647805 0.137128353
0.884376884 0.502972841 0.140416995
0.920809627 0.509424388 0.146489665
0.956103563 0.513093054 0.148387417
0.984187186 0.516382217 0.158001393
0.999367416 0.523086786 0.179126993
0.013535991 0.475901604 0.130929798
0.040860377 0.468058199 0.123719007
0.063883767 0.469323367 0.134471774
0.091967314 0.468058586 0.130170792
0.120430343 0.468438029 0.130550250
0.146742597 0.471473664 0.127514124
0.176343635 0.471853077 0.131941676
0.207843110 0.468817472 0.130043998
0.232131690 0.471853495 0.127767101
0.260847807 0.473497778 0.124731481
0.293611735 0.475901604 0.128020182
0.317900240 0.475901604 0.125996202
0.347122103 0.474762946 0.122960001
0.374699831 0.475521594 0.125489995
0.407210797 0.479822606 0.126375601
0.444781780 0.479822606 0.124605000
0.475142181 0.479822993 0.120050423
0.509803712 0.481720775 0.115875773
0.544465780 0.487792790 0.121442162
0.580897927 0.493864775 0.123845994
0.619228423 0.498039037 0.121569000
0.654649079 0.504617095 0.122074679
0.692599952 0.510436475 0.120556489
0.729031980 0.514990687 0.117520295
0.765464544 0.521821618 0.121315971
0.806198478 0.523465931 0.123213321
0.846173108 0.527008116 0.127261192
0.884882867 0.533080578 0.135989547
0.919670761 0.536748767 0.146489665
0.956103504 0.539278805 0.149020001
0.984819591 0.542567968 0.155218586
1.000000000 0.548639953 0.177988797
0.027198186 0.509297967 0.123339616
0.051486574 0.506261945 0.121821806
0.076027766 0.504237950 0.119291395
0.097280152 0.506009161 0.131941780
0.126122907 0.506768167 0.127514347
0.152308941 0.510942459 0.124478251
0.186717197 0.506894171 0.124478005
0.213915110 0.508285880 0.125489816
0.241998985 0.506009161 0.120935805
0.270082325 0.508285880 0.118659094
0.300189674 0.509804010 0.121442132
0.330044240 0.512333989 0.119923815
0.354712248 0.512333989 0.116128810
0.385326028 0.509677231 0.120682843
0.418722361 0.511954367 0.119418003
0.452371955 0.513219357 0.118532620
0.488804370 0.514737189 0.120050803
0.516761363 0.512333989 0.115243189
0.549272954 0.516635001 0.117393970
0.583934188 0.522707343 0.115876168
0.620746195 0.528399825 0.120050810
0.659203291 0.532447577 0.119038679
0.695635974 0.540923357 0.116381831
0.732068002 0.545351088 0.117520481
0.768500566 0.552182376 0.118279576
0.803541958 0.556862712 0.121569000
0.846173286 0.559392393 0.120683126
0.885641873 0.563440859 0.131814986
0.922453761 0.565338314 0.143959656
0.951549351 0.566603184 0.150537804
0.983554602 0.568374157 0.157621995
1.000000000 0.574446142 0.179506987
0.042378563 0.540290713 0.113092579
0.062998369 0.543326914 0.119797774
0.086400986 0.544212520 0.116635039
0.110056721 0.544212520 0.116255172
0.131688654 0.544592083 0.123466007
0.155977428 0.550411105 0.120177366
0.189753324 0.545097828 0.117773682
0.222264394 0.541935265 0.114737302
0.246805996 0.544845104 0.112460010
0.277166039 0.544845104 0.112460010
0.305249453 0.544845104 0.115369879
0.334598094 0.546236455 0.113725342
0.365591258 0.549398720 0.111827597
0.395952046 0.549145699 0.112333596
0.428968966 0.546109915 0.110436417
0.460594594 0.544212520 0.109803997
0.492473185 0.546362936 0.110310018
0.525237143 0.548766136 0.115117021
0.555598021 0.548766136 0.115117013
0.588741422 0.553700268 0.110816002
0.623402894 0.559139967 0.111701421
0.659203291 0.564579546 0.115369879
0.695635974 0.570651531 0.112713002
0.732068002 0.576723516 0.118785657
0.769133151 0.584440231 0.120936424
0.806071937 0.590765476 0.122201413
0.839975059 0.594307184 0.123719476
0.885136008 0.594560146 0.132827103
0.924098372 0.595192730 0.143327087
0.956609368 0.595192730 0.152055755
0.978115022 0.596963704 0.159392625
0.999367416 0.603035688 0.183681428
0.057558984 0.573687911 0.110056959
0.075774983 0.576723576 0.119165346
0.098545015 0.577609003 0.115117222
0.122833334 0.577609003 0.112586968
0.146869078 0.577988565 0.117393993
0.171157852 0.581024945 0.111321986
0.195445985 0.579253674 0.110563017
0.224288419 0.577355981 0.108665280
0.252625018 0.578368068 0.106387995
0.277166069 0.581277966 0.106387995
0.307526767 0.581277966 0.109297864
0.337634504 0.581277966 0.106262013
0.369133621 0.583807945 0.102719985
0.402024060 0.588614941 0.103225976
0.432384789 0.585578561 0.109297954
0.465401769 0.580139041 0.109803997
0.498545170 0.580645025 0.106768005
0.531309128 0.585198998 0.102973007
0.561670065 0.585198998 0.102973007
0.594813406 0.587982357 0.102973007
0.628209710 0.591271222 0.104364254
0.661859393 0.594560206 0.106641017
0.695635974 0.597976029 0.106640980
0.732068002 0.604048014 0.112712994
0.770777822 0.610120058 0.116508342
0.811385274 0.615053713 0.120683014
0.852119088 0.618596017 0.126755089
0.888551831 0.624668002 0.135863468
0.923086762 0.627577841 0.142314956
0.956989110 0.628589928 0.152435005
0.983428001 0.630360901 0.164705604
0.996331036 0.636432946 0.180645049
0.072738655 0.612650394 0.107020639
0.088172011 0.615686715 0.113345668
0.108538784 0.618722320 0.113852054
0.132194683 0.619354784 0.109803997
0.156483352 0.618975341 0.111701444
0.180771530 0.617204666 0.108032636
0.207589969 0.615180373 0.101960644
0.235420406 0.613788724 0.104743630
0.264263213 0.614547789 0.105123095
0.288551748 0.617584169 0.103099361
0.327008098 0.617710710 0.108791865
0.355344623 0.615686476 0.111827739
0.382669270 0.616066039 0.109171301
0.410879374 0.619987726 0.107273974
0.441239476 0.619481683 0.105755635
0.474004060 0.621252298 0.109424442
0.504364550 0.620872974 0.108285807
0.535230875 0.623782516 0.104743645
0.567741990 0.621631742 0.104743645
0.598102808 0.627197742 0.104743645
0.633396864 0.624541402 0.099051394
0.668690681 0.625932753 0.098545216
0.704111159 0.630866408 0.100568987
0.743200719 0.636938393 0.106640995
0.777356029 0.638456404 0.112712987
0.813029647 0.642125010 0.117646985
0.849841833 0.645161390 0.124225289
0.883997858 0.648956776 0.133333087
0.923086762 0.657684922 0.145098299
0.956736147 0.659203053 0.154965326
0.984819591 0.660088658 0.168880329
0.998861372 0.664263368 0.185957998
0.091713727 0.654016495 0.100189745
0.103099123 0.653257370 0.111953996
0.118785508 0.652498662 0.115369767
0.142567888 0.654269457 0.109803833
0.167109534 0.655408025 0.107906260
0.189879730 0.658444405 0.106388062
0.212903053 0.653510332 0.102719739
0.245161131 0.650474429 0.099936739
0.276027739 0.651739478 0.103984743
0.302593231 0.655914187 0.102087490
0.331941843 0.654142976 0.103985004
0.365211993 0.655914247 0.106135488
0.393674731 0.652877867 0.109171100
0.419987321 0.654142976 0.107906260
0.450347722 0.654142976 0.106514581
0.481214404 0.656546652 0.104490809
0.516129315 0.658064485 0.107526809
0.545224667 0.660088718 0.105249584
0.577355981 0.658317506 0.103984736
0.607969761 0.659835517 0.102087006
0.638330460 0.662112474 0.102087006
0.672738969 0.658064485 0.095003389
0.707400024 0.662491977 0.096394733
0.745097995 0.670335174 0.102466747
0.781910300 0.669955432 0.112333730
