Assets/EldamarStudio/100 Retro LUTs Pack/LUTs/cube/Nancy LUT.cube
DOMAIN_MIN 0 0 0
DOMAIN_MAX 1 1 1
LUT_3D_SIZE 32
0.129411995 0.090195999 0.125489995
0.132447615 0.093232386 0.128526390
0.141935542 0.096268229 0.131562218
0.159139991 0.099304162 0.137128159
0.183428094 0.101961002 0.146236554
0.207716867 0.101961002 0.155344933
0.234535322 0.104490675 0.159392685
0.258570701 0.099304006 0.157495007
0.279064000 0.090195999 0.154459000
0.297280014 0.090195999 0.160530999
0.324224859 0.087286867 0.160784006
0.351549238 0.082226485 0.164831996
0.382289290 0.078431003 0.173181280
0.418469101 0.077925004 0.184313998
0.451866239 0.071853004 0.184313998
0.490069777 0.065781005 0.191524193
0.531056404 0.061227195 0.202150390
0.573561132 0.055661440 0.214294985
0.616065979 0.040481023 0.226439014
0.653004706 0.030866638 0.238583013
0.697027445 0.021758262 0.248829737
0.742568135 0.014674130 0.256926000
0.782036483 0.011765000 0.262997985
0.821505725 0.011765000 0.269069999
0.865528286 0.023150280 0.286527276
0.908285618 0.043896630 0.306388319
0.945730209 0.074257053 0.324098945
0.973055303 0.119797394 0.339278519
0.989753127 0.162681580 0.362428635
0.997849226 0.210499525 0.388488144
1.000000000 0.262998134 0.416698188
1.000000000 0.317647010 0.447059005
0.132447615 0.096267998 0.119417995
0.135484010 0.096267998 0.128526390
0.147122175 0.095003381 0.131562218
0.162681997 0.101328224 0.139658153
0.183807537 0.110309616 0.151170000
0.210752472 0.104996607 0.152308539
0.235041261 0.104996607 0.153826609
0.260214984 0.105881996 0.159645706
0.282099783 0.100063100 0.162049398
0.300316423 0.093232386 0.163567394
0.330170393 0.093232386 0.166729525
0.357621759 0.092346996 0.168880254
0.387223423 0.089437135 0.175079033
0.422011435 0.087033391 0.185072958
0.460973859 0.080961391 0.193421617
0.494370401 0.077292584 0.200632423
0.534092009 0.073371194 0.211258382
0.576596737 0.070335418 0.222770184
0.619101644 0.064769022 0.232511014
0.667173088 0.055155348 0.241872355
0.704617381 0.047944296 0.248070642
0.745603979 0.040986389 0.254901737
0.785578847 0.036305990 0.263630480
0.836685359 0.042125002 0.284250379
0.873877168 0.051233567 0.290322393
0.911574662 0.072612338 0.307779640
0.945730209 0.102087118 0.326628596
0.973055303 0.134977788 0.339278519
0.992409945 0.172548994 0.367741615
0.995572388 0.221378684 0.391018152
0.995698988 0.273371160 0.415812552
1.000000000 0.323718995 0.444022596
0.139784768 0.102339998 0.130549997
0.142821163 0.102339998 0.131056383
0.145857006 0.104490772 0.135863215
0.166097388 0.102720000 0.138899162
0.186590537 0.112333767 0.149019554
0.206830934 0.113345779 0.150790781
0.231625646 0.114484549 0.152941003
0.259202987 0.114484549 0.154585719
0.284503192 0.112966359 0.161163911
0.305502981 0.105249703 0.162555233
0.335357547 0.102720000 0.169765905
0.363693804 0.098672010 0.174825758
0.393295646 0.099557355 0.180265635
0.426692039 0.099051028 0.189120993
0.462365389 0.098671779 0.196331352
0.501328349 0.092852749 0.205439582
0.539278865 0.086780362 0.214547575
0.580518484 0.083112001 0.224794149
0.619987011 0.081593804 0.232384756
0.665907681 0.081594124 0.241492584
0.708791912 0.074383773 0.250600964
0.747501254 0.069323190 0.256166905
0.788235188 0.064895540 0.265401751
0.833775938 0.070967548 0.280581921
0.878304541 0.081593573 0.296900749
0.914737284 0.096521318 0.308538735
0.949904859 0.124351606 0.330550134
0.983807504 0.156356633 0.352561533
0.992409945 0.192030370 0.363440633
1.000000000 0.239089057 0.393801361
0.996457994 0.291966915 0.419734329
1.000000000 0.340543777 0.449588776
0.150158003 0.110942319 0.146236330
0.150664389 0.109677158 0.141935542
0.154965386 0.114357933 0.141935542
0.160531327 0.114863992 0.144971162
0.188235164 0.115622990 0.149145991
0.207842931 0.121694990 0.154838771
0.228083640 0.123972155 0.151549682
0.254396141 0.126628995 0.157115713
0.284756154 0.125869900 0.161670089
0.310056835 0.120303184 0.165717840
0.337634563 0.115875863 0.170778036
0.368501097 0.114611156 0.177862167
0.398102760 0.110816158 0.186211169
0.432258248 0.113472320 0.194686994
0.468690693 0.115496576 0.198734999
0.504364371 0.112586997 0.205945641
0.545351326 0.106261969 0.217583969
0.586591065 0.100316145 0.226059154
0.623023391 0.101581164 0.232131794
0.666540265 0.103099354 0.239721656
0.710815847 0.100442998 0.250094891
0.751296401 0.098418988 0.260215163
0.793927670 0.096521154 0.269829512
0.837571144 0.102593161 0.283112168
0.876280725 0.113219470 0.296268284
0.914737284 0.128146470 0.315369964
0.951170087 0.147881210 0.333080053
0.989879549 0.179759562 0.359645724
0.998734832 0.215812758 0.375078976
1.000000000 0.260341436 0.399114519
1.000000000 0.312333941 0.427704126
1.000000000 0.360531330 0.459961981
0.161922559 0.123086996 0.156863004
0.158507392 0.120809607 0.151550010
0.161922991 0.124857768 0.149779007
0.168880627 0.129285380 0.151043847
0.178747997 0.127008006 0.153699994
0.209107995 0.133080006 0.165843993
0.230866641 0.134851098 0.160404548
0.253637165 0.136116266 0.158254147
0.281720549 0.138014004 0.166603550
0.312080592 0.134977609 0.175711930
0.337760746 0.129411548 0.176470995
0.367741764 0.129411802 0.181277990
0.400758922 0.131309539 0.189247549
0.434408993 0.131309539 0.200885549
0.476660699 0.131309539 0.201138556
0.513472736 0.130044281 0.206324995
0.551423371 0.126249090 0.215812743
0.593042552 0.122327536 0.229095533
0.629475415 0.128399536 0.235167563
0.671474218 0.129285082 0.242378116
0.715117276 0.126628548 0.251865923
0.760025263 0.123845540 0.262871981
0.802656531 0.130044043 0.275395483
0.848197758 0.136369094 0.291081905
0.885389328 0.146616116 0.303985000
0.917647183 0.161543518 0.320556521
0.951170087 0.179380149 0.344085634
0.987602830 0.206704512 0.359265983
0.997469962 0.241998613 0.380518347
0.999620438 0.285135865 0.410879016
0.999620438 0.333586335 0.447058946
0.999620438 0.379127562 0.471347004
0.171030924 0.135231003 0.156863004
0.164958939 0.138266608 0.156863004
0.167995006 0.135989770 0.155851007
0.174066991 0.136243001 0.157115847
0.181783602 0.136116385 0.159772009
0.196963996 0.139152005 0.159772009
0.227324635 0.145224646 0.169386312
0.252371997 0.146995872 0.168374211
0.278684258 0.147501931 0.168880150
0.309044957 0.147122383 0.172675535
0.342314810 0.144086003 0.175964922
0.372169495 0.144592196 0.184566990
0.403036207 0.146489933 0.194560647
0.434408993 0.146489933 0.203921944
0.470840961 0.146489933 0.209993944
0.515496492 0.151296929 0.217457116
0.557495356 0.152814865 0.224541381
0.599367499 0.152435288 0.232131928
0.638583004 0.155723929 0.238203958
0.680581808 0.159013301 0.252625287
0.721189260 0.161543116 0.262492120
0.763694048 0.162048921 0.270082176
0.808728516 0.163440436 0.275395483
0.854269683 0.172548831 0.296647906
0.895256281 0.181151152 0.310057014
0.926755309 0.194939911 0.323592663
0.954080045 0.212144047 0.341302991
0.987602830 0.224921286 0.362302363
0.997469962 0.260214776 0.388108730
0.998228788 0.301960558 0.414421082
0.996584058 0.349778682 0.445540637
0.996584058 0.400379926 0.477418989
0.177608997 0.142315000 0.161923006
0.176596999 0.142820939 0.161923006
0.179126993 0.148007318 0.166224003
0.183934167 0.146110162 0.164453000
0.189120874 0.144465774 0.163314328
0.200000256 0.143200383 0.163314328
0.222770318 0.148766324 0.168374315
0.253131062 0.154838681 0.175837994
0.278431416 0.157368779 0.178494409
0.303479016 0.159140006 0.185072809
0.334218532 0.158760458 0.180518866
0.365591168 0.157748327 0.183554739
0.395951957 0.161417007 0.194180965
0.426565707 0.164453030 0.204428002
0.460720986 0.166730314 0.210500002
0.501960576 0.169133514 0.218975186
0.544338822 0.175078988 0.226565376
0.586464047 0.177102998 0.232005417
0.629728019 0.178241372 0.236179695
0.674510062 0.183807358 0.248070717
0.715116978 0.186843738 0.259456098
0.757621944 0.190891638 0.270588130
0.804553986 0.194054157 0.280328989
0.847691417 0.198355556 0.299177587
0.886401236 0.209740639 0.318153262
0.922833622 0.219101980 0.330803305
0.951549828 0.233902633 0.344845057
0.982922435 0.250094861 0.362049431
0.997469962 0.278431565 0.386084437
1.000000000 0.314863980 0.415180027
0.998608351 0.358127862 0.444149196
0.998608351 0.406451672 0.475901335
0.185325697 0.153320700 0.177861989
0.183680996 0.153320700 0.171283990
0.189626694 0.159266397 0.173940703
0.193168700 0.159013242 0.177482694
0.196963996 0.155977443 0.172169700
0.207337216 0.155471042 0.169639707
0.217583999 0.160025403 0.177988693
0.245161414 0.164452702 0.179126993
0.275521994 0.169765800 0.184440091
0.299430817 0.172802195 0.191777483
0.329411715 0.172928706 0.191271290
0.364705503 0.174572989 0.194560438
0.395066291 0.176849991 0.197596341
0.426186025 0.183175027 0.208223000
0.462365389 0.188994408 0.217077985
0.499683589 0.193674892 0.223908886
0.543706596 0.198228687 0.228462696
0.585325480 0.203668281 0.235547259
0.631878674 0.204680413 0.241619036
0.669197083 0.210246414 0.251359701
0.712586999 0.216065437 0.263250738
0.754079640 0.220113695 0.273371249
0.801770985 0.226185709 0.287792683
0.844275832 0.230740309 0.302972704
0.882226586 0.235673696 0.319544584
0.914484680 0.249209359 0.336369663
0.947375059 0.260847777 0.350790679
0.978874147 0.280202389 0.369386435
0.994939983 0.307400286 0.392536372
1.000000000 0.334725052 0.418722063
1.000000000 0.376470864 0.447311670
1.000000000 0.424288392 0.476154298
0.195193008 0.169260010 0.199114203
0.192915708 0.170019105 0.186970010
0.197722763 0.174193785 0.185578778
0.203035995 0.179506928 0.186590910
0.204174548 0.170778096 0.187350005
0.215939090 0.172675252 0.182796091
0.221252322 0.175964534 0.188868091
0.235294297 0.180392370 0.191271380
0.266413987 0.184946194 0.189752996
0.296774030 0.187982589 0.192789391
0.327893645 0.191145092 0.198102310
0.362808317 0.193168834 0.203668252
0.401897371 0.196584195 0.210499644
0.433017135 0.202909231 0.214042038
0.472485483 0.212017611 0.225680083
0.510309577 0.220240191 0.231499091
0.549778581 0.225553274 0.236053094
0.595952094 0.232257694 0.239215657
0.644529045 0.235547066 0.251486182
0.678684652 0.242125183 0.261606455
0.718153059 0.247438282 0.273371190
0.757115424 0.253510296 0.282479256
0.802656531 0.259582281 0.294876963
0.845793843 0.265654892 0.308286011
0.883744597 0.271726906 0.324225277
0.916761756 0.279569745 0.340164572
0.942568123 0.295256257 0.355851024
0.974699378 0.316255599 0.379633069
0.993674815 0.342061847 0.405439705
0.998481989 0.371410549 0.430740148
0.999240935 0.399241269 0.458697140
0.999240935 0.453890115 0.482985169
0.207337022 0.187476009 0.211258993
0.207337022 0.190512404 0.199114218
0.211511493 0.191271499 0.197722793
0.215179995 0.194181010 0.198228851
0.216318563 0.198102504 0.196457624
0.225426942 0.192030489 0.202530384
0.232131496 0.188867658 0.203036487
0.243010715 0.189500242 0.198608786
0.263377607 0.194054589 0.192789406
0.296774030 0.203162998 0.195825025
0.330043852 0.214927465 0.207590267
0.363314271 0.220493227 0.213282704
0.400379747 0.223529130 0.216571629
0.442125529 0.227198020 0.220114037
0.481593877 0.236306399 0.229222402
0.521062255 0.247817993 0.231246501
0.560404599 0.255155206 0.234535486
0.602024078 0.259582877 0.242252067
0.650600970 0.268690526 0.257432491
0.690828383 0.277545869 0.269702971
0.735610008 0.282732755 0.283618212
0.776849866 0.286907464 0.293611944
0.805692911 0.292979449 0.294876963
0.851233363 0.299051464 0.313093007
0.889816523 0.309677541 0.333333284
0.923466265 0.321441978 0.352940977
0.951676548 0.334724635 0.371030629
0.969892502 0.352941394 0.389247388
0.991397798 0.376596928 0.418343097
0.996457994 0.409867048 0.444908410
0.993295372 0.446932554 0.471094161
0.996204555 0.481214523 0.501201987
0.222390875 0.202782869 0.226312876
0.225300744 0.205819264 0.222896963
0.218848974 0.206704870 0.212902963
0.224921018 0.207969710 0.214167982
0.234282196 0.212017536 0.215306416
0.243389919 0.213535860 0.208728880
0.249968633 0.212523863 0.212270677
0.260974020 0.213156015 0.215939119
0.276913166 0.215433002 0.214674085
0.299557358 0.218089610 0.213409260
0.330043852 0.224288866 0.210625872
0.365464509 0.238456592 0.220746383
0.402024031 0.247311503 0.227830514
0.442758054 0.254142851 0.234408826
0.484883249 0.260594428 0.238203540
0.524351656 0.276913613 0.249715731
0.569892406 0.288551569 0.251739860
0.614295006 0.296268135 0.255661279
0.653763890 0.307653636 0.266287118
0.693991244 0.316761255 0.273118138
0.733459532 0.325869620 0.285009593
0.776976228 0.331941843 0.299177855
0.814168155 0.338013858 0.309044629
0.851359904 0.344085842 0.318911999
0.892346263 0.350157857 0.337128580
0.928020060 0.362428516 0.357748508
0.959393024 0.376596808 0.379506737
0.984819829 0.392409742 0.407336891
0.989753008 0.421252459 0.428209782
0.997090161 0.449588954 0.456040263
0.995066106 0.484756678 0.483238190
0.996078014 0.520176888 0.513599038
0.235546991 0.222011253 0.235421002
0.236559123 0.227071375 0.236432597
0.243137479 0.221885249 0.233143732
0.237824246 0.224415243 0.229095340
0.248071000 0.228589505 0.232890248
0.255534321 0.233270183 0.225426927
0.270208895 0.237824246 0.228462920
0.274636537 0.236179531 0.229854241
0.287539244 0.237697244 0.232890353
0.303225726 0.237697244 0.229854733
0.329032272 0.241492733 0.226818383
0.367488772 0.257685244 0.227830499
0.405059904 0.272865146 0.235800251
0.444528818 0.283744484 0.243770003
0.485262811 0.291587234 0.248576835
0.525363803 0.307273835 0.256799608
0.569386363 0.322454214 0.265908003
0.619228423 0.332700491 0.267552376
0.659835994 0.344844937 0.273877054
0.703099370 0.354206145 0.288298517
0.742568195 0.361416489 0.292472750
0.782036602 0.370398372 0.304237992
0.823402762 0.377482504 0.318532497
0.861732841 0.383554488 0.333333135
0.894370496 0.393674493 0.353320837
0.925489902 0.403921157 0.371537238
0.955344737 0.418595642 0.392663121
0.982669115 0.432258189 0.419987500
0.996837378 0.452624857 0.444402069
0.998102248 0.482985616 0.467425644
0.998102248 0.515117168 0.495382458
0.998102248 0.551549256 0.525743008
0.247691289 0.239847988 0.243770003
0.246552646 0.244781643 0.245667264
0.250727415 0.244655401 0.244402125
0.258317649 0.241872638 0.245035127
0.258317649 0.247565091 0.246932194
0.262871653 0.252878010 0.240859985
0.275648355 0.257811636 0.243769646
0.290196270 0.262365580 0.244275644
0.296268076 0.260088265 0.244275644
0.308791667 0.260088265 0.241619483
0.331435740 0.259582490 0.243137419
0.362175852 0.269070268 0.241872266
0.402403653 0.291460991 0.244908646
0.442125082 0.306894422 0.250980645
0.482479572 0.318658859 0.257052630
0.524225175 0.333839238 0.265528142
0.565970719 0.350158274 0.273118645
0.613915026 0.362934709 0.279190630
0.659456313 0.375584662 0.282732338
0.703858376 0.386084616 0.297406703
0.746742547 0.394433618 0.307273895
0.787223637 0.401517779 0.314357787
0.826438963 0.410752624 0.326628983
0.862871587 0.418848634 0.342821002
0.896647573 0.428336293 0.365591556
0.927387655 0.439594924 0.387096971
0.949652016 0.455281258 0.406325132
0.976976395 0.468690902 0.430613875
0.993674815 0.486148268 0.454901934
1.000000000 0.509171367 0.481467396
1.000000000 0.539532185 0.505755961
1.000000000 0.575458288 0.535610020
0.261607021 0.254775077 0.257179022
0.258823663 0.257305443 0.256926060
0.259076774 0.260341823 0.255028337
0.262872010 0.264389992 0.256040335
0.268944025 0.270588517 0.260342002
0.268944025 0.273624152 0.254269212
0.275774747 0.276407361 0.255534381
0.288424730 0.281594038 0.254143089
0.303352088 0.285642028 0.249336034
0.318532497 0.285642028 0.249336034
0.339784890 0.280329019 0.257558882
0.364579260 0.282100081 0.258064747
0.395066261 0.293991059 0.257558644
0.431499064 0.318026096 0.260595024
0.474003792 0.336242855 0.266667008
0.518911839 0.353067815 0.275648236
0.562681377 0.367995262 0.282226354
0.605818689 0.383428514 0.288551986
0.651359975 0.398608148 0.294624001
0.694623768 0.410499781 0.306261986
0.736875474 0.420746356 0.315117002
0.778874278 0.430107206 0.323466182
0.821252465 0.439089060 0.338773012
0.851992786 0.450980067 0.351170033
0.884124279 0.460847348 0.372169554
0.917267621 0.470461726 0.394434005
0.949146032 0.480582058 0.413662165
0.976470411 0.498798043 0.437950909
0.992915809 0.517014682 0.462238967
1.000000000 0.538519919 0.489057392
1.000000000 0.564579248 0.518406034
1.000000000 0.594940066 0.542694092
0.295003384 0.300316215 0.284503400
0.295003384 0.297279835 0.281467795
0.287919044 0.299810171 0.281214803
0.285135984 0.302846223 0.284377068
0.287539512 0.307273507 0.290575504
0.296268404 0.316128880 0.281594336
0.296268404 0.316634804 0.280582219
0.308032811 0.323845387 0.281214803
0.324098378 0.330170363 0.279190719
0.336748481 0.325110376 0.276660413
0.360657722 0.325110376 0.279570252
0.382289648 0.325869620 0.275775135
0.409361035 0.332953811 0.273624420
0.443643034 0.348386854 0.278811008
0.480075777 0.369639188 0.281847388
0.524984360 0.395066172 0.295129597
0.567489028 0.412270755 0.298418403
0.608855128 0.426312774 0.298039138
0.654396415 0.444149256 0.306768000
0.702720165 0.450980216 0.318405986
0.744339108 0.460215151 0.330549985
0.783428252 0.470335215 0.339405239
0.821252465 0.481593788 0.347881377
0.860720932 0.487665802 0.366097391
0.889183819 0.497280091 0.385325670
0.919164896 0.509171486 0.409993619
0.948640049 0.522580743 0.434914529
0.970398426 0.535230815 0.459203273
0.984439969 0.553446770 0.483491331
0.995445728 0.573434114 0.504237831
1.000000000 0.597975552 0.529412031
1.000000000 0.628336430 0.560910821
0.311574996 0.343453586 0.302213788
0.313978791 0.345224202 0.308792174
0.311828017 0.337887347 0.307906777
0.309550792 0.343706578 0.306641608
0.310689241 0.350537390 0.309297800
0.307653129 0.357621491 0.302213907
0.323592782 0.363946587 0.307906777
0.326881766 0.367235571 0.309551060
0.342061788 0.376343757 0.309551060
0.357494801 0.376850158 0.306515098
0.374066740 0.379000366 0.304490864
0.394307494 0.376976639 0.299430728
0.420873076 0.378115386 0.292599618
0.455787599 0.385452360 0.294876814
0.492219806 0.402403176 0.300063401
0.533459544 0.428463191 0.307906777
0.577482581 0.451233387 0.320050389
0.617836714 0.467678726 0.321568340
0.659835994 0.489436746 0.330676764
0.703352749 0.496521384 0.337760806
0.750031710 0.506388366 0.353700250
0.790512323 0.514990568 0.364832401
0.827957273 0.524225056 0.371284276
0.858317733 0.532574356 0.387223572
0.893232107 0.536369085 0.409993559
0.918026447 0.548007429 0.432764083
0.943833053 0.562681735 0.458064646
0.965085447 0.574825764 0.480455667
0.973560989 0.592283309 0.504743695
0.985704958 0.610499322 0.529032171
0.995445788 0.633775711 0.552941382
1.000000000 0.664136589 0.586337805
0.329791397 0.392030358 0.326502174
0.329791367 0.393548161 0.332574576
0.334598601 0.391018331 0.335231185
0.327767074 0.388235569 0.335231185
0.331561983 0.399873555 0.331688851
0.325869262 0.408222556 0.324478179
0.333459824 0.414294571 0.329538316
0.348134190 0.423402548 0.336875468
0.354965299 0.428715646 0.337634176
0.370904416 0.434029341 0.333839476
0.392283261 0.438709676 0.332321316
0.414041698 0.437697828 0.328273326
0.434535176 0.435800552 0.320303291
0.468690813 0.435547531 0.316382021
0.501327932 0.443137109 0.316129178
0.539531589 0.464895576 0.326122761
0.585072398 0.490702152 0.335231185
0.626944721 0.508918345 0.345603943
0.666413963 0.531435549 0.356483340
0.711701751 0.542061865 0.364326179
0.751549900 0.551929176 0.376470447
0.794054449 0.561037302 0.393675119
0.832764447 0.566729903 0.401644677
0.862871885 0.575838327 0.416825086
0.891714275 0.581910312 0.437318355
0.920935929 0.587729216 0.460215002
0.941808939 0.603162587 0.484883249
0.962049425 0.617330551 0.508159578
0.971537173 0.633270025 0.530550361
0.975079179 0.649968505 0.554838359
0.985452175 0.670841098 0.577356219
0.993928015 0.700569391 0.607590199
0.353447556 0.448576659 0.361796111
0.351043731 0.448576659 0.364199907
0.353447199 0.446426272 0.362555534
0.356862813 0.446553111 0.363187939
0.345856607 0.453004628 0.363187939
0.345603555 0.464895666 0.354838580
0.350664198 0.471979678 0.358380705
0.357495576 0.481973231 0.363187701
0.370145500 0.493737727 0.368753672
0.379253924 0.496774137 0.362681687
0.405186862 0.501454651 0.361163706
0.432511240 0.502719939 0.359772384
0.459329545 0.500190079 0.354965419
0.484123617 0.500190079 0.349145681
0.511827528 0.497533232 0.340796947
0.544465125 0.508665323 0.344718516
0.587602496 0.531435668 0.356609702
0.634914279 0.555091262 0.367615491
0.674383521 0.573308051 0.382795930
0.719671130 0.585958123 0.391777366
0.760657847 0.596204698 0.403415263
0.796458244 0.606577814 0.419228256
0.832511485 0.609740674 0.434282124
0.864895880 0.618343055 0.448956460
0.893105686 0.625174105 0.468058258
0.919670939 0.631372571 0.488678187
0.941935122 0.641492963 0.509930611
0.959898889 0.659582496 0.537001967
0.968880653 0.675142348 0.559013367
0.975205839 0.690322697 0.582669079
0.976344407 0.707780123 0.605186164
0.982416451 0.735104561 0.623402953
0.374699980 0.512333930 0.404300928
0.374699980 0.512333989 0.404300958
0.370145440 0.510183215 0.395951986
0.369133204 0.509677172 0.391144812
0.370145410 0.513725579 0.393548012
0.367109060 0.522833884 0.393548012
0.371916622 0.529664934 0.397849619
0.374699980 0.540670633 0.400632918
0.379506916 0.554838955 0.402656943
0.394433558 0.566603422 0.408222944
0.418089777 0.566729963 0.402150929
0.444655269 0.569260240 0.400632918
0.471979648 0.569513321 0.396964312
0.499304056 0.566982985 0.388614893
0.529664755 0.566982985 0.385578513
0.557368696 0.564326167 0.379633009
0.597596526 0.576976418 0.385705173
0.647059023 0.600632548 0.401011974
0.689563930 0.621884942 0.419228017
0.726248980 0.634535015 0.426059753
0.763693511 0.640986741 0.434282184
0.799114406 0.646806121 0.446932256
0.832511485 0.655281961 0.464642942
0.859835863 0.661353946 0.476786971
0.885388970 0.667679012 0.493737996
0.911321640 0.672359288 0.512207389
0.935863078 0.677925050 0.531183064
0.948007882 0.693105459 0.552435458
0.952688217 0.708538830 0.574193776
0.961543024 0.723719180 0.598988056
0.970018625 0.740670562 0.623402894
0.973308027 0.762428999 0.641618967
0.382037014 0.537128389 0.416192353
0.379253626 0.542694390 0.418974996
0.383554637 0.546995342 0.418974996
0.381277531 0.548386872 0.414421022
0.380898356 0.551423192 0.415938944
0.380265802 0.555723965 0.418342739
0.377229393 0.567362666 0.420873046
0.385831624 0.578874409 0.426692367
0.394180745 0.592536628 0.430487365
0.409360886 0.602656424 0.436559379
0.424920738 0.614295065 0.430993348
0.447185278 0.612270832 0.424921364
0.472991645 0.613789022 0.423403382
0.500063062 0.614548028 0.419734716
0.525363803 0.617077768 0.416698337
0.558127761 0.612270772 0.411258757
0.590765357 0.614927292 0.411258727
0.633523166 0.631625712 0.421378970
0.673877299 0.650727332 0.433143735
0.719165385 0.666413784 0.445793718
0.757495046 0.674762726 0.459455997
0.793801129 0.679696381 0.473244488
0.827071249 0.686907053 0.489437014
0.857052505 0.692979038 0.501581013
0.886654198 0.696774304 0.520556331
0.904996693 0.703732014 0.537887037
0.920935690 0.711069107 0.555218101
0.930803180 0.723972142 0.576470494
0.945604086 0.733839512 0.595066667
0.952688217 0.746995687 0.616192520
0.960278332 0.761163890 0.640607297
0.961417019 0.778621376 0.662618339
0.410879463 0.602023900 0.459456176
0.411638051 0.602403641 0.460594535
0.405566216 0.606577933 0.455787182
0.410373032 0.611385107 0.454522341
0.408222705 0.614421368 0.453130841
0.405186743 0.617457032 0.451612651
0.410246849 0.626185834 0.458444029
0.412144184 0.635041177 0.463124722
0.423782200 0.649462521 0.468437821
0.437823951 0.660847425 0.473371476
0.451106578 0.667172372 0.471600443
0.466539979 0.674889684 0.471220732
0.485515386 0.671853304 0.465148687
0.510562837 0.673118472 0.463883728
0.541429520 0.674509823 0.464136779
0.569133520 0.672232449 0.458697200
0.602529943 0.672232807 0.454142988
0.637318075 0.677799046 0.457811445
0.672991753 0.685894668 0.463124692
0.718026340 0.701328039 0.476913482
0.757874727 0.708918452 0.487160206
0.793295145 0.716002584 0.501328230
0.824667513 0.722707212 0.513978422
0.853257596 0.725237191 0.529664516
0.876027822 0.730929732 0.544844747
