Assets/EldamarStudio/100 Retro LUTs Pack/LUTs/cube/Nancy LUT.cube
LUT_3D_SIZE 8
DOMAIN_MIN 0.000000 0.000000 0.000000
DOMAIN_MAX 0.903226 0.903226 0.903226
0.129411995 0.090195999 0.125489995
0.183428094 0.101961002 0.146236554
0.279064000 0.090195999 0.154459000
0.382289290 0.078431003 0.173181280
0.531056404 0.061227195 0.202150390
0.697027445 0.021758262 0.248829737
0.865528286 0.023150280 0.286527276
0.989753127 0.162681580 0.362428635
0.161922559 0.123086996 0.156863004
0.178747997 0.127008006 0.153699994
0.281720549 0.138014004 0.166603550
0.400758922 0.131309539 0.189247549
0.551423371 0.126249090 0.215812743
0.715117276 0.126628548 0.251865923
0.885389328 0.146616116 0.303985000
0.997469962 0.241998613 0.380518347
0.195193008 0.169260010 0.199114203
0.204174548 0.170778096 0.187350005
0.266413987 0.184946194 0.189752996
0.401897371 0.196584195 0.210499644
0.549778581 0.225553274 0.236053094
0.718153059 0.247438282 0.273371190
0.883744597 0.271726906 0.324225277
0.993674815 0.342061847 0.405439705
0.247691289 0.239847988 0.243770003
0.258317649 0.247565091 0.246932194
0.296268076 0.260088265 0.244275644
0.402403653 0.291460991 0.244908646
0.565970719 0.350158274 0.273118645
0.746742547 0.394433618 0.307273895
0.896647573 0.428336293 0.365591556
0.993674815 0.486148268 0.454901934
0.329791397 0.392030358 0.326502174
0.331561983 0.399873555 0.331688851
0.354965299 0.428715646 0.337634176
0.434535176 0.435800552 0.320303291
0.585072398 0.490702152 0.335231185
0.751549900 0.551929176 0.376470447
0.891714275 0.581910312 0.437318355
0.971537173 0.633270025 0.530550361
0.410879463 0.602023900 0.459456176
0.408222705 0.614421368 0.453130841
0.423782200 0.649462521 0.468437821
0.485515386 0.671853304 0.465148687
0.602529943 0.672232807 0.454142988
0.757874727 0.708918452 0.487160206
0.876027822 0.730929732 0.544844747
0.934977829 0.764199793 0.619354606
0.638330102 0.820493281 0.638077259
0.635800242 0.822517574 0.637571275
0.647817612 0.833776295 0.646805823
0.690322518 0.845667541 0.663757205
0.731941640 0.849715471 0.660974026
0.795572281 0.840101302 0.649715245
0.877040029 0.851233244 0.676660299
0.906135261 0.856799543 0.712207258
0.812270582 0.887792826 0.751928747
0.817457438 0.894244134 0.753826618
0.810499847 0.898039103 0.754585624
0.834408641 0.896901011 0.762428641
0.853130996 0.902972817 0.772801936
0.865022063 0.901328206 0.769639552
0.889184117 0.900316119 0.775079191
0.912460148 0.902213931 0.779379785
0.153700009 0.106640995 0.153700009
0.165844545 0.103099450 0.146995559
0.262618899 0.109424450 0.170524642
0.370904714 0.106641091 0.176723540
0.515370190 0.102720000 0.209234804
0.693485141 0.097659737 0.246426448
0.873877108 0.102340274 0.299050987
0.997469962 0.197596148 0.369892508
0.165085450 0.121948451 0.153320551
0.177988991 0.127007991 0.165844545
0.251613110 0.131688997 0.178368449
0.383554667 0.139911458 0.185831994
0.540923595 0.154838547 0.223908544
0.714863718 0.162555367 0.256672740
0.872359276 0.171789825 0.299683541
0.985957980 0.243389860 0.374067247
0.202277005 0.163820088 0.197975636
0.211258546 0.164199650 0.208602101
0.255913645 0.179127455 0.196710989
0.381909847 0.200506091 0.210373446
0.541935444 0.230993077 0.233523071
0.712207198 0.260847390 0.274383098
0.886147976 0.290322363 0.325869352
0.994560480 0.359645784 0.411638021
0.266160548 0.234282091 0.245667532
0.268817186 0.244149536 0.258697093
0.294749975 0.258949727 0.258317560
0.397217095 0.288298249 0.257431746
0.567995071 0.355597436 0.279316723
0.738393128 0.396331370 0.306767642
0.884630203 0.425174087 0.362555206
0.987729251 0.477292627 0.449588656
0.355344653 0.376344293 0.346869290
0.347121984 0.387096822 0.343959391
0.360657811 0.423023105 0.345983356
0.442757964 0.434661925 0.342314988
0.585072398 0.500442863 0.338013798
0.749652147 0.557495296 0.383428127
0.895129383 0.586717188 0.447564751
0.971916437 0.633523345 0.532826960
0.434914917 0.594307125 0.474003673
0.432511210 0.605565906 0.470714748
0.445793927 0.642125249 0.479949445
0.493485004 0.675774872 0.481720299
0.602656901 0.674636543 0.463251263
0.765464664 0.714611232 0.487792373
0.874763191 0.736369491 0.549525440
0.938899338 0.768121243 0.620746434
0.645414114 0.818216562 0.648956299
0.658570349 0.823908865 0.651739299
0.666287065 0.827450991 0.653510273
0.707147181 0.849082887 0.675142288
0.741555810 0.849588990 0.667931676
0.795319259 0.841872096 0.655534506
0.869955719 0.850980759 0.665781140
0.909171402 0.850854099 0.702340484
0.819734156 0.891208410 0.763314009
0.815432847 0.895256281 0.750790656
0.823276639 0.891713917 0.761290252
0.833649457 0.897280335 0.769513071
0.849082768 0.903225780 0.772295773
0.869196951 0.902466774 0.772295773
0.887792826 0.903478682 0.774825931
0.917773783 0.901201546 0.782922268
0.179633096 0.131688893 0.204554006
0.174573347 0.134471536 0.203795090
0.223403096 0.123086996 0.206957996
0.345604002 0.128146634 0.226059541
0.463757187 0.115243196 0.233522996
0.663630784 0.116887994 0.246932000
0.854522347 0.144845188 0.294497192
0.991650879 0.215686038 0.367109507
0.184313998 0.154838547 0.198734641
0.188108996 0.143832639 0.206198990
0.224161997 0.141050085 0.199114189
0.323971927 0.154838637 0.226565093
0.468057841 0.146615997 0.236306429
0.679949522 0.174825996 0.264010102
0.859835684 0.198861375 0.295003265
0.990512192 0.261859626 0.376344115
0.189752996 0.162176087 0.205313087
0.200632095 0.170145184 0.203415543
0.257811278 0.185705096 0.238329992
0.314990193 0.185705200 0.234409004
0.473118365 0.215433195 0.257811278
0.682226479 0.262365550 0.277672708
0.869576573 0.305376381 0.319418311
0.993674815 0.360657632 0.411384851
0.255913705 0.216698542 0.250854075
0.263757348 0.220619649 0.251992643
0.304870099 0.246047094 0.273498118
0.349399269 0.260088176 0.270714641
0.506135345 0.308918625 0.296647549
0.704491019 0.384060711 0.309803724
0.879822731 0.428336263 0.360404909
0.985831797 0.480834872 0.444781780
0.344718277 0.352308452 0.339152396
0.357242286 0.346236795 0.344971538
0.384693176 0.377988458 0.358633459
0.418469101 0.409613997 0.359645784
0.549778342 0.454522550 0.361796141
0.720176876 0.542947233 0.382416099
0.887160063 0.584313452 0.439089388
0.966097414 0.629348636 0.521188974
0.450094849 0.565971136 0.480835110
0.456040800 0.566350579 0.476154000
0.475142568 0.600126565 0.489563823
0.514863908 0.654649258 0.513978601
0.590385675 0.663251162 0.487666279
0.748893201 0.709044993 0.501960516
0.871979833 0.738393009 0.549146056
0.935863495 0.768500507 0.623276412
0.651359618 0.802403450 0.653384089
0.660974085 0.809613943 0.653510273
0.682479262 0.822770536 0.668184817
0.703858137 0.837697566 0.678304732
0.741555810 0.846426249 0.679949284
0.784819722 0.840986431 0.660847783
0.868058026 0.847312272 0.667299211
0.913219213 0.855534613 0.708791792
0.821378767 0.889057696 0.762681782
0.814674139 0.890069485 0.751676083
0.825933099 0.891081691 0.760657966
0.837065160 0.897280455 0.766097546
0.852624953 0.903351963 0.775331974
0.864642680 0.902466893 0.772043049
0.887286723 0.902087152 0.773814023
0.912966132 0.900189877 0.776091278
0.178241640 0.166983008 0.267931998
0.180012539 0.163314536 0.267552555
0.206198901 0.148893103 0.266793638
0.287033647 0.139532000 0.269576281
0.477419645 0.164579302 0.319670975
0.620240450 0.139152646 0.332953990
0.784440100 0.106008925 0.320809543
0.984440148 0.203794926 0.369512975
0.191145092 0.180645347 0.268311620
0.195951998 0.184946194 0.255407989
0.229980722 0.169639558 0.253890097
0.286654085 0.162175998 0.260088265
0.458064467 0.193548188 0.318912059
0.605818927 0.174825996 0.328273267
0.789120913 0.157368988 0.329285204
0.987729192 0.251866132 0.378494471
0.216319084 0.205313087 0.273877650
0.224921092 0.194560528 0.258949727
0.255534172 0.190006435 0.251613021
0.295003444 0.198988006 0.263251185
0.423276603 0.227198079 0.307147264
0.559772432 0.211764723 0.305755734
0.798102558 0.265654743 0.350158006
0.988614798 0.354965121 0.410373360
0.239847988 0.234788343 0.264010280
0.253131092 0.223276183 0.272738993
0.278937191 0.226059541 0.266034544
0.369892299 0.285894990 0.329538643
0.432764024 0.278178304 0.312586993
0.602150381 0.324225277 0.349778742
0.822390795 0.404301196 0.391397536
0.982542634 0.480455399 0.455155075
0.325996190 0.312839717 0.333712995
0.335736752 0.307653159 0.324604839
0.366603285 0.326502264 0.346995294
0.424035639 0.381910175 0.389247388
0.484376729 0.411132187 0.386084378
0.648450315 0.485641986 0.420872748
0.841112971 0.569639325 0.465907663
0.967488945 0.627703965 0.519544780
0.417836726 0.510942340 0.458823293
0.436306179 0.516128838 0.460341543
0.471347362 0.537761092 0.478431463
0.528146744 0.591777265 0.515370011
0.574699521 0.638077378 0.525742888
0.697786391 0.673877537 0.526249349
0.840480745 0.730297148 0.561543226
0.932321072 0.766097486 0.620113790
0.608475447 0.781530797 0.639594913
0.628336668 0.780139208 0.640480757
0.664010286 0.787602961 0.654395819
0.707526922 0.811132193 0.677166224
0.742820799 0.837444782 0.690448940
0.781151354 0.838709474 0.677545667
0.858570576 0.846173644 0.670461535
0.909677386 0.849715531 0.709045053
0.811385334 0.881593823 0.756229937
0.815433502 0.880835056 0.753446758
0.827071607 0.884124160 0.762808204
0.835040987 0.890702009 0.769892752
0.856419921 0.900821984 0.777862012
0.871220708 0.903984845 0.777356088
0.884377003 0.900695860 0.772422552
0.913092971 0.905882359 0.776217580
0.208475798 0.213029996 0.361796170
0.200252742 0.215053648 0.356862813
0.209234893 0.209867090 0.348513365
0.291334450 0.185325637 0.352814823
0.407969564 0.171663374 0.360278368
0.649968445 0.233396173 0.461353362
0.830107510 0.225933269 0.471473664
0.955218196 0.270461679 0.474004000
0.214674085 0.235800192 0.359519184
0.223402992 0.232257739 0.350410819
0.238583431 0.229475185 0.340670258
0.303099185 0.211638197 0.350158185
0.402909815 0.201770753 0.359519362
0.648450613 0.268690884 0.460973918
0.808349252 0.253004611 0.466034293
0.937634408 0.282479376 0.467931718
0.241492897 0.260721177 0.343833119
0.245793536 0.260847300 0.342820704
0.275142193 0.247565091 0.334724903
0.314484537 0.236559093 0.321821392
0.388488293 0.239721894 0.345477194
0.603036284 0.305502921 0.436812371
0.771410465 0.310689479 0.452625185
0.927893758 0.338773012 0.462745070
0.261859983 0.303731531 0.358380824
0.265654892 0.294497102 0.349778622
0.308791995 0.282352746 0.341176629
0.351043373 0.284250379 0.338393182
0.411638021 0.303858161 0.372043192
0.565844178 0.350031346 0.419860959
0.717520297 0.341176480 0.424288303
0.929158390 0.441113025 0.488551646
0.302593172 0.345224589 0.375079364
0.313092828 0.340164632 0.377988815
0.349399179 0.328020364 0.358633459
0.382542610 0.338393033 0.368374646
0.502973199 0.446932346 0.462871552
0.575079024 0.430107802 0.438962907
0.761290312 0.513472438 0.483997375
0.934218645 0.611258626 0.550410807
0.382922292 0.455408186 0.433902919
0.392156750 0.455913842 0.437571377
0.423276752 0.461353540 0.447944134
0.478810936 0.498545378 0.474383295
0.570145428 0.604680836 0.546362877
0.650221407 0.634661555 0.552941144
0.800632417 0.706767976 0.586464167
0.917773604 0.762175500 0.639848351
0.555091679 0.740796745 0.613535464
0.561417043 0.739784598 0.612397373
0.598481894 0.752435029 0.626438737
0.664136231 0.771789968 0.654522598
0.736875296 0.806957424 0.692599475
0.777482688 0.825679779 0.699683309
0.838456333 0.839974761 0.692472935
0.903478503 0.856419981 0.714990735
0.782163382 0.878684640 0.750410974
0.778241396 0.877798975 0.745603979
0.794560254 0.875142455 0.754205883
0.823402822 0.883870840 0.759139538
0.846299827 0.891967118 0.774320126
0.865907550 0.903731525 0.787982225
0.878431320 0.902087450 0.776976585
0.911828220 0.900821984 0.779759645
0.221378729 0.301454991 0.497280478
0.221505255 0.299557239 0.491334736
0.218722090 0.296774060 0.484756380
0.258064538 0.256926179 0.483238220
0.424541175 0.234282181 0.506261706
0.579253435 0.229095727 0.507147729
0.823402882 0.366729647 0.589500308
0.963061213 0.470841259 0.611385226
0.232132003 0.324098259 0.496394455
0.232637554 0.318279505 0.489942908
0.235167995 0.318785369 0.483617902
0.297280550 0.290449113 0.472738445
0.424794823 0.261606485 0.492093831
0.564073205 0.250221729 0.497532994
0.803541839 0.388867557 0.591397762
0.947501719 0.469323277 0.601517916
0.265908003 0.360151559 0.480835080
0.262998343 0.350790560 0.471853137
0.260594636 0.346109986 0.470208734
0.345983624 0.329538256 0.452245623
0.423402816 0.312839836 0.478431374
0.548387170 0.304490983 0.485009730
0.790638983 0.463883549 0.590385735
0.935483873 0.522707164 0.608096242
0.288551986 0.395192474 0.470461547
0.281467378 0.398482084 0.481340736
0.301581383 0.386970103 0.465148538
0.370524883 0.367109358 0.438962817
0.428336442 0.369133741 0.458317697
0.533586085 0.366477102 0.478178471
0.759898901 0.527514100 0.585958123
0.903099477 0.546995521 0.595572174
0.310436189 0.465275109 0.496014893
0.311195195 0.463504165 0.501581013
0.345098078 0.451992214 0.485009640
0.408981532 0.434788078 0.465148628
0.472359151 0.438203454 0.468311340
0.557242215 0.484882921 0.519670963
0.733586073 0.562808454 0.566097558
0.868564188 0.576091051 0.579506516
0.344591975 0.541935205 0.514990687
0.346742719 0.533459723 0.513345659
0.390259087 0.524478197 0.508412063
0.442504346 0.517267585 0.496394545
0.515116930 0.534471869 0.518532336
0.648450732 0.649968445 0.603288949
0.733206570 0.652119040 0.584313452
0.889563680 0.733206809 0.644275844
0.476154089 0.699431002 0.600000262
0.480835080 0.702466786 0.598102272
0.515623093 0.707273901 0.608981729
0.574193239 0.711701512 0.610373318
0.655407846 0.745098054 0.647691250
0.758001268 0.810879409 0.699430525
0.813282549 0.817457318 0.701581061
0.890828490 0.843643248 0.719291687
0.758507133 0.863630533 0.743959785
0.755344689 0.866413713 0.736622274
0.758760333 0.865781009 0.738266945
0.783048630 0.874636412 0.750664115
0.828336596 0.882605970 0.766603351
0.866034091 0.895635843 0.783807576
0.878557801 0.903731465 0.792789578
0.906641245 0.904237688 0.783554733
0.278304547 0.440354526 0.656040549
0.277545542 0.435800552 0.653383791
0.274383545 0.431878537 0.649841845
0.272106558 0.422896922 0.644275546
0.387729168 0.354459286 0.663377643
0.592789173 0.331688851 0.674889266
0.765211523 0.333839536 0.672738850
0.925869703 0.560657680 0.699177682
0.277672559 0.439595103 0.652751565
0.273371100 0.442757994 0.646299541
0.277419508 0.441113293 0.644908249
0.296268225 0.435926646 0.634788036
0.399114728 0.373560905 0.641113222
0.589120507 0.355218083 0.658697069
0.754585683 0.360404849 0.660974264
0.909297824 0.566856265 0.690322757
0.310815990 0.483112186 0.638709605
0.307273805 0.488171995 0.643769741
0.302087218 0.483744562 0.635926664
0.326881528 0.480202317 0.620619893
0.434408486 0.441366464 0.625553370
0.579379976 0.424288392 0.646173477
0.740796566 0.439595461 0.656166852
0.898165703 0.638709426 0.701201558
0.337633908 0.530550539 0.618975222
0.337634206 0.532700598 0.622896910
0.334092379 0.531435728 0.620493054
0.363820642 0.519923866 0.608854949
0.480834991 0.521442235 0.607969880
0.571916401 0.499051481 0.622011304
0.716508508 0.510436475 0.638077259
0.874763131 0.692346513 0.705755889
0.373054743 0.599494040 0.636053205
0.375838280 0.603542030 0.635167658
0.374826193 0.597975850 0.629854441
0.392283440 0.592915773 0.623529553
0.501328468 0.569006622 0.599746644
0.581024528 0.579759598 0.619481504
0.704111457 0.603415668 0.643137515
0.868690550 0.760910571 0.716634810
0.435420543 0.683111787 0.646679103
0.442124993 0.683744311 0.657305479
0.438330084 0.681846499 0.652371585
0.454649031 0.676533699 0.641619146
0.541176379 0.661479771 0.630866528
0.612649918 0.659582257 0.622643709
0.725363553 0.702846348 0.664263308
0.856926084 0.783175230 0.716508448
0.512840152 0.756736577 0.668817282
0.506388128 0.755724251 0.666034102
0.518405855 0.757368565 0.666540563
0.530550539 0.751802862 0.667046189
0.601391554 0.744718552 0.654902101
0.678178251 0.743706346 0.661353588
0.781277239 0.799240947 0.709044933
0.863377512 0.816825092 0.717520237
0.718279243 0.849462628 0.733460009
0.725996196 0.854775369 0.739405632
0.727261245 0.852118850 0.740670204
0.741049826 0.856546640 0.739911139
0.770018876 0.860973895 0.745477438
0.823276281 0.870461524 0.763820350
0.869575799 0.890322804 0.797343552
0.897533000 0.900189996 0.791271329
0.484629363 0.633396387 0.771536767
0.481214225 0.633396387 0.761036932
0.472738564 0.629474699 0.764958918
0.466793209 0.618848741 0.765970767
0.473118395 0.594813406 0.762175560
0.562175512 0.541555643 0.774573028
0.723213017 0.523086548 0.785831809
0.891840637 0.570777535 0.787349582
0.468564093 0.628715694 0.764326334
0.475901246 0.622011244 0.766350627
0.465780914 0.625806272 0.766097724
0.459709197 0.617330730 0.757494867
0.465781122 0.591018200 0.760404646
0.564326048 0.549145639 0.773307800
0.721062422 0.544845045 0.778241336
0.886274338 0.577988625 0.781277597
0.497153670 0.643643379 0.769639373
0.490449101 0.651359856 0.762175560
0.482605815 0.648576915 0.757874608
0.480202138 0.646173120 0.757495046
0.514737308 0.644149423 0.755344510
0.596584558 0.615559936 0.767488778
0.727387786 0.613535643 0.771663845
0.872106135 0.638962448 0.772801995
0.518405974 0.686907232 0.758759975
0.522327363 0.690828204 0.755344391
0.514611185 0.688425064 0.754205763
0.511954367 0.685768664 0.755344391
0.542188168 0.687412858 0.746489644
0.624541342 0.673877358 0.745224595
0.727767110 0.672612190 0.756609797
0.865148604 0.689183831 0.765211999
0.564073384 0.738772929 0.750410914
0.565338254 0.740037799 0.750537395
0.563567042 0.735989571 0.743074000
0.554712176 0.728146553 0.746110141
0.559519351 0.730297148 0.735989749
0.679316759 0.742314816 0.741808832
0.748513699 0.734471798 0.753193915
0.849715471 0.755344987 0.760151625
0.637824297 0.797469616 0.760404706
0.635294259 0.797975779 0.759266138
0.634408414 0.795572162 0.756103635
0.621884704 0.787855744 0.754838586
0.613155901 0.782163143 0.750158191
0.691207826 0.786337554 0.740290642
0.768374145 0.791650712 0.751802683
0.843896508 0.811258674 0.766856670
0.697406352 0.843390346 0.760784507
0.707653284 0.839342058 0.762049079
0.696267962 0.837823927 0.760530829
0.697153628 0.834661484 0.763187647
0.685135722 0.831119657 0.759392381
0.726375759 0.829474807 0.749652207
0.782922029 0.834155798 0.750663936
0.862239003 0.853257656 0.773308218
0.787729383 0.876027822 0.783174992
0.780392170 0.876280963 0.778747797
0.786843717 0.877925575 0.773307920
0.778494418 0.880075991 0.781909823
0.777355790 0.875648260 0.773940623
0.793801427 0.876027763 0.773561060
0.842125535 0.873750508 0.779379785
0.874762952 0.890448928 0.792410016
