Assets/EldamarStudio/100 Retro LUTs Pack/LUTs/cube/Nancy LUT.cube
LUT_3D_SIZE 5
DOMAIN_MIN 0.000000 0.000000 0.000000
DOMAIN_MAX 0.903226 0.903226 0.903226
0.129411995 0.090195999 0.125489995
0.258570701 0.099304006 0.157495007
0.451866239 0.071853004 0.184313998
0.742568135 0.014674130 0.256926000
0.989753127 0.162681580 0.362428635
0.185325697 0.153320700 0.177861989
0.245161414 0.164452702 0.179126993
0.462365389 0.188994408 0.217077985
0.754079640 0.220113695 0.273371249
0.994939983 0.307400286 0.392536372
0.295003384 0.300316215 0.284503400
0.308032811 0.323845387 0.281214803
0.480075777 0.369639188 0.281847388
0.783428252 0.470335215 0.339405239
0.984439969 0.553446770 0.483491331
0.458444089 0.681973338 0.517141104
0.460721254 0.701834261 0.506641388
0.569260120 0.733839273 0.518532515
0.797343135 0.752435148 0.536749125
0.931941867 0.791017950 0.639089227
0.812270582 0.887792826 0.751928747
0.809993684 0.894243956 0.752308667
0.839468658 0.900189519 0.766983211
0.873371005 0.900063157 0.766603649
0.912460148 0.902213931 0.779379785
0.178115278 0.127134711 0.195446000
0.208222702 0.114737704 0.190259412
0.395319521 0.116381988 0.208855286
0.722327530 0.124225415 0.263124734
0.993674815 0.206324935 0.367362469
0.185958281 0.150031716 0.193168715
0.232763976 0.166729972 0.214800701
0.393042386 0.181783825 0.228842407
0.734851360 0.242630973 0.275901586
0.994939983 0.328526229 0.396204501
0.296900392 0.276027828 0.282099694
0.327008396 0.287160218 0.302466691
0.448956072 0.339531779 0.307020724
0.769766033 0.477545798 0.343706280
0.978874087 0.561669886 0.491713881
0.491587698 0.646426260 0.524604380
0.498924971 0.671979666 0.532827377
0.574193299 0.728020251 0.544339120
0.796458185 0.763188243 0.542694390
0.929791152 0.797090232 0.644022763
0.816824734 0.891587973 0.756862462
0.819101751 0.889310718 0.760657847
0.846426308 0.902087390 0.773181438
0.873497844 0.902719736 0.769260049
0.914484382 0.902719796 0.775331795
0.195445582 0.188994408 0.319797397
0.201391414 0.180139109 0.307653278
0.350537807 0.158253998 0.306008995
0.695635915 0.173307985 0.398988217
0.955976784 0.193295181 0.403542221
0.219354689 0.225300685 0.302466661
0.245540679 0.216445401 0.280835122
0.332194388 0.205312982 0.298165381
0.632511020 0.238076970 0.380012631
0.964199960 0.307020605 0.423529476
0.270714819 0.282605797 0.325742930
0.301454812 0.265527993 0.308664978
0.434914351 0.353193790 0.388487965
0.630234003 0.391271383 0.402909786
0.961796224 0.554838598 0.501074910
0.438329816 0.563061237 0.499810070
0.475269139 0.572295964 0.507020831
0.585072517 0.663377464 0.569007277
0.728905559 0.724983990 0.580139279
0.919670999 0.792536378 0.650727332
0.794560194 0.885262668 0.744718432
0.808728456 0.879570127 0.757495224
0.849336207 0.892346382 0.782669187
0.871853113 0.903731704 0.778368115
0.912460148 0.906008840 0.779379785
0.227450997 0.329791248 0.535737276
0.227830544 0.326122552 0.530803561
0.322327554 0.264010131 0.529791296
0.631878197 0.248324111 0.545604229
0.952181935 0.529285312 0.644022822
0.247438699 0.367995113 0.514737666
0.257305294 0.365085661 0.516761303
0.364579111 0.330803573 0.502087057
0.600506246 0.315117121 0.536116362
0.933965504 0.569006979 0.649335802
0.302719980 0.457432061 0.523086548
0.299810112 0.453510642 0.509424508
0.425426930 0.428336501 0.474636108
0.582162797 0.459076494 0.538393259
0.896774054 0.624794245 0.638962626
0.372928232 0.600632489 0.554459393
0.386210978 0.592536271 0.558507383
0.498671532 0.577482760 0.546489537
0.679823101 0.696521282 0.632637382
0.879443645 0.758001029 0.667046070
0.750411093 0.859835625 0.738393426
0.751169980 0.862997949 0.737254977
0.788614750 0.869576216 0.752814531
0.870587885 0.897912860 0.786843657
0.904110968 0.903731823 0.785578489
0.484629363 0.633396387 0.771536767
0.472738564 0.629474699 0.764958918
0.463630557 0.620366573 0.763061166
0.602656543 0.541049838 0.776344121
0.891840637 0.570777535 0.787349582
0.488804430 0.637571156 0.773181498
0.480834872 0.639215410 0.759392679
0.471979588 0.633649290 0.750284672
0.621378839 0.597090423 0.772802174
0.879949272 0.625300229 0.777355969
0.545983553 0.712334037 0.756609321
0.543326974 0.715243340 0.753826380
0.527640581 0.708412111 0.748766184
0.669449925 0.711448312 0.746363103
0.856546640 0.728652596 0.761036992
0.654016733 0.807336926 0.762428641
0.651612818 0.806704521 0.757115662
0.634535134 0.798102617 0.752561331
0.716761231 0.795698702 0.737001717
0.849715471 0.822897077 0.767615795
0.787729383 0.876027822 0.783174992
0.786337435 0.876407683 0.779379904
0.779759407 0.880708396 0.779379964
0.808222651 0.874762952 0.773814142
0.874762952 0.890448928 0.792410016
