Assets/EldamarStudio/100 Retro LUTs Pack/LUTs/cube/Nicole LUT.cube
DOMAIN_MIN 0 0 0
DOMAIN_MAX 1 1 1
LUT_3D_SIZE 32
0.141176000 0.098039001 0.074510001
0.147248775 0.098039001 0.074510001
0.151170224 0.100189775 0.076660231
0.154206172 0.103225842 0.079696164
0.157622010 0.106640995 0.083112001
0.163694009 0.112712994 0.089184001
0.169765994 0.118785642 0.095256001
0.175837994 0.124857992 0.101327993
0.181151092 0.130170897 0.106641091
0.184187502 0.133206517 0.109677479
0.195951998 0.139151990 0.112713128
0.206072256 0.147248253 0.119797252
0.215180352 0.156356648 0.128905639
0.224288031 0.165465042 0.138014033
0.233396411 0.174573407 0.147122413
0.244907990 0.186084986 0.158633992
0.255534172 0.196711197 0.169260189
0.265907556 0.207084402 0.179633394
0.281087995 0.222264051 0.194813043
0.293485016 0.234661713 0.207210720
0.303731740 0.248703733 0.219354987
0.315875977 0.264896005 0.233522981
0.334091991 0.283111989 0.251738995
0.352308810 0.301328003 0.269955814
0.365970999 0.321821272 0.288171977
0.382289648 0.341682315 0.310562611
0.403035998 0.360910982 0.336875051
0.421251982 0.385198981 0.358127415
0.442124784 0.412143767 0.387349606
0.466919601 0.439468592 0.415939152
0.496015549 0.468564570 0.445034564
0.529411972 0.501960993 0.478430986
0.144212395 0.101075388 0.083618388
0.153320774 0.104111001 0.080582000
0.157242224 0.106261775 0.082732767
0.160278171 0.109297842 0.085768610
0.164073557 0.113092542 0.089563549
0.172802389 0.121821374 0.098292388
0.173814386 0.122833386 0.099304385
0.180518672 0.129538313 0.106008671
0.187223092 0.136242896 0.111195095
0.190259486 0.139278516 0.109677486
0.199114874 0.142314866 0.115622997
0.209108129 0.150284648 0.122833639
0.219354898 0.160531387 0.133080393
0.230107769 0.171283990 0.143832996
0.236432806 0.177609026 0.150158033
0.247944385 0.189120606 0.161669612
0.260088384 0.201265007 0.173813999
0.271347165 0.212523982 0.185072973
0.284124374 0.225300446 0.197849438
0.296521425 0.237697408 0.210246399
0.308665395 0.253637075 0.224288344
0.320936143 0.269956142 0.238583118
0.336875379 0.286148369 0.255028397
0.349272430 0.304364383 0.279064208
0.369765878 0.324857652 0.299557090
0.388361633 0.346110046 0.319923639
0.408602059 0.366477072 0.343453139
0.424288392 0.388235360 0.367235810
0.447818041 0.412523329 0.391145021
0.471220702 0.439468592 0.422517508
0.499936759 0.470335573 0.453257561
0.535483956 0.508032978 0.484503776
0.153700009 0.106261998 0.086274996
0.162808388 0.113599159 0.091840617
0.161164001 0.114484549 0.090954997
0.166729942 0.117520615 0.093991384
0.171537235 0.120556317 0.097027227
0.177103147 0.126122713 0.102593161
0.185073003 0.134092003 0.110563003
0.186717287 0.132447705 0.107274003
0.194054186 0.138772994 0.113092773
0.198482260 0.143200293 0.114231490
0.207337096 0.150537640 0.122074768
0.216445476 0.157621503 0.130170509
0.224414766 0.165591508 0.138140514
0.234535217 0.175711766 0.148260772
0.244402215 0.185578763 0.158127770
0.253130972 0.194307536 0.166856542
0.265274972 0.206451535 0.179000542
0.277419150 0.219228566 0.190512568
0.289563954 0.232890785 0.201138794
0.301708013 0.245034784 0.213282779
0.311954737 0.257178783 0.227324501
0.324857652 0.273877382 0.242504895
0.340290725 0.289310724 0.258191258
0.358507007 0.309551001 0.284503788
0.371031046 0.327893496 0.304364473
0.390891731 0.350537539 0.325616390
0.411385059 0.372549057 0.347880840
0.429854423 0.393801421 0.373813868
0.450853884 0.424161702 0.402403623
0.480455369 0.450220913 0.428463131
0.506767571 0.477545768 0.459329545
0.539405227 0.511954248 0.488425225
0.168374330 0.116129160 0.096394993
0.176217541 0.122707218 0.100442611
0.175837994 0.124099001 0.101834163
0.174826011 0.126628995 0.104364157
0.182795838 0.130044162 0.107400544
0.184946060 0.133965939 0.110436387
0.193042323 0.142062008 0.116002321
0.198861599 0.147121713 0.120683163
0.202656329 0.144844994 0.116888061
0.208728969 0.149904996 0.122454002
0.215180114 0.156356871 0.128905863
0.225553408 0.166729897 0.139278889
0.234661505 0.175837800 0.148386806
0.241113037 0.182290033 0.154839039
0.252245128 0.193422154 0.165971160
0.261985928 0.203162640 0.175711632
0.271347314 0.213789150 0.183807835
0.284123749 0.225933135 0.197216973
0.296900809 0.240480974 0.208222985
0.309045136 0.252878010 0.220114008
0.320556730 0.267552316 0.234155729
0.330676973 0.279696316 0.250347972
0.345603645 0.294876635 0.266034305
0.364579082 0.316129059 0.291081756
0.381530434 0.335104138 0.314105153
0.397722960 0.354838312 0.333712786
0.415433049 0.379633069 0.354965210
0.435167432 0.402403414 0.380771548
0.460214943 0.433016896 0.410752743
0.483491302 0.462871283 0.439342290
0.518658757 0.491966695 0.466666698
0.547501147 0.520050168 0.493991137
0.185831994 0.131309539 0.118405998
0.193042547 0.133965716 0.116508156
0.191903770 0.133080319 0.113472313
0.192662537 0.133839533 0.114231542
0.197596103 0.138773009 0.118405998
0.197596103 0.144845009 0.121442385
0.205565870 0.153826773 0.125616670
0.211005718 0.159266293 0.128273159
0.214800999 0.162302107 0.131688997
0.220872983 0.162302107 0.134724617
0.224794209 0.165970877 0.138519868
0.233143508 0.174319997 0.146868989
0.243390441 0.184566647 0.157115638
0.252751082 0.193928003 0.166476995
0.261985928 0.203162864 0.175711855
0.271473795 0.213029727 0.184819743
0.280961633 0.223276377 0.193548083
0.290575951 0.235041529 0.201011688
0.305755615 0.247185573 0.219228491
0.318532735 0.260468096 0.232637554
0.330297530 0.275268912 0.246679276
0.343200535 0.292220533 0.262871534
0.355218053 0.304491013 0.280961037
0.369892448 0.325237364 0.301707447
0.387729079 0.344592005 0.324857563
0.406577736 0.364958733 0.348513663
0.427956611 0.386843592 0.370145619
0.443136960 0.414167970 0.391397953
0.470841140 0.443390161 0.419861048
0.496647716 0.472738683 0.449209690
0.521695137 0.501075089 0.476534098
0.561163545 0.534471571 0.503858566
0.197975993 0.146489933 0.124477997
0.213156372 0.146489933 0.130549997
0.209614158 0.146995872 0.128652707
0.207842931 0.149019927 0.129411936
0.212776482 0.153953388 0.133586392
0.209740877 0.150917009 0.124477997
0.219860867 0.162048995 0.135104060
0.224920928 0.167109057 0.139151990
0.226944998 0.169133186 0.141176254
0.233016998 0.174446866 0.146869391
0.241998881 0.183174998 0.155724004
0.248070881 0.189246997 0.161795989
0.254016638 0.195192635 0.167741641
0.258823872 0.200000003 0.172548994
0.270967871 0.212143987 0.184692994
0.282605916 0.226185858 0.193927869
0.294243991 0.237318128 0.206072122
0.305249631 0.246932566 0.218469441
0.314864010 0.256293952 0.228336886
0.330044299 0.276787311 0.246552944
0.340923756 0.288931102 0.261859655
0.353573918 0.302593321 0.278051913
0.370398432 0.319671392 0.296141416
0.379506826 0.334851027 0.311321855
0.398735225 0.355597347 0.332068205
0.416698515 0.379126996 0.356609613
0.434408873 0.404933840 0.382416129
0.458317369 0.429348350 0.406578362
0.481467575 0.454016566 0.430486888
0.508539081 0.484630048 0.461100638
0.534851491 0.515243471 0.491714507
0.564199984 0.543579936 0.519038916
0.215179995 0.159140006 0.133080319
0.215180382 0.156609684 0.131561995
0.221758217 0.158760458 0.135483772
0.219228163 0.160404846 0.135736838
0.223276317 0.164452672 0.139784679
0.222390935 0.163567051 0.137128070
0.226944998 0.168121636 0.140670642
0.237444699 0.178620920 0.151169926
0.241619319 0.182795316 0.155344322
0.247691318 0.188867643 0.161416635
0.249082878 0.190259129 0.162808120
0.258191258 0.199367255 0.171916246
0.264769316 0.205945313 0.178494319
0.269955993 0.211132050 0.183681056
0.282099992 0.223276630 0.195825636
0.291840792 0.233016834 0.205565825
0.303858310 0.246426374 0.216192380
0.315369904 0.256546736 0.229095727
0.324478328 0.265654683 0.238203660
0.336622357 0.278305382 0.250601321
0.349904984 0.297659993 0.270715058
0.360657930 0.309677303 0.286148310
0.375458807 0.324731171 0.301201820
0.384566575 0.339911401 0.316382229
0.402782977 0.359645575 0.336116582
0.424035311 0.383680940 0.361543268
0.441998810 0.409487814 0.388488144
0.462239295 0.429728299 0.408728898
0.483997643 0.456546634 0.433016956
0.506515145 0.482606143 0.459076136
0.535863578 0.512713552 0.488298535
0.569765985 0.540037990 0.513978720
0.230107412 0.174572989 0.148766696
0.232005075 0.173181310 0.149019301
0.231625631 0.176090762 0.146995470
0.234661251 0.176597148 0.148766696
0.237317979 0.178494409 0.151043415
0.237317979 0.178494409 0.151043415
0.240733698 0.185199335 0.156103626
0.246805683 0.187982693 0.160531700
0.255914092 0.197090313 0.169639319
0.262871712 0.204047695 0.176596701
0.266413718 0.207589701 0.180138692
0.270841241 0.212017655 0.184566662
0.278810978 0.219987407 0.192536414
0.285136014 0.226312369 0.198861375
0.295888692 0.237065107 0.209614113
0.302340060 0.246805891 0.217710599
0.314484447 0.258949906 0.229854211
0.326122582 0.270588577 0.241492853
0.335231006 0.279696465 0.250600755
0.347122014 0.291587710 0.265781432
0.360910684 0.305882692 0.280329019
0.372042835 0.323086828 0.299557418
0.383554995 0.336116374 0.312460482
0.394180804 0.352814615 0.327640891
0.410752684 0.370904237 0.345730543
0.430613399 0.393548310 0.366982907
0.450600773 0.420113832 0.395066053
0.467678905 0.440607607 0.414421171
0.490196109 0.465148777 0.437950671
0.514737427 0.492473125 0.464009851
0.536875486 0.518912196 0.490448892
0.572548985 0.545477688 0.514737725
0.246047094 0.195066094 0.170019105
0.250601083 0.193548098 0.171536714
0.252372086 0.196331084 0.171030775
0.253636926 0.200126261 0.170019105
0.256293088 0.197470099 0.170019105
0.256293088 0.197470099 0.170019105
0.258064330 0.204301327 0.174319997
0.261986107 0.207716912 0.177988619
0.268058091 0.209235102 0.181784093
0.277166486 0.218342707 0.190891713
0.284124106 0.225300089 0.197849095
0.291714102 0.232890591 0.205439612
0.297786087 0.238963097 0.211512104
0.303858101 0.245035097 0.217584103
0.312460393 0.253636748 0.226185769
0.317520291 0.263503879 0.233649701
0.325869352 0.274889201 0.243516997
0.340417147 0.289437175 0.259329140
0.349652082 0.298672080 0.268817067
0.360025108 0.310563087 0.284756601
0.373307705 0.323845744 0.300316423
0.387223214 0.339785248 0.315496325
0.396584570 0.354965568 0.330676645
0.409361184 0.372548997 0.345856905
0.425300479 0.391524076 0.364832193
0.442757964 0.411764324 0.384439826
0.461986095 0.436053127 0.406198293
0.477925539 0.460341901 0.427703708
0.501834154 0.485389054 0.452371806
0.528652430 0.510689318 0.477672219
0.554332376 0.538646162 0.503352165
0.578621149 0.562934995 0.527640998
0.273371488 0.222390503 0.191271499
0.273371488 0.216318488 0.188235104
0.273624510 0.214800492 0.187602490
0.274889350 0.216318667 0.188741177
0.277545482 0.218722492 0.191271499
0.277545482 0.218722492 0.191271499
0.277545512 0.223782495 0.193801180
0.279316723 0.225047290 0.195319012
0.283238500 0.224414721 0.196963727
0.289310485 0.230487496 0.203036502
0.298418850 0.239595115 0.212144107
0.309424490 0.250600994 0.223150015
0.319038481 0.260215491 0.232764497
0.325110495 0.266287506 0.238836497
0.331182480 0.272359490 0.244908497
0.337381005 0.283364981 0.253510803
0.346362889 0.295382500 0.264010489
0.358633935 0.307653159 0.277545959
0.370777965 0.319797963 0.295761973
0.377229482 0.331815481 0.308032513
0.387349457 0.343959481 0.320429981
0.399620235 0.358254254 0.333713114
0.411764979 0.376217961 0.348893434
0.426945388 0.391397566 0.364073068
0.441998661 0.411258280 0.386084557
0.457305163 0.432384133 0.408728629
0.474130124 0.454269141 0.430487126
0.498418868 0.478557885 0.454775870
0.524984300 0.505502820 0.481594235
0.553953290 0.530929923 0.507020891
0.581530988 0.557115972 0.530550063
0.602909982 0.587222993 0.551928997
0.294876873 0.243895859 0.218342870
0.286148012 0.234914750 0.203668475
0.294749975 0.237444729 0.209234640
0.293991148 0.237697572 0.208981737
0.290828735 0.237824008 0.207463861
0.295888752 0.242883980 0.212523863
0.300948739 0.242883980 0.215053543
0.303352028 0.246552706 0.218089581
0.307147205 0.248323739 0.220872730
0.313219726 0.254395962 0.226944953
0.316381842 0.257558882 0.230107874
0.327513963 0.268690735 0.241239727
0.338519633 0.279696643 0.252245635
0.346362859 0.288045853 0.260341823
0.352434844 0.299430847 0.269069999
0.360910654 0.307906657 0.277545780
0.369006932 0.318026543 0.289690167
0.377229869 0.327513844 0.301960856
0.380265892 0.335104108 0.311068892
0.395193219 0.350031495 0.326502234
0.407336980 0.364199698 0.340670466
0.419481009 0.378367990 0.353826851
0.429980993 0.394686967 0.367235959
0.447944790 0.412649959 0.385198951
0.463124573 0.432384163 0.407210439
0.482479185 0.455028176 0.431499183
0.502213836 0.477798820 0.454269826
0.519291759 0.499683768 0.476154745
0.543579817 0.523971796 0.500442863
0.570651114 0.551043630 0.527514160
0.599873245 0.576470792 0.551170051
0.627197981 0.602782845 0.570398748
0.312081248 0.265148252 0.241619244
0.311068863 0.260088623 0.230486855
0.310942501 0.259708971 0.228463024
0.318026513 0.260720998 0.232511073
0.312713683 0.257684797 0.229095548
0.317140996 0.262112498 0.236812249
0.323212981 0.267172515 0.242378175
0.327640682 0.268817216 0.245414212
0.329917490 0.272612512 0.248450398
0.333459973 0.278684497 0.253257245
0.338646382 0.283871114 0.258443832
0.343706220 0.288931221 0.263504505
0.354711890 0.299936891 0.274509847
0.363567263 0.309298247 0.283870995
0.369639248 0.321442246 0.294749826
0.380138755 0.333206773 0.305882305
0.389247179 0.342315167 0.314990312
0.397722960 0.350790501 0.327261150
0.400506020 0.356862515 0.333333522
0.412397623 0.373307616 0.351802886
0.425680250 0.386590719 0.365085512
0.440733641 0.403668642 0.381151259
0.452118993 0.420872986 0.395445734
0.468438059 0.437191755 0.411764503
0.486401230 0.455660760 0.430487067
0.504364133 0.475521475 0.456167132
0.528020263 0.498545110 0.481088251
0.547754407 0.521315694 0.503858387
0.568880200 0.543200493 0.525743246
0.589626610 0.569259644 0.550031662
0.616192043 0.596584558 0.577103078
0.645414233 0.622011244 0.598735213
0.328399986 0.282985270 0.257178992
0.330297232 0.281088024 0.251486242
0.333333403 0.282352865 0.250980407
0.336243004 0.285009265 0.253763467
0.336243004 0.279696286 0.251106650
0.338519692 0.281973571 0.257937938
0.342947274 0.286401004 0.263377637
0.347374707 0.290828705 0.267805040
0.351170003 0.294624001 0.271600544
0.351928979 0.300695986 0.275015801
0.355471015 0.307906657 0.280961275
0.360404640 0.311701655 0.288171887
0.367615283 0.318911999 0.295382977
0.376723617 0.328020394 0.304490685
0.383680969 0.339278996 0.315749288
0.395698607 0.354838610 0.330170602
0.405186176 0.364326179 0.339658439
0.414927155 0.374067158 0.350663781
0.422011316 0.381151289 0.358760595
0.433649719 0.396078289 0.375332385
0.445793986 0.410499454 0.390891969
0.457938254 0.424668252 0.404048115
0.472992092 0.445541084 0.422011137
0.488172263 0.460721254 0.437191546
0.505629599 0.478178620 0.454648912
0.524098694 0.496394604 0.473624617
0.544339061 0.515116692 0.499937057
0.566729605 0.538772881 0.523592591
0.589500070 0.561543405 0.546362758
0.610119998 0.586337745 0.569386423
0.632764220 0.611891210 0.591903985
0.660594642 0.638709664 0.618469357
0.347881019 0.297407031 0.266540080
0.347375005 0.296901017 0.266034037
0.349525779 0.299051255 0.268184811
0.352561861 0.302087188 0.271220952
0.354965061 0.304491013 0.273624063
0.354965061 0.304491013 0.273624063
0.357495308 0.307020754 0.276154369
0.360784292 0.310309738 0.279443383
0.363567024 0.313599020 0.282479197
0.369639039 0.319671035 0.288551986
0.370651066 0.328652889 0.294877023
0.373181343 0.332448065 0.302972823
0.377988636 0.335357428 0.311574668
0.387097031 0.344465107 0.320683062
0.396204621 0.353573471 0.329791427
0.409360826 0.371030807 0.345098019
0.420999110 0.386211067 0.358507067
0.428083152 0.393295169 0.366856158
0.440227956 0.405439973 0.385072976
0.452119052 0.417331040 0.397470057
0.464516044 0.429728061 0.409867018
0.476660252 0.443390250 0.422770202
0.489057958 0.461606979 0.438077033
0.504364133 0.476913095 0.453383923
0.521821558 0.494370580 0.470840991
0.540037990 0.512586951 0.489057332
0.558001101 0.531056106 0.507527053
0.573181450 0.552308500 0.528779387
0.595572650 0.575964630 0.552434981
0.617837191 0.601771116 0.576470375
0.642125607 0.627830565 0.599747002
0.675521970 0.649083018 0.617963016
0.381277382 0.336875379 0.312081218
0.375205368 0.330803394 0.306008428
0.376850158 0.332447618 0.307653159
0.379886240 0.335483551 0.310689569
0.382162958 0.337760836 0.312966675
0.379253805 0.334850967 0.310056806
0.381783485 0.337381274 0.312587112
0.386463970 0.342061818 0.317267805
0.388867378 0.345983386 0.320430130
0.384819418 0.346995413 0.318911940
0.393801272 0.355977267 0.327893823
0.401012063 0.365085661 0.336369634
0.406578183 0.370019168 0.343200594
0.411385030 0.374825835 0.348007441
0.420493394 0.383934200 0.357115805
0.427197814 0.390638798 0.363820404
0.441239804 0.408981800 0.380012602
0.455028623 0.426312625 0.396837384
0.464515924 0.435799897 0.412397325
0.473877341 0.445161313 0.422264755
0.487413108 0.458697140 0.435800046
0.500948846 0.472232819 0.449335665
0.513345957 0.485894948 0.462365776
0.531561971 0.504110932 0.480581790
0.549145997 0.521694958 0.498165369
0.567362368 0.539911330 0.516381681
0.585578561 0.558127522 0.534598410
0.603542268 0.576597214 0.553067386
0.618722618 0.597849607 0.574319780
0.637571335 0.621505320 0.596204579
0.659076512 0.647311509 0.619860530
0.687665939 0.673370957 0.645287395
0.412270606 0.373940587 0.348007798
0.406198591 0.363061607 0.339531809
0.406577826 0.367741823 0.342061579
0.408348978 0.367488593 0.342820942
0.409107774 0.366729766 0.342821240
0.404047906 0.365717649 0.339784861
0.410879284 0.372548908 0.346616119
0.412270606 0.373940587 0.348007798
0.416824609 0.378494591 0.352561772
0.417330593 0.381783605 0.354459107
0.418595642 0.388108641 0.358254462
0.425679773 0.395192802 0.365338594
0.433270007 0.402782977 0.372928768
0.437823862 0.407336861 0.377482593
0.444781989 0.414294988 0.384440184
0.453889787 0.423402756 0.393548608
0.458443969 0.432511181 0.401138395
0.474762946 0.452625334 0.420746118
0.496267796 0.468817413 0.444781780
0.505376101 0.477925152 0.454396158
0.516381741 0.488930792 0.465401798
0.530044198 0.502593219 0.479063600
0.542062044 0.514864087 0.491334498
0.553446829 0.530803442 0.507273793
0.569386065 0.546742141 0.523213089
0.588867664 0.566223621 0.542694271
0.607589841 0.585957825 0.561922789
0.623908877 0.606071830 0.580138743
0.641872644 0.624541581 0.603415370
0.665907741 0.647564709 0.628209710
0.684882700 0.670081973 0.648956180
0.704616964 0.692852557 0.670208633
0.441113204 0.405819178 0.381404191
0.439595371 0.401265383 0.378368169
0.436938614 0.398102611 0.375458360
0.438709378 0.403415382 0.379000366
0.438709378 0.399367362 0.376976728
0.434914380 0.401644349 0.376217633
0.436938524 0.404680490 0.375711709
0.442631394 0.410373360 0.381404191
0.443390310 0.411132276 0.382163286
0.448703200 0.416445196 0.387476385
0.450474381 0.420999378 0.390638858
0.456040561 0.428589582 0.397217184
0.462112576 0.434661567 0.403289169
0.467678577 0.440986544 0.409361184
0.471221030 0.448323816 0.415433168
0.478178591 0.455281764 0.422390789
0.485768378 0.461353362 0.436053365
0.490702182 0.473497987 0.445793539
0.515749216 0.492093801 0.470841140
0.534218729 0.509804010 0.489310741
0.546742558 0.522327602 0.501834214
0.558886588 0.534471571 0.513978422
0.571031153 0.546616137 0.526122570
0.581530452 0.560404897 0.539911270
0.595192671 0.578621089 0.556609392
0.611764312 0.595192671 0.573181450
0.632384300 0.614800572 0.592283428
0.648576796 0.633016825 0.607463539
0.670967817 0.653130829 0.629474998
0.685642302 0.670335293 0.649462104
0.714231312 0.694623291 0.675901175
0.728905380 0.714104950 0.692979217
0.469070137 0.436938703 0.414800525
0.471473932 0.439342499 0.417204350
0.470208764 0.438077331 0.415939361
0.469702542 0.435673535 0.414168119
0.469323099 0.436053097 0.415306658
0.469070137 0.441872120 0.418849051
0.469702542 0.443516701 0.416192502
0.470714658 0.444528818 0.414421380
0.473751038 0.447565019 0.417457193
0.476786643 0.450600624 0.420493603
0.481087983 0.453636974 0.423529238
0.487539798 0.460088789 0.429980785
0.496141940 0.468690932 0.438583106
0.502214015 0.474763006 0.444655120
0.502973080 0.483491272 0.450727105
0.507147551 0.489563584 0.456166685
0.513852119 0.495382905 0.466413349
0.518659115 0.499051094 0.482100129
0.530803144 0.511195183 0.494244158
0.552182317 0.532574296 0.515623093
0.571410656 0.551802695 0.534851432
0.586844087 0.567236125 0.550284207
0.598988116 0.579380095 0.562429011
0.611132145 0.591524124 0.574573100
0.625553370 0.609234393 0.590638518
0.641492665 0.629727840 0.608854830
0.658696711 0.646932542 0.626059532
0.676660419 0.659076512 0.635294378
0.700948775 0.678557754 0.654396355
0.718912184 0.696268141 0.672106266
0.731815517 0.713472486 0.689310133
0.756103575 0.737760544 0.713598967
0.499430984 0.482479930 0.448197007
0.499430925 0.482479930 0.448197007
0.497533202 0.480582178 0.446299791
0.498292029 0.477545798 0.444528967
0.502719522 0.475521564 0.445667505
0.499683946 0.478557944 0.454775900
0.501960635 0.481847286 0.458317667
0.503098965 0.482985914 0.458950013
0.504111111 0.483997881 0.459962070
0.507147551 0.487033486 0.462998450
0.516002893 0.490069836 0.466034085
0.522580922 0.495129943 0.471093953
0.530044317 0.502593279 0.478557646
0.538646102 0.511195064 0.487159967
0.544718862 0.517267823 0.493231952
0.547881126 0.521189094 0.496900797
0.554206192 0.527514219 0.503225744
0.561163962 0.535483956 0.512460232
0.561163962 0.541555941 0.518532991
0.576091349 0.556483328 0.533459663
0.593927920 0.574319959 0.551296532
0.611891270 0.592283309 0.569259942
0.629348934 0.609740973 0.586717069
0.641492963 0.621885002 0.598861814
0.655914247 0.636306286 0.613282681
0.671094596 0.654775620 0.630107284
0.686021924 0.674256980 0.647311985
0.698165894 0.686400950 0.659455955
0.716128886 0.703857899 0.676660657
0.733333111 0.720556140 0.693358719
0.749778569 0.737507582 0.710309565
0.771283925 0.759012938 0.731814981
0.524224997 0.500189662 0.473244727
0.521442354 0.497407019 0.470461369
0.523592591 0.499557257 0.472612143
0.523086369 0.499051034 0.472106367
0.525363386 0.497912377 0.472106367
0.524730921 0.498544961 0.474003941
0.521695316 0.501581311 0.478052318
0.524224997 0.504617274 0.481088012
0.526881397 0.507273853 0.483744383
0.531941533 0.512334228 0.488804519
0.540796876 0.515369892 0.491840839
0.545857310 0.518406272 0.494876474
0.551170349 0.523719370 0.500189364
0.558633745 0.531182706 0.507653058
0.567236185 0.539785206 0.516255319
0.568501353 0.545857370 0.522327363
0.575711668 0.553826749 0.533333421
0.584819794 0.562934935 0.544971526
0.586969972 0.566856742 0.548892975
0.595319390 0.575711370 0.557748377
0.606704712 0.587096751 0.565338492
0.623276472 0.603668511 0.580139458
0.643263996 0.623656034 0.600126743
0.660721004 0.641113043 0.617583811
0.675142288 0.655534267 0.632005334
0.690322638 0.670714676 0.647185385
0.705503047 0.688172042 0.663504422
0.719924331 0.702593327 0.677925706
0.734725118 0.717394173 0.692725837
0.751043439 0.733712912 0.709044814
0.766223609 0.750664294 0.725110590
0.783680975 0.771916747 0.744465709
0.563693464 0.536242485 0.512713432
0.560657799 0.533206820 0.509677052
0.558127701 0.534471691 0.510942221
0.561163664 0.534977674 0.511448264
0.561796188 0.534345210 0.510815740
0.561796188 0.534345210 0.510815740
0.559266090 0.536875069 0.513346016
0.561163664 0.538266718 0.514737725
0.562934577 0.541049540 0.517520547
0.565591216 0.545983672 0.522454202
0.572675347 0.551043630 0.527514338
0.579632938 0.555976987 0.532447934
0.582669318 0.559013367 0.535483539
0.587982476 0.564326465 0.540796518
0.595446110 0.571790159 0.548260629
0.599240959 0.576597452 0.553067446
0.603795171 0.584187269 0.563693643
0.613662302 0.595319271 0.579000711
0.616698265 0.600885689 0.583301485
0.625300050 0.605692863 0.590006053
0.634408414 0.614800453 0.595319450
0.642504692 0.622896731 0.599367678
0.659202993 0.639594972 0.616065979
0.677419543 0.657811522 0.634281993
0.695256054 0.675648034 0.652118981
