Assets/EldamarStudio/100 Retro LUTs Pack/LUTs/cube/Nicole LUT.cube
LUT_3D_SIZE 8
DOMAIN_MIN 0.000000 0.000000 0.000000
DOMAIN_MAX 0.903226 0.903226 0.903226
0.141176000 0.098039001 0.074510001
0.157622010 0.106640995 0.083112001
0.181151092 0.130170897 0.106641091
0.215180352 0.156356648 0.128905639
0.255534172 0.196711197 0.169260189
0.303731740 0.248703733 0.219354987
0.365970999 0.321821272 0.288171977
0.442124784 0.412143767 0.387349606
0.185831994 0.131309539 0.118405998
0.197596103 0.138773009 0.118405998
0.214800999 0.162302107 0.131688997
0.243390441 0.184566647 0.157115638
0.280961633 0.223276377 0.193548083
0.330297530 0.275268912 0.246679276
0.387729079 0.344592005 0.324857563
0.470841140 0.443390161 0.419861048
0.246047094 0.195066094 0.170019105
0.256293088 0.197470099 0.170019105
0.268058091 0.209235102 0.181784093
0.297786087 0.238963097 0.211512104
0.325869352 0.274889201 0.243516997
0.373307705 0.323845744 0.300316423
0.425300479 0.391524076 0.364832193
0.501834154 0.485389054 0.452371806
0.328399986 0.282985270 0.257178992
0.336243004 0.279696286 0.251106650
0.351170003 0.294624001 0.271600544
0.367615283 0.318911999 0.295382977
0.405186176 0.364326179 0.339658439
0.445793986 0.410499454 0.390891969
0.505629599 0.478178620 0.454648912
0.589500070 0.561543405 0.546362758
0.441113204 0.405819178 0.381404191
0.438709378 0.399367362 0.376976728
0.443390310 0.411132276 0.382163286
0.462112576 0.434661567 0.403289169
0.485768378 0.461353362 0.436053365
0.546742558 0.522327602 0.501834214
0.595192671 0.578621089 0.556609392
0.670967817 0.653130829 0.629474998
0.563693464 0.536242485 0.512713432
0.561796188 0.534345210 0.510815740
0.562934577 0.541049540 0.517520547
0.582669318 0.559013367 0.535483539
0.603795171 0.584187269 0.563693643
0.634408414 0.614800453 0.595319450
0.695256054 0.675648034 0.652118981
0.754079759 0.738266826 0.712839842
0.726375282 0.703478813 0.679949284
0.717520535 0.701201558 0.679822803
0.722201049 0.702593446 0.679063618
0.733206570 0.718153000 0.692346215
0.741176248 0.732953548 0.704870582
0.767741561 0.755977511 0.728526413
0.794307292 0.776344001 0.747880816
0.839974701 0.827450991 0.797849059
0.848829746 0.837064743 0.809613764
0.844528913 0.840734005 0.810626209
0.851486564 0.839721620 0.812270582
0.860594749 0.848829746 0.821378767
0.869955957 0.858190954 0.830739975
0.880834818 0.872865558 0.836305857
0.900316000 0.888551652 0.861100674
0.907526910 0.903731763 0.873624563
0.150158450 0.106261544 0.089816548
0.161163554 0.110183448 0.086654447
0.192915902 0.141935095 0.118406095
0.228842184 0.170019090 0.142568097
0.268058181 0.209234804 0.181783810
0.323719203 0.268690795 0.240101546
0.382036537 0.335610539 0.312081009
0.460467935 0.432257950 0.409108102
0.186590999 0.141935095 0.118785545
0.205819458 0.146995559 0.126628533
0.226565182 0.167741999 0.140290990
0.255154729 0.196331546 0.169639558
0.295509189 0.236685812 0.209993899
0.344338715 0.293358743 0.265780836
0.400632739 0.357494801 0.333965838
0.471220821 0.448323786 0.424794763
0.255534172 0.204554006 0.181024998
0.272865117 0.207717001 0.179886460
0.276280612 0.217457548 0.190006554
0.306008637 0.247185558 0.219734564
0.336495638 0.285515517 0.255660951
0.376470625 0.333333552 0.309803605
0.437950581 0.406451583 0.378620893
0.519670784 0.497532994 0.474003762
0.346489191 0.289943099 0.269196749
0.352435350 0.295888633 0.275142282
0.359772176 0.308792084 0.279696196
0.372296125 0.333459735 0.300822288
0.413409531 0.378114820 0.350663841
0.453004181 0.420746177 0.399620384
0.513092935 0.485642165 0.462112457
0.587855577 0.568247557 0.544718564
0.450474381 0.418216377 0.389247179
0.449715376 0.417457372 0.388488173
0.453889936 0.426438898 0.402909845
0.473118186 0.445667177 0.422138155
0.502466798 0.475015819 0.451486826
0.553447008 0.529791117 0.506261766
0.605439484 0.585831463 0.562302411
0.677545846 0.658697128 0.634788275
0.569513202 0.546110213 0.522580743
0.565844238 0.546236694 0.522707224
0.575964928 0.553320885 0.529791057
0.588108540 0.568500519 0.544971526
0.613282561 0.593674541 0.570904493
0.641492486 0.621884465 0.602403462
0.702719510 0.683871031 0.659962058
0.757495344 0.745730340 0.718279362
0.722706854 0.712081313 0.684250712
0.733712733 0.710815787 0.687286735
0.731309295 0.715496659 0.690069437
0.741808593 0.726755500 0.700948715
0.755977213 0.740923345 0.715117097
0.771410525 0.759645998 0.732195020
0.793674827 0.781910300 0.753700256
0.838330269 0.827703834 0.799873233
0.858696938 0.842884481 0.817077875
0.854016602 0.842251658 0.814800620
0.854396045 0.840101123 0.813915253
0.862112761 0.848829746 0.822137833
0.874130309 0.859329343 0.833396375
0.888172090 0.875521898 0.840607226
0.905249953 0.891587377 0.857052326
0.917393863 0.905629516 0.875648618
0.166224003 0.115243189 0.091713995
0.173687547 0.122707449 0.099177547
0.190512091 0.139532089 0.116002090
0.232005000 0.173181280 0.145730287
0.279823095 0.220999286 0.193548292
0.329791099 0.276534081 0.250094742
0.394940019 0.348513573 0.324983984
0.473750651 0.446299642 0.422770619
0.202277094 0.152055889 0.128526092
0.218722090 0.159898996 0.132447988
0.227703631 0.168880552 0.141429543
0.264136970 0.205313101 0.177862093
0.304111183 0.246046886 0.219734445
0.353826523 0.303605437 0.276027918
0.409360915 0.370777816 0.344971538
0.492093712 0.464642763 0.440353900
0.251613021 0.200632200 0.177102998
0.267678618 0.201770738 0.174319744
0.291587919 0.226439074 0.198988095
0.312713176 0.255408198 0.227198094
0.347122282 0.296141893 0.264769286
0.389374077 0.349399179 0.316382110
0.446426064 0.415686071 0.390512377
0.528399885 0.506261885 0.482732683
0.352308631 0.302467078 0.277798653
0.355850995 0.306008726 0.275775015
0.368753642 0.318912089 0.294244528
0.381657273 0.338520020 0.314990282
0.416445524 0.381150931 0.355976939
0.459076464 0.427577466 0.406072021
0.518532574 0.493358552 0.469829261
0.594054043 0.574446738 0.550917089
0.457558453 0.431625485 0.401771277
0.460215002 0.427956998 0.406830907
0.467678398 0.435420394 0.414294571
0.482479393 0.455028355 0.431499362
0.507653296 0.481720269 0.458191276
0.558127820 0.533712804 0.510183513
0.610120356 0.590512395 0.566982567
0.679443061 0.659835935 0.636306107
0.578621328 0.559013367 0.535483599
0.579506576 0.559898615 0.536369383
0.587349474 0.565464497 0.541935503
0.598355532 0.578747571 0.555218339
0.619101763 0.599493980 0.575964808
0.642251492 0.630487502 0.603036404
0.708159447 0.690828443 0.666160882
0.766982675 0.747374952 0.723845422
0.733965635 0.714358032 0.690828443
0.731941819 0.716381848 0.694117427
0.734598398 0.718279421 0.693105340
0.745730460 0.730170667 0.704617143
0.757495284 0.744212270 0.717520416
0.773181438 0.761416733 0.733965814
0.792156637 0.777103066 0.751296341
0.843263686 0.828209996 0.802403271
0.858190775 0.846426487 0.818975449
0.857684851 0.849715173 0.817204356
0.854775488 0.850980282 0.820872664
0.861859441 0.855787158 0.826438844
0.877039909 0.865274906 0.837823808
0.888425052 0.876660585 0.846679509
0.903352439 0.893864632 0.865654588
0.914357960 0.912081063 0.881467640
0.187729344 0.136748642 0.113219641
0.194813550 0.143832743 0.120303541
0.213662446 0.157115549 0.136369094
0.233143643 0.174319640 0.152435362
0.277798742 0.218975633 0.191524640
0.338899732 0.280075729 0.256419748
0.396331578 0.355470985 0.330802917
0.477419794 0.452245802 0.428715795
0.224161997 0.172422275 0.149272546
0.232005090 0.174699277 0.146489188
0.244528994 0.185705096 0.158254102
0.264136910 0.205313191 0.177862182
0.307147264 0.249082997 0.223529547
0.358507454 0.309803814 0.286274612
0.421125948 0.383301646 0.364959180
0.500316262 0.475395441 0.451866180
0.266413987 0.209108189 0.183175072
0.275775105 0.216951177 0.189120740
0.301328421 0.243263736 0.216571629
0.314990282 0.257685184 0.231752098
0.354079276 0.303099275 0.274003983
0.397976071 0.356356591 0.332068175
0.459835470 0.428336471 0.403542012
0.534092426 0.513725460 0.490196139
0.335104644 0.286400646 0.262871653
0.342188537 0.293485433 0.264389724
0.364073634 0.315369636 0.291840643
0.390638649 0.349778593 0.325110286
0.424288452 0.388994455 0.369386464
0.468184620 0.438962638 0.417457372
0.530297279 0.505123317 0.481593966
0.599114418 0.579506397 0.561543405
0.461480200 0.430740207 0.409234822
0.462871462 0.430613458 0.409487456
0.478178531 0.450727731 0.426438838
0.491840452 0.464389563 0.440860152
0.514611244 0.490196347 0.466666400
0.559645772 0.540037811 0.516508758
0.616824746 0.597216725 0.573687732
0.681593955 0.667299330 0.641113222
0.590385556 0.569259882 0.545730352
0.591524184 0.568121254 0.544591963
0.595951796 0.577103376 0.553194106
0.606578112 0.586970091 0.563440800
0.626945078 0.607337117 0.583807826
0.656420290 0.636812449 0.613282442
0.709677339 0.692346692 0.667679012
0.766476691 0.753194213 0.726502240
0.737760842 0.721442282 0.696268260
0.738266885 0.718658924 0.695129573
0.737507820 0.724983990 0.697912574
0.748892963 0.733839512 0.708032846
0.761543334 0.746489346 0.720683098
0.777229309 0.765464842 0.738013864
0.796457887 0.785831571 0.758380890
0.842251956 0.834282100 0.805566192
0.867425978 0.850347936 0.825553358
0.856672764 0.848323822 0.819734454
0.864895344 0.851866066 0.821885049
0.867299139 0.858949780 0.830360413
0.876660347 0.868310988 0.839721560
0.891081631 0.879316866 0.846299887
0.905376256 0.893611610 0.866160631
0.924604654 0.912839949 0.885388970
0.220240191 0.161416799 0.138772801
0.224541649 0.165717736 0.143073738
0.239089087 0.180265889 0.157621905
0.257811189 0.203795195 0.173940375
0.289943188 0.231119186 0.203668177
0.335989982 0.281973481 0.255914181
0.405692458 0.367362469 0.344465286
0.493611783 0.466160774 0.442631185
0.255913824 0.199367553 0.178621188
0.253890187 0.199873194 0.170019001
0.271980017 0.213156089 0.185705081
0.287666202 0.229601279 0.201770738
0.310689628 0.251865745 0.224414736
0.362808287 0.312587172 0.289057255
0.428842723 0.388741106 0.368500918
0.509930372 0.485515326 0.459456325
0.309551001 0.250727385 0.226312369
0.316635072 0.257811368 0.230360359
0.320430189 0.261606365 0.237191379
0.338140547 0.282352746 0.254901826
0.354206175 0.307021052 0.276407152
0.399873644 0.359772027 0.336242825
0.468437463 0.437697470 0.411005557
0.550916970 0.524984002 0.501454830
0.356230438 0.300442815 0.284123629
0.359772205 0.312207639 0.282732189
0.377609283 0.333712995 0.310183287
0.408981383 0.372928262 0.345856816
0.428589374 0.393295258 0.366603374
0.479063720 0.451612711 0.428083718
0.534092188 0.512207150 0.493485183
0.604933798 0.585325778 0.561796069
0.447185189 0.411891162 0.387476176
0.447311997 0.409487367 0.386337817
0.462871373 0.435420394 0.407084376
0.492219985 0.464769006 0.436432719
0.532574236 0.512333989 0.481594175
0.575711370 0.548260331 0.524731338
0.621252358 0.601644337 0.578115404
0.678937495 0.668058157 0.640733600
0.592409730 0.565717697 0.539152205
0.592662752 0.568880081 0.548766434
0.601771116 0.581404150 0.555597723
0.625047445 0.600632489 0.573054850
0.636685431 0.617077470 0.593548477
0.663377702 0.651612639 0.624161661
0.715496719 0.703731716 0.676280797
0.769765794 0.753953278 0.728526533
0.742694259 0.724604428 0.700316370
0.739785016 0.725743115 0.701707780
0.746489346 0.734724760 0.707273722
0.756609619 0.740290582 0.715117157
0.769259870 0.757495284 0.730044305
0.783048928 0.771283984 0.743832946
0.801518202 0.789753258 0.762302279
0.849082768 0.837317765 0.809866786
0.871347249 0.853510439 0.821631789
0.864516079 0.853636801 0.826312304
0.864642680 0.856166720 0.824667692
0.869829178 0.861859381 0.833143473
0.882099867 0.870335162 0.842884064
0.893611491 0.881847084 0.849589050
0.908032835 0.896268129 0.868817329
0.920809388 0.917014539 0.886907160
0.260594755 0.201770738 0.174319729
0.262492001 0.203668475 0.176217467
0.276280761 0.217457250 0.190006256
0.294244260 0.235420734 0.207969740
0.316634983 0.261606455 0.232257724
0.356482983 0.301454991 0.279949725
0.403794825 0.365211815 0.340164542
0.499936789 0.472485751 0.448956460
0.283618003 0.232637465 0.209108084
0.291460991 0.236686006 0.207210734
0.303605527 0.244781524 0.221378535
0.319291741 0.260467857 0.237065360
0.337254822 0.286274523 0.259709001
0.367362261 0.324225277 0.300695777
0.419481546 0.380898029 0.355850786
0.518406212 0.491714239 0.468184322
0.338520110 0.295383096 0.271853089
0.345477462 0.294497192 0.264642447
0.353447199 0.300696105 0.272865415
0.366730064 0.317267388 0.287413061
0.383934170 0.342820734 0.313219368
0.410499483 0.376723498 0.348513573
0.467172831 0.439721823 0.412902892
0.556356788 0.536748767 0.513219833
0.385958254 0.346615732 0.321188986
0.400505990 0.361164004 0.335736722
0.425047547 0.389753520 0.363820553
0.439974725 0.406957746 0.382163376
0.460341722 0.428083718 0.402909636
0.482099831 0.454649091 0.427071631
0.537001967 0.514104903 0.490575939
0.619481325 0.599873543 0.577862322
0.468690723 0.440480739 0.416571647
0.475522012 0.447311997 0.420113951
0.488551438 0.462112546 0.444655478
0.516255438 0.491840482 0.468311369
0.558254123 0.532574415 0.515875757
0.574193537 0.554585636 0.531056106
0.629095376 0.609487534 0.585958421
0.686274469 0.670461833 0.645034850
0.573813736 0.550158203 0.526628733
0.572169483 0.552561879 0.529791057
0.585072458 0.565464497 0.541935503
0.613409519 0.589753449 0.566223443
0.643137276 0.623529255 0.600000203
0.683491766 0.663883686 0.640354216
0.720303714 0.704743683 0.679190457
0.769765794 0.753953278 0.728526533
0.742947280 0.719544709 0.696014822
0.734472036 0.727261245 0.701581061
0.747375190 0.735610366 0.708159387
0.759519160 0.747754633 0.720303655
0.778747499 0.766223669 0.739152074
0.788994312 0.777229309 0.749778271
0.811258972 0.799493968 0.772042990
0.857179165 0.842884302 0.816698194
0.870082378 0.854522705 0.826438665
0.868311048 0.855154932 0.827830672
0.868437767 0.856672764 0.826691747
0.879949450 0.868184447 0.840733409
0.890069306 0.878304899 0.850853860
0.894623578 0.886653781 0.857937932
0.906641304 0.900569081 0.871220827
0.924730957 0.918658853 0.889310598
0.311701566 0.257431984 0.227704272
0.315749586 0.261479974 0.231752276
0.327514082 0.273245096 0.243516788
0.343074262 0.292093277 0.260721296
0.369639575 0.318658978 0.291840553
0.393801540 0.350411028 0.325490296
0.430613577 0.398608565 0.377356261
0.492599607 0.465148628 0.441619039
0.333712786 0.287286282 0.263757288
0.343580008 0.289310515 0.267425805
0.353067756 0.299557328 0.270588458
0.366223931 0.316002637 0.289183944
0.385831624 0.338646412 0.315496475
0.409993619 0.374699533 0.351296633
0.446806014 0.416065991 0.394180804
0.511827707 0.483112007 0.461479843
0.383934289 0.345351279 0.319544584
0.395066381 0.352435350 0.327008128
0.399494171 0.357874364 0.333586276
0.413156122 0.372296125 0.347628176
0.430740267 0.395446092 0.369513065
0.452245533 0.421505094 0.396331400
0.495635480 0.468184441 0.444655269
0.555597544 0.530423582 0.506894171
0.457432002 0.426691979 0.401518285
0.467299134 0.436559081 0.411385000
0.473624349 0.445160896 0.423276633
0.484882981 0.457431972 0.433902562
0.503225684 0.478051722 0.454522520
0.525616467 0.500442564 0.476913273
0.556103528 0.536495566 0.512966275
0.612523675 0.592915654 0.569386125
0.500442684 0.476027668 0.452498257
0.509424448 0.488298595 0.464769006
0.534345329 0.511448383 0.487919182
0.574320138 0.551423192 0.527893543
0.590638697 0.571031094 0.547501683
0.609361351 0.589753389 0.566223562
0.636812270 0.617204249 0.593674600
0.690448880 0.670082271 0.646552682
0.612144053 0.589246988 0.565718055
0.619228005 0.596331000 0.572802007
0.628589511 0.608981788 0.585452139
0.643516779 0.623908758 0.600379765
0.671347260 0.652498245 0.628589749
0.706262052 0.687412977 0.663504481
0.726628959 0.714105010 0.687033474
0.774825990 0.760531425 0.734345257
0.717520535 0.705755532 0.678304553
0.722960293 0.707400262 0.685135961
0.729411602 0.714358032 0.688551366
0.739911139 0.728146911 0.700695932
0.761543334 0.749778330 0.722327411
0.788614750 0.776849866 0.749398768
0.822770536 0.807716548 0.781910241
0.856040418 0.843517065 0.813915491
0.864895344 0.853130877 0.825679898
0.865781069 0.853637040 0.821632087
0.870461702 0.858696997 0.831246018
0.877545655 0.865780950 0.838329911
0.889689803 0.877925456 0.850474417
0.905502737 0.893737853 0.866286874
0.913345754 0.909550607 0.879443407
0.935990095 0.919671059 0.894496799
0.391144812 0.350790769 0.324604601
0.394813359 0.354459345 0.328273177
0.404300779 0.366476774 0.340290606
0.418342769 0.383048773 0.355597794
0.445287615 0.409993589 0.382542610
0.474003702 0.442504704 0.416951418
0.512713492 0.485262632 0.461732924
0.558633745 0.536495805 0.512966394
0.410499752 0.375205755 0.353067756
0.414927036 0.377103001 0.356229842
0.425806344 0.390512347 0.370904326
0.439468861 0.404933691 0.384946406
0.460721165 0.430740148 0.408475310
0.493105531 0.465654552 0.442125559
0.521442115 0.498544991 0.475015581
0.575078785 0.552940845 0.529411733
0.465022117 0.435041100 0.412776768
0.464263141 0.438330144 0.414800644
0.476786643 0.449335635 0.425806642
0.487286687 0.461353898 0.437823892
0.507653058 0.481720358 0.458190858
0.531309009 0.509171247 0.485641778
0.562555134 0.542947173 0.519418180
0.606831014 0.587222993 0.563693702
0.532321274 0.512713194 0.489184231
0.537507772 0.517900109 0.494370759
0.542188108 0.522580922 0.499050975
0.555850625 0.536242604 0.512713194
0.573308110 0.551170170 0.527640700
0.594054282 0.571916342 0.548387289
0.623529494 0.601391435 0.577862442
0.657305479 0.637697756 0.614168048
0.589246988 0.569639266 0.546110034
0.602403641 0.582542658 0.557874918
0.621378899 0.601770878 0.578241885
0.639468789 0.619860768 0.596331239
0.648829937 0.629221976 0.605692983
0.668817401 0.649209380 0.625679553
0.686907113 0.670335174 0.645287693
0.719417989 0.699809968 0.676280975
0.659709275 0.640101254 0.616571784
0.658696949 0.639089584 0.615559578
0.669702768 0.650094748 0.626565337
0.687286794 0.667678714 0.644149184
0.727388024 0.709298015 0.685009480
0.745477736 0.733712673 0.706261694
0.762175798 0.750411093 0.722960174
0.786084712 0.774319708 0.746868670
0.759898961 0.748134255 0.720683217
0.763693631 0.751169920 0.724098504
0.767235935 0.754712164 0.727640569
0.779380023 0.766856432 0.739784837
0.795066297 0.782542765 0.755471230
0.813282788 0.801518202 0.774067163
0.845793784 0.834028840 0.806577802
0.858570218 0.851739466 0.822643876
0.852751434 0.840986788 0.813535750
0.856293321 0.844528913 0.817077875
0.857937932 0.846173644 0.818722606
0.868437767 0.856672764 0.829221785
0.877925456 0.866160810 0.838709831
0.894370794 0.882605791 0.855154753
0.915623128 0.903858066 0.876407087
0.938899577 0.935104430 0.904996634
