Assets/EldamarStudio/100 Retro LUTs Pack/LUTs/cube/Nicole LUT.cube
LUT_3D_SIZE 5
DOMAIN_MIN 0.000000 0.000000 0.000000
DOMAIN_MAX 0.903226 0.903226 0.903226
0.141176000 0.098039001 0.074510001
0.175837994 0.124857992 0.101327993
0.233396411 0.174573407 0.147122413
0.315875977 0.264896005 0.233522981
0.442124784 0.412143767 0.387349606
0.230107412 0.174572989 0.148766696
0.246805683 0.187982693 0.160531700
0.295888692 0.237065107 0.209614113
0.372042835 0.323086828 0.299557418
0.490196109 0.465148777 0.437950671
0.381277382 0.336875379 0.312081218
0.386463970 0.342061818 0.317267805
0.420493394 0.383934200 0.357115805
0.500948846 0.472232819 0.449335665
0.618722618 0.597849607 0.574319780
0.610246241 0.582795262 0.559266269
0.605692267 0.582795262 0.559266269
0.630487263 0.610879302 0.587349832
0.675901115 0.658317327 0.633776248
0.774573088 0.762808084 0.733333111
0.848829746 0.837064743 0.809613764
0.848956585 0.837191582 0.809740543
0.861859620 0.847564578 0.821378767
0.883870721 0.875901341 0.839342058
0.907526910 0.903731763 0.873624563
0.164706007 0.113724999 0.090195999
0.181404278 0.130423710 0.106894284
0.253384113 0.194560274 0.167109281
0.346236140 0.289437145 0.268817246
0.468943775 0.438962758 0.416698366
0.231119692 0.180138692 0.152055681
0.263504416 0.201391414 0.173940405
0.309930384 0.251106977 0.228209972
0.380265683 0.339785099 0.313345850
0.508918226 0.484756470 0.461227208
0.391018391 0.356483221 0.328020096
0.397216678 0.359392673 0.332574069
0.435546786 0.398987800 0.375458390
0.513092697 0.485642105 0.462112516
0.634408355 0.613535762 0.592030168
0.623909295 0.599747241 0.576217234
0.618722260 0.597849250 0.574320257
0.640606999 0.620999575 0.597469985
0.682479560 0.670714676 0.643263936
0.783428073 0.768374383 0.742567837
0.861226797 0.844908476 0.819734454
0.857305765 0.849462628 0.818342686
0.870082378 0.858317494 0.830866516
0.892220020 0.877925515 0.851739347
0.909550726 0.910562873 0.876660347
0.205945417 0.148387417 0.121569000
0.220999405 0.163440570 0.136621997
0.263504416 0.204680413 0.177229404
0.358380824 0.306135386 0.283238232
0.489943206 0.462492198 0.438962340
0.277546108 0.222011268 0.192915991
0.287665993 0.232131407 0.203036115
0.320050240 0.264516145 0.235420391
0.398228973 0.361669809 0.338140398
0.533712804 0.506261766 0.482732624
0.381909966 0.345350802 0.318532377
0.399873555 0.360025108 0.334851354
0.458444178 0.429728210 0.405565798
0.531435549 0.505249500 0.481720507
0.645541191 0.625933170 0.602403164
0.633396506 0.613788724 0.590259492
0.636938393 0.621379256 0.595193028
0.660214961 0.640607536 0.617077529
0.699683845 0.682099819 0.662112534
0.788993955 0.777229965 0.749778926
0.865148365 0.850727201 0.817963183
0.865148365 0.853384018 0.823908985
0.874257028 0.862492204 0.835041225
0.894876540 0.883744478 0.850980639
0.918026626 0.916129231 0.884123743
0.271727145 0.210879132 0.183428124
0.283111811 0.224288404 0.196837410
0.309930265 0.257684976 0.226944834
0.373687118 0.324731141 0.301202118
0.497153610 0.469702601 0.446173608
0.332194984 0.279949397 0.254142970
0.343326986 0.292346388 0.264263242
0.366856396 0.319164962 0.291081667
0.417584121 0.382289559 0.356862545
0.541935503 0.522327483 0.498798251
0.424414814 0.391144782 0.364705950
0.449968249 0.419987231 0.396457791
0.503984511 0.476533502 0.453004509
0.542820692 0.521948397 0.498418689
0.653636932 0.634028912 0.610499620
0.609234393 0.589627087 0.566097379
0.618722677 0.599114716 0.575584829
0.657938302 0.638330281 0.614800811
0.720936120 0.703352094 0.678810954
0.791271210 0.777482629 0.751043797
0.871094584 0.854016602 0.826691747
0.869449914 0.857684910 0.828209937
0.881720483 0.872992039 0.844528913
0.901707709 0.889942944 0.862491965
0.922706902 0.922706902 0.891334653
0.391144812 0.350790769 0.324604601
0.404554069 0.364199728 0.338013887
0.430486798 0.395192802 0.367741764
0.480834782 0.453383803 0.429854751
0.558633745 0.536495805 0.512966394
0.447817504 0.415812463 0.394560158
0.457305461 0.427324444 0.405060023
0.483111948 0.455660909 0.432131469
0.525237024 0.503099203 0.479569793
0.594686747 0.575078785 0.551549435
0.575584829 0.553446770 0.529917598
0.585705042 0.564832449 0.541302919
0.604933202 0.582795143 0.559266150
0.637065053 0.617457330 0.593928039
0.690069377 0.670462012 0.646932185
0.690322816 0.673245132 0.648450255
0.691714346 0.674636364 0.649841964
0.718785644 0.700442791 0.676280856
0.770018935 0.758253932 0.730802894
0.806325197 0.794560194 0.767109215
0.852751434 0.840986788 0.813535750
0.856672764 0.844908476 0.817457438
0.870335221 0.858570397 0.831119418
0.899430633 0.887665868 0.860214889
0.938899577 0.935104430 0.904996634
