Assets/EldamarStudio/100 Retro LUTs Pack/LUTs/cube/Pamela LUT.cube
LUT_3D_SIZE 8
DOMAIN_MIN 0.000000 0.000000 0.000000
DOMAIN_MAX 0.903226 0.903226 0.903226
0.000000000 0.121569000 0.172548994
0.124225549 0.117647000 0.172169447
0.228842095 0.122327901 0.166983098
0.341935635 0.131688997 0.165844351
0.461353362 0.149020001 0.170145184
0.595445991 0.160784006 0.164831996
0.737128556 0.173181564 0.159139708
0.873750746 0.180391997 0.139785007
0.003542452 0.198355094 0.172169447
0.093611546 0.198355094 0.175332442
0.222517192 0.191650644 0.164706007
0.331688732 0.193168551 0.164199740
0.457432359 0.206199005 0.162429020
0.594939888 0.217457533 0.160025001
0.731562257 0.224541247 0.151929453
0.873371303 0.232764378 0.133586317
0.000000000 0.288424999 0.174952805
0.036685996 0.285641640 0.165085450
0.195825189 0.288425028 0.158381000
0.323971808 0.283238530 0.165970549
0.447312087 0.297786176 0.161669821
0.588994503 0.306767851 0.151043743
0.735610366 0.317520291 0.142188713
0.874256730 0.323212951 0.121695004
0.000000000 0.398481637 0.154079646
0.002276998 0.395319641 0.152941093
0.185199440 0.405186385 0.153826907
0.318405926 0.402403653 0.147881359
0.445794165 0.408728749 0.145730555
0.586337864 0.417330742 0.128905714
0.727008283 0.425427020 0.111954644
0.876280785 0.430613458 0.085895024
0.000000000 0.530423582 0.108539008
0.009614006 0.524098396 0.123592816
0.144845188 0.533586264 0.105376102
0.314737260 0.528905392 0.103858195
0.456799179 0.532827377 0.088931009
0.585072637 0.534724772 0.079696819
0.729285538 0.541429460 0.040101349
0.869069993 0.551296711 0.002530012
0.004048004 0.660088718 0.014168270
0.006072264 0.665148437 0.017331077
0.044402387 0.663251162 0.004048004
0.281973273 0.665907443 0.001517999
0.447185189 0.662871480 0.001897740
0.577735782 0.665907443 0.006072263
0.727134407 0.668311179 0.004427552
0.877672434 0.676407278 0.001265167
0.001644712 0.799873531 0.001644712
0.000000000 0.803415537 0.003542452
0.001644724 0.798355341 0.007969714
0.241619349 0.799873531 0.001138644
0.429348379 0.795951545 0.002277288
0.581277728 0.795319557 0.001897740
0.723719239 0.802150249 0.003922000
0.873371303 0.806831300 0.004933540
0.002656833 0.928525925 0.000000000
0.000000000 0.936116338 0.000758999
0.007589978 0.930676699 0.004427749
0.157874778 0.935483575 0.004174634
0.396584392 0.937760592 0.000000000
0.569386542 0.934345365 0.001897740
0.718785703 0.931182742 0.002656833
0.861859620 0.933712780 0.002530012
0.000000000 0.121189453 0.205440000
0.109677091 0.125110537 0.212903470
0.230360195 0.134850994 0.206199005
0.333333552 0.154459000 0.195192903
0.458696902 0.157622010 0.198481902
0.597849309 0.169765741 0.196457550
0.735863268 0.172169447 0.185958087
0.875395179 0.175711900 0.175332159
0.000000000 0.199114099 0.194813550
0.086148098 0.195192993 0.205440015
0.217837006 0.198355094 0.203036085
0.326628357 0.205819458 0.201138541
0.455155075 0.207716897 0.199747160
0.600885272 0.216445282 0.189753100
0.735104263 0.221884996 0.181530535
0.876913428 0.224794537 0.167488843
0.003162904 0.281720549 0.198861465
0.052118644 0.288804561 0.203921899
0.199367642 0.285641670 0.197596103
0.320430189 0.287159830 0.190512091
0.453130841 0.298165739 0.187476099
0.592156529 0.304490626 0.179506809
0.733586133 0.311068833 0.166603550
0.877672434 0.318152815 0.157748297
0.002783356 0.405439734 0.179253444
0.000000000 0.402024060 0.181151003
0.175332189 0.399240732 0.174066991
0.323592365 0.400758922 0.173307896
0.455155075 0.409108192 0.169006750
0.588741064 0.414927632 0.165211558
0.733586252 0.423150003 0.147122175
0.876660347 0.425047338 0.126755252
0.000000000 0.526502192 0.146236807
0.001518192 0.529284954 0.140543908
0.137128294 0.530043960 0.142568260
0.308159739 0.533206701 0.135736898
0.458317369 0.536369562 0.139532179
0.585958302 0.533586383 0.124604456
0.728020251 0.543326795 0.103099011
0.879949152 0.548387110 0.067931920
0.000379548 0.658064485 0.074003890
0.000000000 0.665654898 0.069449820
0.026059279 0.666287065 0.060468175
0.283238441 0.659329653 0.056419827
0.444908261 0.660468042 0.043516990
0.584693193 0.665527999 0.025300372
0.724857926 0.666413903 0.003542452
0.878051877 0.677292883 0.002656833
0.005566292 0.799873531 0.000379548
0.000000000 0.799620569 0.005439708
0.006704560 0.795951545 0.009487906
0.243896335 0.798734903 0.000000000
0.424541354 0.801518083 0.002276998
0.584819734 0.796078503 0.003162904
0.730550289 0.801897705 0.000000000
0.873371303 0.806451738 0.001897740
0.000000000 0.929285049 0.002277285
0.000000000 0.938646317 0.000758999
0.001897737 0.932574153 0.000000000
0.151296839 0.929158390 0.007716799
0.394433737 0.933839619 0.001138644
0.567741930 0.933460057 0.001518192
0.720809639 0.931688488 0.003036280
0.871094584 0.931182802 0.001265167
0.014041902 0.124731094 0.262618899
0.113598987 0.130550444 0.251612991
0.224035278 0.141176000 0.261859983
0.340417564 0.149779007 0.259582907
0.467678577 0.152182102 0.257937998
0.596584678 0.144465625 0.241239995
0.740417540 0.150664091 0.244655386
0.883111775 0.147248641 0.229475170
0.000379549 0.194813445 0.250474542
0.103858553 0.198355094 0.247691095
0.207969636 0.199493647 0.254395634
0.333333641 0.199493647 0.253131002
0.462998390 0.201138452 0.247691095
0.604427636 0.204680905 0.245920449
0.736242712 0.211258844 0.239089385
0.885262311 0.207843006 0.225806385
0.001517998 0.284503192 0.251612991
0.056799546 0.286021173 0.246932104
0.202909291 0.295509100 0.241366193
0.327893734 0.289184093 0.250854105
0.458950341 0.295509100 0.244781911
0.600885451 0.298165739 0.238457009
0.738772810 0.305755913 0.226692095
0.882479370 0.303858370 0.218216240
0.002783356 0.401138365 0.241113454
0.004680902 0.399620295 0.239595458
0.173434645 0.402403623 0.237065449
0.325110286 0.396458089 0.236053094
0.455534607 0.405439615 0.228969097
0.590132713 0.413282722 0.218975544
0.736116290 0.418089926 0.214547649
0.880835056 0.421252429 0.199114099
0.000000000 0.535990059 0.213283017
0.000759096 0.530803025 0.212270439
0.118279196 0.535104334 0.210879207
0.304617196 0.535990059 0.203036100
0.451992184 0.534472048 0.201517999
0.585452080 0.536242962 0.196457639
0.734724581 0.542188346 0.185958102
0.880455375 0.545351088 0.167236120
0.000759096 0.665907443 0.165717810
0.000758999 0.660468280 0.170018911
0.012144193 0.664010167 0.161163747
0.273371071 0.665275395 0.168374360
0.444528639 0.661227345 0.159519106
0.585958481 0.664010167 0.149905100
0.732827306 0.671473742 0.132700920
0.878937602 0.675015807 0.104364291
0.003922000 0.800000072 0.082605809
0.001644712 0.797596395 0.080202177
0.002403811 0.803921282 0.081467353
0.231752351 0.800632417 0.068943731
0.422138155 0.800759017 0.053383932
0.579633415 0.799620509 0.039468993
0.727640808 0.799873531 0.022897013
0.873750865 0.809867084 0.002277296
0.000000000 0.935104489 0.001265170
0.000000000 0.935990095 0.000759003
0.003795182 0.931941867 0.000000003
0.112081051 0.936622262 0.003795282
0.386211485 0.937001705 0.002530012
0.559519291 0.934345365 0.001138644
0.718026578 0.930423677 0.001897736
0.868058026 0.931688547 0.006325001
0.050474640 0.127766997 0.330677003
0.124857545 0.135989547 0.327640891
0.232257739 0.139152452 0.324857533
0.343579620 0.149020001 0.321694642
0.471600175 0.152561560 0.333839178
0.609993756 0.137254998 0.326122880
0.743832886 0.123719357 0.318911970
0.891840577 0.082100041 0.313851625
0.022264546 0.192409635 0.331435978
0.112333737 0.198734552 0.327261358
0.231498733 0.198734641 0.331562191
0.338013649 0.200252742 0.320050627
0.469196498 0.203162715 0.326375723
0.604427636 0.192409545 0.322833389
0.743706107 0.180518806 0.318279296
0.892093539 0.162049457 0.307400197
0.005566003 0.290322751 0.319797307
0.083491452 0.286780298 0.320556194
0.216065556 0.290702194 0.324605018
0.338393182 0.290322542 0.323212832
0.467299014 0.289184123 0.322960109
0.607969463 0.285262108 0.308412552
0.750537276 0.286527365 0.308538824
0.887159765 0.281087846 0.304617375
0.005566002 0.400758922 0.316635013
0.000379548 0.401138365 0.317773640
0.184946090 0.404301196 0.307653636
0.316761643 0.400758922 0.306008637
0.458191156 0.409867108 0.307653636
0.597343683 0.412270904 0.302972764
0.747248292 0.409108013 0.294244349
0.886653781 0.408728451 0.289310813
0.000000000 0.530423582 0.305629283
0.000000000 0.533586264 0.300569534
0.084377259 0.531561971 0.297406644
0.306388080 0.535483837 0.288298190
0.451992184 0.535863400 0.293864787
0.596584678 0.533586383 0.292346716
0.736369491 0.537508130 0.282226324
0.890575409 0.537128568 0.273497820
0.004174738 0.664010167 0.275901198
0.002656643 0.663630545 0.272865087
0.002277109 0.666034281 0.263630629
0.266287178 0.666793406 0.269449651
0.441492736 0.662365913 0.262492299
0.592662811 0.664769113 0.264769286
0.732700884 0.667046130 0.252371997
0.886021495 0.671979725 0.239468545
0.000000000 0.800379634 0.237065345
0.000000000 0.802656651 0.234408796
0.001518193 0.798355341 0.232764184
0.213029996 0.796457887 0.237571001
0.415939271 0.803162515 0.232258096
0.580897987 0.800000131 0.218722090
0.726502120 0.801011860 0.213535637
0.878937602 0.811132312 0.186590701
0.001138644 0.936622262 0.162681773
0.001265167 0.936116338 0.171789840
0.000000001 0.939911187 0.169892490
0.065907769 0.934092343 0.159139678
0.375838190 0.936369658 0.157115668
0.557495236 0.935863376 0.143073961
0.716635048 0.933586240 0.127261326
0.874509990 0.932827175 0.100695774
0.096521199 0.138772801 0.424794376
0.163061202 0.141176000 0.419101983
0.256167173 0.142694190 0.416066170
0.364705831 0.146236643 0.421252549
0.480961382 0.156863004 0.415180385
0.615686238 0.141176000 0.423529446
0.750411153 0.122580715 0.419987381
0.894623578 0.079570025 0.417584181
0.063757256 0.201770931 0.423276186
0.136242896 0.198734552 0.418848723
0.250601083 0.202656552 0.421884716
0.362682104 0.198734641 0.414927542
0.479443192 0.201897547 0.418975562
0.618089557 0.192915812 0.419607729
0.753953159 0.180392295 0.418722540
0.896141410 0.154965267 0.416825175
0.005566099 0.293864995 0.416065991
0.087413348 0.293106109 0.406957835
0.220113903 0.292347014 0.420872957
0.350663811 0.289943099 0.413788974
0.473877281 0.290828794 0.415307075
0.613788784 0.286527455 0.417204648
0.754332602 0.279063821 0.411258757
0.895129681 0.268437743 0.408601910
0.001138644 0.409108281 0.413156182
0.007084001 0.404680818 0.408601940
0.191144988 0.408222377 0.414547980
0.336242884 0.403415382 0.411005765
0.471220732 0.405819267 0.406578183
0.609867096 0.405819148 0.406324744
0.754079759 0.404680640 0.405565739
0.893864334 0.394433826 0.400000006
0.003922000 0.532827377 0.402783185
0.000758999 0.532320976 0.404300988
0.121568821 0.535863400 0.405060261
0.303352445 0.536749005 0.401897192
0.456546366 0.535231233 0.394054174
0.602656901 0.533965647 0.399620384
0.752055466 0.531309247 0.395698905
0.898924768 0.525110543 0.389373720
0.000000000 0.664516270 0.389753640
0.000000000 0.663630605 0.390133202
0.012397104 0.662745357 0.378747523
0.267046094 0.667172730 0.384693265
0.444022357 0.661986470 0.387349844
0.586337686 0.666287005 0.374446183
0.746109843 0.669449925 0.375711441
0.898924530 0.666413963 0.370524913
0.002403808 0.797723234 0.371536911
0.001644712 0.799241304 0.367994845
0.003289004 0.799873531 0.372928411
0.187982097 0.799114347 0.369133294
0.412144363 0.803794980 0.363567173
0.581910491 0.802277029 0.359266549
0.733206570 0.800759196 0.351929098
0.895888567 0.806451738 0.340038002
0.000000000 0.938899219 0.338393390
0.000379548 0.935736954 0.335610330
0.001265168 0.939658344 0.327261269
0.041998841 0.937507987 0.331182569
0.368627578 0.936495781 0.323213011
0.555471241 0.934851468 0.323339373
0.721441984 0.933839619 0.320303559
0.878178418 0.932068050 0.307526737
0.141176000 0.144971475 0.534724772
0.188867807 0.145477548 0.537128568
0.279570103 0.149905100 0.535483837
0.392536372 0.145983621 0.532827497
0.505629420 0.141682461 0.529664457
0.626691997 0.139278740 0.526881695
0.756862521 0.116634972 0.528779447
0.907526791 0.068311289 0.537128568
0.101328254 0.201138362 0.531056285
0.170778200 0.198734552 0.532700658
0.268437654 0.199114099 0.531815410
0.383427918 0.196710899 0.529538393
0.501328349 0.192030191 0.531562209
0.632637739 0.192156807 0.530803204
0.757748067 0.175332069 0.530423701
0.903731942 0.152308524 0.528273284
0.004807100 0.294750094 0.533586383
0.099810340 0.291587919 0.532700598
0.232511193 0.291967481 0.523339570
0.360278189 0.291587919 0.524351716
0.495129555 0.288804561 0.528146386
0.625426769 0.285389125 0.529158771
0.758254409 0.281467199 0.524984181
0.904743612 0.265655100 0.524098575
0.004807100 0.409993619 0.524857461
0.000758999 0.415686548 0.523213267
0.190006554 0.408601910 0.524857521
0.339911371 0.407716781 0.526502192
0.482858717 0.410626173 0.530044079
0.620493472 0.404301167 0.518658996
0.756230175 0.402656376 0.518658996
0.906008780 0.396837652 0.522454143
0.000000000 0.541808724 0.521948099
0.000758999 0.537760913 0.519038558
0.120303459 0.538267076 0.522200763
0.312207639 0.533965707 0.519670844
0.469702840 0.534724772 0.518026531
0.610879421 0.535863400 0.514484286
0.758633852 0.528905392 0.519418180
0.907906294 0.525237024 0.520429909
0.005692737 0.666034460 0.517014444
0.003035997 0.669070482 0.510056734
0.015939284 0.670208693 0.508032739
0.278178185 0.669955432 0.509930372
0.453130931 0.669575989 0.509677529
0.599114478 0.664010167 0.513092995
0.758633852 0.662112415 0.507653236
0.906514764 0.652245700 0.503731787
0.001897740 0.800759256 0.498291999
0.002024260 0.799494028 0.502087176
0.000000001 0.804174721 0.500189722
0.214294732 0.801391423 0.505755842
0.425932825 0.803035975 0.501707733
0.587096930 0.799620509 0.498924762
0.744592011 0.799494028 0.490449011
0.902719378 0.804174483 0.492726207
0.000000000 0.935104489 0.483364910
0.000000000 0.939152241 0.493738115
0.000000001 0.935104489 0.487539738
0.062618688 0.938140452 0.485515445
0.372295946 0.939911246 0.485641897
0.560910463 0.937760592 0.477672458
0.730044305 0.934092343 0.473118484
0.886021495 0.931308985 0.466919482
0.169259995 0.147375286 0.667552292
0.214674085 0.148387000 0.660341263
0.311827898 0.143579811 0.662618577
0.413155913 0.138393342 0.655407548
0.537507892 0.129538104 0.654142976
0.652877748 0.113219425 0.654775560
0.780898511 0.086653724 0.655407548
0.913472652 0.055154905 0.657052457
0.135989547 0.198355094 0.665401995
0.189879820 0.199873284 0.654775560
0.293864816 0.200379267 0.658823431
0.404174685 0.196078196 0.655028105
0.524731159 0.186337546 0.660847664
0.656546235 0.176470712 0.657052338
0.783807993 0.159645557 0.657052279
0.910183311 0.147501528 0.646173358
0.026692098 0.290828824 0.657052279
0.129664719 0.291081876 0.655155003
0.258696914 0.287539393 0.656166673
0.384566456 0.286021382 0.658317506
0.517014444 0.286021382 0.654775381
0.648576736 0.280202448 0.654775560
0.783934534 0.271979928 0.656166852
0.911448121 0.264516264 0.651612878
0.008349358 0.409740537 0.659202874
0.001644712 0.408981353 0.657179058
0.194054380 0.408475697 0.655534565
0.357621610 0.405819267 0.653636932
0.503731966 0.403542280 0.658823490
0.640860140 0.398734987 0.652878046
0.774699330 0.400758922 0.654775262
0.910309911 0.396837652 0.645920396
0.000000000 0.543580294 0.653257370
0.002277191 0.543579698 0.656546593
0.115496814 0.536622286 0.656293392
0.319671005 0.532068074 0.662745297
0.488804400 0.532700479 0.651612639
0.633017302 0.530423582 0.656040728
0.774699271 0.530423582 0.653889537
0.903478742 0.527008057 0.645920396
0.003794996 0.677292943 0.651233077
0.000379548 0.677672386 0.649715304
0.001518108 0.674636364 0.642251670
0.270714730 0.674256802 0.646046817
0.456293792 0.669449925 0.646805525
0.615686476 0.664010167 0.647185087
0.768374562 0.663377702 0.650474131
0.908159077 0.660847962 0.650221288
0.002277288 0.813282847 0.641366303
0.001897740 0.805818796 0.637444854
0.000000000 0.807716548 0.640480816
0.209614336 0.806577921 0.639595211
0.423023343 0.808475673 0.640733480
0.599746704 0.805059791 0.643896282
0.757368565 0.802150249 0.645287812
0.911954284 0.794307232 0.640733838
0.002909557 0.934598625 0.625174105
0.001897740 0.938014030 0.631625354
0.002277094 0.934345365 0.626312435
0.083364919 0.941049814 0.629221976
0.398608387 0.938266814 0.633776248
0.584440470 0.936369658 0.640986800
0.740037858 0.932068050 0.635800600
0.899936557 0.929790795 0.629980803
0.196204826 0.135863006 0.800505579
0.239215717 0.134851485 0.802150309
0.324857831 0.134598166 0.800505579
0.433016837 0.122580819 0.803415775
0.549651980 0.104237668 0.801770747
0.678431571 0.080202304 0.801011860
0.811385095 0.023655761 0.797849476
0.945730448 0.001265167 0.801897585
0.173434436 0.193801105 0.804933310
0.219481364 0.195319384 0.793674886
0.314864099 0.187223271 0.798861325
0.428842425 0.180392385 0.806198418
0.549525797 0.171537176 0.800632119
0.679822683 0.155850857 0.803415418
0.812650084 0.132700920 0.800885141
0.953700006 0.092852607 0.800885201
0.072359279 0.283997267 0.799620509
0.168121427 0.286906898 0.805439115
0.279696077 0.285136282 0.796710670
0.405059993 0.283364832 0.804300785
0.539405346 0.273118347 0.800505579
0.670082033 0.270208865 0.801391482
0.807337046 0.254522562 0.800126195
0.946362674 0.241113260 0.802656472
0.002656833 0.400885463 0.794939578
0.009487818 0.404680640 0.797596395
0.223023266 0.407969534 0.803415358
0.376343906 0.406198442 0.805439413
0.522960067 0.400506020 0.806704283
0.662745416 0.394813359 0.797343552
0.799493909 0.390638918 0.797722936
0.943073571 0.381277442 0.800758958
0.001265167 0.536622524 0.801897585
0.000000000 0.536749005 0.797469914
0.076407447 0.529411793 0.801517904
0.341050088 0.530803144 0.808854759
0.497280359 0.533966005 0.798987806
0.650474370 0.526502192 0.800885141
0.793674827 0.524351656 0.799494028
0.939531803 0.519165218 0.799620569
0.002530012 0.673118353 0.798355520
0.001265167 0.673750460 0.797975540
0.001897750 0.671726882 0.801391542
0.255154818 0.663251281 0.799367487
0.452245831 0.657052696 0.797722816
0.634661436 0.664642632 0.805186450
0.784693301 0.663630724 0.801138520
0.930550516 0.656293750 0.794433832
0.005819163 0.813282847 0.805313170
0.000000000 0.817204297 0.793674946
0.002783166 0.817457318 0.792283535
0.126881748 0.812903404 0.794180751
0.411511987 0.807716548 0.797722757
0.599493861 0.798861384 0.797975540
0.762681663 0.796837270 0.797849476
0.925363719 0.795319557 0.792536378
0.002530012 0.950790763 0.776849747
0.002277285 0.954332292 0.786843598
0.002530012 0.945603669 0.777482688
0.040101200 0.948892951 0.781783581
0.383428574 0.941176593 0.776976585
0.585578620 0.939784825 0.781530499
0.761290550 0.929790795 0.787096858
0.908918619 0.929917574 0.795319438
