Assets/EldamarStudio/100 Retro LUTs Pack/LUTs/cube/Pamela LUT.cube
LUT_3D_SIZE 5
DOMAIN_MIN 0.000000 0.000000 0.000000
DOMAIN_MAX 0.903226 0.903226 0.903226
0.000000000 0.121569000 0.172548994
0.209866986 0.121569000 0.166982710
0.395572394 0.143832996 0.168626994
0.627830267 0.163820133 0.159772143
0.873750746 0.180391997 0.139785007
0.000000000 0.261859715 0.169639707
0.170019001 0.261859715 0.168248296
0.394687086 0.264136404 0.170271710
0.629727840 0.284756303 0.158128008
0.876027703 0.295888543 0.124731012
0.000000000 0.462997794 0.140417591
0.115116999 0.462998241 0.137887001
0.391777366 0.470208377 0.131942004
0.622264564 0.476027817 0.101834431
0.878305018 0.491081566 0.056040186
0.000000000 0.694497287 0.000000000
0.000632580 0.694117725 0.000000000
0.359139383 0.694750130 0.002023998
0.612144291 0.699304104 0.000000000
0.878684282 0.709803939 0.001265167
0.002656833 0.928525925 0.000000000
0.006577994 0.932447612 0.001644708
0.302086979 0.934472084 0.001897590
0.606831312 0.935104489 0.002656833
0.861859620 0.933712780 0.002530012
0.004933705 0.125489995 0.251992702
0.197469980 0.136621997 0.249715403
0.401265085 0.147375286 0.243896410
0.630487263 0.154585570 0.230107412
0.881846726 0.155850723 0.213029996
0.000000000 0.257937700 0.233396411
0.173307985 0.269702703 0.237571284
0.395952076 0.270714819 0.235673696
0.631752253 0.277166605 0.225806281
0.880961657 0.282099724 0.206578001
0.004174720 0.464642525 0.212397426
0.098039418 0.467552394 0.206198692
0.385578483 0.468184382 0.204554006
0.625553548 0.472738534 0.192156568
0.878557980 0.484882951 0.163314164
0.001012128 0.700316250 0.120176829
0.003036126 0.699683845 0.133586437
0.356862515 0.699304104 0.116887987
0.620873153 0.696394980 0.100822449
0.877672195 0.706894398 0.022137873
0.000000000 0.935104489 0.004554003
0.000000000 0.933459759 0.001265167
0.286147922 0.936748922 0.000632584
0.601264954 0.934092343 0.001644704
0.867551863 0.932447553 0.003288997
0.065401994 0.139910996 0.369386405
0.213788986 0.142188698 0.374066800
0.408095807 0.149020001 0.367488801
0.644149363 0.137254998 0.372422665
0.896647334 0.078810781 0.367488980
0.003288997 0.270714819 0.363820285
0.194180980 0.263124257 0.372043401
0.405439824 0.267046273 0.364831984
0.642251790 0.257305264 0.362175822
0.894370496 0.238583401 0.355723977
0.000000000 0.464262962 0.356356382
0.089183867 0.465275079 0.358633667
0.389120370 0.464262962 0.348513395
0.638330281 0.469196677 0.346236527
0.890069366 0.468184829 0.332827419
0.004174878 0.700695693 0.327261120
0.000000000 0.698039114 0.325996101
0.347248375 0.696394980 0.317520499
0.624541700 0.700695693 0.311827958
0.892346621 0.708918452 0.299556971
0.000632584 0.932447612 0.258949816
0.000632584 0.936369479 0.258317649
0.255154938 0.933712780 0.249082565
0.597469985 0.936116338 0.245920390
0.872992039 0.929790735 0.219607830
0.143200263 0.149020001 0.562049150
0.261606395 0.145098001 0.563061297
0.449209392 0.145730570 0.558128119
0.665148258 0.133207008 0.555218279
0.908032894 0.068058319 0.562681973
0.027324598 0.263124257 0.560152113
0.227957115 0.266413718 0.560784578
0.437191665 0.261859566 0.557874799
0.667425454 0.257558584 0.557748437
0.906767726 0.239848316 0.560531437
0.000000000 0.477039933 0.552182138
0.104743883 0.475142509 0.555471122
0.406451702 0.470208377 0.551296294
0.653384268 0.465275109 0.547754526
0.904490590 0.458697110 0.552308559
0.009741003 0.699431121 0.545351028
0.000000000 0.704617083 0.547754526
0.354838669 0.701328099 0.537254691
0.639595270 0.698418975 0.541429281
0.911574781 0.687919080 0.536622107
0.000000000 0.938393652 0.521315455
0.001265167 0.935357511 0.522960186
0.273497790 0.935357332 0.531309545
0.604680598 0.939025760 0.517394125
0.893105924 0.932068110 0.508918226
0.196204826 0.135863006 0.800505579
0.299557239 0.134598166 0.799240768
0.495003223 0.119544588 0.811005771
0.710815787 0.070335187 0.799493730
0.945730448 0.001265167 0.801897585
0.109550960 0.261479855 0.800632417
0.258696824 0.258823425 0.798481762
0.475395203 0.254269421 0.798861325
0.708032668 0.234535158 0.798861265
0.944338739 0.205186427 0.799873590
0.005312988 0.467425555 0.801138163
0.095635816 0.471473366 0.796204865
0.436811984 0.464895546 0.800505579
0.693232179 0.460721076 0.804427624
0.943073750 0.455154985 0.803795159
0.000000000 0.712081134 0.798355281
0.002656571 0.706641555 0.799114347
0.347628087 0.703225672 0.794054210
0.663250983 0.698039293 0.799873590
0.930297434 0.692473412 0.798228920
0.002530012 0.950790763 0.776849747
0.003036115 0.949398816 0.782542765
0.246552378 0.946236193 0.783554733
0.630866349 0.939025760 0.782542646
0.908918619 0.929917574 0.795319438
