Assets/EldamarStudio/100 Retro LUTs Pack/LUTs/cube/Pamela LUT.cube
DOMAIN_MIN 0 0 0
DOMAIN_MAX 1 1 1
LUT_3D_SIZE 32
0.000000000 0.121569000 0.172548994
0.012143999 0.121569000 0.166477010
0.052245319 0.117267452 0.164706007
0.095003322 0.114990160 0.167236000
0.124225549 0.117647000 0.172169447
0.145477936 0.117647000 0.169133052
0.181910321 0.120177321 0.168626994
0.209866986 0.121569000 0.166982710
0.228842095 0.122327901 0.166983098
0.250094503 0.125363514 0.176091477
0.280075729 0.125489995 0.167742133
0.310436517 0.127514258 0.164706007
0.341935635 0.131688997 0.165844351
0.374320030 0.137760997 0.168626994
0.395572394 0.143832996 0.168626994
0.426438779 0.147501811 0.168626994
0.461353362 0.149020001 0.170145184
0.498418540 0.149652421 0.171284005
0.537887037 0.152688056 0.165212005
0.566224098 0.158507019 0.167488649
0.595445991 0.160784006 0.164831996
0.627830267 0.163820133 0.159772143
0.664263010 0.172422484 0.156863004
0.700695813 0.169386089 0.156863004
0.737128556 0.173181564 0.159139708
0.770777941 0.177862316 0.155218020
0.801644206 0.180391997 0.145098001
0.835041285 0.180391997 0.145098001
0.873750746 0.180391997 0.139785007
0.911448359 0.182163209 0.135483786
0.947881222 0.182543010 0.131562009
0.984314024 0.176470995 0.125489995
0.000000000 0.133712992 0.163440615
0.012143999 0.133712992 0.160405010
0.045793548 0.138014004 0.167236000
0.085894935 0.138013780 0.173307985
0.115876161 0.138519838 0.177102998
0.142441541 0.135863006 0.166097447
0.168753922 0.138393313 0.165591389
0.201265007 0.138140291 0.170525089
0.225806475 0.136748612 0.170778200
0.247058883 0.137507513 0.163946718
0.279949248 0.140543863 0.173055097
0.306388497 0.146742642 0.166730002
0.338140637 0.149525747 0.164706007
0.375079066 0.149904996 0.165591389
0.404680789 0.155976996 0.165591389
0.423529387 0.162048995 0.165591389
0.459835559 0.162681803 0.165591389
0.499557376 0.161164001 0.166477010
0.531815052 0.161796451 0.165212005
0.565718114 0.170398757 0.161922649
0.599240959 0.174826026 0.160657749
0.631878257 0.175964385 0.156736255
0.664136469 0.178747505 0.153953120
0.697659433 0.181530863 0.156863004
0.734092176 0.183048472 0.154585719
0.769133270 0.186970294 0.154712006
0.802150130 0.189500391 0.150158003
0.838076949 0.189500391 0.145098001
0.874130249 0.189500391 0.139785007
0.909677148 0.187729180 0.131941795
0.945730388 0.187349617 0.126375616
0.984314024 0.185578614 0.122454390
0.000000000 0.150158003 0.165085003
0.003542000 0.152308777 0.157748386
0.035040777 0.154458985 0.163314223
0.073750705 0.158000991 0.167868227
0.105755992 0.157241985 0.171157330
0.138393164 0.152434841 0.173181772
0.167868316 0.152308330 0.171157777
0.196837395 0.153700009 0.169513062
0.225679994 0.152687877 0.174320221
0.248323724 0.154079556 0.167741805
0.279063880 0.159139633 0.169512868
0.306388497 0.160151765 0.170524731
0.334092647 0.164326355 0.167994872
0.371031046 0.161796033 0.169007003
0.403289050 0.165970773 0.169007003
0.434787989 0.169892550 0.166856229
0.454522163 0.175964534 0.165338427
0.493105590 0.174826205 0.164706007
0.526502073 0.173308015 0.164706007
0.561796308 0.181657374 0.164073423
0.597090662 0.186970264 0.159139782
0.631499052 0.188994005 0.156863004
0.662112713 0.189247027 0.154965267
0.697532892 0.194307685 0.153953135
0.728905559 0.195193246 0.154585719
0.766729653 0.198228866 0.151549682
0.801644206 0.200759009 0.149272710
0.836432636 0.200759009 0.141556010
0.877166390 0.200759009 0.133333236
0.911827922 0.202530220 0.132574439
0.945224285 0.201138556 0.126755163
0.982163250 0.201138556 0.123719223
0.001265161 0.172169164 0.169892162
0.000000000 0.172675565 0.159519389
0.021631936 0.174446553 0.163314223
0.063630320 0.177482158 0.171157315
0.096647933 0.176723152 0.164326221
0.131309167 0.170651168 0.169386551
0.162681475 0.169639170 0.175205827
0.195572227 0.169639170 0.172296286
0.226692110 0.170398265 0.170019001
0.252498329 0.173434660 0.170019001
0.277545720 0.176850155 0.168753833
0.305123329 0.177608997 0.167994738
0.336243093 0.179885998 0.170651287
0.369007051 0.177988216 0.173308104
0.398355365 0.182036728 0.171283826
0.430486947 0.183807969 0.168880343
0.464136511 0.185832143 0.164579198
0.487918854 0.191271573 0.162808433
0.523719132 0.189500213 0.163440838
0.558886707 0.195066512 0.163440838
0.595319450 0.201644585 0.162175849
0.630740106 0.203668326 0.157115981
0.661353827 0.203668326 0.156863004
0.695509136 0.207463816 0.154965267
0.731182516 0.210246831 0.151676163
0.763187647 0.209108487 0.151549682
0.801644206 0.212650165 0.148007870
0.835041285 0.214168161 0.139658391
0.875142455 0.215433329 0.130550340
0.914863944 0.215939373 0.125996038
0.950031638 0.217204556 0.126375839
0.984187126 0.216825008 0.122959994
0.003542452 0.198355094 0.172169447
0.000885613 0.195698932 0.161543459
0.015686452 0.194813550 0.163314223
0.047691610 0.196078390 0.170398220
0.093611546 0.198355094 0.175332442
0.123972312 0.192283094 0.163187683
0.154711992 0.191650540 0.168374315
0.186843395 0.190891549 0.168880448
0.222517192 0.191650644 0.164706007
0.255914330 0.194687039 0.164706007
0.275521994 0.194813550 0.162555128
0.300189704 0.193168834 0.161922559
0.331688732 0.193168551 0.164199740
0.373687506 0.198481590 0.174826443
0.395572394 0.204174832 0.168753713
0.424794585 0.206199005 0.166603252
0.457432359 0.206199005 0.162429020
0.493611962 0.206831515 0.157495424
0.527008414 0.209867135 0.160531044
0.560404956 0.212903365 0.160404548
0.594939888 0.217457533 0.160025001
0.630360663 0.221884996 0.159772143
0.664010048 0.221884996 0.156610012
0.695129812 0.221884996 0.156103998
0.731562257 0.224541247 0.151929453
0.768247664 0.225553215 0.148640454
0.801644206 0.223276541 0.147628412
0.835041285 0.229348540 0.141555652
0.873371303 0.232764378 0.133586317
0.912839651 0.233649999 0.127261326
0.951549232 0.233523488 0.123719007
0.991018414 0.230487093 0.117647000
0.000506065 0.216571867 0.169133052
0.000506065 0.216571867 0.169133052
0.008601999 0.216065928 0.167109057
0.032890450 0.217330769 0.168626994
0.072359152 0.219607472 0.169259682
0.120935924 0.216571867 0.166224077
0.153826371 0.218089551 0.169259936
0.181783408 0.215685934 0.167615294
0.210373089 0.212903023 0.162049159
0.243769586 0.215939417 0.164706007
0.268437862 0.216065928 0.167615131
0.295761973 0.216065928 0.169639260
0.325616360 0.216698229 0.168753937
0.358507127 0.219733968 0.165718079
0.394939870 0.216698349 0.159646079
0.428842604 0.222390994 0.165591121
0.461227387 0.224414989 0.166603252
0.493864954 0.225047559 0.163061440
0.530044079 0.228083909 0.160531044
0.563441157 0.231119514 0.158001363
0.594939947 0.234155729 0.155471206
0.627324402 0.237697795 0.154965132
0.660974443 0.240100995 0.156610012
0.700442851 0.240100995 0.150537997
0.733839273 0.244654983 0.147754714
0.768247664 0.248829603 0.145604059
0.801644206 0.250347942 0.144592062
0.835041285 0.250600934 0.138520047
0.871094584 0.254016757 0.135104105
0.909804046 0.253510714 0.127514318
0.947501481 0.252751619 0.121189326
0.981910050 0.254775852 0.117647000
0.000000000 0.237318322 0.166097328
0.005059999 0.232258320 0.163567007
0.000758999 0.240860328 0.167868003
0.022011161 0.242378324 0.167362154
0.060847320 0.243010640 0.166476771
0.107273862 0.237824261 0.167741612
0.145730644 0.237318322 0.172296315
0.179127023 0.238709643 0.171789899
0.207590193 0.237444639 0.165085092
0.239215821 0.242251813 0.164579496
0.266413748 0.239847988 0.165085465
0.292726249 0.239847988 0.168121055
0.324857593 0.239847988 0.170018673
0.358254343 0.241239309 0.167235672
0.392409801 0.240480408 0.165717676
0.426438779 0.242251799 0.164452672
0.459709048 0.248197317 0.167109191
0.490702212 0.251486301 0.164073423
0.525237024 0.256419957 0.161037028
0.558886468 0.254396290 0.152941361
0.597975850 0.257431895 0.159392998
0.631878376 0.261480004 0.158507332
0.665148973 0.265654325 0.156736493
0.697406590 0.260847330 0.153067678
0.736875474 0.263124615 0.146995679
0.770778000 0.267551959 0.143706322
0.804174423 0.270081997 0.141555682
0.837570965 0.270081997 0.135483682
0.876154602 0.272738844 0.129538164
0.910816133 0.274004012 0.124731019
0.947881222 0.273497939 0.116382077
0.982922316 0.276534319 0.110056676
0.000000000 0.261859715 0.169639707
0.004427711 0.255787700 0.161669612
0.005186709 0.259329706 0.163440719
0.010499868 0.265148550 0.166982710
0.049209263 0.264768988 0.164706007
0.097280100 0.261226982 0.166476771
0.138519928 0.261859715 0.170398220
0.170019001 0.261859715 0.168248296
0.202656493 0.261100620 0.165970609
0.233017281 0.264515996 0.166476771
0.267046154 0.263503850 0.166350290
0.294370532 0.260847390 0.166729733
0.323972195 0.261985749 0.169765636
0.359899044 0.262744725 0.170271710
0.394687086 0.264136404 0.170271710
0.421505511 0.268184513 0.166982710
0.453383714 0.272738695 0.165464520
0.486274391 0.276913285 0.163061291
0.522706985 0.279949397 0.161037028
0.554459155 0.280961335 0.154079631
0.590259194 0.281720668 0.150031999
0.629727840 0.284756303 0.158128008
0.663504243 0.290195704 0.153574005
0.699936748 0.290195674 0.152055815
0.733839095 0.287665993 0.145098001
0.770524919 0.292093694 0.140417323
0.804427385 0.294370323 0.136875004
0.838962436 0.293231696 0.130803004
0.876027703 0.295888543 0.124731012
0.915243387 0.295508981 0.121948019
0.947754443 0.294623584 0.113219410
0.982669294 0.296141982 0.102593005
0.000000000 0.288424999 0.174952805
0.002277291 0.283870995 0.164326236
0.003162904 0.284882993 0.162175685
0.011258964 0.288678050 0.164706007
0.036685996 0.285641640 0.165085450
0.088678032 0.285262108 0.165464908
0.130423650 0.287033319 0.165717676
0.166982800 0.287666112 0.163693711
0.195825189 0.288425028 0.158381000
0.226185992 0.285388619 0.167488605
0.264515936 0.285262108 0.168626994
0.295129240 0.283997267 0.167108998
0.323971808 0.283238530 0.165970549
0.357368916 0.286274195 0.168753907
0.393295586 0.289310604 0.168753907
0.421505690 0.293232203 0.166224018
0.447312087 0.297786176 0.161669821
0.480202198 0.303858161 0.158001021
0.522707045 0.301202059 0.157747999
0.555597842 0.303731740 0.154459104
0.588994503 0.306767851 0.151043743
0.623656273 0.309045076 0.149020001
0.657305598 0.312080681 0.148766980
0.699177802 0.317520082 0.147501811
0.735610366 0.317520291 0.142188713
0.769006729 0.317140996 0.135863319
0.802403152 0.323213130 0.131815061
0.838582873 0.320935845 0.125490099
0.874256730 0.323212951 0.121695004
0.912460208 0.324225098 0.116887905
0.950790286 0.320429802 0.112460509
0.981151104 0.317394197 0.097280100
0.000000000 0.312713027 0.168880031
0.000000001 0.312713027 0.162808046
0.000126517 0.312460035 0.160784006
0.007716510 0.313978195 0.162175685
0.030613210 0.316002429 0.165085450
0.085262761 0.312966049 0.168121055
0.122074790 0.312586516 0.163440526
0.157495394 0.311068743 0.159392715
0.192789569 0.309677422 0.158381000
0.226185977 0.312713027 0.164453000
0.262365758 0.312586516 0.167741612
0.290828466 0.312586516 0.164579004
0.317520261 0.313598663 0.158760011
0.348260522 0.316635013 0.153573513
0.381656885 0.319671392 0.153573513
0.417583644 0.320304006 0.155977324
0.450347900 0.320556998 0.155597821
0.483238608 0.322074980 0.151929021
0.525743484 0.328146994 0.145857006
0.562682152 0.331056148 0.148387358
0.596964180 0.334092259 0.149146482
0.629475236 0.336116523 0.149020001
0.660341978 0.336369485 0.148766965
0.699810386 0.339405090 0.142694175
0.737128556 0.340290517 0.139152318
0.772043109 0.340164036 0.135863304
0.805439532 0.341429144 0.131815046
0.838835895 0.347501934 0.122707456
0.872359455 0.350537658 0.124351621
0.909424603 0.353573740 0.119923785
0.948007703 0.353700489 0.109424144
0.984187484 0.347755015 0.094244473
0.000000000 0.337001741 0.171536863
0.002909870 0.339911610 0.156736016
0.000759097 0.339911610 0.159265995
0.000000000 0.339911610 0.160784006
0.013662092 0.341303200 0.161416680
0.073370993 0.343326807 0.159392938
0.115370214 0.340291053 0.159898877
0.154459387 0.343200594 0.161163881
0.194181085 0.343200713 0.161922902
0.231878489 0.339785129 0.161543131
0.250727713 0.337001741 0.161796138
0.287159979 0.341049761 0.164832264
0.314990282 0.340543717 0.159139872
0.342568040 0.338266879 0.149525821
0.381277382 0.341303289 0.144212127
0.412270606 0.349146068 0.153826728
0.449209183 0.350663990 0.156863004
0.485009223 0.351296574 0.156483293
0.522960126 0.355091870 0.157241985
0.554332912 0.355597883 0.142820626
0.590512633 0.358506978 0.141303003
0.623908997 0.361543119 0.138267130
0.654648781 0.363440871 0.134219140
0.694117904 0.363693833 0.128147066
0.731309533 0.366730034 0.124351591
0.767741919 0.365970939 0.122707129
0.803668380 0.365970820 0.120682999
0.841872275 0.374446779 0.113978595
0.880581617 0.375205874 0.112840131
0.912713528 0.377988517 0.106768034
0.946995556 0.380138993 0.095635667
0.981404126 0.378114998 0.082479261
0.000000000 0.367362231 0.162428752
0.003036387 0.368374377 0.155344874
0.001771226 0.367236257 0.153194010
0.000000000 0.367236257 0.156736016
0.003795093 0.367995262 0.156356543
0.048070882 0.372675568 0.153320938
0.111321956 0.368627578 0.156863004
0.149146393 0.372169524 0.156863004
0.190133095 0.374826074 0.157621831
0.229601502 0.367489249 0.150790259
0.258823484 0.368374377 0.152688012
0.283111989 0.369386494 0.154712275
0.319544286 0.370904505 0.156610012
0.347627997 0.365591466 0.149272963
0.380012393 0.368627399 0.148513421
0.414294869 0.376470715 0.148766339
0.446173459 0.379506320 0.153320938
0.483997375 0.379632831 0.152182430
0.520430267 0.382669240 0.152435035
0.553320765 0.386970252 0.144844890
0.587476492 0.385073006 0.135357261
0.622897148 0.388867766 0.132194877
0.654522240 0.392789513 0.127134740
0.692093730 0.392789513 0.121062741
0.727261305 0.397090524 0.121315971
0.765085399 0.397343576 0.114104919
0.802656233 0.395319313 0.110562749
0.842125297 0.401391685 0.104490750
0.877545774 0.400505990 0.099683747
0.918785274 0.402277201 0.094370551
0.950158179 0.404427499 0.084250502
0.982416272 0.404427499 0.074383005
0.000000000 0.398481637 0.154079646
0.001897743 0.401897281 0.151043743
0.001771226 0.400885403 0.151170224
0.002276998 0.394560635 0.154079646
0.002276998 0.395319641 0.152941093
0.025047585 0.401391625 0.148387298
0.089437321 0.398481995 0.149525717
0.148007751 0.396078557 0.152308717
0.185199440 0.405186385 0.153826907
0.224667862 0.398355752 0.143959314
0.256040514 0.398608416 0.144085869
0.287665904 0.401644558 0.148260623
0.318405926 0.402403653 0.147881359
0.354585677 0.397090673 0.147881359
0.383681029 0.400126487 0.150031582
0.416951388 0.404554069 0.148387000
0.445794165 0.408728749 0.145730555
0.480455548 0.406957328 0.142694786
0.517394364 0.409993619 0.139658391
0.555598080 0.413535655 0.137254998
0.586337864 0.417330742 0.128905714
0.621758521 0.416319132 0.123845845
0.655281365 0.422011644 0.120683007
0.691714168 0.422011644 0.114611000
0.727008283 0.425427020 0.111954644
0.763187647 0.429601580 0.109171674
0.802150130 0.427577347 0.098544940
0.840986669 0.430613726 0.093105368
0.876280785 0.430613458 0.085895024
0.912713349 0.429980874 0.078051805
0.956103563 0.432131648 0.068058021
0.987729371 0.432131648 0.061480008
0.000000000 0.426565051 0.155597970
0.000000000 0.434914410 0.152814612
0.000505999 0.437571019 0.151675969
0.002529999 0.433523059 0.152688101
0.007337000 0.423403054 0.154206455
0.007337000 0.429475069 0.145098075
0.067299247 0.427703768 0.142061681
0.130297348 0.425426781 0.141176000
0.181657121 0.424415112 0.140670121
0.221125528 0.433523506 0.146742895
0.249462560 0.431499183 0.144845098
0.281088233 0.432005286 0.147121996
0.315370262 0.433270425 0.149398968
0.352309048 0.430740029 0.144086003
0.385705382 0.433776408 0.144086003
0.420746565 0.433903009 0.139279008
0.450095147 0.434156030 0.132953972
0.475648582 0.434535474 0.128779426
0.515117049 0.437571108 0.125743032
0.558887064 0.438077033 0.127008319
0.591903985 0.441619068 0.121062554
0.619228125 0.446426153 0.111701131
0.652751029 0.449462533 0.108665489
0.689183831 0.449589074 0.102719963
0.725869536 0.451865792 0.096394941
0.763187647 0.454648703 0.088931337
0.802403152 0.457685083 0.080328941
0.838835895 0.460721463 0.077292562
0.875268638 0.463757187 0.069449790
0.910942376 0.465022027 0.058317736
0.949525535 0.465528041 0.048829958
0.995065987 0.465528041 0.036685940
0.000000000 0.462997794 0.140417591
0.000000000 0.462997794 0.140417591
0.004300999 0.464895397 0.137634233
0.006577994 0.464895397 0.136495590
0.007084001 0.462744951 0.135989726
0.001265006 0.465907812 0.126882091
0.054395963 0.461859792 0.132953689
0.115116999 0.462998241 0.137887001
0.167488873 0.464895725 0.136622012
0.212017924 0.463883460 0.122454152
0.245667309 0.467172831 0.128526181
0.279823095 0.464895546 0.126628846
0.314484626 0.465401620 0.127767384
0.349272639 0.467172772 0.128905624
0.391777366 0.470208377 0.131942004
0.420366764 0.466033965 0.127135009
0.449588776 0.465781152 0.119544819
0.479443252 0.467552394 0.115496576
0.524225414 0.467931867 0.125743017
0.555344462 0.470967442 0.114357986
0.590765357 0.473371118 0.109171599
0.622264564 0.476027817 0.101834431
0.655787408 0.476786911 0.096521497
0.692220211 0.479823291 0.093485102
0.730929673 0.482226521 0.085262306
0.766982675 0.483870804 0.076786868
0.802656233 0.485009462 0.067678951
0.841872275 0.488045841 0.059076574
0.878305018 0.491081566 0.056040186
0.909424543 0.492346406 0.034029048
0.942188561 0.494117409 0.013662204
0.982922018 0.498924404 0.006325193
0.000000000 0.497026771 0.125237197
0.000000000 0.494623601 0.130044192
0.000000000 0.498924613 0.127893969
0.008096004 0.495635450 0.131182820
0.011131996 0.493737906 0.133080259
0.001012001 0.502846539 0.115876138
0.031499170 0.498291969 0.117140882
0.098545298 0.497153699 0.121315204
0.153953195 0.500189722 0.124351211
0.197849691 0.497153282 0.116002195
0.238962874 0.497532815 0.118659005
0.276407242 0.498544961 0.118658744
0.313219458 0.497026771 0.113346040
0.348134041 0.498544961 0.111321971
0.386337817 0.499430358 0.114357814
0.426438779 0.502466619 0.110183403
0.455281377 0.496394604 0.108665593
0.482226342 0.497406781 0.104364425
0.513599157 0.500948787 0.107653201
0.552435040 0.501328230 0.104743995
0.586590469 0.504364312 0.096395008
0.620493293 0.506388605 0.090322748
0.654142678 0.506515086 0.084123924
0.692852795 0.509550869 0.076534107
0.729285538 0.512587249 0.064389735
0.767235756 0.514231563 0.053637043
0.801138163 0.515243590 0.041999087
0.834914505 0.520177186 0.027197970
0.869323015 0.518405974 0.020999392
0.911068976 0.519670784 0.019734224
0.943959534 0.523212969 0.003036004
0.980391979 0.532321393 0.000000000
0.000000000 0.530423582 0.108539008
0.000000000 0.528905749 0.114611000
0.000000000 0.529285371 0.112713590
0.000000000 0.531562209 0.113472819
0.009614006 0.524098396 0.123592816
0.002024001 0.531688869 0.110310070
0.012144269 0.533206940 0.101707883
0.078811102 0.530550063 0.106135197
0.144845188 0.533586264 0.105376102
0.190385997 0.532067895 0.104617007
0.231372550 0.528905392 0.104490876
0.276407212 0.528905392 0.108032942
0.314737260 0.528905392 0.103858195
0.350410998 0.529411376 0.095382936
0.383048594 0.531941354 0.094623394
0.418848962 0.529790998 0.095003009
0.456799179 0.532827377 0.088931009
0.487159938 0.528020382 0.091334820
0.511069059 0.532321393 0.089184031
0.545983374 0.532827377 0.083111972
0.585072637 0.534724772 0.079696819
0.620493293 0.535737157 0.073624559
0.654142678 0.535484195 0.067172356
0.693611562 0.539911509 0.055281725
0.729285538 0.541429460 0.040101349
0.764326632 0.543074191 0.029095639
0.801644325 0.544086158 0.019228626
0.836053073 0.550158143 0.007084119
0.869069993 0.551296711 0.002530012
0.906514347 0.546995163 0.000000000
0.950284600 0.548766375 0.000885608
0.984946191 0.559646189 0.001518192
0.000632577 0.563187957 0.092220426
0.000632576 0.563820541 0.095762439
0.000000000 0.563820541 0.093232438
0.000632578 0.563187957 0.091587871
0.000632576 0.560531139 0.097280413
0.000632576 0.560531139 0.097533442
0.000000001 0.561163902 0.088045850
0.046552941 0.562555552 0.085768849
0.132701203 0.563947022 0.090196334
0.187350020 0.566982627 0.087159947
0.228083462 0.562555134 0.082859308
0.272991508 0.559898555 0.083997868
0.315749317 0.561796129 0.086148284
0.352941066 0.561290145 0.080582283
0.382542402 0.565844119 0.075268611
0.414674401 0.563567102 0.074509680
0.448956579 0.562049329 0.074256867
0.486021101 0.564453125 0.066919893
0.516382039 0.564453125 0.066919878
0.548892975 0.563187957 0.059203099
0.586084604 0.565085351 0.053890046
0.622897148 0.566729665 0.049842209
0.656419992 0.563947082 0.043769475
0.695382535 0.569513142 0.030107778
0.730297267 0.571663558 0.017078018
0.763694048 0.572928548 0.005060010
0.798608541 0.572928548 0.000000000
0.841113269 0.578747511 0.000000001
0.876280785 0.582795739 0.000000000
0.913219094 0.580518663 0.000000000
0.951422811 0.577988148 0.000253032
0.990891993 0.584060907 0.003289424
0.003668972 0.593548059 0.083111987
0.003668966 0.596584499 0.077039987
0.001518193 0.597217023 0.071979985
0.001265163 0.597217023 0.069702834
0.003668974 0.596964002 0.072991580
0.003668965 0.596964002 0.076027945
0.001138647 0.591903985 0.068690658
0.039468776 0.589880049 0.067552000
0.111828260 0.591398060 0.072106004
0.175205976 0.597343564 0.071979493
0.218216717 0.597470045 0.063124850
0.262492180 0.594939709 0.058570728
0.302593261 0.596710682 0.056293368
0.334725052 0.603794992 0.053257052
0.380265385 0.597723007 0.053257052
0.414674401 0.597470045 0.047943994
0.448071182 0.598482192 0.045667022
0.482985497 0.600885987 0.042631049
0.522454023 0.600885987 0.030487049
0.552814782 0.595319271 0.024921056
0.589120686 0.595445812 0.020493280
0.625553310 0.597470045 0.016445085
0.656419992 0.597343564 0.010373037
0.692852795 0.600379944 0.004301034
0.727261245 0.603668749 0.004301358
0.760657668 0.607843041 0.002783300
0.795572162 0.612397015 0.000000000
0.838076890 0.612397015 0.000000003
0.875268638 0.618215978 0.000000001
0.913219094 0.616951048 0.000000000
0.950916767 0.614420950 0.000000000
0.984820008 0.620493054 0.000253032
0.006704647 0.626692116 0.043390263
0.001138645 0.626945138 0.040100910
0.001138643 0.629980981 0.042631455
0.003795161 0.630613387 0.041619625
0.008349458 0.630233943 0.041998886
0.001138644 0.627830744 0.037823841
0.003668965 0.627830744 0.028209910
0.015939344 0.627197981 0.023782257
0.072865188 0.628336370 0.029854346
0.148766413 0.630360365 0.039974608
0.208855376 0.630613387 0.022897132
0.249335870 0.630613387 0.017837003
0.292219907 0.629474699 0.015939258
0.329917759 0.633143365 0.014800619
0.370398730 0.634661734 0.014800619
0.411132127 0.630992889 0.014800619
0.446806014 0.629095614 0.014041815
0.481467545 0.629601777 0.015306978
0.516635001 0.631752014 0.011764992
0.547754765 0.631752014 0.016318992
0.585705519 0.629474699 0.010247000
0.624035478 0.631625533 0.008349219
0.656546474 0.633396745 0.007843000
0.695635438 0.633776367 0.007084001
0.729791462 0.636812150 0.007843292
0.764579296 0.638456404 0.005313343
0.799873114 0.640733361 0.000506064
0.837823868 0.640733361 0.002783357
0.877672434 0.643390179 0.000126525
0.914231241 0.647564948 0.000000000
0.950031161 0.648071110 0.000000000
0.981530607 0.654143095 0.000000000
0.004048004 0.660088718 0.014168270
0.005565996 0.656293750 0.014927365
0.000000000 0.660341740 0.014547818
0.000000000 0.664642453 0.016825110
0.006072264 0.665148437 0.017331077
0.001518066 0.660594642 0.018848877
0.000632582 0.660088718 0.009614006
0.003668968 0.661733449 0.004048004
0.044402387 0.663251162 0.004048004
0.132068247 0.662112474 0.013535749
0.193674728 0.660214722 0.008096262
0.245920241 0.665907443 0.005692740
0.281973273 0.665907443 0.001517999
0.321695030 0.665401459 0.000000000
0.364452749 0.663504183 0.000000000
0.407716781 0.667425632 0.001897740
0.447185189 0.662871480 0.001897740
0.480834812 0.661353707 0.004554415
0.509171307 0.665654480 0.005819260
0.547374964 0.664010167 0.007590265
0.577735782 0.665907443 0.006072263
0.620240569 0.664895594 0.003036388
0.656166971 0.666160941 0.005819231
0.690322697 0.667931736 0.004048004
0.727134407 0.668311179 0.004427552
