Assets/EldamarStudio/100 Retro LUTs Pack/LUTs/cube/Patrick LUT.cube
LUT_3D_SIZE 5
DOMAIN_MIN 0.000000 0.000000 0.000000
DOMAIN_MAX 0.903226 0.903226 0.903226
0.027450999 0.090195999 0.141176000
0.154332399 0.092473291 0.149020001
0.364958793 0.070588000 0.149020001
0.671980143 0.001012128 0.145224258
0.944338739 0.000000000 0.170018986
0.047438703 0.176849693 0.142820716
0.172675401 0.170651406 0.139531717
0.375079066 0.181783408 0.145098001
0.667425513 0.188361824 0.151675999
0.942567885 0.176850125 0.169259995
0.111827567 0.376091212 0.158253998
0.234155387 0.377735496 0.153953284
0.433016777 0.376091212 0.151675999
0.662618697 0.391777217 0.144465417
0.934472084 0.427703798 0.166729569
0.023276750 0.656420112 0.137254998
0.224414706 0.664515853 0.137254998
0.452118665 0.660847545 0.138646409
0.671853125 0.666160405 0.134472117
0.918406010 0.691334426 0.157368675
0.003922000 0.921947777 0.264642596
0.196331471 0.922327638 0.273118436
0.422517627 0.924604654 0.282226145
0.637571275 0.928525925 0.299177617
0.864515781 0.928525925 0.327514410
0.030993298 0.105881996 0.184693277
0.143200412 0.096394710 0.186969995
0.328652650 0.100316294 0.201391414
0.633775830 0.067932010 0.221758410
0.935483873 0.000000000 0.253636837
0.063757285 0.160531685 0.196837395
0.152055681 0.161163703 0.194813415
0.340797216 0.181783393 0.205945402
0.640607536 0.195192695 0.219734401
0.931182742 0.187349528 0.251992524
0.116002291 0.359771788 0.213156402
0.231245682 0.360404402 0.216065705
0.415686101 0.367615372 0.223276272
0.649462402 0.385958225 0.224035263
0.931562483 0.425427109 0.255407691
0.089816712 0.655661106 0.234914824
0.242251545 0.652751267 0.236052826
0.449841946 0.658949912 0.230233818
0.670208871 0.666160524 0.238330111
0.911574960 0.690575540 0.254142940
0.151549429 0.923339784 0.351802468
0.263377428 0.923592508 0.350158036
0.448703229 0.924984097 0.360025346
0.657558322 0.923972070 0.372675359
0.867678642 0.925616503 0.385072500
0.033396408 0.102593422 0.309929967
0.165464982 0.105249576 0.297153711
0.326375365 0.105881996 0.301454395
0.627830267 0.040101282 0.352814674
0.904996634 0.065275013 0.395699054
0.102340281 0.182163104 0.293991089
0.174320102 0.178494409 0.286401391
0.338140398 0.185705408 0.306388080
0.618469536 0.192283556 0.343326807
0.911574781 0.223782390 0.410752535
0.130170405 0.355218232 0.333585978
0.224668115 0.351549506 0.329285085
0.406198382 0.356483221 0.335483372
0.634408653 0.384313524 0.354206264
0.912966430 0.429095626 0.412776381
0.208728403 0.638330281 0.388488233
0.297280371 0.637065232 0.391903639
0.471220940 0.644529104 0.387855649
0.669197142 0.655660987 0.395066231
0.908285737 0.686147809 0.423276365
0.308286190 0.918152928 0.490701765
0.370398641 0.913472414 0.485136062
0.504869938 0.916129231 0.486653805
0.683364868 0.921062589 0.501707375
0.891334355 0.920682967 0.512966573
0.106008999 0.118659131 0.517014384
0.237444818 0.116002291 0.509171128
0.419734120 0.093359008 0.495508969
0.639721513 0.034155875 0.506262004
0.916002274 0.105123185 0.550664186
0.115749575 0.217710570 0.492472827
0.234914407 0.213788986 0.494876564
0.417330831 0.203035697 0.483618140
0.645920396 0.198482111 0.503225684
0.907653213 0.266666502 0.560531259
0.164452866 0.371284127 0.483364850
0.260088563 0.374825954 0.485262424
0.449082524 0.385958225 0.500442624
0.665528119 0.416698396 0.529411972
0.896267891 0.476280779 0.588614762
0.265022248 0.644529104 0.534725130
0.351549685 0.638077378 0.531055808
0.526122630 0.640607119 0.554585695
0.690575242 0.644655406 0.566097379
0.912839890 0.672359228 0.600379407
0.445793748 0.911321759 0.628209949
0.505629182 0.907273948 0.637065232
0.609993458 0.909677207 0.652118742
0.729285061 0.914231598 0.646299779
0.906641245 0.917520761 0.661986172
0.247311965 0.150537804 0.778241754
0.357242227 0.142314941 0.773434460
0.552055657 0.123086639 0.770398438
0.775079191 0.077545613 0.760277927
0.975584924 0.123465911 0.750790775
0.288804412 0.277039528 0.765844584
0.376217186 0.272485644 0.760910749
0.559645891 0.267299086 0.758633733
0.771030962 0.260467947 0.754206061
0.970271826 0.290322512 0.751043499
0.307021022 0.463757217 0.756609380
0.400506049 0.467678785 0.755724490
0.594054580 0.484123796 0.746868730
0.765338480 0.476913184 0.747881055
0.948260605 0.504996836 0.744085789
0.252624780 0.703099430 0.743579566
0.363946915 0.699556887 0.749525309
0.549778521 0.686147809 0.747248292
0.757368624 0.691714048 0.754332662
0.934218884 0.724731028 0.770398617
0.455154955 0.924730718 0.745477796
0.514610708 0.921062469 0.750411093
0.642884314 0.918785334 0.764453053
0.796457767 0.913852096 0.786970139
0.932574451 0.920682967 0.813535690
