Assets/EldamarStudio/100 Retro LUTs Pack/LUTs/cube/Patrick LUT.cube
DOMAIN_MIN 0 0 0
DOMAIN_MAX 1 1 1
LUT_3D_SIZE 32
0.027450999 0.090195999 0.141176000
0.036559388 0.093232386 0.144212395
0.043517001 0.094117999 0.142947227
0.054648999 0.094117999 0.141176000
0.074383095 0.094117999 0.141935095
0.104743868 0.094117999 0.148007870
0.130043998 0.094117999 0.149020001
0.154332399 0.092473291 0.149020001
0.177102998 0.088678002 0.149778903
0.195319012 0.082606003 0.152814522
0.228083611 0.079443134 0.144212127
0.261480242 0.076407261 0.147248253
0.294876635 0.073371358 0.151802644
0.328526050 0.070588000 0.149020001
0.364958793 0.070588000 0.149020001
0.408602387 0.063377813 0.146616191
0.454143167 0.055787615 0.146616191
0.500948668 0.048450015 0.150284991
0.552561998 0.036305986 0.156357005
0.587476432 0.024161991 0.154079646
0.628463209 0.010120267 0.147248268
0.671980143 0.001012128 0.145224258
0.711574972 0.003795488 0.156863004
0.754079819 0.000759096 0.156863004
0.796584547 0.000000000 0.156863004
0.836306274 0.000000000 0.161037311
0.872233033 0.000000000 0.168121055
0.905629396 0.000000000 0.165085465
0.944338739 0.000000000 0.170018986
0.978494346 0.000000000 0.176090971
1.000000000 0.000000000 0.182162985
1.000000000 0.000000000 0.188235000
0.030487388 0.093232386 0.144212395
0.030487388 0.096267998 0.138140395
0.048197772 0.090702385 0.145477772
0.063757382 0.091840841 0.145983607
0.083491482 0.097153611 0.144212395
0.113852255 0.097153611 0.144971475
0.131562069 0.097153611 0.151043609
0.154332399 0.098798320 0.150411338
0.178621188 0.097786389 0.149020001
0.201391786 0.091714382 0.149778903
0.231245771 0.091461390 0.152814507
0.270588100 0.088551521 0.150284395
0.304743618 0.086654000 0.151802644
0.334598035 0.085009359 0.149020001
0.371030778 0.076660000 0.149020001
0.412270576 0.076660000 0.149020001
0.455660969 0.070967615 0.148134395
0.499683678 0.065527968 0.149020001
0.546490014 0.060594760 0.150285020
0.595319808 0.051233411 0.156357020
0.629981101 0.035547398 0.152182400
0.669955850 0.019228650 0.146236643
0.711574972 0.009614496 0.148134112
0.754079819 0.000759096 0.156863004
0.798861265 0.000000000 0.156863004
0.840733588 0.001391672 0.159645990
0.878811061 0.002530323 0.166097328
0.914737761 0.000000000 0.168121070
0.945477307 0.000000000 0.170398444
0.978494346 0.000000000 0.177862197
0.999114394 0.000885608 0.183428392
0.996963620 0.003036387 0.185199380
0.033523228 0.100569226 0.149398997
0.033523228 0.103605382 0.139026001
0.050727773 0.102339998 0.145856991
0.066919833 0.095762379 0.149905384
0.083238326 0.100948773 0.147248775
0.110057093 0.104490772 0.147248775
0.136369452 0.100189775 0.152308777
0.153193757 0.101834059 0.151802778
0.177988410 0.104111224 0.150537997
0.205060214 0.100822225 0.153320998
0.235167772 0.100569226 0.147628129
0.263504028 0.098545492 0.146615744
0.305376261 0.096647777 0.148766518
0.338519812 0.096141778 0.148766965
0.374952555 0.088931136 0.146869227
0.418342561 0.089183778 0.151170224
0.459329545 0.087665975 0.149652421
0.501201868 0.082226560 0.147754848
0.545224965 0.077672727 0.144718453
0.587096989 0.071220636 0.148134246
0.635673702 0.062112745 0.152308971
0.672359109 0.047691643 0.151043996
0.713725209 0.034788277 0.151549771
0.756230056 0.021631867 0.154585913
0.794560254 0.008601999 0.159013227
0.837317944 0.003036019 0.159013227
0.876280963 0.001771226 0.163567230
0.912713289 0.000379552 0.168247536
0.952434897 0.000000000 0.171283826
0.979253352 0.000000000 0.177862197
0.999114394 0.000885608 0.185199380
0.996078014 0.003922000 0.186464220
0.032763999 0.112207159 0.152941003
0.039089162 0.112713546 0.140797004
0.051233385 0.112713546 0.144592166
0.078052163 0.109677151 0.152941003
0.086400777 0.107020997 0.149525836
0.104490705 0.111322001 0.147754833
0.133839488 0.111069158 0.152814835
0.160025299 0.108665608 0.157368839
0.179000407 0.110942319 0.151296839
0.207843155 0.110942319 0.155344829
0.236938745 0.109677158 0.148134127
0.267805248 0.110183418 0.145604059
0.296268314 0.108286157 0.142567679
0.338267058 0.108539134 0.147501796
0.376723796 0.105503000 0.144465417
0.419101924 0.104111515 0.147375003
0.462871552 0.105376355 0.150158033
0.502973139 0.102340579 0.149019822
0.545477986 0.096900985 0.145477220
0.588994563 0.092093445 0.145224527
0.630360484 0.086653911 0.145730570
0.674889266 0.077546030 0.148766965
0.714231133 0.068437681 0.154712483
0.756735981 0.055534571 0.158127844
0.795951545 0.042884201 0.159139708
0.835040808 0.029095501 0.160784006
0.874003947 0.016445417 0.162302062
0.910436153 0.012650320 0.169133157
0.950916588 0.008855159 0.173813820
0.980265379 0.003795161 0.179127038
0.999240994 0.001138561 0.187349826
0.997343183 0.002656839 0.190764993
0.027830547 0.127767086 0.153320551
0.043769933 0.124351837 0.142315000
0.056040544 0.123845994 0.143706769
0.074256770 0.122960389 0.149525836
0.103858545 0.119923994 0.152941003
0.106894158 0.119923994 0.146869004
0.133712962 0.122074768 0.150158003
0.163441151 0.123466447 0.154712006
0.190006539 0.123845994 0.158507004
0.211258948 0.123845994 0.152435005
0.238709882 0.120936126 0.147501543
0.269702762 0.121568702 0.146742716
0.302340299 0.123466447 0.147122353
0.332954049 0.123719476 0.144844994
0.375079244 0.126755118 0.142188132
0.418343008 0.125363812 0.143579811
0.460468352 0.123845994 0.145857006
0.502973139 0.123592973 0.145983532
0.545477986 0.120556571 0.152055547
0.592789769 0.118279286 0.150537819
0.636432707 0.114863738 0.147881269
0.675268710 0.110562965 0.147248581
0.712080956 0.101581104 0.150031969
0.754838824 0.092726447 0.158127651
0.794307232 0.084377259 0.161163554
0.835167289 0.074636564 0.161543012
0.876660109 0.062745482 0.161922514
0.913092852 0.047565110 0.171030894
0.951802313 0.038077269 0.176723436
0.980012357 0.028336674 0.183933973
0.993927956 0.017457586 0.188867539
1.000000000 0.008349185 0.194939554
0.030866936 0.145983875 0.156356946
0.052119322 0.139911100 0.153320551
0.061606932 0.140796840 0.148766786
0.073750928 0.142061993 0.147754833
0.094750158 0.141176388 0.146869004
0.119038939 0.138139993 0.152941003
0.137255192 0.138139993 0.151929006
0.162175983 0.138646066 0.149652004
0.187729150 0.139405161 0.147121996
0.214294553 0.142061993 0.146363005
0.244275793 0.139152125 0.149019867
0.274130493 0.138139993 0.146489680
0.306135565 0.138646066 0.143327057
0.339026034 0.138899088 0.138772994
0.372422367 0.141935483 0.144844994
0.419354647 0.142567933 0.144591942
0.462365627 0.142061993 0.148133993
0.502973139 0.142061993 0.151296586
0.545477986 0.141808957 0.149019942
0.587982774 0.144339293 0.152308583
0.633396745 0.140670329 0.152435064
0.675901115 0.136116117 0.153953001
0.715116560 0.131941870 0.159139588
0.760657787 0.125869855 0.156103969
0.796584308 0.121568643 0.161922947
0.835167289 0.116128936 0.165591255
0.876660109 0.108538866 0.167614996
0.913092852 0.099177487 0.167994499
0.949525595 0.091966942 0.169133052
0.981151044 0.087160096 0.179000244
0.998987973 0.081720799 0.187349617
1.000000000 0.075142726 0.185831934
0.036433000 0.161669672 0.146742359
0.052625388 0.158127874 0.148766607
0.067425996 0.154205874 0.150031775
0.079316996 0.155218005 0.149020001
0.097912543 0.155218005 0.147628322
0.120050542 0.154332384 0.149399325
0.141809002 0.153826326 0.145350680
0.163061380 0.153826326 0.143706396
0.187223092 0.154585421 0.140796900
0.214547485 0.157621816 0.142567679
0.244781733 0.154838458 0.145477548
0.275142491 0.155850589 0.146489680
0.306641638 0.157494992 0.145098001
0.340038031 0.159139350 0.142568037
0.373434365 0.162175730 0.146363318
0.414041579 0.162808314 0.147628322
0.457811564 0.162808314 0.146110132
0.498545527 0.163440883 0.147881001
0.542947650 0.165338635 0.146742642
0.587982774 0.165591672 0.149272963
0.628589690 0.164832577 0.152308583
0.670841098 0.162428766 0.154964998
0.710562527 0.162302613 0.160657525
0.756103754 0.156229988 0.157621905
0.794813573 0.152435288 0.156863004
0.834028900 0.150790647 0.163820311
0.876660109 0.147501573 0.169133052
0.913092852 0.142441198 0.171157315
0.944465578 0.135989651 0.171157315
0.979127109 0.131688878 0.174699292
0.999114394 0.129538640 0.185831591
0.997469664 0.126755640 0.189374000
0.047438703 0.176849693 0.142820716
0.057685383 0.173814088 0.140923396
0.072359696 0.174066931 0.145604059
0.085768536 0.173560873 0.147375286
0.103984542 0.173181400 0.147375286
0.125236928 0.170651406 0.147375286
0.151423022 0.170651406 0.147248775
0.172675401 0.170651406 0.139531717
0.192409784 0.170651406 0.139532089
0.216192201 0.172802195 0.144338936
0.243137017 0.171663538 0.144085869
0.270208806 0.172675252 0.143453285
0.302846581 0.176849991 0.145730570
0.337508082 0.180138692 0.146236658
0.375079066 0.181783408 0.145098001
0.412397295 0.184060693 0.147375286
0.456419885 0.185578883 0.147375286
0.497406960 0.185705408 0.146995559
0.542947769 0.187729657 0.150031701
0.585199356 0.189626992 0.146236643
0.626944959 0.189373955 0.147628263
0.667425513 0.188361824 0.151675999
0.707652986 0.191271693 0.157747999
0.751676023 0.188235298 0.159266189
0.790385842 0.186084688 0.158507288
0.826818585 0.184440404 0.159898967
0.871094167 0.184440404 0.166982710
0.909803867 0.182542667 0.168880463
0.942567885 0.176850125 0.169259995
0.976344109 0.174193636 0.176090971
1.000000000 0.171157792 0.183933973
0.997722745 0.170398697 0.193801284
0.060341999 0.194307193 0.145098001
0.068691090 0.191271380 0.139784902
0.079696678 0.193295315 0.140796900
0.097154021 0.194813266 0.144338906
0.111954182 0.197470099 0.143579900
0.132068023 0.192157090 0.142820910
0.160151631 0.190385997 0.147628322
0.184819788 0.190385997 0.143327206
0.206831083 0.190385997 0.138013899
0.222011492 0.190385997 0.147122294
0.245920181 0.190385997 0.146869227
0.267931610 0.190891936 0.143832833
0.296015292 0.194307089 0.142694190
0.332701027 0.200126126 0.148513943
0.374699712 0.200632200 0.143959358
0.413915515 0.204554006 0.143579811
0.454143167 0.207590193 0.145857096
0.499683678 0.211258993 0.146489516
0.545224965 0.211511999 0.155344859
0.585199416 0.214294836 0.150031641
0.625426769 0.215433195 0.145857096
0.666666269 0.216445133 0.146363094
0.709170997 0.219355002 0.152308583
0.751675785 0.219355002 0.157748014
0.790385664 0.220114097 0.159266010
0.826818407 0.220114097 0.162175685
0.863757193 0.220114097 0.164706007
0.906008840 0.220114097 0.164706007
0.940543771 0.215560004 0.166983098
0.973434269 0.213029996 0.173307955
1.000000000 0.212144583 0.183933973
1.000000000 0.209108189 0.196078002
0.066414006 0.218595982 0.145098001
0.081594385 0.215559587 0.142061606
0.092093714 0.218975008 0.141049519
0.107779846 0.221125662 0.141302511
0.130170956 0.218722492 0.140543506
0.142314970 0.218722492 0.134471521
0.167488798 0.215939164 0.143833160
0.190006405 0.214674011 0.142441601
0.209867507 0.214674011 0.134977520
0.234155506 0.214674011 0.141049519
0.258064747 0.214674011 0.147248775
0.276281208 0.212650284 0.146869227
0.298672140 0.212144330 0.144971490
0.332701027 0.215306535 0.145477548
0.372169375 0.218342915 0.148513928
0.414168090 0.226059780 0.146363154
0.456419885 0.231878787 0.146616191
0.499683678 0.235547006 0.149525911
0.545224965 0.241619021 0.152561530
0.585199416 0.244655371 0.153067514
0.626565456 0.245793983 0.150790736
0.669955552 0.246805847 0.148893490
0.715242922 0.249715015 0.149272963
0.757747769 0.249715015 0.152308583
0.797975779 0.251992315 0.153194010
0.835926771 0.253510535 0.157368675
0.872865558 0.253510535 0.164706007
0.912333906 0.253510535 0.164706007
0.946615756 0.250853658 0.172675818
0.976470113 0.249462023 0.181404233
0.997090161 0.248576641 0.189752981
1.000000000 0.245541006 0.196078002
0.078304999 0.245793864 0.153826877
0.087666385 0.242757469 0.144971475
0.098545223 0.246173412 0.148386866
0.113978326 0.247185275 0.146109715
0.137128532 0.243643075 0.143073544
0.151802883 0.248703733 0.154711872
0.174066871 0.243643090 0.143579870
0.199367404 0.245161280 0.149399132
0.222391099 0.246932507 0.147880867
0.248829871 0.244781733 0.149651870
0.267298847 0.241871864 0.146995738
0.293611377 0.239848137 0.146995738
0.314610779 0.237950876 0.145098001
0.341176182 0.238962740 0.145098001
0.377988398 0.239342287 0.145477548
0.415053606 0.244781867 0.150917128
0.456546366 0.253384203 0.149399191
0.499051094 0.259835720 0.149652421
0.542315125 0.265907735 0.152688041
0.582289517 0.271979749 0.152941003
0.625553310 0.275142610 0.152941003
0.670082092 0.276154727 0.152941257
0.715242982 0.277293086 0.154712498
0.752181768 0.280075729 0.152182102
0.796963811 0.282353014 0.150664300
0.837697625 0.283997744 0.154206187
0.875648201 0.285009742 0.163314193
0.912713408 0.289816737 0.170524999
0.944212615 0.289816737 0.173181832
0.977356017 0.288804621 0.180012971
0.998987854 0.288804621 0.185325876
1.000000000 0.287792742 0.187349871
0.088425256 0.273118258 0.150790751
0.099557385 0.274130344 0.151802599
0.112713732 0.269449800 0.147375256
0.124351665 0.272992253 0.153447255
0.145224705 0.269955754 0.148513511
0.160404667 0.276028126 0.152182207
0.187223256 0.276028097 0.154711992
0.209866956 0.271600038 0.147501707
0.233776182 0.276533991 0.151676163
0.259835780 0.277292758 0.152941003
0.286527246 0.274256885 0.154079884
0.306767493 0.273244739 0.151043743
0.334091872 0.270208836 0.146869004
0.357874334 0.269323230 0.145351037
0.390765041 0.269323230 0.147122264
0.421125591 0.272106498 0.147881255
0.457558364 0.278178483 0.152435064
0.499683678 0.285515666 0.151043743
0.543580234 0.290195972 0.152688041
0.585325897 0.298292249 0.150917262
0.628589213 0.302466989 0.152814522
0.672106087 0.306515247 0.152941003
0.715495944 0.308665723 0.154838741
0.755723774 0.311701328 0.153700098
0.794939816 0.316761285 0.154712290
0.837697625 0.318405986 0.153068006
0.876660109 0.318405986 0.160278201
0.913092852 0.321441978 0.169386178
0.946236372 0.324225247 0.175205827
0.976597071 0.322454035 0.181783751
1.000000000 0.323086590 0.187223345
1.000000000 0.324225247 0.188362002
0.096395001 0.302719623 0.145098001
0.109677643 0.303479016 0.150031641
0.123972125 0.303478986 0.150790781
0.136875510 0.299936980 0.150411353
0.153194457 0.299557537 0.156103909
0.170651346 0.303352624 0.152309000
0.193927646 0.305502981 0.150411323
0.221631706 0.304996908 0.152435079
0.245161191 0.302719623 0.151676357
0.270209014 0.308032632 0.155091524
0.295762002 0.305376500 0.153573871
0.322327256 0.305502981 0.152561739
0.346995264 0.305502981 0.150664002
0.374319702 0.302719623 0.145351037
0.403794825 0.302719623 0.148387417
0.432890415 0.303984791 0.150158361
0.460215002 0.307400614 0.150537804
0.497280151 0.312840044 0.152308583
0.541809320 0.315875679 0.151802644
0.583428502 0.324478000 0.150158361
0.626692057 0.329791367 0.147501618
0.672232687 0.334851503 0.152561486
0.711954117 0.341050029 0.152814522
0.753446817 0.345098019 0.151802644
0.794813156 0.349272251 0.152941287
0.834282279 0.354838282 0.155724362
0.872232676 0.354838282 0.156736359
0.907400191 0.354838282 0.165211529
0.944591761 0.357495099 0.172802016
0.977355719 0.358127683 0.181783751
0.999746978 0.355091304 0.190005988
1.000000000 0.357621640 0.193295360
0.102719970 0.336622089 0.146109998
0.118153386 0.333839446 0.149399355
0.131815225 0.334851325 0.148766965
0.146236196 0.336622089 0.149525806
0.156483099 0.336748570 0.152308494
0.180771872 0.333712965 0.155344889
0.200000003 0.335483730 0.151803002
0.223908737 0.336622089 0.151170284
0.251992196 0.336116076 0.154206038
0.282353014 0.336116076 0.160278037
0.301075011 0.333712906 0.152055874
0.325363278 0.334724844 0.147248775
0.353826284 0.336622089 0.145098001
0.384440064 0.336622089 0.145603999
0.411764443 0.336622089 0.148640379
0.440986603 0.336875051 0.151423201
0.468564391 0.337887228 0.152435005
0.494750470 0.340164512 0.151802525
0.534218967 0.343200147 0.148766905
0.573687434 0.352055430 0.148260966
0.615053475 0.357368737 0.145477563
0.658823311 0.362175971 0.143706128
0.704111457 0.371157110 0.152435005
0.743579924 0.377229840 0.149525866
0.784566641 0.381024748 0.149020001
0.825679958 0.385958076 0.150158361
0.864643037 0.391271055 0.154206038
0.895002961 0.391271055 0.160278037
0.934977651 0.393674850 0.168500781
0.972422123 0.395193040 0.179632962
0.996457636 0.394307435 0.189753026
0.999494016 0.391271055 0.195825040
0.111827567 0.376091212 0.158253998
0.130044341 0.376091212 0.164325982
0.132574216 0.375458807 0.152561575
0.147248328 0.376091212 0.144465417
0.171283945 0.376470655 0.143073589
0.186843872 0.379253298 0.143200114
0.206071988 0.378747374 0.148766816
0.234155387 0.377735496 0.153953284
0.267172575 0.374573231 0.158760101
0.297533393 0.369513243 0.157242417
0.316255391 0.372422338 0.151676431
0.340543658 0.374193639 0.149020001
0.369006693 0.376091212 0.147248775
0.399620444 0.376091212 0.145603999
0.433016777 0.376091212 0.151675999
0.457937986 0.378494412 0.152308583
0.485009611 0.377861977 0.149905011
0.511069000 0.375458807 0.145730436
0.537254632 0.370525301 0.142694131
0.576723695 0.381910235 0.139658526
0.618089914 0.387729049 0.142947584
0.662618697 0.391777217 0.144465417
0.710183501 0.398482203 0.146363005
0.749651909 0.404554218 0.146363005
0.784566820 0.408349127 0.148007870
0.822643995 0.415559739 0.149020001
0.862618744 0.424921155 0.151676416
0.904111385 0.427703798 0.163314417
0.934472084 0.427703798 0.166729569
0.970904291 0.430107594 0.178114757
0.995192647 0.430740178 0.189120606
0.993421972 0.427703798 0.192789420
0.125742793 0.415559769 0.155977011
0.124730967 0.417963564 0.157242000
0.145097971 0.415812790 0.156862780
0.155471116 0.414294928 0.148766652
0.180518806 0.413536042 0.148007348
0.189626932 0.416571677 0.145983607
0.216951594 0.417077601 0.148639843
0.240101293 0.417077601 0.151423201
0.271979928 0.415559769 0.154459015
0.300696015 0.412776768 0.149778679
0.329031974 0.410626501 0.151044011
0.349272251 0.411638379 0.146995738
0.378114909 0.414294958 0.146616191
0.409740806 0.415559769 0.145098001
0.440986365 0.415559769 0.146869004
0.471979558 0.415559798 0.145730197
0.499304354 0.417077601 0.147248387
0.526881754 0.415559769 0.145730570
0.551169872 0.413029790 0.146236643
0.586970091 0.414041817 0.140796557
0.626439214 0.420493513 0.137760937
0.666413784 0.425553262 0.140291005
0.708918214 0.433016986 0.140417486
0.746109903 0.439089596 0.142694190
0.785578787 0.447438300 0.149525478
0.822011590 0.450727254 0.152814880
0.861480057 0.458317727 0.153826997
0.902087033 0.461353332 0.158381000
0.936369658 0.464136600 0.162555158
0.972043097 0.465907812 0.169133186
0.998481810 0.468058586 0.183933988
0.996963978 0.466540396 0.194560200
0.127260998 0.458064556 0.148386806
0.134851187 0.458064556 0.152941003
0.134471774 0.458317578 0.149272591
0.158254161 0.455281526 0.147501811
0.183934346 0.453004807 0.149905011
0.200252995 0.456040442 0.148007751
0.218975440 0.458064556 0.150031880
0.247691497 0.456546366 0.151423201
0.275015920 0.455787450 0.149905011
0.302340329 0.455028564 0.143832818
0.332574189 0.453637242 0.144971490
0.364452630 0.455661356 0.150031731
0.385705024 0.455661356 0.145856991
0.417078018 0.457811534 0.144844964
0.446173161 0.456546366 0.143579811
0.476533771 0.456546366 0.141176388
0.511448324 0.458064556 0.138139993
0.540544093 0.458064556 0.141176373
0.564832449 0.458064556 0.144212767
0.597216725 0.458064556 0.141935483
0.632511199 0.459961891 0.139278740
0.670967996 0.461986154 0.137254998
0.707400024 0.469449371 0.137128487
0.743832827 0.475521803 0.137381107
0.782542825 0.485389262 0.141935289
0.820619941 0.493105531 0.148260325
0.860974014 0.495256305 0.154332682
0.902466595 0.496267915 0.161416799
0.938140452 0.499304205 0.164073348
0.969007075 0.505376220 0.170651391
0.998734951 0.506641567 0.178874180
1.000000000 0.506009161 0.194560200
0.114484437 0.502973139 0.141176000
0.135736823 0.499304146 0.149019405
0.141429424 0.498418540 0.148007438
0.148007572 0.497786105 0.144465432
0.174952507 0.495509475 0.144844979
0.207589954 0.498545170 0.145098001
0.228968889 0.500948846 0.147628322
0.250094712 0.500063419 0.147754848
0.278684109 0.498292029 0.147501811
0.306008518 0.495256424 0.141429037
0.335610330 0.494497508 0.140543580
0.368121505 0.498545527 0.144718274
0.400759041 0.502340555 0.149399012
0.423023492 0.502593577 0.143833011
0.451106966 0.500316262 0.141176164
0.480202585 0.499051094 0.138772801
0.513219595 0.499936700 0.136369392
0.550790548 0.502340555 0.133332998
0.575079381 0.502340555 0.136369392
0.605566025 0.503605545 0.135990009
0.637191653 0.504870355 0.135357425
0.670967996 0.507526696 0.135990009
0.707526505 0.507526696 0.135990009
0.744465411 0.512586713 0.133459672
0.782542825 0.522580504 0.135610282
0.821252525 0.531309545 0.138646320
0.857684672 0.537381530 0.143200129
0.902846277 0.534724653 0.164073005
0.938520014 0.536369324 0.169386268
0.971537113 0.542314827 0.177229628
0.993927956 0.548513174 0.186717406
1.000000000 0.545477509 0.192789420
0.099304028 0.545477986 0.141176000
0.120556399 0.539405227 0.144212395
0.135357022 0.537887037 0.143453225
0.149778187 0.537887037 0.141429037
0.171916112 0.538013637 0.141808584
0.196204886 0.541050017 0.144844964
0.226312622 0.541556001 0.147628307
0.252118945 0.538520038 0.145730570
0.278937101 0.534977913 0.141682044
0.312080503 0.537760556 0.141429037
0.339405596 0.534724951 0.138266876
0.366983205 0.538014054 0.137507960
0.396205008 0.541809022 0.138266996
0.426059127 0.542062044 0.137760997
0.459456265 0.545098424 0.137760997
0.487539738 0.542821169 0.137507960
0.516635001 0.541556001 0.137254998
0.547754169 0.541809022 0.136369407
0.578115046 0.541809022 0.133333012
0.610752463 0.547375023 0.130803406
0.641998470 0.549146056 0.128020257
0.673624158 0.550411105 0.127261162
0.707526505 0.553067982 0.129917994
0.746995747 0.553067982 0.129917994
0.783934534 0.560404658 0.134218946
0.822011590 0.566982687 0.138646305
0.860721111 0.570778012 0.143200129
0.897153854 0.576849997 0.155344874
0.926375806 0.576849997 0.160278112
0.959772408 0.580645025 0.170398220
0.988361955 0.585198998 0.184187025
1.000000000 0.584946036 0.195825055
0.092472993 0.576850057 0.143959358
0.105376020 0.576343954 0.141429037
0.122327402 0.574572742 0.142314643
0.140164301 0.574572742 0.142441168
0.162934899 0.574572742 0.143200353
0.184819847 0.575205386 0.139025927
0.214167982 0.580771387 0.142061681
0.242884383 0.579633117 0.140164286
0.271347344 0.576217771 0.137127995
0.306767464 0.577229619 0.141176000
0.328778863 0.580012262 0.141049519
0.360152036 0.576976657 0.135989636
0.392409980 0.578494728 0.135610282
0.426059067 0.578494728 0.137001961
0.456925869 0.579000831 0.134471640
0.487919211 0.579633415 0.136875451
0.517140985 0.578494728 0.140290990
0.548133731 0.579127133 0.141556025
0.580645382 0.581277370 0.136369392
0.611005425 0.586844087 0.138899013
0.644402206 0.589121103 0.132068396
0.678684473 0.589121103 0.129285216
0.715622842 0.590259731 0.131941646
0.749778390 0.590259731 0.126628637
0.782416224 0.594813764 0.126628637
0.819228232 0.600632429 0.133080304
0.857178748 0.603668451 0.139405355
0.889057517 0.607463717 0.146995530
0.925490260 0.613535702 0.159139618
0.958507359 0.617330730 0.169639185
0.986084998 0.622517347 0.186590582
0.994433999 0.624415100 0.204427361
0.061733283 0.612903237 0.141303003
0.079570025 0.618595481 0.140164346
0.101454787 0.616698205 0.137381002
0.122960009 0.614168227 0.139910996
0.149272621 0.613662243 0.143200263
0.175079197 0.616698205 0.140164256
0.205818996 0.619860470 0.137887418
0.234534696 0.620999217 0.139278740
0.263377815 0.619481385 0.135230735
0.298671752 0.620619714 0.139025733
0.326248854 0.621631622 0.139278740
0.353700012 0.622516990 0.137127995
0.387096912 0.620619714 0.133332998
0.422770053 0.620366752 0.135610297
0.456419826 0.618722498 0.135863319
0.482985586 0.620619714 0.133839071
0.513346016 0.623656094 0.136875451
0.544971108 0.624415219 0.142567992
0.579633176 0.626185954 0.141555995
0.612144053 0.624414682 0.140037641
0.642504454 0.626691997 0.135483742
0.676913500 0.627704144 0.130423859
0.714990497 0.628716230 0.133206517
0.744844913 0.630487502 0.128905728
0.781656802 0.633143723 0.131182730
