Assets/EldamarStudio/100 Retro LUTs Pack/LUTs/cube/Patrick LUT.cube
LUT_3D_SIZE 8
DOMAIN_MIN 0.000000 0.000000 0.000000
DOMAIN_MAX 0.903226 0.903226 0.903226
0.027450999 0.090195999 0.141176000
0.074383095 0.094117999 0.141935095
0.177102998 0.088678002 0.149778903
0.294876635 0.073371358 0.151802644
0.454143167 0.055787615 0.146616191
0.628463209 0.010120267 0.147248268
0.796584547 0.000000000 0.156863004
0.944338739 0.000000000 0.170018986
0.027830547 0.127767086 0.153320551
0.103858545 0.119923994 0.152941003
0.190006539 0.123845994 0.158507004
0.302340299 0.123466447 0.147122353
0.460468352 0.123845994 0.145857006
0.636432707 0.114863738 0.147881269
0.794307232 0.084377259 0.161163554
0.951802313 0.038077269 0.176723436
0.060341999 0.194307193 0.145098001
0.111954182 0.197470099 0.143579900
0.206831083 0.190385997 0.138013899
0.296015292 0.194307089 0.142694190
0.454143167 0.207590193 0.145857096
0.625426769 0.215433195 0.145857096
0.790385664 0.220114097 0.159266010
0.940543771 0.215560004 0.166983098
0.096395001 0.302719623 0.145098001
0.153194457 0.299557537 0.156103909
0.245161191 0.302719623 0.151676357
0.346995264 0.305502981 0.150664002
0.460215002 0.307400614 0.150537804
0.626692057 0.329791367 0.147501618
0.794813156 0.349272251 0.152941287
0.944591761 0.357495099 0.172802016
0.127260998 0.458064556 0.148386806
0.183934346 0.453004807 0.149905011
0.275015920 0.455787450 0.149905011
0.385705024 0.455661356 0.145856991
0.511448324 0.458064556 0.138139993
0.632511199 0.459961891 0.139278740
0.782542825 0.485389262 0.141935289
0.938140452 0.499304205 0.164073348
0.061733283 0.612903237 0.141303003
0.149272621 0.613662243 0.143200263
0.263377815 0.619481385 0.135230735
0.387096912 0.620619714 0.133332998
0.513346016 0.623656094 0.136875451
0.642504454 0.626691997 0.135483742
0.781656802 0.633143723 0.131182730
0.923971832 0.649588645 0.157621711
0.000000000 0.785831809 0.166982710
0.034155793 0.786970019 0.169386432
0.217457011 0.785578609 0.169766277
0.366476923 0.784819603 0.171663627
0.496900797 0.786464274 0.173561186
0.629348516 0.786843777 0.180897832
0.760025561 0.790385842 0.190765560
0.889310300 0.805186510 0.192030236
0.003922000 0.921947777 0.264642596
0.081087738 0.926501751 0.286274135
0.231498972 0.923339784 0.278431326
0.361796260 0.924604654 0.280075967
0.490069538 0.927260756 0.282858580
0.606451571 0.929790795 0.294370770
0.735104561 0.929917574 0.310056865
0.864515781 0.928525925 0.327514410
0.038836453 0.101581454 0.159645557
0.077925548 0.097280003 0.154459000
0.173940092 0.099177547 0.163440645
0.278431535 0.098418549 0.173687547
0.434661567 0.093485005 0.174825996
0.609614015 0.062618360 0.185705096
0.784060597 0.004048004 0.188361838
0.942567885 0.000000000 0.206704840
0.037950546 0.123466447 0.165844545
0.095635995 0.126628533 0.169386089
0.170019001 0.127767086 0.163061097
0.285515547 0.135230556 0.173687547
0.433396727 0.135736898 0.178747788
0.617836475 0.127008289 0.182289556
0.787603021 0.105502546 0.191018268
0.942314625 0.068690948 0.205186382
0.068564452 0.186464190 0.166983008
0.114357993 0.188488543 0.169386104
0.191904008 0.185325637 0.167741999
0.286274612 0.187223196 0.168500990
0.438077003 0.207210734 0.177103177
0.613662124 0.216571748 0.183048740
0.788741231 0.222011447 0.189627007
0.942947447 0.222390890 0.204427376
0.110056639 0.298039645 0.179127350
0.153953433 0.300063193 0.185958102
0.236559182 0.297660112 0.174826086
0.339911282 0.301960617 0.177609444
0.449589074 0.304364502 0.177609444
0.616698146 0.327387571 0.180012539
0.785325706 0.346995562 0.188488543
0.936242878 0.356736004 0.203289121
0.120809808 0.453004628 0.176470801
0.179886341 0.453384191 0.181909993
0.269829422 0.453130811 0.174446642
0.386970162 0.455787480 0.180391997
0.509930313 0.459329814 0.177862197
0.627324522 0.456420243 0.168880448
0.784693003 0.483871073 0.182163447
0.933965862 0.502466977 0.201771021
0.065654628 0.618722498 0.175711617
0.157115623 0.613915443 0.179506809
0.268943876 0.617457032 0.172675535
0.389500290 0.617457032 0.174825996
0.511195600 0.623402655 0.171663091
0.641745448 0.622137904 0.173813984
0.773813844 0.634282470 0.173561022
0.918532491 0.654775560 0.200379357
0.001897740 0.786211252 0.204554126
0.073244639 0.787349582 0.205439821
0.234029368 0.784440160 0.209234625
0.370651364 0.783554971 0.212650269
0.502719820 0.788488150 0.218216375
0.628209829 0.788488090 0.219860986
0.760025561 0.793927789 0.226059377
0.888425231 0.802403092 0.234155819
0.068690449 0.928779006 0.310942084
0.138519838 0.925995946 0.314484447
0.255281627 0.921695054 0.310816079
0.373814017 0.922200918 0.311574876
0.497912824 0.926122427 0.317140967
0.621379197 0.925742984 0.329917490
0.741429269 0.930044234 0.336495757
0.866160512 0.926249266 0.352055132
0.020366902 0.105881996 0.199114203
0.085009456 0.098418549 0.199493647
0.162935004 0.094876900 0.199114203
0.267046183 0.103099354 0.210878998
0.411891162 0.095003001 0.224921077
0.587729096 0.062618658 0.232384548
0.763820469 0.029475011 0.250854105
0.934218705 0.000000000 0.272612184
0.062744997 0.127767086 0.189247549
0.101075090 0.127767101 0.194307193
0.162935108 0.131688997 0.202656537
0.266666710 0.134851098 0.209614545
0.419354737 0.133712649 0.225047112
0.588488162 0.137254909 0.235041082
0.768374383 0.121189065 0.251486093
0.930423617 0.093358725 0.271853387
0.073624194 0.182542995 0.219607994
0.121821545 0.177482545 0.211638093
0.180139199 0.178621188 0.207716897
0.273371190 0.186464101 0.206831187
0.415812552 0.202909291 0.224035069
0.591271460 0.216951102 0.233143628
0.765211582 0.227198184 0.250727385
0.931941867 0.226059347 0.268691003
0.098292351 0.289057195 0.216571644
0.152814999 0.285136074 0.225426644
0.232637376 0.289816290 0.231246099
0.322707295 0.290575266 0.230487004
0.432258278 0.293358743 0.227324188
0.597469747 0.319544375 0.237065449
0.768880129 0.343073994 0.248070642
0.925995946 0.357115567 0.269576192
0.129411995 0.439215451 0.241366193
0.178621188 0.443643034 0.229475081
0.274257034 0.444022477 0.234282076
0.373181701 0.443516791 0.234282002
0.494244188 0.442378342 0.234282270
0.614800572 0.447438121 0.233523190
0.775585055 0.476786762 0.250853896
0.923972130 0.502972841 0.274383307
0.114358261 0.610373139 0.247058824
0.175078899 0.610879242 0.246299624
0.276154429 0.609234452 0.245414421
0.395825297 0.610879302 0.243643194
0.513219357 0.615180135 0.249588743
0.637318134 0.614800453 0.251486182
0.770904362 0.628842771 0.251106739
0.913092911 0.651865959 0.274130195
0.080455281 0.781024635 0.283491284
0.149525285 0.784060717 0.280328840
0.269449800 0.780265570 0.287286371
0.388994545 0.782922089 0.286527574
0.509297967 0.782542825 0.289563447
0.632763743 0.783807933 0.297406495
0.761543393 0.786590695 0.305882275
0.887539744 0.799494028 0.306261808
0.183680683 0.924604654 0.369006872
0.216571867 0.924225092 0.369386226
0.300569057 0.923339784 0.369133681
0.403541803 0.921821535 0.372043163
0.516888082 0.923339784 0.377988547
0.627703726 0.924731195 0.384819686
0.747121811 0.927261055 0.393042266
0.869196832 0.925110698 0.402529985
0.012396996 0.103099354 0.262365282
0.092346892 0.099177644 0.265654981
0.171916559 0.103478901 0.256546557
0.259582609 0.105881996 0.261732996
0.415053576 0.094623551 0.291840553
0.579253435 0.048703365 0.299936891
0.750664234 0.001644712 0.317267299
0.917140782 0.011385280 0.348640293
0.071220897 0.137128100 0.246679276
0.108159088 0.136369184 0.252245188
0.170271844 0.139531910 0.252371997
0.267046273 0.136369184 0.262492090
0.406704724 0.134092107 0.281973273
0.579506516 0.118785359 0.298798531
0.752182126 0.116761193 0.325996190
0.917393923 0.118912183 0.355597764
0.097659551 0.183428004 0.260594636
0.120935738 0.182543099 0.247944623
0.196204826 0.190765455 0.256167084
0.286274642 0.198229089 0.273877621
0.408602268 0.206451744 0.282732189
0.572295725 0.215433195 0.297153741
0.753700078 0.231119186 0.328020275
0.922833622 0.236432567 0.354332924
0.110942356 0.283618003 0.274636656
0.155977190 0.281973273 0.279316634
0.234155282 0.287918717 0.289184004
0.320682913 0.283111632 0.283618003
0.427071810 0.293738186 0.284756541
0.591650724 0.320050627 0.307653636
0.760657549 0.342567921 0.328526199
0.918532789 0.365591466 0.359645814
0.130297631 0.435041010 0.309803814
0.184060901 0.428716004 0.300822288
0.271347433 0.431499183 0.303099275
0.370398462 0.433017373 0.307526618
0.484124184 0.434535176 0.309803605
0.603795290 0.441112936 0.311321825
0.763440907 0.471473545 0.331436008
0.916508555 0.498291969 0.362555265
0.163946733 0.600126326 0.328020394
0.212776631 0.597469747 0.330423534
0.300063103 0.600253105 0.329285026
0.397849262 0.601012170 0.332447737
0.517394006 0.605060220 0.335483760
0.639595091 0.608855188 0.339911282
0.763440907 0.622137845 0.339658380
0.907906532 0.645793736 0.368121356
0.193548635 0.773054838 0.379000545
0.233522907 0.772675157 0.375331908
0.308791935 0.770271897 0.379380107
0.411511600 0.773560882 0.381277531
0.525743186 0.777735651 0.387223095
0.642504454 0.778621316 0.387222916
0.758380830 0.780898511 0.393674552
0.889057457 0.796584427 0.401391625
0.271726608 0.918026805 0.451739430
0.293991148 0.918532491 0.448450238
0.353193969 0.917773545 0.450853735
0.442378461 0.918152928 0.448956072
0.541556060 0.919797301 0.451739371
0.646173418 0.920556366 0.457179338
0.761163890 0.924604654 0.468311071
0.873624623 0.925742984 0.476533622
0.063377798 0.104996994 0.358760178
0.114610925 0.107779637 0.355976939
0.201138288 0.107400186 0.345351100
0.294876844 0.107779644 0.334851533
0.399241179 0.101961002 0.349398971
0.586464465 0.049336266 0.388235450
0.751802862 0.003162904 0.410499483
0.912080705 0.080455408 0.443390191
0.068184994 0.153194442 0.339531749
0.125869274 0.146995544 0.342315197
0.205945402 0.148513645 0.335483849
0.293358654 0.143453091 0.340038180
0.405945718 0.141555741 0.352940828
0.584566712 0.126249284 0.381024629
0.754585683 0.118153095 0.409361005
0.905123174 0.167741522 0.445287824
0.116635084 0.208349288 0.341429293
0.153699994 0.205945283 0.327387393
0.212903291 0.208475992 0.332954109
0.304237634 0.202150196 0.333713084
0.417330354 0.209108189 0.351676047
0.581024587 0.218469098 0.379506737
0.748766482 0.240354285 0.414168268
0.904364347 0.271093994 0.458191067
0.137887284 0.274889261 0.335610539
0.171536997 0.279569983 0.343579829
0.245287910 0.287033528 0.345856845
0.346869290 0.301455081 0.364579618
0.445160896 0.310183257 0.370145619
0.590385556 0.325743258 0.390765190
0.750284672 0.348007530 0.420493186
0.907526970 0.375711650 0.458823383
0.152688190 0.424288362 0.385325581
0.198481828 0.429095358 0.385831714
0.281847179 0.425174356 0.390133202
0.387222826 0.434281945 0.393169165
0.494876355 0.436938375 0.395572364
0.607843220 0.438076943 0.402276725
0.757368565 0.469955474 0.432510912
0.911954641 0.497659832 0.460088521
0.220872924 0.589247167 0.422770381
0.258570641 0.592409849 0.415559709
0.332953900 0.592789292 0.422390819
0.420999497 0.592789292 0.420493394
0.519418180 0.595825672 0.427704006
0.637571454 0.603795409 0.430613369
0.766476810 0.614294708 0.438456655
0.911068797 0.642251611 0.471727014
0.298798382 0.759898841 0.472359478
0.324224919 0.760910809 0.473370999
0.370272189 0.764452636 0.471347392
0.443769932 0.765085518 0.469449908
0.547628164 0.769133568 0.477672189
0.653131068 0.773181438 0.477292925
0.765464723 0.778621256 0.477672368
0.897532880 0.791018486 0.487666160
0.352940977 0.915749371 0.541050136
0.367741644 0.910689414 0.522454202
0.409993827 0.912333965 0.528905869
0.483997285 0.915623009 0.533586204
0.572928488 0.915116966 0.533965588
0.670588493 0.915243447 0.539405346
0.773940265 0.920176864 0.544592023
0.884503663 0.923465908 0.550411165
0.097912997 0.117647000 0.483617753
0.156609997 0.115622737 0.483617753
0.254901946 0.113724999 0.475774735
0.352435291 0.101961002 0.467931718
0.456293672 0.090828553 0.460214704
0.595192492 0.053384271 0.469829470
0.760911047 0.019228453 0.500822306
0.913978815 0.099050872 0.530929744
0.092599735 0.161543295 0.472106457
0.151929080 0.161163747 0.464516252
0.247817829 0.154838651 0.467172801
0.350284636 0.149399266 0.462871462
0.449335665 0.137507737 0.451739281
0.587602913 0.126375809 0.467552274
0.758760273 0.123971827 0.498798460
0.911448181 0.176850066 0.530550182
0.127387643 0.234914571 0.470208824
0.170145735 0.232637569 0.459835261
0.249335825 0.226691827 0.456166714
0.348387301 0.222896829 0.450600952
0.455281705 0.222517088 0.454775631
0.593548536 0.221252441 0.474130243
0.754585862 0.247438192 0.501328409
0.901327968 0.295255989 0.548892915
0.152814999 0.316635013 0.459329695
0.190006539 0.317141086 0.454648793
0.264642447 0.316381991 0.447564811
0.375205368 0.319923937 0.460973799
0.490196258 0.328779161 0.468184650
0.610120356 0.343833178 0.485894710
0.755091846 0.370272070 0.519165218
0.899177670 0.417963237 0.561037302
0.175205454 0.432764351 0.473245203
0.214294732 0.437318027 0.469070286
0.294497102 0.436179489 0.469576120
0.406451374 0.441365927 0.478558153
0.522327602 0.462365597 0.493232161
0.626945019 0.459582567 0.498798281
0.762681782 0.482985377 0.527640760
0.898671508 0.517267585 0.564958990
0.238709465 0.598987937 0.501328468
0.274383694 0.592789292 0.495888472
0.357368708 0.596331179 0.505502701
0.452245533 0.594307363 0.517393768
0.551423192 0.599114478 0.526755214
0.652118683 0.601138711 0.530676723
0.771663547 0.613915086 0.536875010
0.910309613 0.635926425 0.572042763
0.338393271 0.761037052 0.549652398
0.357748061 0.762808263 0.553446829
0.424035728 0.761290550 0.554711998
0.507779717 0.761290550 0.567868471
0.585705101 0.763314307 0.572675467
0.672612309 0.766856253 0.573561013
0.776344001 0.770777822 0.577862442
0.902719378 0.784060836 0.583680987
0.443263769 0.910815895 0.614800751
0.461479962 0.911574781 0.621632099
0.510436475 0.905249715 0.622390628
0.561543226 0.909550726 0.628715873
0.613915145 0.910056949 0.622897029
0.701454759 0.913472533 0.626565576
0.792410076 0.916382074 0.633143663
0.900822401 0.918279588 0.645034492
0.155470982 0.126122996 0.627956510
0.212776557 0.126628742 0.633143663
0.311448187 0.116887905 0.628083467
0.427324533 0.100316003 0.626185894
0.537887454 0.073877200 0.617963374
0.658317745 0.023529559 0.602529764
0.793295503 0.003922000 0.607084036
0.921695054 0.119417772 0.620240748
0.155850530 0.172549129 0.624414802
0.210119829 0.174825996 0.619354546
0.306514651 0.167741999 0.618089795
0.423529357 0.158380911 0.616824985
0.534598351 0.143326908 0.612776995
0.658443868 0.123592354 0.607084095
0.786084533 0.123086520 0.605313063
0.916508317 0.190638438 0.620872855
0.167995080 0.259076655 0.608475626
0.216065720 0.261227101 0.606704533
0.314611107 0.255914181 0.610499501
0.417963356 0.251233280 0.604807138
0.536242485 0.245034993 0.598987579
0.651359797 0.238709569 0.596331179
0.785325646 0.252751261 0.608475626
0.911827922 0.303732097 0.626692235
0.197976276 0.360531211 0.609361291
0.239847824 0.360531211 0.607463598
0.324731082 0.360910654 0.599873543
0.437950611 0.364452630 0.594939828
0.546489656 0.361290008 0.596204937
0.652118921 0.356989384 0.595066369
0.779253840 0.377355993 0.608855188
0.907653153 0.427830458 0.637318015
0.202783182 0.479696453 0.595825255
0.246805787 0.480328739 0.601518273
0.332700461 0.476027668 0.598987579
0.429854482 0.470714569 0.594054282
0.558254361 0.479949266 0.603162527
0.670461595 0.489816815 0.617710114
0.785705388 0.509045184 0.626565456
0.899177670 0.551296353 0.658317566
0.221631899 0.618216276 0.605186760
0.271853179 0.624161720 0.610499978
0.348134130 0.617330730 0.606957674
0.451992542 0.615433514 0.611005604
0.567235887 0.615179956 0.621125519
0.687665761 0.623022974 0.634155512
0.790006340 0.632131457 0.642758071
0.906894386 0.662239194 0.670968056
0.347627997 0.772042871 0.640733838
0.373940706 0.769513011 0.630234003
0.436938554 0.765970588 0.632890284
0.521947920 0.762428880 0.642378569
0.623402536 0.761416674 0.660468221
0.714484453 0.766476810 0.667425752
0.800885320 0.770777881 0.670461476
0.906388581 0.779380262 0.675648034
0.457811117 0.910309613 0.671094179
0.474889070 0.912586868 0.678304911
0.523086548 0.907653451 0.684503615
0.600505948 0.908791780 0.692346334
0.684503257 0.903731763 0.709298015
0.750158131 0.911701500 0.722200990
0.816065848 0.912839949 0.715116918
0.914104819 0.918658793 0.727893949
0.247311965 0.150537804 0.778241754
0.290828794 0.148766369 0.776849806
0.382289886 0.140543729 0.775711417
0.488551438 0.128399789 0.773307920
0.615559876 0.110942252 0.771916270
0.741176367 0.086147889 0.762048900
0.865781128 0.061100136 0.765211582
0.975584924 0.123465911 0.750790775
0.253131092 0.203162819 0.770524621
0.298039049 0.200632796 0.770145178
0.382162869 0.194939688 0.771916151
0.493991226 0.188488349 0.769512773
0.616318643 0.179886147 0.766856611
0.739025652 0.168374494 0.759392858
0.861353815 0.161922589 0.756103754
0.975711405 0.200885445 0.750157595
0.294117570 0.305629313 0.758254409
0.338266671 0.300569177 0.761543155
0.406831145 0.301328063 0.758633733
0.505123079 0.297027111 0.757874668
0.617710173 0.294623703 0.756229937
0.739152431 0.293358743 0.752687991
0.859582365 0.285515547 0.751802325
0.969765723 0.320936054 0.748766482
0.314610779 0.407084256 0.755850375
0.360278189 0.406325251 0.751675785
0.441872209 0.418216199 0.755724430
0.532068193 0.423023105 0.752308547
0.630740166 0.419228017 0.745730400
0.735610247 0.419228286 0.747248530
0.850853741 0.415306628 0.744085848
0.957874596 0.444528431 0.743959606
0.297027111 0.526628733 0.750916600
0.339405298 0.525237024 0.755850434
0.406957507 0.520683229 0.751675725
0.520050645 0.524984121 0.748639822
0.642125309 0.541176319 0.744085789
0.738899410 0.540164173 0.746109843
0.836053193 0.539784968 0.740923345
0.934977651 0.569892526 0.749904811
0.268564165 0.663630545 0.749145865
0.312080711 0.665401697 0.753700256
0.392789334 0.662871718 0.750284493
0.494117439 0.654143095 0.746236503
0.614800572 0.648450494 0.746616006
0.734345317 0.661606550 0.749778509
0.834787846 0.671599984 0.754206240
0.932447612 0.694876611 0.761037290
0.274130404 0.817836761 0.751296639
0.316508472 0.810246944 0.742314577
0.392789364 0.807843328 0.742062032
0.499683470 0.802023768 0.748766661
0.609614491 0.794560373 0.750031471
0.720683157 0.785958111 0.753952861
0.829728246 0.786211371 0.768247783
0.926375449 0.807590246 0.784187317
0.455154955 0.924730718 0.745477796
0.481593758 0.928525984 0.749398768
0.530297160 0.923339784 0.757241786
0.601644456 0.921188891 0.760278106
0.688298583 0.918279350 0.766603231
0.772422433 0.913092732 0.781403840
0.859708786 0.915496767 0.801138639
0.932574451 0.920682967 0.813535690
