Assets/EldamarStudio/100 Retro LUTs Pack/LUTs/cube/Paula LUT.cube
DOMAIN_MIN 0 0 0
DOMAIN_MAX 1 1 1
LUT_3D_SIZE 32
0.121569000 0.121569000 0.090195999
0.121569000 0.121569000 0.090195999
0.125870004 0.119418226 0.085895002
0.137001991 0.115116999 0.083618164
0.157874644 0.110942543 0.087792993
0.197343796 0.120050937 0.099936999
0.241872311 0.129158676 0.109550677
0.287413090 0.131688714 0.113724999
0.329158992 0.128652900 0.115243189
0.359519035 0.125616506 0.121315964
0.410246611 0.122580871 0.109930255
0.451739520 0.125616997 0.109929994
0.490449280 0.132827342 0.114863642
0.532448053 0.142441034 0.117141001
0.568880796 0.157621413 0.111069001
0.610120535 0.170398608 0.119417988
0.648071170 0.187097177 0.134598374
0.679569960 0.207716987 0.152182400
0.703858078 0.225933030 0.167362049
0.733712733 0.244148999 0.188108370
0.760278463 0.262365460 0.209360734
0.785579145 0.281594127 0.230613112
0.812903523 0.302593499 0.251865476
0.840227902 0.317773908 0.273117900
0.867552280 0.335230976 0.298924267
0.890701950 0.353446960 0.322074324
0.909424067 0.372169077 0.340797067
0.930676401 0.393421412 0.362049431
0.951928794 0.414673805 0.388614774
0.974952400 0.434155405 0.412397176
0.993042350 0.454142958 0.435420573
0.996078014 0.478430986 0.462745011
0.130676612 0.118532613 0.084123999
0.118532613 0.118532613 0.087160386
0.122833617 0.122833617 0.091461390
0.140290752 0.121188998 0.088931382
0.170398086 0.117393993 0.088551991
0.212523401 0.129158542 0.106008992
0.249462262 0.135736600 0.105502680
0.288551420 0.144338697 0.107652999
0.329158813 0.145350903 0.108412094
0.368627429 0.137760505 0.112207584
0.404807121 0.146362871 0.118279606
0.453763485 0.149904996 0.112966128
0.494244277 0.155976996 0.112586647
0.532448053 0.162934437 0.112080999
0.568880796 0.169766173 0.117141001
0.602909744 0.187349752 0.123086795
0.637445033 0.203794986 0.136116579
0.669323564 0.222264171 0.153447554
0.700822413 0.238077030 0.173434824
0.730676413 0.259076387 0.194181144
0.757242084 0.275648117 0.215433508
0.782542706 0.290701985 0.235673770
0.810120106 0.305882096 0.255028397
0.843263507 0.326881528 0.279190689
0.863757193 0.344339192 0.298165768
0.888804674 0.363947034 0.321821362
0.911954403 0.383807778 0.343326747
0.930676401 0.402529806 0.362049431
0.954585612 0.418469220 0.385957956
0.976217568 0.438962549 0.409360766
0.993927956 0.459329575 0.433269799
0.999114394 0.481467396 0.462745011
0.122580223 0.130549997 0.080202229
0.121188998 0.132700771 0.083238617
0.130549997 0.130549997 0.090576001
0.145477489 0.137887165 0.092852838
0.177862093 0.137381315 0.089563772
0.218595639 0.144212559 0.102467000
0.253889650 0.153446764 0.105123453
0.290322423 0.161163464 0.105376057
0.328273207 0.167994767 0.107399993
0.370777994 0.163061067 0.111827709
0.413915515 0.167109415 0.113472223
0.452372015 0.172169283 0.111448228
0.496015280 0.179253414 0.109423995
0.532195032 0.186590582 0.108665287
0.566730022 0.194560602 0.118532769
0.600758970 0.205945745 0.129158795
0.632637560 0.221125767 0.141303182
0.662998378 0.236811921 0.157115981
0.694877028 0.250474542 0.176850215
0.727640808 0.271220922 0.200253367
0.756103516 0.286780536 0.219607979
0.780645251 0.301707923 0.239595473
0.806831300 0.315243512 0.257938266
0.836179674 0.334471673 0.280202806
0.860341549 0.351296574 0.302087218
0.882732630 0.370904624 0.321694881
0.909551024 0.391650975 0.344718069
0.931055963 0.409866989 0.364579141
0.952434838 0.425426811 0.388108730
0.978494346 0.445920378 0.417709887
0.995192826 0.467552364 0.440480351
1.000000000 0.488804787 0.467045993
0.120050162 0.157621473 0.086021326
0.124351382 0.160657555 0.085262552
0.139405161 0.158127546 0.090069614
0.165211484 0.157621473 0.095382839
0.189879999 0.166729867 0.091967002
0.219607756 0.171537265 0.096647777
0.259076476 0.175838158 0.103225842
0.295382410 0.184945852 0.106135286
0.331815183 0.192536250 0.106135100
0.373308003 0.193042308 0.109677166
0.413662255 0.197217017 0.108665004
0.453890085 0.201518059 0.108412161
0.492220134 0.204553962 0.108032510
0.528399825 0.213409275 0.109424062
0.561796248 0.222517416 0.121568829
0.597722948 0.231499314 0.136242986
0.628336370 0.244908154 0.151170343
0.658697128 0.257052302 0.166983142
0.689058065 0.269197106 0.185199186
0.724731386 0.285895377 0.207716733
0.754332721 0.300190151 0.226945147
0.779633105 0.313346028 0.245161161
0.803921819 0.328652829 0.263504326
0.832384884 0.346869141 0.284756750
0.855155230 0.362808436 0.304744035
0.879190624 0.378241777 0.324730814
0.904997051 0.398482084 0.345983237
0.927766979 0.415939003 0.367235601
0.951928794 0.432763964 0.392409652
0.972928286 0.450727224 0.415686280
0.995825112 0.473245025 0.449082702
1.000000000 0.494118005 0.471853167
0.134092003 0.197849542 0.101202004
0.142061546 0.200126261 0.096648000
0.158127308 0.197469652 0.095888779
0.184566319 0.194813266 0.098797999
0.219101548 0.197090551 0.097659551
0.225173548 0.206198931 0.091587543
0.261859506 0.208475992 0.099556997
0.302593231 0.212270826 0.107273549
0.341302633 0.220240176 0.111827552
0.377735436 0.223276570 0.102719933
0.412017405 0.229222089 0.100569129
0.447817504 0.234535083 0.101960801
0.483870715 0.240227640 0.107653446
0.520050585 0.243770033 0.117014088
0.553446949 0.252877653 0.129158825
0.592030406 0.259582609 0.145350978
0.625427186 0.269829363 0.163567379
0.653763592 0.283617705 0.181404531
0.684124470 0.295762509 0.199620590
0.721695364 0.307906538 0.220999360
0.753573716 0.318532735 0.238836274
0.779253542 0.329285413 0.254649103
0.800632477 0.344465047 0.272865087
0.830487251 0.362428814 0.293864429
0.854775667 0.377988815 0.312840015
0.878811061 0.393169105 0.331056505
0.904617608 0.408729047 0.349399060
0.922833562 0.423908621 0.370651424
0.948260367 0.441366196 0.396457791
0.971410394 0.459582478 0.419607848
0.987856030 0.477798641 0.441113561
1.000000000 0.496015459 0.474510014
0.140164003 0.243389919 0.095129997
0.161416382 0.240354314 0.101201996
0.175837710 0.240480810 0.096647993
0.197090089 0.239468798 0.098418772
0.225173548 0.239595324 0.103731550
0.246425927 0.236558929 0.094623931
0.270208895 0.243136987 0.096141614
0.300569624 0.244907990 0.097406708
0.332194924 0.247944117 0.098924845
0.368627071 0.253637344 0.105755545
0.407969683 0.259582877 0.111195058
0.446426153 0.261606872 0.115749508
0.483111620 0.266034216 0.123592928
0.517014146 0.274130017 0.135230869
0.550411284 0.283238411 0.147374853
0.591018498 0.289942861 0.159518987
0.625427186 0.299050957 0.175711378
0.654016554 0.310436100 0.193295568
0.687160075 0.317014903 0.208728969
0.717520833 0.329158932 0.232510954
0.747501731 0.341302931 0.252498478
0.773813963 0.352940977 0.269197047
0.797596097 0.365717441 0.285009861
0.821884871 0.380897850 0.303225875
0.849462330 0.394307584 0.321947902
0.875774682 0.408349216 0.340164393
0.901581168 0.424035192 0.358380914
0.919797897 0.442125380 0.376723409
0.940670729 0.457305670 0.397975802
0.966477096 0.474762857 0.423782140
0.987856030 0.492978901 0.448703259
1.000000000 0.511195064 0.474510014
0.166476637 0.273750961 0.109297998
0.172549024 0.275774688 0.107779674
0.189500421 0.277040064 0.109550677
0.205945641 0.277419627 0.108032838
0.229474857 0.277799100 0.113092773
0.255028248 0.279063702 0.108285613
0.281340629 0.276027948 0.101707675
0.310310066 0.280455232 0.103098996
0.340038091 0.281340629 0.103225678
0.374699324 0.283870965 0.110562526
0.408981293 0.287413329 0.121821634
0.442378193 0.293485314 0.129917383
0.479190290 0.299051315 0.139911309
0.513978362 0.309550673 0.153447062
0.547374904 0.318659037 0.165591627
0.583175242 0.325363636 0.180138826
0.622391105 0.332953811 0.195445701
0.652751565 0.343453348 0.213029876
0.682353020 0.351422936 0.228210300
0.715496421 0.358001679 0.244149655
0.749652147 0.368247896 0.264642626
0.775837958 0.379759580 0.281847149
0.797216535 0.391777426 0.297027498
0.823909163 0.402150244 0.312840313
0.850474596 0.415053904 0.335610300
0.877798975 0.428589612 0.354332656
0.904111385 0.443769395 0.372549325
0.924351871 0.459961891 0.390765309
0.945224762 0.472992122 0.409107774
0.966477156 0.488172054 0.428589404
0.987856030 0.506514609 0.455407888
1.000000000 0.526375294 0.484629989
0.186969995 0.304364711 0.124224991
0.198229089 0.309045017 0.122833312
0.200000063 0.313725471 0.123592407
0.220240444 0.310436696 0.123592407
0.239595070 0.310057133 0.125869706
0.263124645 0.315622777 0.124098472
0.287160009 0.311954290 0.120176695
0.316128671 0.313851982 0.122327402
0.344212383 0.316128701 0.119291402
0.374066800 0.316128701 0.120050415
0.407463580 0.319038540 0.130297020
0.442125231 0.322454393 0.140417427
0.474762708 0.328526378 0.151802331
0.511195362 0.339405388 0.167235702
0.545983434 0.348513395 0.182163104
0.578494608 0.358507395 0.198355585
0.613409221 0.364579380 0.213535592
0.649082839 0.373561263 0.231625661
0.678431332 0.382669151 0.247817963
0.708032668 0.385705411 0.259709358
0.741682470 0.396963954 0.278431684
0.775079131 0.406071842 0.297659844
0.795572221 0.417583972 0.314231694
0.822896957 0.428209811 0.330929905
0.848577261 0.436306298 0.346362978
0.874509931 0.449842006 0.367868334
0.901075423 0.464515835 0.386084974
0.923466444 0.478557825 0.404300988
0.944718778 0.492725909 0.422517389
0.964326441 0.508286119 0.444022387
0.984693289 0.523466051 0.464010179
0.998355269 0.543200433 0.495129704
0.202150196 0.338520199 0.137128100
0.218089864 0.343074203 0.139405191
0.223529413 0.347628176 0.140037775
0.230866253 0.349146187 0.143326998
0.257431626 0.338520199 0.144086093
0.276027858 0.346489370 0.144845188
0.296015412 0.345224172 0.140796870
0.319165081 0.344212174 0.142061800
0.350284189 0.349525303 0.148893103
0.371536613 0.349525303 0.136749089
0.402909517 0.352434963 0.142694324
0.437571526 0.355471343 0.149525344
0.473245084 0.358128101 0.160151631
0.509424150 0.364453137 0.176091060
0.545350850 0.373560876 0.195319161
0.576976597 0.385072708 0.215053603
0.608096302 0.393422008 0.232511282
0.640860081 0.400759131 0.247059092
0.674129963 0.409994036 0.265022099
0.701960325 0.413029999 0.276407450
0.733080149 0.420240521 0.291587830
0.765212059 0.431878239 0.310563147
0.792536438 0.440860093 0.331815511
0.819860816 0.451739103 0.350664109
0.845667541 0.461606562 0.365844101
0.869955957 0.470335484 0.380771428
0.893738091 0.485009164 0.398482144
0.917773783 0.497153908 0.416445196
0.938646615 0.512713194 0.433902532
0.960405052 0.528905332 0.454143018
0.978621066 0.544718623 0.478431106
0.996837080 0.559898973 0.502719879
0.226438984 0.374953002 0.152308494
0.235547379 0.374953002 0.161416888
0.242884487 0.375205994 0.161543220
0.253636986 0.375459015 0.162555009
0.272612035 0.374953002 0.168374106
0.293864399 0.374953002 0.174446881
0.312460631 0.377862155 0.167615667
0.330803484 0.378873974 0.163693994
0.353320599 0.379886091 0.164073497
0.386716992 0.382922471 0.164073497
0.413788348 0.385831594 0.163567513
0.445414275 0.388867795 0.163946986
0.478937656 0.390765488 0.168880492
0.512460530 0.391777545 0.182163075
0.545856893 0.400885910 0.206451818
0.576976597 0.412397474 0.230486959
0.607337356 0.419987321 0.251486391
0.637824416 0.425047159 0.268311501
0.668184578 0.437191933 0.280455530
0.695888400 0.446426153 0.295635849
0.727008224 0.453257501 0.310563207
0.759392977 0.458697379 0.324984491
0.789500058 0.462112516 0.337887526
0.816824436 0.468184501 0.359139919
0.844149411 0.481340766 0.377988487
0.869955957 0.493358642 0.395951807
0.893738091 0.503225982 0.413662553
0.914990425 0.515370011 0.428842902
0.933712482 0.532827020 0.444149077
0.957368612 0.549145699 0.461226940
0.981657445 0.562681556 0.481467456
0.999873459 0.572043002 0.505755544
0.253636867 0.411385000 0.179126874
0.259835392 0.411385000 0.188235268
0.264642775 0.415686548 0.188741103
0.273751020 0.417204738 0.189500198
0.290702283 0.417204738 0.194813609
0.311954677 0.417204738 0.195825741
0.330676734 0.414674431 0.191777229
0.352182388 0.415306747 0.192915708
0.372928739 0.416065842 0.196710870
0.395572364 0.419102222 0.196710870
0.420240611 0.416318864 0.193801746
0.449588716 0.419355005 0.191777483
0.480961412 0.422391087 0.192030519
0.512081027 0.424920917 0.199114710
0.540164411 0.434029281 0.215432942
0.571157575 0.440733850 0.234914720
0.607590377 0.445793867 0.256673038
0.642251968 0.449335724 0.275648564
0.668058097 0.461479932 0.290069908
0.698418736 0.468057990 0.304996550
0.725869596 0.477039605 0.323971868
0.756230414 0.484124005 0.343200266
0.786337852 0.489183873 0.361037016
0.810878873 0.495255888 0.373940766
0.838203251 0.503605187 0.390639126
0.862744927 0.513345838 0.405439705
0.886021197 0.521948040 0.420619994
0.912080586 0.536495864 0.438203543
0.930676818 0.548639834 0.453383952
0.954205990 0.564579010 0.472106010
0.977988720 0.577988446 0.489689976
0.994180977 0.587096870 0.505882025
0.280961245 0.445793748 0.218595743
0.282985240 0.447817504 0.217583895
0.292978764 0.448070526 0.218089730
0.296015143 0.452878147 0.217583671
0.309298068 0.453257680 0.222897246
0.332195193 0.451612979 0.226186246
0.350917250 0.451106936 0.225174114
0.367488950 0.451359957 0.220746040
0.389880091 0.452498406 0.226818338
0.409361243 0.455534458 0.228083506
0.431372762 0.454775363 0.225173861
0.455660969 0.453763247 0.220113978
0.484882623 0.456799626 0.218216240
0.513851762 0.459582508 0.220367014
0.539405406 0.463377655 0.228463084
0.573181570 0.470082253 0.244022846
0.602024138 0.476154238 0.263757437
0.639468849 0.477798820 0.283744663
0.666540325 0.485768497 0.298924744
0.698418736 0.492346525 0.314104915
0.724983990 0.498418510 0.331182718
0.751169980 0.506388247 0.349272519
0.779380202 0.512460232 0.367488772
0.805566013 0.518532276 0.385325789
0.834155560 0.528905809 0.401771009
0.858696938 0.536622524 0.418343067
0.880455256 0.543706477 0.432258308
0.906261444 0.557368696 0.448956490
0.931688368 0.569892228 0.468564332
0.948133886 0.580265462 0.481973469
0.973560929 0.595825255 0.501581252
0.992156982 0.608348966 0.516002238
0.309424281 0.483744621 0.259582639
0.309424281 0.485641867 0.255787641
0.318026274 0.486527264 0.254143149
0.329790801 0.485515445 0.253636807
0.333586186 0.488931298 0.256293625
0.354079843 0.488171995 0.260847628
0.369892627 0.486527264 0.259582639
0.387602687 0.487033308 0.260215193
0.403542161 0.490828633 0.258696824
0.424415112 0.494243801 0.261733115
0.446805865 0.494370282 0.257811397
0.467805296 0.493231893 0.252751291
0.494370282 0.492093265 0.250094920
0.521694660 0.495129645 0.250094920
0.546868801 0.496015280 0.252245694
0.577356219 0.499683648 0.260341793
0.609234810 0.504617274 0.275142550
0.637191594 0.510056674 0.294497520
0.667552352 0.513092995 0.309171349
0.697280407 0.518912256 0.325489998
0.728399634 0.523845673 0.344845116
0.750663936 0.530929804 0.361037642
0.774826109 0.537001729 0.373181611
0.802150548 0.542061627 0.391397893
0.830613554 0.551549554 0.411511630
0.856799662 0.560911000 0.427450687
0.877546012 0.567995131 0.446173400
0.900568962 0.580139279 0.462618768
0.927513778 0.593421638 0.481973797
0.950031161 0.606071830 0.500189960
0.967868209 0.615180194 0.514105201
0.992156982 0.632637262 0.532321274
0.339785069 0.528020024 0.292726070
0.339785069 0.528020024 0.292726070
0.348134011 0.527767003 0.293611735
0.360278100 0.527008235 0.297406882
0.371536583 0.524605036 0.299557060
0.380644947 0.530677021 0.299557060
0.390006304 0.529917717 0.296268046
0.403795034 0.528020024 0.294370711
0.421252191 0.529032052 0.296647936
0.439468980 0.535104036 0.299683541
0.463504046 0.535357058 0.294497013
0.483997464 0.533839226 0.289184064
0.505756021 0.531056404 0.286527634
0.536116064 0.528272986 0.289058030
0.563440442 0.531309366 0.289058030
0.590512395 0.534092188 0.290955216
0.618090153 0.536875188 0.297280043
0.645793974 0.539911449 0.308665127
0.676154077 0.542947114 0.320809931
0.700948715 0.548513770 0.339532018
0.730170727 0.553194284 0.360784471
0.759013295 0.558001161 0.381278038
0.777482986 0.566856563 0.393674999
0.804680884 0.569892168 0.406072021
0.832005262 0.577482343 0.424541324
0.856799662 0.585452020 0.442378044
0.877799034 0.592283130 0.455787092
0.896014988 0.604427874 0.477039427
0.921694815 0.618469179 0.495382637
0.946236134 0.633396268 0.513598979
0.966603160 0.647564590 0.532068193
0.990891933 0.656673014 0.550284982
0.370145828 0.558380842 0.323086828
0.370145828 0.558380842 0.323086828
0.376597047 0.556230068 0.314484268
0.387602717 0.556356549 0.315622866
0.398608655 0.557748437 0.323592812
0.401897311 0.558001459 0.317773819
0.413535386 0.564073384 0.330423504
0.426691681 0.561669827 0.329664379
0.440986484 0.558380842 0.325489938
0.451612979 0.559392810 0.320935905
0.475648731 0.559645832 0.321062386
0.497912526 0.561669528 0.321821660
0.517393827 0.562301993 0.322960168
0.539152443 0.561669409 0.325489998
0.569513202 0.561669350 0.322454393
0.594433784 0.562301993 0.320050567
0.622390985 0.562934399 0.318279594
0.651486576 0.564199567 0.319671273
0.679190516 0.567235827 0.323845536
0.703984439 0.570272148 0.352688313
0.728273034 0.577735662 0.371031135
0.754459262 0.584566414 0.388109148
0.777482986 0.591144502 0.402783364
0.801771045 0.594180882 0.420999408
0.828968883 0.601771116 0.435673684
0.854901910 0.610879123 0.454902053
0.878052056 0.619354486 0.473750830
0.899051428 0.628715873 0.492219836
0.919924200 0.635546982 0.508159220
0.947754323 0.647058845 0.525742948
0.968247592 0.661606848 0.544844568
0.975711584 0.677925408 0.565464556
0.393295795 0.588741601 0.360657781
0.395698994 0.588741601 0.351043791
0.400000006 0.588741601 0.353194028
0.411384940 0.588488221 0.347374588
0.422770530 0.590765357 0.353067547
0.421758682 0.588741601 0.349019796
0.432384610 0.593801618 0.348640293
0.449462324 0.594939888 0.358886600
0.465401590 0.591144800 0.357368588
0.476154298 0.591144800 0.354585588
0.490195930 0.591144800 0.351928800
0.510436654 0.591144800 0.351928800
0.531309247 0.590385616 0.352308631
0.551043808 0.588361621 0.352561593
0.574952781 0.592662573 0.351676196
0.600505948 0.595066428 0.348639965
0.621758342 0.593548238 0.344085783
0.648576975 0.591397583 0.340796977
0.677672207 0.589120805 0.342061847
0.702213824 0.599367321 0.358127743
0.730297208 0.604300976 0.382795751
0.755597770 0.610878944 0.396964133
0.779759705 0.615306616 0.409361482
0.801771045 0.616065681 0.425300807
0.826059580 0.623656094 0.443516791
0.850474477 0.634155810 0.461606652
0.873245060 0.644275665 0.482859075
0.894497454 0.653384030 0.502972782
0.918152988 0.659835637 0.520935833
0.939405382 0.667678833 0.534345448
0.966097176 0.681847155 0.553953171
0.979759812 0.701581001 0.578241587
0.417584181 0.619102001 0.387982190
0.420619786 0.620620191 0.383428395
0.424288392 0.616065979 0.379000634
0.431625545 0.617331147 0.376976252
0.445540845 0.619987369 0.379253268
0.447058916 0.618090093 0.386464298
0.452119201 0.622644186 0.381404191
0.466160893 0.623782456 0.380139381
0.484377086 0.622264266 0.384693384
0.495762020 0.623023391 0.384693384
0.509424210 0.621505141 0.384819508
0.525616705 0.621505141 0.383807391
0.546110153 0.620366812 0.383807391
0.567489088 0.615433335 0.381404191
0.587476552 0.620240152 0.381404191
0.606577992 0.620873034 0.377482563
0.632384539 0.623908997 0.374446183
0.650601149 0.621505141 0.370271772
0.677419245 0.617204189 0.371157408
0.702213526 0.621758223 0.374446541
0.728779435 0.628589392 0.388867736
0.757115960 0.634661376 0.407083988
0.781530499 0.638330221 0.417077810
0.805565894 0.641113162 0.433649898
0.826059580 0.644908488 0.452625185
0.847564936 0.652625203 0.469449848
0.870208919 0.664010227 0.491967171
0.894497454 0.673118591 0.516255438
0.912333965 0.682606161 0.528778970
0.934851170 0.688931227 0.548007250
0.958760142 0.699810624 0.564579606
0.984314024 0.719797373 0.591904163
0.443643540 0.647564530 0.404427558
0.448576719 0.651233375 0.408728927
0.450980306 0.646299779 0.408728749
0.454649121 0.642884135 0.404427558
0.464136988 0.645540953 0.396078169
0.473497629 0.645540953 0.418089837
0.478810877 0.648070991 0.416445225
0.486527711 0.650474429 0.410626262
0.501455009 0.648956060 0.409614533
0.510562658 0.651992440 0.409614533
0.524857402 0.649209261 0.412523657
0.542062044 0.648197114 0.414168119
0.561290562 0.648323596 0.412903130
0.584819615 0.645287991 0.412650108
0.602656782 0.647564709 0.412270546
0.617836773 0.646426320 0.409361124
0.637191594 0.647058904 0.406704515
0.663251579 0.648829520 0.403035700
0.681467652 0.648829520 0.406072110
0.705882192 0.649462104 0.402024120
0.730170608 0.650727272 0.404807121
0.755850971 0.654143155 0.416318536
0.780265510 0.659962118 0.428336054
0.807589889 0.665022135 0.445034802
0.828715980 0.670082211 0.464895844
0.848197520 0.673877537 0.484630048
0.867425561 0.680455506 0.499810457
0.897533298 0.689563811 0.529537976
0.914484560 0.700063527 0.541176140
0.931309164 0.709930539 0.556103349
0.952055573 0.716761589 0.575964212
0.982416451 0.731941998 0.603289425
0.464896023 0.668817043 0.425680041
0.477040023 0.674889028 0.434788376
0.479822993 0.672106087 0.439089239
0.480076015 0.670841038 0.439089149
0.482353061 0.675901055 0.435547411
0.494497061 0.675901055 0.432511032
0.503858328 0.670841098 0.434282064
0.510816038 0.670714796 0.431878746
0.519924164 0.673244894 0.431120008
0.534851491 0.676280499 0.436939001
0.546869040 0.673497915 0.439848125
0.563314497 0.672486007 0.442884266
0.581530929 0.673624337 0.442251980
0.600000024 0.675648093 0.436938971
0.615180373 0.672612488 0.433902591
0.628209949 0.672486007 0.435926825
0.643643379 0.675269067 0.439721972
0.663251579 0.679190397 0.442504942
0.684504032 0.676154017 0.436432958
0.711069345 0.678937435 0.436685979
0.732447922 0.679823041 0.436179996
0.752435148 0.681088209 0.440227836
0.774193466 0.684251010 0.449588507
0.801517904 0.684251010 0.458696902
0.824288249 0.691587687 0.475395590
0.846679330 0.697406709 0.495256245
0.870461941 0.701707959 0.514990091
0.894749939 0.710815549 0.530170500
0.919544637 0.717267692 0.549272656
0.939278960 0.727387905 0.568248093
0.956862628 0.737254977 0.586843908
0.973308027 0.744086027 0.600253046
0.505629778 0.703984737 0.463630378
0.512207687 0.704490781 0.467172772
0.520050704 0.704110980 0.469829381
0.523845732 0.702466547 0.472232908
0.526881754 0.706261754 0.472612739
0.529411733 0.706261754 0.471980155
0.536495745 0.703731418 0.471474081
0.543706417 0.702846110 0.469829381
0.552055478 0.705882490 0.467552394
0.567235887 0.708918631 0.469576389
0.573940396 0.706135273 0.478305221
0.586084902 0.703099132 0.475269079
0.600506306 0.702340007 0.474889725
0.615180433 0.703731358 0.472612739
0.630360782 0.705755830 0.472106665
0.647944331 0.705123425 0.471474081
0.662365556 0.706641614 0.472612739
0.678684592 0.709551156 0.474889725
0.695636034 0.706514776 0.473118752
0.719671011 0.703478396 0.472612739
0.741303146 0.706514776 0.466920018
0.760531485 0.708412528 0.467299491
0.781783819 0.711448848 0.476407558
0.803795278 0.714105010 0.485515267
0.828842402 0.714105010 0.496900350
0.851992309 0.720303357 0.514104962
0.875775039 0.725743055 0.532447696
0.897786379 0.734851301 0.545350790
0.922074318 0.738646567 0.563187957
0.941049814 0.746363103 0.581404328
0.958254218 0.759266198 0.601644576
0.975332379 0.772928715 0.619481385
0.536749005 0.729031980 0.495508701
0.537128747 0.730929732 0.492852390
0.548892975 0.726881742 0.499430746
0.553700149 0.726375341 0.503225863
0.556862712 0.729411542 0.506009161
0.550790727 0.730929732 0.501455009
0.569133461 0.728399456 0.497659981
0.571916461 0.730297148 0.499304265
0.579759538 0.731309295 0.499810070
0.594939947 0.730929732 0.503225744
0.603288770 0.731941879 0.504364610
0.607716501 0.732700944 0.509044945
0.618722618 0.730803192 0.504111588
0.630613744 0.730550170 0.503352702
0.647438347 0.730297148 0.503352702
0.665022492 0.730929732 0.503352702
0.678684294 0.733965755 0.503352702
0.693105578 0.737381577 0.503352702
0.708285987 0.736875474 0.503352702
0.729917765 0.728146374 0.503352702
0.750410736 0.730803192 0.507147729
0.768627524 0.733839393 0.499051452
0.788868010 0.736748993 0.503226221
0.808349133 0.738013864 0.505249858
0.828083754 0.742567718 0.514737427
