Assets/EldamarStudio/100 Retro LUTs Pack/LUTs/cube/Paula LUT.cube
LUT_3D_SIZE 8
DOMAIN_MIN 0.000000 0.000000 0.000000
DOMAIN_MAX 0.903226 0.903226 0.903226
0.121569000 0.121569000 0.090195999
0.157874644 0.110942543 0.087792993
0.329158992 0.128652900 0.115243189
0.490449280 0.132827342 0.114863642
0.648071170 0.187097177 0.134598374
0.760278463 0.262365460 0.209360734
0.867552280 0.335230976 0.298924267
0.951928794 0.414673805 0.388614774
0.134092003 0.197849542 0.101202004
0.219101548 0.197090551 0.097659551
0.341302633 0.220240176 0.111827552
0.483870715 0.240227640 0.107653446
0.625427186 0.269829363 0.163567379
0.753573716 0.318532735 0.238836274
0.854775667 0.377988815 0.312840015
0.948260367 0.441366196 0.396457791
0.202150196 0.338520199 0.137128100
0.257431626 0.338520199 0.144086093
0.350284189 0.349525303 0.148893103
0.473245084 0.358128101 0.160151631
0.608096302 0.393422008 0.232511282
0.733080149 0.420240521 0.291587830
0.845667541 0.461606562 0.365844101
0.938646615 0.512713194 0.433902532
0.309424281 0.483744621 0.259582639
0.333586186 0.488931298 0.256293625
0.403542161 0.490828633 0.258696824
0.494370282 0.492093265 0.250094920
0.609234810 0.504617274 0.275142550
0.728399634 0.523845673 0.344845116
0.830613554 0.551549554 0.411511630
0.927513778 0.593421638 0.481973797
0.417584181 0.619102001 0.387982190
0.445540845 0.619987369 0.379253268
0.484377086 0.622264266 0.384693384
0.546110153 0.620366812 0.383807391
0.632384539 0.623908997 0.374446183
0.728779435 0.628589392 0.388867736
0.826059580 0.644908488 0.452625185
0.912333965 0.682606161 0.528778970
0.536749005 0.729031980 0.495508701
0.556862712 0.729411542 0.506009161
0.579759538 0.731309295 0.499810070
0.618722618 0.730803192 0.504111588
0.678684294 0.733965755 0.503352702
0.750410736 0.730803192 0.507147729
0.828083754 0.742567718 0.514737427
0.917520702 0.762934804 0.576470613
0.657052279 0.819861233 0.597596288
0.663883746 0.822011590 0.601264834
0.686401010 0.822138011 0.611132085
0.712333977 0.826059580 0.614294529
0.746616066 0.822897077 0.606325090
0.796078265 0.823782265 0.610752523
0.850221515 0.826059520 0.615559578
0.922833502 0.840480685 0.634661674
0.776976585 0.907526970 0.719164789
0.772675335 0.915875793 0.710563242
0.789626896 0.914863884 0.714357913
0.811764598 0.916761577 0.714104772
0.838962793 0.919670761 0.721947789
0.865401745 0.921821654 0.721441984
0.906009018 0.923212945 0.726755023
0.955850780 0.931055903 0.737760603
0.125869542 0.126249000 0.121062547
0.166097105 0.114863545 0.117899641
0.313092649 0.151296914 0.154332995
0.439595282 0.200252652 0.187223092
0.584187031 0.252624720 0.230234176
0.724098444 0.312966734 0.297533274
0.840606987 0.370145738 0.353700131
0.939531624 0.442883879 0.430234075
0.156736106 0.187350005 0.128905535
0.204554096 0.196711093 0.144971088
0.298924625 0.225680083 0.169639558
0.434029192 0.257431716 0.197343186
0.577482343 0.301328510 0.250727296
0.715749562 0.351802468 0.309044629
0.833396554 0.401897341 0.366856754
0.934218645 0.465275049 0.433902651
0.236685991 0.320050657 0.207210556
0.268817067 0.328779548 0.206072092
0.334218651 0.333839089 0.200506091
0.448956370 0.356103629 0.229095533
0.583427906 0.396457970 0.286654174
0.705629528 0.435293853 0.331688821
0.828463137 0.470461637 0.396331370
0.927893341 0.523718894 0.466034085
0.324604720 0.468437374 0.295508802
0.350158274 0.473244995 0.300696194
0.401138306 0.478684276 0.300696075
0.486527264 0.481847167 0.292093277
0.589120388 0.498292178 0.308412254
0.707147717 0.527008057 0.377102911
0.812270820 0.561416864 0.441366017
0.914990544 0.599367201 0.501328230
0.424920708 0.607083738 0.403162539
0.449841976 0.611258388 0.403794944
0.485768288 0.613662183 0.406957626
0.544592142 0.617204607 0.404174387
0.625047684 0.614421189 0.399114728
0.718152821 0.622264266 0.410119802
0.818595827 0.647312045 0.480581731
0.908286035 0.681087971 0.547628105
0.541302979 0.721062481 0.506135464
0.557748437 0.721441925 0.508539081
0.580897808 0.723339260 0.513093174
0.623655975 0.724604547 0.517520607
0.677799165 0.724604547 0.516255498
0.744338989 0.728399873 0.513852000
0.826439023 0.737381458 0.525236905
0.919165194 0.762175918 0.590638757
0.659203112 0.811132073 0.607843041
0.666413546 0.813155830 0.612776339
0.685894787 0.812776327 0.615812600
0.713345826 0.817457497 0.618596017
0.747122049 0.815433204 0.620113969
0.789879560 0.821758568 0.616571724
0.852245688 0.826059580 0.623276591
0.917647243 0.836938202 0.637065053
0.774573088 0.906641364 0.714610815
0.787476420 0.909677625 0.726375580
0.793674886 0.913093209 0.717773318
0.806071997 0.915369987 0.723339736
0.834028959 0.919418156 0.726881504
0.867425501 0.920050561 0.726754785
0.905629456 0.921695232 0.731182754
0.947628260 0.929411352 0.739784777
0.122327901 0.145098001 0.257685184
0.205313087 0.144339010 0.256546646
0.316635102 0.160658091 0.247565091
0.431752264 0.204806730 0.265907645
0.563441038 0.279696167 0.307780147
0.683617711 0.354458749 0.376850158
0.803289235 0.418469191 0.436432660
0.911195576 0.484883070 0.493611664
0.194054544 0.216698542 0.234661639
0.229980737 0.222137719 0.227577552
0.302466989 0.237824440 0.240860537
0.419987202 0.275395572 0.277672648
0.552814662 0.334218740 0.335736722
0.676660657 0.391018063 0.386211187
0.800505996 0.441113204 0.440986663
0.909930527 0.502087057 0.503731728
0.259456009 0.319671094 0.260847270
0.296647638 0.331056535 0.287918717
0.358887106 0.351043284 0.294497192
0.446679294 0.371789843 0.318026274
0.561037302 0.408222347 0.366603166
0.682226717 0.453257740 0.410878837
0.798608363 0.497406632 0.459709257
0.898291945 0.551928878 0.520556927
0.356483161 0.464136630 0.357495010
0.376091182 0.469323188 0.361416847
0.425047636 0.476027757 0.373307854
0.482985735 0.481088072 0.369386643
0.580645144 0.497533262 0.390892178
0.692346752 0.531941473 0.443390399
0.797469854 0.570019007 0.488931179
0.896520972 0.615053654 0.542947531
0.453763187 0.597975969 0.449715495
0.461353481 0.600632727 0.449715286
0.501581252 0.601012170 0.456040293
0.545730591 0.607337356 0.451739550
0.618343055 0.609740376 0.447438180
0.706009090 0.618216217 0.458191156
0.806451380 0.651233315 0.524098575
0.895129561 0.687918961 0.582289636
0.565464735 0.718785405 0.543200374
0.573561132 0.716382205 0.546236396
0.595825613 0.716255367 0.542567849
0.633017302 0.717900038 0.552055597
0.680076003 0.717899978 0.549651802
0.738646686 0.720177114 0.552055717
0.822011590 0.735483825 0.559392393
0.903984725 0.765970886 0.615053535
0.667552292 0.812017262 0.622138023
0.681973517 0.807210565 0.631878734
0.697406411 0.809614122 0.631498992
0.719670892 0.816318870 0.640986621
0.756862640 0.813409388 0.640986443
0.794307530 0.818596005 0.637065172
0.848956406 0.824415267 0.639342189
0.920556605 0.836938202 0.657938182
0.778620899 0.913472652 0.721947849
0.784692764 0.908285975 0.730803192
0.795445919 0.913345933 0.729285002
0.821632147 0.911828160 0.732953668
0.837191820 0.917393923 0.736116052
0.868690729 0.916129053 0.742947459
0.906768084 0.922327459 0.750031829
0.944718540 0.929158688 0.754205942
0.144085988 0.136748642 0.415812641
0.228462726 0.147627637 0.407463372
0.340164185 0.184061006 0.385072649
0.436559290 0.223655626 0.369386613
0.562175751 0.295382977 0.405819178
0.680581808 0.365844488 0.447438270
0.789120853 0.438329905 0.494370282
0.885641992 0.525742948 0.557242215
0.216318995 0.245667443 0.363946617
0.262112647 0.250727266 0.364959180
0.338140637 0.267931998 0.359898746
0.422643781 0.287539184 0.365085274
0.549651980 0.343200296 0.404301167
0.669955671 0.397217184 0.449335843
0.780897856 0.472485900 0.505755603
0.883491576 0.540670216 0.562175691
0.272739083 0.350284398 0.378368169
0.311448544 0.355724186 0.379632950
0.385199457 0.380391777 0.400379390
0.459962070 0.396078646 0.408601731
0.559139729 0.431372732 0.443137556
0.670082331 0.474004090 0.483111829
0.772675276 0.526502311 0.530423403
0.880581915 0.582289517 0.576217651
0.362681985 0.466919303 0.417077929
0.390892088 0.470841289 0.425806731
0.452878088 0.492852360 0.451612920
0.513978302 0.506135285 0.459076285
0.588108778 0.520303309 0.483744711
0.679317117 0.548133969 0.508791745
0.781277537 0.588488281 0.551549494
0.881594181 0.631878793 0.595445693
0.474889398 0.603794932 0.509803653
0.493611395 0.603035986 0.503858387
0.533713043 0.606578231 0.513978362
0.573307872 0.611764848 0.518026233
0.630486846 0.613662183 0.517520785
0.706641555 0.630866349 0.534724891
0.792662919 0.661480188 0.580265701
0.887160122 0.699050963 0.631119609
0.592030764 0.711321712 0.590385735
0.599114537 0.714864194 0.586463988
0.622264385 0.714864075 0.590132952
0.651992381 0.714357793 0.598355711
0.692852378 0.721062481 0.594560504
0.739785016 0.724983990 0.593674660
0.815812707 0.735483766 0.605312824
0.898291945 0.768374622 0.655914009
0.689310670 0.806957603 0.660088539
0.697533071 0.809993625 0.659835458
0.708412230 0.808096230 0.661859632
0.731941581 0.809234619 0.665275276
0.761669457 0.813535452 0.671600401
0.799747050 0.816951215 0.669196546
0.853004634 0.821631908 0.670967937
0.913978636 0.839847803 0.686021686
0.785452247 0.909171343 0.743959606
0.795572400 0.909804225 0.748260617
0.803668678 0.911954701 0.754585624
0.818342745 0.912587047 0.753953159
0.842884243 0.914611161 0.756989121
0.871094167 0.917267680 0.759645581
0.903858066 0.920809388 0.761922836
0.951296628 0.928778887 0.771283805
0.209107995 0.191904187 0.537634373
0.266287088 0.205945387 0.528525949
0.365844280 0.239722088 0.521821439
0.472106636 0.275268734 0.516761541
0.567235947 0.312587172 0.502973139
0.687286317 0.373181731 0.523845613
0.789247334 0.450474381 0.561164200
0.886274636 0.532700658 0.606324911
0.272232831 0.295003533 0.508032739
0.313851714 0.297280312 0.509803832
0.381530374 0.310183376 0.502973080
0.470841259 0.338140637 0.496774256
0.556736052 0.359645993 0.489689976
0.673497915 0.414927334 0.524984300
0.782542765 0.475901723 0.560278237
0.877799213 0.553194165 0.614168346
0.325869381 0.395699084 0.495888442
0.360531181 0.404301077 0.500063181
0.414294541 0.411385298 0.496774286
0.484629691 0.427450925 0.498292267
0.561923146 0.441113174 0.504617274
0.670841336 0.486654013 0.538772941
0.772675335 0.544592142 0.579886258
0.874256909 0.599367619 0.629981160
0.389753431 0.498419076 0.515496373
0.416825056 0.496267825 0.517520547
0.466160357 0.508159578 0.517900169
0.542188287 0.534724832 0.545351267
0.613156080 0.548513472 0.552814841
0.689563394 0.577861905 0.572422385
0.775838256 0.612397015 0.605692506
0.869449615 0.653510392 0.646805763
0.490575373 0.603415370 0.551549375
0.502972960 0.608222365 0.557494998
0.548513353 0.611258328 0.565844297
0.608096302 0.628968716 0.588235497
0.658950150 0.635673344 0.595572352
0.709550738 0.647817910 0.606198609
0.790006459 0.675648451 0.631625295
0.881594181 0.709550798 0.672738791
0.609108210 0.711321712 0.622264504
0.618216395 0.711321890 0.628083646
0.643643022 0.713219464 0.630740166
0.675142467 0.719544291 0.640354395
0.707273960 0.716761529 0.642631173
0.750410736 0.726881683 0.639848113
0.816571832 0.742567718 0.655534744
0.894623756 0.774952471 0.693485200
0.707526982 0.805692255 0.690449119
0.716128826 0.806704521 0.695129573
0.728146434 0.809614062 0.697533190
0.743453741 0.809234619 0.701454818
0.775079191 0.813535452 0.702339947
0.811258495 0.814294577 0.701834500
0.848830044 0.822897077 0.708412170
0.921821296 0.840228021 0.723212957
0.794939935 0.903858006 0.774952233
0.798987985 0.907273591 0.779380023
0.811131954 0.909424722 0.781783760
0.829095423 0.911575198 0.776090801
0.849082768 0.912713766 0.780897975
0.876913369 0.916634798 0.787855983
0.910057068 0.921189070 0.793168843
0.948007822 0.928273022 0.796837628
0.283870727 0.268184751 0.644528747
0.327514112 0.278811008 0.646046877
0.411005855 0.301960826 0.642125249
0.505755603 0.333206743 0.629601657
0.606578231 0.369386733 0.619354963
0.695256233 0.401391745 0.611132443
0.792915881 0.459076285 0.632384539
0.887412906 0.541429639 0.658570647
0.333206713 0.345477283 0.626945019
0.372548789 0.346363306 0.623908997
0.426945269 0.362681985 0.623656154
0.513093054 0.384693086 0.618342996
0.597216964 0.413282633 0.616698325
0.686401129 0.432511061 0.610499442
0.787602544 0.487665802 0.626945198
0.884883225 0.561796129 0.665275216
0.402403444 0.444655329 0.615053356
0.417077661 0.447438389 0.611005604
0.464895815 0.456673175 0.609993815
0.531562030 0.465021938 0.608855188
0.607969463 0.484503597 0.607210457
0.681720495 0.499430805 0.609234691
0.778620958 0.549652040 0.638203681
0.877672374 0.608855069 0.678178668
0.440101355 0.535483658 0.614294589
0.462998182 0.534724772 0.617584169
0.510056853 0.543706417 0.615559757
0.570777953 0.555850744 0.616571546
0.633902490 0.571157515 0.616951108
0.692979097 0.577862144 0.627450705
0.777482331 0.618343115 0.653637111
0.872106433 0.663757324 0.689436972
0.517773390 0.628589392 0.628589272
0.525110722 0.630866349 0.626438797
0.568880320 0.632764041 0.630866468
0.618722439 0.640733898 0.640733719
0.687665701 0.661100626 0.659582734
0.733206689 0.671220958 0.665907800
0.803794980 0.692852557 0.685515463
0.880455613 0.723845482 0.718785465
0.618848443 0.713219523 0.664136708
0.625806749 0.710562944 0.668058217
0.651739717 0.719038725 0.675901771
0.686147749 0.723086715 0.679949701
0.729285121 0.734472156 0.692852437
0.770018756 0.742694736 0.697533011
0.824541509 0.755471230 0.711448252
0.897659719 0.781404018 0.743453503
0.711954474 0.804174244 0.721695244
0.715370238 0.807589829 0.719544709
0.730170548 0.808096230 0.728020072
0.757368803 0.813915014 0.731941581
0.788488388 0.819102168 0.745857000
0.823782504 0.821379006 0.742567956
0.859582305 0.831499279 0.746742547
0.917520285 0.848323762 0.760405004
0.803289056 0.906261802 0.809740543
0.805819035 0.910056829 0.801518142
0.817457139 0.910309970 0.804553926
0.835420430 0.912587047 0.807716429
0.856166899 0.913345873 0.813409150
0.877672553 0.915369987 0.818469226
0.909171462 0.920556784 0.823782086
0.953446805 0.927893579 0.824415028
0.375711560 0.351549566 0.750537276
0.407337099 0.359519094 0.747248530
0.469323277 0.372802079 0.741176426
0.552055895 0.403035909 0.744212627
0.641619444 0.432384551 0.728020012
0.734472036 0.468058020 0.719797850
0.816571832 0.498924255 0.726375282
0.894496799 0.552941263 0.720429778
0.410373271 0.411638111 0.739278972
0.436306089 0.415939093 0.736116111
0.487286329 0.428210050 0.738013923
0.564958930 0.446173310 0.731561959
0.643516779 0.470841289 0.728905618
0.730297446 0.502846301 0.725363731
0.812144220 0.523339331 0.712333977
0.884123743 0.573940516 0.727134407
0.473245114 0.502213895 0.728526473
0.492599547 0.506894350 0.726881564
0.528020144 0.515370369 0.722201228
0.592662930 0.526502132 0.722074687
0.663757384 0.542188346 0.718532383
0.735483766 0.561416626 0.712081134
0.803162575 0.576597333 0.713093102
0.882732451 0.616698325 0.731056213
0.528146625 0.586337924 0.718026638
0.541049838 0.589626610 0.714610994
0.579633355 0.596584439 0.713851988
0.623276591 0.602530241 0.717899978
0.682353199 0.615812659 0.716255248
0.741935372 0.627956986 0.716255248
0.804806948 0.637824297 0.720682919
0.878052056 0.672359288 0.741176486
0.583681464 0.659076273 0.715117157
0.587222993 0.664010048 0.722327292
0.615559518 0.666919649 0.721695185
0.656673074 0.672359407 0.722074687
0.714610875 0.681720495 0.727134585
0.762302279 0.692093551 0.726375461
0.811764657 0.697533011 0.729538143
0.881973803 0.733838975 0.757115424
0.639847994 0.740164757 0.732068002
0.652878225 0.745604038 0.734218717
0.672232628 0.740670323 0.736242890
0.702466607 0.745350957 0.737887621
0.746362805 0.750790298 0.746489525
0.793042481 0.766223729 0.756230235
0.846173704 0.774825752 0.771916270
0.899556994 0.795825660 0.788867533
0.722454250 0.813282847 0.762302279
0.716381967 0.816192269 0.761416793
0.737508297 0.812650263 0.765591264
0.762175620 0.819354892 0.768374622
0.790512562 0.823782265 0.774193406
0.834155321 0.831625283 0.784945786
0.873750567 0.840733826 0.800885260
0.924098492 0.855534673 0.819734335
0.810625792 0.909804225 0.829601824
0.812270522 0.908918619 0.830866754
0.818469048 0.908412218 0.832764149
0.837697446 0.907400429 0.839342356
0.863630414 0.916129291 0.846679091
0.889184117 0.917014360 0.857684791
0.913219571 0.920556784 0.859456182
0.949398994 0.933333158 0.870335519
0.472232640 0.450094610 0.855281770
0.496900499 0.453383952 0.852624953
0.548260629 0.468310952 0.853257537
0.610752642 0.487412989 0.843516767
0.691713929 0.515622973 0.839215636
0.777608812 0.547121882 0.838329792
0.856546223 0.581909955 0.834281802
0.927260756 0.604300737 0.823908806
0.505376160 0.493990928 0.842883885
0.520683289 0.498924315 0.843643606
0.564325869 0.507526755 0.847944558
0.627451062 0.525616646 0.844022572
0.702593327 0.548260331 0.839721560
0.784313798 0.573561072 0.836938620
0.859835386 0.596584678 0.832384825
0.927134633 0.619354784 0.830107510
0.572042763 0.570145488 0.834788084
0.580139339 0.579759479 0.842124879
0.607463837 0.582036734 0.837571025
0.659203112 0.593421638 0.835420430
0.721948028 0.605566204 0.832637727
0.788235426 0.627956808 0.833522856
0.856040418 0.642757595 0.831119478
0.920936048 0.659709156 0.828336537
0.622264445 0.647564828 0.830992758
0.632258177 0.650600672 0.830740213
0.657811701 0.658064663 0.830993056
0.695762455 0.665907621 0.828969181
0.746995568 0.671220601 0.829095244
0.799241006 0.679316998 0.821758568
0.857305288 0.693485200 0.825426996
0.915243447 0.701328456 0.826565623
0.646678984 0.709550798 0.819734454
0.658570826 0.712713599 0.828462958
0.680455565 0.715875864 0.830486953
0.722074509 0.727261186 0.827324390
0.768374503 0.728020191 0.828969121
0.812270701 0.737760901 0.827577174
0.862112582 0.748766422 0.829474807
0.912460744 0.755724192 0.829474866
0.697406530 0.782921970 0.840353906
0.705629647 0.781656802 0.843390048
0.714737356 0.785072505 0.837571025
0.747248650 0.787223160 0.838076949
0.782542765 0.785578787 0.834914744
0.830486715 0.796584725 0.842757761
0.873750925 0.803668678 0.840860248
0.918026805 0.811511755 0.849841774
0.754712284 0.855028510 0.850853562
0.753826559 0.854269505 0.853130579
0.769513071 0.850600898 0.852751315
0.783807516 0.854143023 0.855534554
0.811891198 0.854522526 0.853257298
0.850853682 0.856546342 0.853637099
0.897406638 0.863377750 0.865022004
0.935863197 0.877799034 0.872486055
0.810752749 0.918026805 0.869702578
0.813156188 0.922201097 0.876913428
0.825173914 0.915369987 0.885262609
0.841745675 0.917899966 0.884376824
0.863630414 0.918026805 0.881594181
0.893611610 0.927134633 0.894496799
0.924098372 0.933333158 0.904617071
0.955850780 0.938899636 0.907400131
