Assets/EldamarStudio/100 Retro LUTs Pack/LUTs/cube/Paula LUT.cube
LUT_3D_SIZE 5
DOMAIN_MIN 0.000000 0.000000 0.000000
DOMAIN_MAX 0.903226 0.903226 0.903226
0.121569000 0.121569000 0.090195999
0.287413090 0.131688714 0.113724999
0.568880796 0.157621413 0.111069001
0.785579145 0.281594127 0.230613112
0.951928794 0.414673805 0.388614774
0.186969995 0.304364711 0.124224991
0.316128671 0.313851982 0.122327402
0.545983434 0.348513395 0.182163104
0.775079131 0.406071842 0.297659844
0.944718778 0.492725909 0.422517389
0.370145828 0.558380842 0.323086828
0.426691681 0.561669827 0.329664379
0.569513202 0.561669350 0.322454393
0.754459262 0.584566414 0.388109148
0.919924200 0.635546982 0.508159220
0.562049150 0.750284374 0.520809114
0.600252986 0.750537395 0.520556629
0.665022254 0.753826857 0.530677140
0.777735412 0.756104112 0.537507951
0.914990544 0.783680916 0.589626789
0.776976585 0.907526970 0.719164789
0.783554554 0.916634798 0.713852048
0.824541211 0.914611220 0.718026817
0.876533926 0.922833502 0.722959936
0.955850780 0.931055903 0.737760603
0.128399715 0.147375286 0.217457116
0.282479405 0.147754416 0.216445401
0.498292387 0.242631406 0.271726698
0.725363493 0.364832401 0.374066830
0.918279648 0.478304684 0.478684545
0.234408706 0.289310694 0.235040680
0.321695417 0.311574668 0.252751678
0.497280091 0.361923069 0.315875977
0.718911707 0.440354109 0.398228824
0.908159375 0.531941712 0.500316381
0.396584511 0.539405406 0.394939810
0.448956519 0.541050136 0.402530104
0.554459453 0.549905241 0.395319104
0.729032218 0.585198939 0.450221539
0.901834130 0.650348127 0.557495117
0.585199296 0.745350957 0.552561402
0.616571844 0.747627676 0.558507264
0.672232628 0.746995270 0.564326406
0.767235756 0.751549482 0.566223979
0.915369809 0.782922208 0.618595839
0.779127061 0.910183787 0.720936060
0.788361788 0.913345993 0.724224925
0.826818466 0.916002393 0.733712614
0.877799094 0.921189070 0.741176486
0.943959653 0.929158628 0.753699899
0.173940822 0.161543414 0.474762797
0.327640384 0.201771110 0.456419826
0.495003372 0.266160399 0.436179399
0.714990556 0.389120996 0.487160385
0.885262787 0.525110364 0.577356339
0.289057374 0.346236259 0.438456655
0.370777786 0.362302393 0.432257801
0.501201630 0.391018391 0.450221092
0.696015120 0.472106397 0.509930551
0.870208383 0.585578918 0.601518214
0.435546786 0.538772821 0.495003372
0.484503388 0.550537407 0.502466679
0.589120388 0.581277370 0.534218371
0.712966144 0.607084215 0.567488790
0.874762952 0.677419662 0.640859902
0.625427127 0.732321382 0.627324164
0.647944212 0.734598517 0.627071381
0.696015298 0.741429269 0.631246150
0.774446130 0.749272227 0.630613565
0.904490709 0.790891945 0.678051770
0.789879799 0.908791959 0.761290491
0.806198359 0.906894386 0.761163592
0.828968763 0.912081182 0.770271778
0.878810942 0.919924200 0.774572968
0.949398816 0.926502228 0.788109004
0.305123121 0.288424999 0.671853125
0.400885850 0.311321974 0.666920006
0.566982627 0.367868543 0.655155003
0.728653073 0.426692128 0.640481055
0.888931096 0.544465482 0.675774932
0.401391417 0.432258248 0.645920396
0.462112516 0.443010569 0.644149244
0.581657112 0.469196945 0.638077378
0.717647135 0.504490674 0.635547280
0.879696608 0.598987937 0.682732344
0.494750261 0.588108540 0.647438288
0.537507951 0.597975671 0.643390238
0.639848053 0.619860649 0.654522419
0.732953846 0.636559248 0.656799138
0.878051817 0.693737984 0.710689366
0.651233256 0.736496150 0.692473292
0.665908158 0.739785135 0.688804686
0.721821427 0.753194392 0.708032846
0.797343135 0.765971124 0.722833395
0.901960611 0.801644206 0.764706135
0.804554105 0.906008780 0.808728874
0.815433204 0.910056949 0.814420938
0.844022512 0.910816193 0.819987178
0.888551652 0.916128814 0.827577591
0.950663984 0.928146482 0.832764089
0.472232640 0.450094610 0.855281770
0.534345210 0.465021789 0.853257775
0.654649198 0.504364192 0.845541060
0.798355401 0.556230068 0.835293949
0.927260756 0.604300737 0.823908806
0.549778283 0.552688360 0.837317944
0.587982416 0.560784340 0.841619015
0.682985365 0.582036793 0.835294127
0.805945516 0.616319001 0.829221785
0.923212945 0.645793676 0.828589618
0.631119370 0.680708170 0.826565623
0.669070184 0.686274469 0.835420549
0.728399754 0.699683845 0.825933039
0.822264254 0.714737356 0.827830374
0.916761637 0.730423331 0.829221785
0.706767976 0.803921521 0.841872096
0.725869834 0.802276969 0.839342356
0.766982794 0.802909374 0.838330030
0.845667064 0.812776685 0.848070800
0.919291675 0.824161947 0.852624953
0.810752749 0.918026805 0.869702578
0.819354773 0.918912113 0.880202591
0.853257418 0.918659210 0.884756327
0.904237926 0.927134633 0.898038983
0.955850780 0.938899636 0.907400131
