Assets/EldamarStudio/100 Retro LUTs Pack/LUTs/cube/Randy LUT.cube
LUT_3D_SIZE 5
DOMAIN_MIN 0.000000 0.000000 0.000000
DOMAIN_MAX 0.903226 0.903226 0.903226
0.003922000 0.000000000 0.031373002
0.026185993 0.011765000 0.029728293
0.122327402 0.053636990 0.037318408
0.240354121 0.142315120 0.120683126
0.374193639 0.278810799 0.243389949
0.121695399 0.060847409 0.040607408
0.149778396 0.077545695 0.056925990
0.215812817 0.122327402 0.100442693
0.296268404 0.201517820 0.178241283
0.418595642 0.328779519 0.276407510
0.316634804 0.213915378 0.183934212
0.319164991 0.221125811 0.196963802
0.370145798 0.274130404 0.228968814
0.426059514 0.338519543 0.287159979
0.529790998 0.446173638 0.368248075
0.520050287 0.427830249 0.355218232
0.523845851 0.438330263 0.364326239
0.555977285 0.465781242 0.395193249
0.611132145 0.524857402 0.442505121
0.691967070 0.605692804 0.515496373
0.757241786 0.686780572 0.603288591
0.771916568 0.686527252 0.604048014
0.792030215 0.708412170 0.630107164
0.819734514 0.745350897 0.662365735
0.854016542 0.787602544 0.713092566
0.001644708 0.000000000 0.031373002
0.046805698 0.016698286 0.027450997
0.151423126 0.077545695 0.055281699
0.267805129 0.169766128 0.146869123
0.388867497 0.302593082 0.254143089
0.136369690 0.068058401 0.035673700
0.163820699 0.087665983 0.067046285
0.230866402 0.137381405 0.115496263
0.311954409 0.213915244 0.186464250
0.430992812 0.342188239 0.290828675
0.321821362 0.221758395 0.188361824
0.329285085 0.231246099 0.203795105
0.370145798 0.279949397 0.240354106
0.435294122 0.347754687 0.294750065
0.545857072 0.460594356 0.384692937
0.525869846 0.450348109 0.375584811
0.535736620 0.445161521 0.376470715
0.565717876 0.476533681 0.402909666
0.622264564 0.529158354 0.447058707
0.701075196 0.608981788 0.523086488
0.773940504 0.694623590 0.614547491
0.776976585 0.692346692 0.607463360
0.794939935 0.711321890 0.628968894
0.820872843 0.745350897 0.664009988
0.857937932 0.790006459 0.716887772
0.022896579 0.014420994 0.035294000
0.074257113 0.025174128 0.024162004
0.168753982 0.087665990 0.068690568
0.283491135 0.183554530 0.158001125
0.403542221 0.316002369 0.266919792
0.164199814 0.083744407 0.061479997
0.184439987 0.101075277 0.075268984
0.244908109 0.150158107 0.125616401
0.327007830 0.232257813 0.203162536
0.443516791 0.357874781 0.298039049
0.335483402 0.239468798 0.200885385
0.341050059 0.246299684 0.208981693
0.377988815 0.290448755 0.241366401
0.449335635 0.359772235 0.298924387
0.552688062 0.463757217 0.392536610
0.538266838 0.453636944 0.371157140
0.541176558 0.454902142 0.380771428
0.570651352 0.483744532 0.403289109
0.620620012 0.534977853 0.452624798
0.699430764 0.615180075 0.528526187
0.770398557 0.687413156 0.610373020
0.776343703 0.691714048 0.612650275
0.793295205 0.710309565 0.626691580
0.820366919 0.745983303 0.666287363
0.859329581 0.784187198 0.718405724
0.089310862 0.033397000 0.019608000
0.124604702 0.054016702 0.038330283
0.198861405 0.109930411 0.087033823
0.303099126 0.205060124 0.177609116
0.414421082 0.328146517 0.275521815
0.188994408 0.107906409 0.082099698
0.206957683 0.121947698 0.099430986
0.263883680 0.165844694 0.141682684
0.343959391 0.246932119 0.216445252
0.456166893 0.369259894 0.307400405
0.343959391 0.253510684 0.211385250
0.353447288 0.261986077 0.221758395
0.392409623 0.304870367 0.255787790
0.457432270 0.372169375 0.314231515
0.547121882 0.462745070 0.385958374
0.544465423 0.454269379 0.389500111
0.550664246 0.463124841 0.392157137
0.576470435 0.487286270 0.413662136
0.620873153 0.534598112 0.452245086
0.691207945 0.604933679 0.522580683
0.771410346 0.689057589 0.614041865
0.776976347 0.692599356 0.613282502
0.791018367 0.708032727 0.625679731
0.820366859 0.741049767 0.662997901
0.858696640 0.787476420 0.711448431
0.167488977 0.087792806 0.062871821
0.186084852 0.106388263 0.081467696
0.252498806 0.154458970 0.129537985
0.338519961 0.243137091 0.207716703
0.444781631 0.358506948 0.304870129
0.233143687 0.139658689 0.117773391
0.250474393 0.154964998 0.130803138
0.298798412 0.200758994 0.174572989
0.374066830 0.281973571 0.235167682
0.479696691 0.394813359 0.331941515
0.355597824 0.260847569 0.223529160
0.367741853 0.272991687 0.233649701
0.402782977 0.315243810 0.266160399
0.468817234 0.381277382 0.326375395
0.558506966 0.470967799 0.392409831
0.564326465 0.475142300 0.404806823
0.574572980 0.486400932 0.409740716
0.581024528 0.494117945 0.413662553
0.605819166 0.519544363 0.437191725
0.689310789 0.598102093 0.512839794
0.771663606 0.698544919 0.615053594
0.782162786 0.701074898 0.614927471
0.793295205 0.710942209 0.628589213
0.813788474 0.734471619 0.653130770
0.856672764 0.784946442 0.718405604
