Assets/EldamarStudio/100 Retro LUTs Pack/LUTs/cube/Randy LUT.cube
LUT_3D_SIZE 8
DOMAIN_MIN 0.000000 0.000000 0.000000
DOMAIN_MAX 0.903226 0.903226 0.903226
0.003922000 0.000000000 0.031373002
0.000758999 0.003922000 0.023908548
0.037571095 0.011765001 0.028210094
0.086400636 0.038709641 0.027450999
0.158127993 0.080581993 0.058570188
0.225173727 0.131182730 0.109550990
0.293738276 0.195699275 0.168248281
0.374193639 0.278810799 0.243389949
0.057938091 0.013282998 0.026312452
0.069702998 0.021505548 0.026692001
0.098292552 0.041872550 0.029727997
0.139784738 0.070461996 0.043769900
0.191397831 0.110815540 0.084882736
0.250221729 0.156230360 0.133839086
0.317140996 0.219101980 0.191650987
0.393295467 0.301707804 0.255913973
0.158127993 0.079063997 0.062618904
0.156989545 0.080582097 0.056672644
0.182416081 0.103352092 0.077419095
0.215812653 0.122074284 0.102972738
0.256167203 0.158128008 0.137002006
0.295256078 0.203542084 0.179253474
0.353953362 0.264516085 0.225553289
0.430992991 0.343959689 0.290322542
0.253890008 0.162049279 0.143959358
0.262112558 0.164073542 0.136622533
0.279696196 0.181657076 0.154206082
0.309424281 0.209108293 0.179380000
0.338520080 0.243896455 0.209614441
0.376470655 0.283870846 0.240101546
0.428842634 0.341429263 0.289310604
0.495635629 0.409740806 0.345730603
0.365718186 0.276407182 0.234788358
0.370904624 0.279822707 0.236052930
0.379127294 0.288045287 0.244276077
0.397849381 0.311574996 0.259456009
0.432384580 0.346110195 0.293611377
0.469829381 0.382036656 0.324098676
0.520809531 0.432131380 0.360278159
0.583808005 0.497532994 0.415179998
0.477545470 0.387349457 0.324857473
0.481593996 0.394433469 0.327387273
0.491208196 0.401138812 0.342821091
0.503352463 0.422770470 0.353447109
0.536116004 0.453004509 0.375837982
0.571663499 0.483364701 0.411132455
0.614421308 0.528146744 0.445793718
0.669702530 0.583428562 0.497280061
0.631245971 0.547248244 0.464895844
0.629348755 0.548513532 0.466287285
0.638962865 0.552688241 0.467046261
0.653636932 0.567362249 0.485009611
0.671220839 0.584946275 0.498039275
0.693231940 0.606957555 0.516761541
0.719165266 0.635167539 0.552814543
0.759898961 0.673624218 0.590512276
0.757241786 0.686780572 0.603288591
0.771157563 0.686147749 0.598481774
0.773940325 0.686274290 0.611891150
0.784819603 0.698165774 0.620113909
0.800885439 0.717267573 0.634914577
0.812650323 0.738266647 0.653257310
0.836305797 0.761922598 0.682226419
0.854016542 0.787602544 0.713092566
0.003542452 0.000379548 0.025047095
0.004681000 0.007463549 0.027071450
0.057179097 0.020367000 0.030993452
0.117394090 0.055154741 0.042251904
0.180898190 0.094370544 0.075521737
0.244402185 0.151170194 0.128399983
0.307779998 0.210120022 0.181530565
0.384566635 0.291207969 0.247058526
0.069323547 0.021125998 0.027071452
0.078684546 0.032891002 0.024288097
0.108792089 0.047311641 0.027703643
0.156609908 0.080581993 0.056672737
0.213029906 0.119797185 0.097026989
0.267931968 0.169892490 0.142441481
0.320683032 0.222644031 0.195193022
0.382163078 0.295888662 0.249083072
0.163314551 0.080582097 0.068817183
0.173940197 0.084882647 0.060215093
0.188741088 0.104490645 0.084882639
0.224794284 0.133080184 0.109550998
0.261226952 0.164326191 0.140164182
0.307779849 0.209740385 0.182289377
0.367741793 0.274383307 0.233270168
0.443137139 0.350537717 0.300063074
0.265148729 0.170398638 0.148007184
0.276280642 0.178241640 0.157874629
0.287159741 0.189120740 0.161669731
0.315369636 0.217710182 0.189120635
0.343959183 0.247058719 0.214674190
0.376470655 0.283870637 0.242378533
0.423276633 0.331435651 0.282099634
0.484503239 0.402150244 0.333206654
0.383554846 0.284123987 0.241619632
0.371789724 0.281720161 0.249588832
0.386590719 0.295509040 0.251739562
0.410879016 0.319797635 0.270841300
0.438203722 0.353446901 0.293991029
0.474256933 0.387602687 0.327387571
0.517899930 0.435547203 0.360278487
0.584692955 0.495129555 0.415053546
0.483871162 0.405313343 0.334471703
0.482858926 0.402277380 0.334471971
0.498039454 0.414927453 0.347121924
0.516381860 0.427956820 0.356103629
0.545477688 0.454143167 0.383934200
0.578747451 0.492473364 0.410120457
0.619987130 0.533712864 0.451359898
0.675142348 0.588867724 0.502719760
0.631372571 0.550537288 0.465781122
0.643263996 0.550157845 0.466793060
0.647311985 0.561037064 0.474889100
0.659456015 0.573181450 0.483744442
0.678052008 0.586843848 0.499051124
0.693738163 0.607463598 0.523592532
0.713725567 0.627451003 0.544339001
0.744971216 0.665022254 0.571157277
0.773054600 0.687539577 0.595319450
0.773813725 0.690701962 0.612144113
0.772548795 0.691461027 0.605312824
0.785958230 0.702340364 0.619987369
0.798482001 0.719544351 0.636811972
0.815053940 0.740670323 0.660973907
0.837950528 0.760657907 0.685894847
0.857558489 0.786590993 0.714357734
0.003162904 0.001517999 0.033649899
0.007337448 0.004301452 0.033776004
0.065780997 0.025047194 0.028210094
0.121694639 0.060594641 0.038709641
0.189500183 0.106514990 0.080582187
0.252119005 0.155850902 0.132700726
0.318785250 0.222264469 0.190259278
0.393169075 0.304364055 0.254648894
0.069196634 0.024288097 0.019228453
0.087666094 0.034029450 0.012397093
0.116255537 0.055154640 0.034409001
0.164453089 0.088045642 0.064895988
0.219607741 0.133586437 0.107653446
0.278937489 0.180897996 0.153447002
0.329791188 0.234028995 0.201644734
0.396711081 0.309677482 0.259835571
0.163694099 0.090829000 0.055408090
0.179380089 0.096268192 0.076280639
0.194181100 0.111954190 0.086021192
0.233396366 0.140923098 0.117014542
0.272612274 0.174573287 0.151929289
0.320809841 0.223529443 0.193801343
0.373560965 0.279443562 0.238709569
0.445667088 0.359392762 0.305249989
0.273118556 0.175837636 0.146868736
0.275016099 0.183301985 0.158254087
0.297027111 0.198988095 0.171537086
0.320430189 0.221252546 0.191144988
0.347501546 0.254901856 0.214927539
0.382669032 0.290828764 0.247438371
0.429095387 0.343580306 0.289184123
0.493105620 0.408728778 0.343959719
0.382289410 0.292093188 0.236179456
0.382668942 0.288424820 0.252245396
0.389247388 0.302972972 0.256040305
0.409993798 0.324098498 0.269323170
0.443390310 0.353826463 0.299178094
0.474636197 0.388740927 0.328905582
0.522580385 0.432384372 0.365085185
0.582036495 0.495762080 0.411132276
0.493991345 0.410879463 0.338899463
0.494117558 0.411764652 0.344718724
0.505376220 0.417330533 0.352182388
0.521947861 0.436559021 0.365718067
0.547501445 0.459203094 0.382922351
0.578747571 0.490449101 0.414168358
0.621505201 0.535230815 0.452877820
0.679569781 0.593295336 0.508665621
0.631372452 0.545098126 0.459709078
0.643010736 0.552941024 0.475901365
0.652625144 0.561416626 0.480708361
0.658443987 0.572928607 0.490575612
0.672106445 0.587476373 0.502087355
0.689816594 0.603541911 0.519670904
0.712966561 0.626691997 0.536495566
0.746109962 0.663503945 0.577355742
0.779506624 0.692093611 0.612270415
0.774952292 0.692725658 0.608096063
0.776470304 0.695382476 0.609234512
0.788614810 0.706261754 0.623908758
0.803541601 0.721188962 0.640354335
0.822390616 0.738772690 0.661733031
0.835799932 0.759519339 0.685009599
0.858443916 0.786717355 0.714863718
0.011258642 0.005060354 0.035294000
0.034788448 0.007337351 0.030993454
0.074383199 0.028083190 0.026565190
0.132321283 0.060594641 0.044908639
0.195698977 0.110309988 0.089184195
0.258696735 0.161290094 0.136748984
0.324604630 0.227704272 0.200126648
0.399746984 0.311195582 0.266919643
0.084503196 0.026565192 0.016698543
0.103731647 0.041492999 0.028589450
0.131562084 0.061353635 0.042631548
0.172548741 0.093485437 0.069955640
0.225932732 0.133459747 0.109550990
0.280834734 0.182795733 0.155344725
0.348386824 0.245920181 0.209487736
0.409614146 0.319797724 0.265275180
0.172296107 0.097027190 0.069955736
0.185579002 0.100948997 0.080202550
0.204427287 0.121821448 0.096647739
0.234534726 0.142820731 0.118532643
0.279190511 0.179632843 0.152940825
0.324225187 0.226945072 0.197216988
0.383807570 0.291207969 0.246679083
0.452751458 0.366350442 0.304237723
0.280834645 0.180518627 0.156356648
0.280075729 0.184820101 0.149019748
0.304490715 0.200885549 0.173434541
0.322833270 0.225932628 0.195066288
0.354206175 0.259962291 0.224541441
0.392156631 0.301834643 0.256925881
0.437317908 0.351043910 0.297786206
0.502972662 0.414041460 0.351549447
0.386970401 0.291587830 0.255028635
0.383807480 0.292726249 0.245667264
0.396710813 0.309298068 0.261985838
0.414294571 0.328020185 0.275521994
0.441365927 0.356609732 0.297153831
0.474509478 0.393168986 0.327261180
0.524098516 0.437191576 0.368248105
0.589500010 0.498671710 0.420872986
0.496774077 0.410626113 0.343580097
0.497659743 0.413029730 0.343706369
0.507020950 0.420872927 0.352308452
0.523086488 0.436938494 0.368374705
0.550158024 0.465907544 0.387602568
0.576344371 0.493232459 0.414927453
0.622263968 0.535990000 0.453637004
0.677545547 0.591271579 0.505123556
0.637824297 0.544971228 0.465781212
0.644528508 0.551296592 0.471979797
0.643516958 0.558380842 0.473750859
0.657558620 0.571283937 0.488930941
0.672991693 0.587855995 0.505503058
0.694244027 0.607969582 0.522327542
0.712966561 0.628336251 0.545983255
0.746995628 0.665781200 0.580012560
0.775205791 0.697279751 0.609993577
0.776090860 0.694623590 0.608475447
0.780897915 0.697279751 0.614927411
0.788361788 0.704743564 0.622390568
0.803162158 0.719544351 0.639468610
0.814294875 0.741176307 0.657684863
0.835167468 0.759266317 0.684123814
0.856293559 0.787602961 0.722453773
0.038962800 0.013282806 0.032258004
0.059835639 0.022643996 0.023149550
0.101075001 0.043010898 0.031246094
0.149525180 0.077546097 0.053510636
0.204300985 0.118279189 0.093864799
0.269449979 0.171410471 0.148007467
0.332953691 0.237191573 0.202909291
0.404427618 0.318152964 0.267172605
0.115116991 0.044149544 0.028462837
0.111574732 0.056040354 0.026565095
0.146489188 0.073118545 0.048450287
0.187602729 0.103858449 0.080202542
0.236179739 0.142947644 0.120935827
0.289816350 0.191777378 0.164326385
0.341935724 0.253257543 0.215433285
0.411511511 0.323213249 0.269070327
0.190259084 0.102593198 0.084503189
0.196204841 0.115875997 0.089563541
0.218596101 0.122074477 0.096900985
0.247185543 0.150663912 0.127261549
0.283618182 0.187096998 0.158887088
0.328905463 0.237191468 0.202783197
0.385325551 0.297532976 0.250601083
0.456166893 0.371789962 0.311195403
0.282859087 0.184820086 0.162176102
0.295888633 0.190638721 0.170398563
0.306767821 0.203921735 0.176470727
0.329411834 0.233775914 0.199114725
0.356103599 0.260341823 0.227957085
0.399114519 0.305755734 0.263124585
0.443643004 0.356230199 0.301834464
0.502719641 0.415559620 0.351549447
0.383807361 0.297533393 0.254395992
0.392410189 0.300189823 0.250474364
0.400253087 0.309171289 0.259076476
0.420240641 0.329158723 0.279063731
0.448703378 0.360910565 0.305376381
0.482099950 0.396710932 0.331562132
0.525743306 0.441872478 0.367615461
0.582795680 0.496268034 0.420999557
0.497280478 0.412903190 0.347754449
0.503731966 0.413029730 0.345983237
0.510942638 0.425553650 0.356609792
0.527008355 0.440860331 0.368247807
0.550537467 0.462239087 0.385958344
0.584566712 0.493738025 0.412903219
0.627830446 0.541556001 0.459203005
0.676407337 0.590132773 0.507020772
0.633902311 0.549145937 0.466793180
0.639974654 0.555977464 0.465401798
0.648703337 0.557495415 0.476786762
0.655281544 0.570524931 0.488171935
0.674383581 0.591397524 0.501075327
0.692219794 0.605945706 0.520556748
0.716888011 0.630613565 0.545224547
0.756609797 0.674383223 0.587096632
0.768247604 0.692093611 0.600252569
0.771789730 0.689310253 0.603541613
0.775711417 0.694623590 0.608475447
0.787096620 0.706008732 0.619860530
0.800885439 0.718532741 0.636179745
0.816698253 0.738899469 0.660341263
0.835926652 0.761543453 0.681846619
0.856166780 0.788994312 0.715496361
0.082226478 0.027324481 0.019608000
0.098292448 0.041492805 0.029728191
0.122074381 0.057558645 0.039848093
0.167994648 0.087666094 0.064010091
0.223150194 0.129917800 0.107906371
0.281847000 0.183807462 0.160404980
0.340670258 0.244908452 0.210626274
0.410625786 0.324351817 0.271473527
0.135483995 0.064642541 0.039721992
0.138266742 0.070841350 0.043769803
0.162934899 0.087286741 0.063757353
0.199999824 0.115875900 0.090322636
0.238203913 0.150284290 0.124351367
0.298165530 0.200126544 0.172675535
0.346110284 0.250095040 0.216571748
0.411890954 0.323086619 0.271094173
0.215053841 0.121315382 0.102593191
0.220493555 0.128779545 0.105249636
0.234282076 0.141429454 0.119417831
0.261733174 0.163694009 0.142568007
0.300949007 0.198861182 0.171410203
0.343959451 0.248703346 0.212903172
0.390891910 0.300569266 0.254902005
0.461227030 0.374826074 0.312713593
0.295129478 0.194813281 0.175711632
0.300442815 0.202403441 0.174952447
0.311321825 0.213282824 0.189879820
0.332447767 0.235547379 0.204680726
0.359519184 0.267172843 0.232131824
0.398228914 0.307906628 0.261859745
0.441998720 0.354838610 0.296521276
0.501707613 0.415306926 0.352435172
0.395951927 0.303605199 0.265528202
0.401897311 0.306514829 0.269955724
0.410499483 0.324225277 0.275775105
0.428463191 0.342567831 0.287033439
0.453889936 0.366097599 0.308159620
0.484883189 0.395446181 0.333333641
0.525237203 0.435800225 0.364832193
0.580392301 0.492599338 0.411005765
0.509044945 0.418848455 0.356103450
0.511448264 0.425679713 0.355976939
0.522833705 0.433776349 0.363820761
0.537760794 0.447564840 0.376976639
0.557748258 0.469070464 0.393928200
0.591524482 0.497153461 0.422896951
0.623909056 0.537633955 0.455281407
0.668943644 0.582669437 0.500316441
0.635673702 0.549398780 0.463250816
0.641872108 0.555597842 0.473244995
0.647817552 0.561543524 0.479190558
0.656799614 0.570524931 0.487412930
0.670208693 0.583934128 0.496647358
0.688931048 0.602656543 0.512460530
0.715117276 0.628842294 0.542441308
0.754585862 0.670588374 0.588235378
0.768880427 0.688804686 0.612017810
0.773308218 0.691207886 0.603541970
0.777735472 0.694117665 0.611764789
0.787223399 0.703605235 0.621252239
0.801264882 0.718912184 0.638077199
0.817330778 0.734977782 0.656419754
0.833649635 0.758886755 0.680328548
0.863756835 0.787476480 0.720556498
0.125110283 0.059455995 0.038836278
0.136622250 0.065401733 0.040227544
0.153447285 0.082226284 0.057052575
0.195192918 0.109930642 0.084756635
0.245920375 0.151170000 0.129917696
0.298165560 0.195698991 0.169386432
0.353194296 0.259076297 0.219861269
0.419481426 0.330676496 0.280581832
0.158633560 0.078178287 0.054775286
0.161669835 0.088172443 0.055281263
0.184946284 0.106514797 0.079063900
0.218975455 0.127261251 0.104490735
0.260720998 0.159266353 0.140797004
0.306008548 0.207969531 0.180518538
0.354965001 0.268691003 0.225553572
0.416445494 0.326881498 0.277925313
0.227957100 0.133207098 0.109424278
0.236179635 0.141429558 0.119417831
0.250727385 0.155977383 0.126882091
0.276154459 0.178115025 0.153953448
0.308665186 0.210626200 0.183175176
0.347880989 0.257938027 0.217583880
0.400379568 0.310815990 0.261480272
0.458191156 0.373054802 0.314737350
0.303858280 0.205818981 0.180645272
0.313219368 0.214041829 0.186464384
0.323086560 0.226186082 0.198608443
0.340797007 0.246173635 0.214168638
0.367741823 0.276533723 0.237697542
0.403035820 0.312334090 0.265148729
0.447944283 0.357242197 0.303352654
0.500695884 0.412776887 0.345857263
0.400252908 0.312460244 0.261480093
0.405439466 0.314357907 0.267299116
0.416825086 0.327261299 0.276407361
0.426312476 0.336748898 0.285894990
0.447438359 0.362682194 0.303984880
0.481088102 0.398735106 0.332068175
0.519418240 0.437065274 0.362555265
0.575584948 0.481467634 0.410752803
0.523718774 0.433522761 0.366223723
0.532574356 0.442757905 0.374319971
0.537254512 0.451486647 0.375838190
0.548007488 0.457811534 0.387223125
0.563314497 0.475015700 0.398734987
0.584693193 0.493485004 0.412776738
0.618469298 0.532194734 0.449841738
0.665022433 0.578747451 0.492599636
0.632890284 0.546616316 0.459709257
0.639847815 0.548640013 0.464642793
0.642378569 0.556103587 0.473750561
0.653004646 0.566729903 0.484376907
0.666160285 0.574952483 0.489690185
0.684376955 0.598102510 0.515749514
0.709677577 0.623402536 0.541049540
0.742947042 0.660214961 0.577861965
0.760278165 0.685894907 0.608728468
0.769259751 0.684756160 0.605059922
0.773813665 0.692725837 0.606577635
0.783175170 0.700822234 0.618469298
0.792662919 0.711448431 0.628715873
0.805439591 0.732321382 0.648070633
0.828462839 0.754079580 0.674383402
0.855028093 0.784819603 0.720809579
0.167488977 0.087792806 0.062871821
0.173055276 0.093358524 0.068437532
0.192409828 0.112713173 0.087792993
0.230739832 0.132700831 0.107779838
0.274130374 0.176090986 0.151170000
0.324604720 0.228462979 0.195319727
0.379126996 0.288298726 0.246046692
0.444781631 0.358506948 0.304870129
0.187096834 0.104870081 0.071600243
0.187982097 0.108412534 0.074256979
0.215053633 0.124857530 0.096774444
0.244402185 0.154206082 0.126122907
0.287033617 0.186717346 0.161796346
0.332194686 0.236053005 0.202909380
0.383680969 0.292852581 0.247438371
0.446046799 0.357495099 0.299304277
0.245034963 0.149525672 0.129411906
0.253889769 0.157115638 0.139911547
0.269955844 0.171916351 0.146995351
0.293485433 0.195445731 0.171030730
0.327893823 0.231878281 0.198355332
0.371283978 0.281214476 0.237444907
0.420240521 0.333965629 0.280708641
0.486274540 0.401138723 0.337507963
0.312460274 0.213915288 0.182163462
0.316128641 0.220619649 0.194939792
0.330676794 0.232637465 0.205186471
0.351296425 0.258191258 0.221631795
0.378241360 0.288931251 0.242504448
0.416698277 0.327387482 0.277925462
0.462491900 0.377356261 0.320303470
0.518026590 0.432890654 0.366097420
0.400379390 0.312207550 0.264516145
0.406830996 0.320556402 0.269070357
0.408349186 0.322074205 0.271094203
0.421632171 0.335357189 0.283238530
0.448703527 0.362428814 0.307526827
0.485768288 0.402150452 0.336243182
0.529664457 0.445793897 0.371537000
0.581656933 0.493991017 0.419607818
0.535989940 0.447311908 0.379759461
0.543326974 0.455028564 0.382542938
0.545224369 0.455028355 0.384440392
0.548892915 0.459835559 0.387349933
0.551549554 0.465781331 0.388235539
0.577229679 0.488930911 0.412650168
0.618089736 0.531815290 0.447944283
0.668817461 0.576849699 0.492346466
0.653257251 0.566982925 0.476786941
0.659709275 0.573054850 0.488045424
0.662365437 0.576091111 0.492979109
0.668690920 0.582415879 0.499303937
0.675015688 0.588741362 0.505629718
0.682858765 0.595446169 0.513472736
0.710057139 0.622643530 0.540670097
0.748513699 0.664516091 0.578494549
0.771663606 0.698544919 0.615053594
0.779253304 0.696900308 0.614547849
0.782162786 0.698544919 0.616192579
0.788741589 0.706388593 0.624035597
0.795445979 0.713092923 0.630739927
0.811511517 0.729158521 0.646805704
0.824541450 0.750157595 0.670461714
0.856672764 0.784946442 0.718405604
