Assets/EldamarStudio/100 Retro LUTs Pack/LUTs/cube/Randy LUT.cube
DOMAIN_MIN 0 0 0
DOMAIN_MAX 1 1 1
LUT_3D_SIZE 32
0.003922000 0.000000000 0.031373002
0.003922000 0.000000000 0.031373002
0.001771226 0.000000000 0.031373002
0.000000000 0.001265161 0.028842680
0.000758999 0.003922000 0.023908548
0.006830999 0.003922000 0.026944935
0.015433321 0.008981999 0.029981323
0.026185993 0.011765000 0.029728293
0.037571095 0.011765001 0.028210094
0.046679497 0.011765006 0.031246478
0.061606869 0.020493127 0.019734260
0.072738737 0.029601254 0.021758251
0.086400636 0.038709641 0.027450999
0.107147031 0.047564998 0.028210031
0.122327402 0.053636990 0.037318408
0.139911592 0.066919796 0.046426188
0.158127993 0.080581993 0.058570188
0.176976547 0.093358561 0.073118143
0.198228985 0.108538978 0.085262947
0.211132005 0.120936006 0.097407006
0.225173727 0.131182730 0.109550990
0.240354121 0.142315120 0.120683126
0.255787492 0.157748491 0.130297482
0.277039915 0.179000914 0.151549906
0.293738276 0.195699275 0.168248281
0.310309976 0.212270975 0.184819967
0.329032063 0.230993062 0.203542069
0.350284427 0.252245426 0.224794418
0.374193639 0.278810799 0.243389949
0.398481935 0.304364383 0.265148371
0.421884596 0.329538554 0.286780596
0.443136990 0.356862992 0.301961005
0.003922000 0.000000000 0.025300227
0.000885613 0.003036387 0.025300227
0.005186612 0.003036387 0.027451001
0.006072000 0.004301225 0.032131776
0.007969546 0.006957613 0.034914777
0.022011384 0.006957613 0.029981324
0.028083384 0.009487935 0.022897067
0.038329996 0.011765000 0.032131605
0.049715094 0.014041902 0.034281909
0.058823492 0.020872617 0.019101711
0.067931868 0.026692357 0.025047224
0.084882990 0.035673510 0.025806513
0.098165385 0.044781640 0.031625740
0.113472059 0.054142997 0.034029000
0.131435797 0.065780990 0.040354021
0.146616191 0.074256800 0.051866218
0.162682191 0.086653993 0.061606575
0.180012941 0.098797984 0.073750563
0.201265380 0.111574590 0.088298567
0.219734386 0.123972327 0.103225976
0.234282121 0.138014123 0.113725737
0.248450384 0.150411397 0.124731384
0.261732996 0.163693979 0.136242971
0.280076295 0.182036534 0.154585525
0.296774089 0.198734894 0.171283901
0.314737231 0.216698259 0.189247265
0.334598124 0.236559123 0.209108129
0.353320807 0.255281806 0.227830812
0.374573171 0.279190332 0.243769512
0.396711171 0.307906359 0.256293178
0.420619965 0.335610569 0.275142163
0.446173400 0.362935007 0.298924595
0.010373225 0.002150774 0.027830549
0.009487612 0.007337387 0.029980775
0.012902999 0.010373225 0.025679775
0.018975321 0.009108387 0.029980998
0.021885000 0.010752773 0.035547227
0.033522934 0.014294773 0.025933228
0.043263771 0.010373322 0.028083678
0.049335767 0.016698286 0.020620001
0.060467772 0.020493321 0.031752001
0.070967488 0.029601295 0.023023289
0.082226641 0.033649743 0.023655774
0.093358763 0.041745737 0.027704032
0.110183410 0.049715288 0.034788352
0.123845540 0.058317740 0.040354032
0.142061830 0.072358988 0.048323769
0.155724019 0.079949573 0.057052601
0.172422603 0.090575770 0.067678802
0.188235566 0.103352338 0.076786570
0.206451997 0.117014565 0.088930979
0.220620006 0.129158720 0.101960592
0.238835976 0.141302988 0.117140956
0.254269332 0.156230345 0.128779352
0.267678499 0.169639498 0.142188489
0.283871055 0.185831785 0.158380777
0.304111481 0.206072047 0.178621054
0.319291443 0.221252427 0.193801418
0.339025825 0.240986839 0.213535845
0.358886898 0.260847896 0.233396873
0.379759759 0.284376919 0.248956665
0.404554129 0.313978106 0.267678708
0.423908979 0.343833029 0.281846881
0.444908231 0.371157795 0.306640983
0.028336318 0.006452000 0.030107839
0.025806321 0.009994000 0.033143777
0.028842159 0.012650387 0.036052998
0.037444480 0.016951161 0.027450999
0.042378612 0.015433547 0.032384451
0.047944222 0.022391159 0.022896839
0.060847640 0.020873163 0.022138000
0.068311319 0.021758609 0.026692001
0.074383318 0.030107323 0.023655998
0.085515335 0.038709648 0.029727999
0.096394576 0.043263871 0.029980998
0.109803990 0.050348055 0.032005254
0.121948279 0.058317319 0.037318353
0.136749148 0.064895995 0.046426032
0.152941152 0.079063728 0.055534404
0.166350156 0.089563444 0.065907635
0.181530535 0.096141830 0.075015962
0.199114561 0.108918399 0.085388727
0.214294821 0.124098815 0.095762134
0.226692170 0.136496171 0.107653171
0.241366297 0.147374988 0.120429732
0.259582341 0.161543250 0.134598255
0.275015652 0.176976651 0.149525657
0.290196061 0.192157075 0.164706066
0.308665305 0.210626259 0.183175266
0.328399807 0.230360478 0.202909485
0.343580067 0.247058958 0.217583969
0.363314271 0.269070417 0.236559421
0.387096941 0.291714102 0.253763646
0.411891282 0.320050448 0.273751169
0.436559141 0.352561295 0.297659963
0.449462146 0.380265862 0.320050150
0.057938091 0.013282998 0.026312452
0.051865995 0.014041998 0.030107841
0.053004317 0.014041998 0.036685776
0.059076317 0.016192546 0.038077001
0.069702998 0.021505548 0.026692001
0.066666611 0.030613935 0.023655616
0.080202632 0.033270452 0.022137871
0.092220545 0.035800450 0.023655998
0.098292552 0.041872550 0.029727997
0.104364559 0.047944553 0.035799999
0.113725223 0.054396000 0.036432546
0.125742793 0.062112704 0.038836256
0.139784738 0.070461996 0.043769900
0.151929513 0.077039994 0.053130545
0.164073542 0.089183986 0.062365409
0.176976547 0.100948535 0.073877089
0.191397831 0.110815540 0.084882736
0.208602503 0.117646560 0.094497107
0.223782152 0.132826984 0.109677523
0.236559257 0.145604163 0.122454002
0.250221729 0.156230360 0.133839086
0.266034544 0.167994708 0.146362707
0.284250528 0.186211452 0.158760458
0.299683928 0.201644912 0.174193904
0.317140996 0.219101980 0.191650987
0.334977776 0.237318069 0.208728522
0.353447467 0.256166667 0.227071121
0.368627101 0.280455440 0.239215881
0.393295467 0.301707804 0.255913973
0.419861138 0.327514350 0.276913375
0.445667505 0.357495517 0.302593499
0.463883549 0.387855560 0.332953542
0.082226865 0.025426997 0.017204065
0.076154090 0.031498998 0.026312452
0.080834769 0.032257996 0.030107839
0.087665871 0.033523157 0.031625777
0.093990996 0.036685936 0.026691999
0.093990996 0.036685932 0.020620001
0.101075247 0.045793675 0.027704258
0.111701697 0.048450064 0.031499222
0.119544938 0.050980259 0.035799999
0.125616938 0.057052940 0.041872002
0.137507930 0.066034064 0.045034871
0.145097867 0.072611995 0.049588926
0.154964924 0.080328710 0.055154994
0.167109117 0.089183994 0.062238932
0.179253891 0.101327986 0.074382924
0.196204916 0.111068793 0.086021602
0.210372925 0.122200929 0.098165862
0.223529205 0.132067934 0.109171502
0.235926926 0.138898984 0.118785918
0.251107216 0.154079378 0.133965597
0.263883919 0.166856542 0.142947465
0.277546138 0.179506734 0.153067738
0.293358892 0.195319071 0.167868063
0.311574936 0.213535875 0.186084881
0.329284996 0.231245995 0.203794986
0.346109658 0.249462336 0.217836663
0.362808138 0.268184930 0.230487004
0.383807480 0.289563805 0.251359880
0.401644588 0.308538884 0.263503969
0.423150152 0.330803394 0.280202389
0.447185576 0.356989563 0.302087575
0.472991943 0.384819925 0.329917938
0.096395001 0.042630997 0.023276320
0.095382869 0.043642998 0.024794385
0.097912639 0.045414001 0.029601775
0.104111157 0.046679161 0.032637838
0.109677091 0.049715545 0.033269998
0.118279636 0.051866319 0.035799999
0.120809317 0.054395996 0.037318319
0.129917696 0.061859317 0.041492999
0.139026091 0.064389423 0.044402320
0.146869317 0.068690971 0.050474323
0.153700322 0.075142451 0.056166869
0.165844306 0.080202579 0.061226994
0.175205320 0.089183994 0.068437643
0.187096357 0.101075031 0.076154351
0.196963832 0.110942304 0.086021625
0.206704795 0.120683119 0.095761828
0.219987512 0.129791126 0.106261864
0.231752038 0.140290573 0.117393985
0.245793626 0.148260340 0.128399655
0.260721058 0.162681684 0.143073976
0.274004161 0.175964311 0.156356305
0.285136193 0.187096804 0.162681803
0.297406673 0.199367300 0.171916291
0.315623313 0.217583492 0.190132499
0.333839297 0.238076940 0.203795254
0.353446960 0.257937640 0.220113978
0.371410310 0.277292818 0.233017311
0.390638411 0.296521425 0.252245426
0.409234643 0.317647278 0.268058300
0.429222167 0.337634474 0.281973481
0.452245563 0.362049550 0.300316572
0.479570001 0.389373988 0.324351996
0.121695399 0.060847409 0.040607408
0.121695399 0.059202701 0.043896399
0.124351695 0.059202701 0.044402469
0.126628846 0.060467862 0.041113377
0.129664570 0.063504152 0.042631090
0.140543863 0.066540219 0.048703410
0.148387074 0.072865374 0.055534311
0.149778396 0.077545695 0.056925990
0.158886790 0.082858793 0.060721084
0.167995185 0.085895188 0.069449693
0.177482694 0.090195991 0.072232693
0.184313700 0.095888540 0.078304693
0.195319340 0.100063562 0.083238341
0.206704438 0.113219380 0.091334671
0.215812817 0.122327402 0.100442693
0.226565495 0.133080497 0.111195594
0.235673875 0.142188504 0.120303206
0.245414674 0.151928842 0.130044147
0.259582460 0.162049383 0.142188430
0.269829094 0.175079063 0.153826356
0.283111751 0.188361689 0.167109400
0.296268404 0.201517820 0.178241283
0.306894183 0.212144196 0.183048487
0.323592812 0.228842422 0.199746698
0.340164691 0.247690976 0.211764559
0.358380675 0.267552018 0.226691961
0.379380047 0.288551480 0.242125347
0.398734689 0.307906598 0.259202987
0.418595642 0.328779519 0.276407510
0.438583165 0.350031853 0.294876873
0.458064586 0.372169644 0.311828285
0.482353002 0.398734987 0.333080709
0.158127993 0.079063997 0.062618904
0.155092001 0.077545807 0.066413999
0.156483322 0.075901099 0.068943903
0.159266159 0.078684255 0.067678869
0.156989545 0.080582097 0.056672644
0.165338263 0.082479253 0.061606776
0.173687413 0.089816414 0.069449872
0.179380089 0.097280093 0.075142190
0.182416081 0.103352092 0.077419095
0.191524491 0.106388479 0.092599481
0.202024192 0.110183224 0.093231998
0.210879102 0.116002187 0.098039091
0.215812653 0.122074284 0.102972738
0.224921033 0.128400028 0.106515065
0.234029412 0.137507766 0.115622662
0.244782090 0.148260698 0.126375601
0.256167203 0.158128008 0.137002006
0.265907973 0.167868182 0.146742180
0.278052002 0.180012956 0.158886939
0.285389096 0.191398114 0.168247849
0.295256078 0.203542084 0.179253474
0.307653129 0.215939134 0.191144958
0.322833508 0.231246009 0.200252593
0.338013917 0.247058988 0.214167997
0.353953362 0.264516085 0.225553289
0.369007051 0.282732248 0.238077059
0.387729138 0.301454961 0.256293237
0.408981502 0.322707325 0.271726638
0.430992991 0.343959689 0.290322542
0.451486260 0.365971178 0.308792055
0.474003702 0.388868064 0.331562489
0.489184111 0.413156092 0.352814913
0.194560021 0.097280018 0.077798530
0.182416022 0.100316405 0.074762918
0.179380015 0.098798215 0.076407239
0.182036489 0.100948662 0.079316691
0.187349558 0.107906498 0.080961436
0.190385953 0.101834498 0.077925056
0.196204990 0.106261984 0.082859173
0.202403501 0.112460494 0.089057982
0.209740490 0.118532494 0.095635876
0.221884489 0.124604493 0.104743496
0.228083745 0.130550012 0.105376013
0.236432716 0.138519749 0.111448266
0.241998494 0.146362990 0.118153147
0.243137047 0.152688056 0.121695474
0.252245426 0.161796421 0.130803078
0.261353821 0.170904785 0.139911294
0.272106528 0.178621486 0.149146214
0.284124017 0.186084956 0.158886969
0.296267986 0.198229000 0.171030998
0.305629343 0.207590371 0.180392370
0.316508472 0.218722492 0.191397980
0.328652471 0.230866492 0.203542009
0.341049492 0.243390024 0.215433002
0.356229901 0.261606812 0.224541411
0.373687565 0.279696494 0.236179486
0.388994455 0.297912449 0.249588668
0.402909547 0.316634566 0.265401632
0.424161911 0.337886930 0.283618391
0.448071122 0.359139293 0.304364085
0.468690902 0.382162899 0.321947664
0.489690065 0.407210559 0.340923101
0.516508520 0.434408486 0.367994517
0.213535741 0.121315733 0.098797865
0.213029742 0.121442251 0.098671384
0.211637959 0.126628876 0.091334768
0.212396860 0.125869572 0.092599742
0.216318414 0.127640545 0.097659871
0.229474798 0.129158869 0.102213800
0.224920869 0.128146872 0.106767744
0.229474872 0.133459866 0.112839989
0.235546872 0.139531866 0.118911989
0.243389860 0.145603865 0.125869393
0.249715596 0.151675865 0.132067859
0.257811606 0.159772128 0.138140112
0.265780866 0.167741865 0.146109879
0.269575894 0.173560902 0.150917023
0.273371309 0.177356288 0.154712319
0.284882873 0.188867867 0.166223735
0.296014965 0.199999988 0.174319863
0.307526588 0.209487557 0.182036579
0.317393869 0.219354883 0.191903889
0.326755226 0.228716224 0.201265231
0.335863620 0.239721864 0.206578121
0.348007619 0.252877980 0.216698110
0.362048894 0.266919732 0.230486855
0.374446660 0.279569805 0.236811906
0.389627010 0.300063282 0.252751589
0.407210827 0.318911850 0.267552376
0.423908949 0.337633938 0.283744663
0.445161283 0.358886302 0.304364026
0.463756830 0.380138665 0.317267805
0.482226312 0.403162241 0.334218919
0.502846181 0.427451074 0.348513722
0.532194853 0.452751756 0.365717888
0.233776242 0.141555995 0.126122490
0.241872236 0.141555995 0.122074500
0.237950727 0.143833250 0.121695004
0.239721507 0.147375256 0.113852233
0.240480497 0.146236509 0.116888240
0.250727177 0.150917187 0.122960247
0.256293237 0.155471236 0.129032239
0.253510237 0.155471236 0.131815240
0.259582341 0.161543339 0.137887344
0.266919523 0.168880492 0.145224497
0.272991717 0.174952507 0.151296496
0.279063970 0.181024507 0.157368496
0.287033260 0.188994244 0.165338248
0.293358296 0.195319280 0.171663284
0.299936682 0.201897651 0.178241670
0.308159500 0.210120484 0.186464503
0.318785310 0.220746309 0.197090298
0.329158425 0.231751814 0.202403247
0.336875498 0.240860239 0.207336962
0.348007619 0.251992345 0.218469605
0.355218261 0.262998462 0.223782510
0.366224110 0.276154369 0.230866373
0.381404012 0.291334480 0.246046752
0.395446062 0.305376261 0.257811517
0.409867525 0.320303530 0.270967811
0.425047547 0.338772893 0.286401212
0.442125082 0.355850577 0.300949037
0.460341394 0.374066949 0.319165051
0.478937477 0.395319313 0.332447648
0.500695407 0.418342412 0.351676375
0.518405855 0.441745579 0.367615640
0.545351028 0.464895725 0.380897999
0.253890008 0.162049279 0.143959358
0.261480004 0.160910636 0.142441645
0.265275002 0.161922768 0.141809002
0.261732996 0.163693994 0.141555995
0.262112558 0.164073542 0.136622533
0.267425656 0.169386640 0.141935647
0.272359282 0.174319997 0.146869004
0.277419299 0.179379985 0.151928991
0.279696196 0.181657076 0.154206082
0.288804501 0.190765470 0.163314477
0.296141654 0.194687009 0.170651630
0.302213639 0.201897621 0.174446642
0.309424281 0.209108293 0.179380000
0.315749317 0.215433255 0.185705036
0.324857682 0.224541396 0.194813415
0.331688792 0.234788433 0.203921795
0.338520080 0.243896455 0.209614441
0.347627699 0.253004223 0.218722209
0.354206294 0.262112617 0.220240295
0.364705980 0.272865295 0.230234057
0.376470655 0.283870846 0.240101546
0.384566635 0.296015620 0.246173292
0.399493992 0.310942262 0.261100620
0.413662553 0.325110555 0.275268912
0.428842634 0.341429263 0.289310604
0.445161581 0.357748270 0.305376589
0.460341364 0.372928709 0.317014575
0.475521713 0.388109058 0.330929786
0.495635629 0.409740806 0.345730603
0.516255617 0.431625545 0.363820374
0.538772821 0.455913842 0.387223601
0.559772313 0.477419287 0.402909279
0.274130076 0.186591029 0.144465089
0.273371041 0.183807671 0.149272770
0.277419060 0.182922065 0.153700292
0.281467050 0.182922065 0.154965073
0.281340629 0.183301538 0.155850545
0.284377009 0.186337933 0.158886939
0.286907315 0.188867748 0.161416754
0.292093992 0.194054067 0.167109057
0.298165917 0.200126126 0.172675118
0.307273567 0.209234521 0.181783512
0.316128880 0.210373074 0.190132871
0.323719054 0.216698289 0.194180995
0.330676675 0.225553632 0.195066392
0.339785069 0.234662026 0.198608071
0.348893434 0.243769646 0.207716450
0.353447258 0.255281597 0.217330828
0.356736213 0.265654802 0.222391024
0.360784471 0.274509579 0.223529562
0.369892091 0.283617973 0.232637972
0.379000396 0.292726338 0.241745725
0.391650766 0.302087277 0.252751470
0.405566067 0.311954260 0.264389992
0.417836577 0.324225485 0.276660502
0.430107832 0.336496025 0.288931042
0.444528729 0.353193998 0.300822079
0.460847348 0.371157318 0.315496355
0.478558093 0.388868064 0.332194954
0.493738443 0.404048413 0.341302574
0.516381979 0.426692009 0.357874691
0.539152205 0.449462205 0.378115147
0.560025215 0.471347213 0.399367571
0.578242004 0.495636016 0.420619994
0.316634804 0.213915378 0.183934212
0.307526410 0.213915378 0.174825817
0.308918148 0.213282794 0.181783736
0.313851833 0.213282794 0.183301806
0.317520350 0.213662267 0.180392265
0.314737737 0.216697901 0.189246908
0.312713504 0.214674279 0.187223285
0.319164991 0.221125811 0.196963802
0.327007949 0.228968799 0.206577808
0.328525901 0.230486885 0.203035891
0.334724396 0.239595279 0.203415394
0.345477492 0.248829782 0.213408977
0.354079813 0.258064389 0.218468964
0.361037433 0.265022010 0.219860435
0.370145798 0.274130404 0.228968814
0.376850396 0.285641819 0.242884204
0.382289797 0.294749945 0.252245396
0.387729377 0.301454395 0.255787373
0.394180834 0.307905942 0.256925941
0.403289169 0.317014337 0.266034335
0.414294809 0.328019977 0.277039796
0.426059514 0.338519543 0.287159979
0.436053306 0.348513484 0.294876456
0.451233745 0.363693893 0.310056895
0.465781093 0.380518377 0.320050687
0.480961025 0.397343040 0.332574487
0.496774048 0.413156062 0.347375333
0.511954427 0.428336412 0.356482953
0.529790998 0.446173638 0.368248075
0.552814364 0.469196737 0.388741314
0.576470613 0.491966963 0.411511570
0.599494398 0.513852000 0.432763994
0.339911610 0.246046782 0.208981782
0.338014007 0.246046782 0.207084194
0.343959391 0.243896544 0.206577808
0.343959600 0.244908422 0.211384982
0.344718575 0.245667309 0.209108070
0.343706697 0.244655460 0.216192454
0.343074262 0.247438103 0.212776303
0.344971597 0.249335766 0.214674398
0.354079574 0.258443773 0.226818591
0.357368588 0.261732787 0.227324590
0.363187581 0.268058479 0.231878594
0.365211576 0.275142550 0.229854330
0.373560995 0.284250587 0.237823799
0.379886031 0.290575564 0.241112813
0.388994396 0.299683392 0.250221193
0.400505990 0.311195582 0.261732787
0.408096164 0.321821392 0.272359371
0.415053785 0.328778923 0.278431594
0.421125770 0.334851414 0.281973571
0.429981142 0.343706131 0.290322334
0.440986782 0.354712248 0.301328450
0.454142928 0.366856396 0.311448574
0.466160774 0.377482563 0.317773581
0.479063898 0.390385687 0.330676705
0.491966963 0.403288782 0.339025795
0.507020414 0.419860423 0.350790650
0.522706926 0.436052859 0.365464985
0.539785028 0.455028206 0.376470327
0.555218339 0.470461637 0.390638649
0.578747571 0.488677919 0.408096164
0.601012170 0.511701167 0.430866361
0.620746791 0.534471810 0.452118784
0.365718186 0.276407182 0.234788358
0.364199996 0.277925372 0.231751978
0.366729975 0.274256945 0.233902603
0.375079155 0.276281029 0.235673368
0.370904624 0.279822707 0.236052930
0.372042984 0.279064089 0.240987048
0.372042984 0.279570043 0.239974916
0.373814195 0.282732189 0.238962397
0.379127294 0.288045287 0.244276077
0.384440392 0.293358386 0.249589175
0.388994187 0.297912925 0.254143000
0.395572364 0.305502981 0.260215104
0.397849381 0.311574996 0.259456009
0.403921396 0.317647070 0.265148580
0.411764592 0.325490147 0.272991776
0.421758384 0.335483581 0.282985181
0.432384580 0.346110195 0.293611377
0.440860391 0.354585379 0.299683988
0.446932375 0.360657930 0.305756003
0.455787331 0.371030837 0.311575055
0.469829381 0.382036656 0.324098676
0.481973410 0.394181192 0.334219187
0.496521175 0.406325161 0.340544164
0.508665204 0.418469191 0.352688193
0.520809531 0.432131380 0.360278159
0.532953560 0.444275349 0.369133145
0.549019456 0.460341245 0.384187043
0.568248034 0.481593609 0.397343189
0.583808005 0.497532994 0.415179998
0.604554117 0.512966335 0.432384551
0.627451241 0.532953560 0.453636974
0.641999185 0.557242393 0.474889398
0.398482114 0.304996520 0.263251543
0.395445734 0.307400346 0.258443922
0.394560128 0.304617524 0.257558316
0.395825297 0.302972972 0.260594547
0.397723019 0.312080681 0.260974079
0.399999619 0.315623045 0.264010459
0.401770711 0.315496534 0.264516532
0.402782828 0.316508412 0.265528411
0.406451643 0.320176631 0.268564045
0.409488022 0.323213041 0.271600455
0.413156241 0.326881826 0.275268674
0.420240372 0.333965838 0.282352805
0.428842545 0.341935128 0.288551599
0.435167581 0.348260164 0.292093992
0.441619098 0.354712367 0.298545539
0.448829919 0.363187909 0.306388319
0.457305729 0.371663302 0.314863741
0.467046529 0.380139112 0.323972136
0.473118544 0.386211127 0.330044150
0.482605755 0.397849143 0.335230887
0.494876444 0.408728421 0.342694700
0.511069119 0.420873135 0.356103957
0.523213148 0.433017135 0.362428963
0.535357177 0.445161134 0.374573141
0.546869099 0.458317429 0.382795513
0.560278535 0.474003524 0.391650677
0.572422564 0.486147642 0.403794706
0.593295395 0.507020593 0.418848574
0.608602405 0.522327363 0.437444359
0.627830505 0.538140118 0.456925958
0.649841607 0.554712176 0.475395560
0.661986411 0.579000950 0.496647984
0.428842962 0.338393003 0.284503996
0.425806582 0.338393003 0.284503996
0.424920976 0.336495787 0.281847179
0.426186144 0.334472001 0.283112019
0.428083867 0.336369514 0.288298547
0.422011077 0.345477909 0.291334927
0.426818639 0.343959630 0.291840971
0.429095924 0.342821002 0.291840971
0.430866957 0.344591975 0.292852879
0.436812460 0.350537479 0.295888513
0.442758024 0.356482983 0.301834047
0.450601220 0.364326268 0.309677243
0.459709316 0.372295946 0.315370023
0.468564034 0.378620982 0.316382080
0.477672398 0.387729347 0.325490445
0.481720775 0.396584779 0.331941992
0.486780941 0.404174924 0.338266969
0.494370997 0.410499960 0.345224559
0.506515026 0.416571975 0.354333013
0.518152952 0.428209990 0.365970999
0.526248932 0.436558962 0.369765997
0.535357296 0.445161283 0.375079006
0.547501922 0.457305968 0.386717051
0.559645951 0.469449997 0.398861825
0.569513202 0.479317248 0.408728689
0.583048940 0.494497210 0.418975323
0.599747002 0.513472080 0.431119919
0.611890972 0.525616825 0.443263918
0.624794662 0.538519919 0.455660969
0.640733898 0.554458916 0.472106397
0.659455955 0.572422206 0.490322977
0.677165985 0.591144979 0.508792043
0.445287675 0.355091363 0.300189674
0.445034623 0.355091363 0.300189674
0.446299791 0.357242137 0.302340448
0.448197544 0.358001232 0.303099215
0.450854391 0.359519035 0.306894004
0.449589193 0.361416608 0.307526588
0.448577076 0.365464985 0.310562998
0.452498674 0.366224080 0.312460721
0.455155015 0.368880749 0.315117389
0.461227030 0.374952734 0.320177257
0.461733013 0.383807361 0.320556730
0.465781271 0.387855619 0.324604452
0.475648642 0.395446032 0.329917669
0.487792701 0.403162718 0.332068354
0.494370759 0.409740776 0.338646412
0.503478587 0.418849170 0.347754806
0.511828005 0.426439375 0.358760566
0.519797742 0.431878775 0.367995143
0.525490046 0.435800016 0.372801989
0.534851372 0.444655389 0.381910354
0.548893094 0.460594356 0.388361603
0.558633924 0.471220493 0.392283142
0.568880856 0.481467515 0.402529866
0.578368008 0.490955383 0.412017822
0.590512574 0.503099382 0.424162030
0.602909625 0.515496671 0.436559021
0.619228065 0.532953739 0.450601071
0.633649349 0.547375202 0.465022385
0.648450196 0.562176108 0.479823202
0.660720944 0.576217473 0.493864447
0.677798569 0.592535973 0.512839854
0.697912335 0.608855009 0.534851372
0.477545470 0.387349457 0.324857473
0.477545470 0.391144454 0.326755226
0.472106248 0.389500231 0.328905523
0.477672309 0.392536312 0.326881588
0.481593996 0.394433469 0.327387273
0.481593996 0.391397476 0.328905463
0.483491719 0.397722781 0.333333045
0.488425434 0.395825446 0.338013709
0.491208196 0.401138812 0.342821091
0.495003223 0.410626471 0.350031734
0.497153461 0.415812582 0.348387003
0.499177694 0.420872718 0.350411206
0.503352463 0.422770470 0.353447109
0.515496731 0.429348737 0.356736451
0.521568716 0.435420722 0.362808436
0.530044436 0.443896502 0.371283770
0.536116004 0.453004509 0.375837982
0.546489537 0.460088551 0.387855828
0.552055478 0.465654492 0.393421769
0.562555075 0.474256814 0.402024090
0.571663499 0.483364701 0.411132455
0.582795918 0.496520847 0.414168090
0.590259731 0.503984749 0.421631724
0.601138592 0.514863849 0.432510883
0.614421308 0.528146744 0.445793718
