Assets/EldamarStudio/100 Retro LUTs Pack/LUTs/cube/Raymond LUT.cube
LUT_3D_SIZE 5
DOMAIN_MIN 0.000000 0.000000 0.000000
DOMAIN_MAX 0.903226 0.903226 0.903226
0.125489995 0.039216001 0.050980002
0.167995006 0.050347995 0.054901998
0.253004402 0.081087999 0.047691423
0.426818401 0.134345129 0.046046872
0.728779554 0.146363169 0.013029845
0.128399715 0.139278993 0.060468286
0.158507288 0.147121981 0.057811294
0.244908109 0.173940405 0.053889878
0.438962698 0.215812981 0.030992875
0.738266826 0.236938700 0.003542137
0.029221771 0.299556971 0.047059000
0.108791709 0.296267956 0.042378597
0.230866402 0.322454393 0.039216001
0.458570659 0.370524943 0.004554423
0.767362177 0.403415561 0.002656833
0.000000000 0.528905332 0.000000000
0.000632580 0.527261257 0.005566131
0.261480093 0.544591904 0.003289416
0.518279493 0.569007218 0.000000000
0.830866396 0.597090423 0.003922000
0.000000000 0.838583291 0.005312988
0.081846818 0.838583291 0.000000000
0.412397414 0.842504561 0.002656833
0.688804746 0.849968493 0.002277296
0.955218434 0.834408641 0.005312988
0.128399715 0.040860288 0.146109700
0.163061291 0.056546707 0.147754416
0.246552393 0.090575702 0.145856991
0.434661388 0.103605300 0.152308568
0.735989571 0.089563496 0.139911577
0.115623005 0.140290707 0.135357410
0.144465417 0.154964983 0.137001708
0.243895978 0.169386417 0.145856991
0.435420543 0.202403694 0.138013825
0.749145925 0.209866986 0.137001693
0.014041791 0.295003384 0.144844696
0.095003314 0.297912687 0.137634277
0.237444818 0.316508383 0.132700995
0.462871552 0.365591377 0.116888002
0.778494596 0.393042207 0.093485162
0.000000000 0.535104275 0.075268865
0.000632580 0.532826900 0.069449864
0.259203225 0.544591963 0.059709277
0.526755154 0.570019126 0.018975280
0.841619134 0.595446110 0.002909872
0.001265167 0.848576903 0.003542137
0.024668105 0.844655514 0.001265167
0.402909458 0.846046865 0.000632584
0.687413156 0.850600898 0.001012128
0.963693440 0.835040808 0.001644708
0.089437433 0.061479993 0.292346388
0.138899699 0.071600288 0.282859087
0.233523399 0.094117999 0.287160218
0.441619247 0.087539583 0.324478388
0.751675963 0.000000000 0.339405388
0.070462018 0.158254400 0.278937101
0.124478281 0.159899116 0.280581802
0.232131407 0.170651406 0.281847388
0.444149256 0.173561126 0.310309708
0.764452696 0.116761617 0.329285115
0.000000000 0.299556971 0.282479823
0.034408614 0.309677094 0.282859117
0.241366401 0.322454393 0.289057761
0.479570270 0.343959838 0.300189406
0.795445740 0.354458988 0.304743946
0.006577994 0.539658248 0.295003384
0.000632580 0.539279103 0.280455410
0.256293684 0.544212639 0.277039945
0.538520098 0.565465152 0.278557956
0.850094855 0.586970091 0.286527783
0.000632584 0.849715114 0.241366386
0.000632584 0.849462330 0.235420674
0.331815213 0.852371991 0.234155804
0.671726882 0.853510141 0.224288553
0.965591192 0.839089274 0.237444386
0.002909872 0.081467129 0.506388247
0.010246994 0.088298991 0.511195362
0.238456681 0.098039001 0.511828125
0.447565258 0.080075756 0.518153250
0.770018578 0.000000000 0.554332376
0.000632580 0.176849693 0.515117109
0.001012128 0.175205573 0.509551227
0.234661505 0.178494409 0.512586951
0.464895517 0.170904711 0.512840271
0.780518413 0.102340356 0.560025096
0.002277288 0.331941694 0.506008923
0.002277288 0.328020096 0.506261826
0.233270094 0.331941664 0.514231265
0.494370520 0.337760687 0.522960126
0.810246706 0.337760687 0.550031424
0.000000000 0.551423252 0.529791296
0.001012128 0.555344224 0.522074282
0.217078060 0.566097558 0.530170560
0.536875367 0.574067116 0.536749125
0.865401447 0.581404269 0.558380902
0.001265167 0.851992249 0.573181212
0.002909703 0.852245092 0.576217234
0.215686113 0.854522288 0.564073265
0.616192162 0.858190656 0.542315006
0.945856512 0.843390286 0.548513353
0.005186845 0.100695834 0.827956617
0.000000000 0.093864694 0.826438725
0.243516624 0.072485588 0.832763970
0.559772193 0.001265167 0.828336477
0.857052505 0.000000000 0.828083396
0.000000000 0.192915827 0.829980731
0.001644708 0.190638870 0.830739558
0.233016953 0.181404129 0.828715742
0.559139788 0.141808987 0.831625462
0.867931485 0.001265167 0.832004726
0.000632584 0.377482384 0.834155798
0.001265167 0.369892359 0.828462839
0.159771949 0.363061219 0.830739558
0.557115316 0.358127505 0.833396435
0.886527002 0.329032391 0.836685836
0.004301118 0.627198279 0.830486774
0.002530012 0.625173748 0.842125475
0.064009964 0.621125758 0.837318063
0.541176260 0.607084274 0.839595139
0.898165584 0.599494100 0.834661603
0.001265167 0.873877585 0.831751823
0.002277292 0.872232854 0.838962615
0.239721611 0.870588183 0.836559057
0.620619953 0.868564606 0.840480745
0.921062410 0.872485578 0.858190536
