Assets/EldamarStudio/100 Retro LUTs Pack/LUTs/cube/Raymond LUT.cube
LUT_3D_SIZE 8
DOMAIN_MIN 0.000000 0.000000 0.000000
DOMAIN_MAX 0.903226 0.903226 0.903226
0.125489995 0.039216001 0.050980002
0.154079556 0.039974999 0.054901998
0.176344097 0.054142904 0.054142904
0.229221642 0.066160642 0.048197355
0.292979181 0.098671801 0.054901998
0.397469729 0.129284993 0.051107004
0.547248244 0.145098001 0.033017293
0.728779554 0.146363169 0.013029845
0.124730997 0.095635995 0.051739097
0.145477548 0.096015446 0.058444448
0.179127440 0.101075090 0.054522451
0.225300536 0.113598995 0.054902095
0.298039436 0.133459538 0.050474644
0.406071812 0.160910740 0.040860195
0.560025275 0.186464101 0.022643976
0.743579865 0.187476382 0.002277285
0.117773905 0.157495201 0.061986096
0.134977907 0.159392655 0.048576999
0.162302002 0.166856200 0.052498192
0.209614351 0.186843738 0.053383902
0.288298279 0.202783197 0.047817901
0.405566096 0.228716090 0.028716166
0.554838598 0.253889889 0.010373102
0.744844913 0.258190840 0.000000000
0.081088006 0.244402289 0.058191001
0.103225641 0.242884174 0.051739097
0.134851202 0.252372086 0.057305805
0.196711004 0.266793638 0.044782002
0.289436758 0.294623792 0.032764360
0.414041549 0.322453737 0.011132101
0.583680868 0.344718277 0.002277288
0.768500924 0.354206264 0.002403812
0.000000000 0.356356382 0.025300620
0.012017814 0.355976939 0.038076818
0.091081813 0.354838580 0.019734100
0.180518627 0.359012932 0.017583815
0.294244170 0.384440184 0.004807003
0.431878448 0.420240432 0.002024260
0.600252748 0.445667177 0.001644712
0.782795608 0.454395980 0.002530012
0.004048004 0.481340438 0.002024260
0.001518192 0.485894918 0.006704743
0.013282831 0.489310473 0.000000000
0.178494617 0.493232459 0.000000000
0.310057104 0.506135166 0.000000000
0.459582210 0.530550241 0.000000000
0.637444258 0.552688003 0.002277288
0.814927280 0.567488730 0.002656833
0.006198708 0.665528238 0.000000000
0.004553996 0.663124502 0.002656739
0.023529470 0.667172551 0.001644712
0.242378563 0.671726525 0.005566002
0.388361633 0.676407278 0.002277288
0.551043510 0.680581808 0.001644712
0.710562766 0.688425303 0.003289004
0.872105896 0.688171804 0.000000000
0.000000000 0.838583291 0.005312988
0.000000000 0.838583291 0.000379548
0.140796751 0.837318420 0.000000000
0.331309199 0.838709831 0.000000000
0.489184141 0.846552789 0.005439805
0.644528985 0.846932352 0.000000000
0.817836523 0.848577023 0.005819163
0.955218434 0.834408641 0.005312988
0.125489995 0.039595451 0.092093542
0.153320551 0.043136999 0.099556997
0.178368434 0.060341902 0.099936552
0.224920988 0.078304999 0.103099450
0.286274552 0.103478804 0.098798193
0.403035939 0.126249179 0.101202004
0.552688479 0.136495993 0.090828702
0.738519728 0.127767175 0.075142570
0.126249000 0.096394993 0.089690544
0.141176000 0.103858545 0.099177547
0.166982993 0.108538635 0.096015446
0.217457637 0.123086996 0.101834089
0.288172185 0.143073544 0.104617350
0.411132455 0.166097105 0.101454735
0.564705968 0.176344275 0.091334544
0.748513401 0.175205439 0.073497988
0.113851905 0.165338099 0.098418549
0.129411906 0.160658091 0.096015446
0.155217990 0.166097194 0.106261544
0.207210541 0.182163447 0.093232088
0.288172096 0.203668386 0.098039098
0.409108132 0.227957100 0.085515805
0.565970600 0.245288104 0.076787271
0.756356776 0.250474334 0.044908311
0.078937456 0.247185543 0.093738355
0.097027265 0.253131002 0.088172443
0.135230646 0.251486182 0.088931441
0.198608547 0.266793638 0.092979349
0.290195823 0.297406644 0.080455452
0.423656076 0.318405837 0.074383274
0.586464345 0.338772833 0.041492462
0.767868340 0.351169914 0.007084295
0.002403808 0.359012932 0.079823166
0.001897643 0.360278189 0.075774550
0.092220359 0.355091810 0.073751003
0.187982187 0.365718096 0.075774640
0.294750035 0.393548548 0.050474718
0.439468712 0.418975383 0.020999361
0.611258626 0.442884117 0.003162807
0.795572281 0.459076464 0.001897643
0.002024260 0.492725998 0.011511745
0.000000000 0.492473364 0.011258814
0.009108094 0.493991286 0.006451812
0.182668924 0.499936789 0.004048004
0.309803963 0.509297729 0.004048004
0.463124663 0.530044258 0.004427552
0.640859783 0.554965198 0.001644712
0.823402762 0.569133699 0.000759092
0.000000000 0.672991812 0.002277288
0.006451736 0.669070303 0.002024260
0.024414986 0.670841455 0.000000000
0.243769750 0.675268948 0.000000000
0.398102373 0.678684473 0.004048100
0.550663948 0.684756279 0.000000000
0.716002524 0.690069556 0.003542452
0.875648379 0.689184129 0.001644712
0.000000000 0.849588573 0.001265167
0.005186845 0.841113567 0.001644716
0.127640575 0.837444484 0.000759096
0.327261537 0.842631400 0.000000000
0.495129794 0.844528913 0.002783360
0.654396117 0.847944379 0.004048004
0.818595588 0.853130996 0.007716896
0.959645510 0.835799932 0.003542452
0.120809905 0.044654999 0.157495201
0.145477548 0.048576999 0.163440645
0.163820192 0.061859999 0.159899011
0.217078000 0.084629998 0.168121561
0.289816290 0.094117805 0.170019105
0.399240971 0.095003098 0.168753743
0.558886528 0.093611717 0.170777813
0.743326724 0.061986268 0.166729853
0.123971999 0.099556997 0.163061097
0.133332998 0.094370537 0.157115549
0.166603550 0.111321993 0.164199650
0.213915184 0.119544543 0.162175998
0.289816290 0.129791349 0.175205544
0.405945629 0.141176105 0.165338293
0.564199626 0.145604163 0.167741910
0.748639703 0.132953927 0.165211812
0.102719896 0.165338203 0.154333085
0.119671352 0.169260010 0.155471548
0.150538012 0.173181191 0.158254102
0.210753083 0.178241640 0.166097105
0.284250379 0.199746981 0.161417007
0.407337099 0.215053841 0.161796361
0.571410239 0.224794194 0.162302196
0.759013474 0.228589267 0.161796361
0.051992714 0.253510565 0.155977100
0.090828456 0.244781628 0.153194457
0.134092093 0.255534172 0.159899101
0.195066184 0.266793638 0.160278559
0.288551569 0.286780357 0.156736106
0.421505183 0.306641549 0.159139812
0.587223411 0.327134728 0.146615908
0.777482390 0.333459735 0.138014093
0.000000000 0.359392375 0.156736091
0.000000001 0.354712188 0.149652004
0.078557901 0.360151470 0.155218095
0.182795718 0.362175733 0.151170090
0.300569385 0.384440184 0.144212201
0.443769455 0.414294541 0.139152363
0.613662481 0.436432481 0.122327715
0.797343254 0.448956192 0.110689119
0.000000000 0.491587460 0.132953450
0.001138645 0.491208196 0.129664838
0.006958005 0.496394575 0.118785359
0.183301732 0.499936819 0.118785448
0.312460810 0.507020712 0.104870260
0.471347213 0.526502252 0.102972724
0.645287812 0.550158143 0.074383371
0.831246138 0.562049210 0.040101305
0.000000000 0.674383342 0.029348724
0.002403808 0.669323385 0.028463108
0.004554004 0.672485590 0.020619918
0.234282270 0.678051710 0.010120101
0.398228645 0.680455387 0.003795102
0.552940965 0.682479203 0.000379557
0.712966561 0.690069556 0.001644721
0.873244643 0.692599475 0.001644721
0.002530014 0.848323822 0.004048011
0.002277285 0.841872573 0.001897737
0.057052676 0.840607405 0.002783165
0.308159173 0.848323822 0.004554178
0.483744234 0.848829746 0.002783166
0.648956418 0.850347757 0.002530013
0.816950917 0.851106822 0.006072187
0.960910499 0.835293889 0.004174830
0.111447997 0.052118644 0.237697631
0.123972006 0.059962351 0.239721999
0.159519359 0.072485544 0.233775914
0.201138645 0.085768647 0.231498629
0.287539393 0.093231998 0.258823723
0.395572215 0.095889002 0.264769375
0.557368517 0.049589083 0.279696286
0.749525189 0.001138644 0.267046094
0.106008999 0.098671995 0.232257724
0.118785545 0.108538635 0.232511267
0.157242462 0.110056639 0.233775914
0.201770738 0.122201100 0.238077268
0.285388827 0.132068455 0.248071179
0.406704813 0.130170897 0.261100620
0.576090932 0.101454817 0.275268734
0.753320336 0.017710455 0.268817276
0.085262351 0.168501094 0.232637286
0.097280093 0.173940197 0.233396366
0.141176194 0.175585091 0.235673264
0.202150285 0.178114831 0.241240084
0.286527276 0.191144899 0.247438192
0.414800465 0.195572555 0.252498537
0.578747451 0.188868091 0.254901916
0.760657847 0.175332263 0.257811189
0.027830720 0.249968290 0.243263632
0.050980262 0.251486212 0.240986630
0.116129003 0.261732996 0.238583535
0.189500287 0.264010280 0.240480989
0.294370383 0.277672648 0.245288074
0.430993021 0.293358743 0.248323992
0.596584558 0.308791995 0.251739323
0.782036602 0.307147294 0.257431835
0.004807003 0.359392583 0.232131824
0.000759096 0.360278189 0.243643194
0.060720913 0.358633578 0.239595085
0.181150928 0.362175733 0.234535009
0.301707834 0.388361573 0.235420644
0.447185278 0.402150750 0.238583535
0.616698265 0.422643900 0.242252082
0.810119987 0.431245923 0.240354270
0.000000000 0.489563733 0.230993271
0.000000000 0.493611902 0.231878385
0.004807105 0.492726207 0.227703735
0.171536922 0.501454711 0.226944745
0.314737797 0.508159459 0.223529428
0.473244458 0.527767360 0.229221731
0.650221467 0.545098007 0.221252546
0.834914267 0.556103647 0.220493644
0.004427648 0.674509883 0.207969636
0.001138644 0.670967638 0.205186278
0.003162714 0.669829309 0.202529937
0.200379625 0.672865152 0.195066273
0.383680999 0.678431213 0.194813445
0.552308500 0.682352901 0.184060901
0.713978529 0.683364928 0.191650629
0.885009229 0.686653912 0.188361630
0.001518189 0.847691417 0.134598300
0.000758999 0.847311854 0.134092316
0.002024177 0.848576546 0.130297139
0.257685095 0.846046746 0.126882121
0.460973918 0.849209249 0.109804139
0.638203382 0.851612747 0.097280219
0.814547479 0.848956585 0.070082173
0.961922705 0.835799932 0.086653985
0.054522622 0.065780997 0.338267177
0.088804714 0.068184800 0.342694640
0.132574111 0.081467189 0.335104287
0.201897636 0.093231998 0.337002188
0.271853387 0.103478804 0.336748987
0.394939929 0.095635802 0.365844190
0.568247736 0.042125437 0.389247358
0.753700256 0.004048205 0.396837533
0.048450626 0.111574546 0.345604181
0.072738558 0.118405901 0.337001741
0.132574111 0.120176829 0.342567801
0.196710989 0.128146544 0.338899553
0.277166367 0.136116549 0.341555983
0.408096105 0.131815091 0.367615551
0.578874290 0.098419003 0.394054145
0.762175977 0.006072178 0.398102522
0.019228626 0.175458282 0.335863382
0.059202909 0.183428198 0.336875290
0.120050810 0.182542995 0.329664469
0.188488349 0.183681548 0.334472001
0.279443175 0.188868001 0.342315078
0.416318655 0.188741192 0.364832282
0.583048761 0.183428392 0.374952674
0.769639432 0.145477459 0.387855828
0.002403808 0.255787641 0.338899553
0.000000000 0.258823723 0.330929846
0.081720717 0.265528202 0.339026093
0.184820086 0.267552614 0.343959183
0.294750005 0.277039826 0.341049820
0.435167640 0.280075818 0.361922979
0.600759208 0.285262287 0.370398283
0.790006399 0.273371458 0.377735823
0.002403808 0.366350353 0.333459556
0.001138547 0.363440990 0.335736454
0.000000008 0.369639188 0.342188358
0.178873837 0.373434365 0.344339162
0.309930176 0.383807391 0.342188179
0.459329456 0.395572364 0.350031555
0.627703726 0.407463461 0.358633667
0.814421177 0.410120010 0.370145530
0.001518192 0.493611902 0.342567742
0.000379548 0.493105650 0.342567742
0.000000000 0.498671442 0.340544194
0.136369526 0.502972901 0.346995264
0.313219607 0.510563135 0.337254941
0.476660401 0.524731457 0.345224559
0.654522479 0.540290534 0.349778652
0.846299708 0.545857012 0.360531002
0.000000000 0.668690741 0.356230080
0.003162904 0.671726525 0.349146366
0.000759097 0.673371255 0.347628206
0.097912744 0.674509823 0.339658469
0.361416459 0.681087732 0.341429263
0.542188466 0.684756279 0.335863173
0.715369821 0.682099640 0.345351100
0.890449226 0.681087911 0.351549357
0.001265167 0.851865768 0.329285353
0.003921713 0.844022751 0.326881558
0.002024264 0.847058654 0.326755106
0.106008887 0.852245212 0.326628745
0.407843202 0.851865768 0.325616360
0.613029420 0.851359785 0.321821719
0.803921759 0.850347579 0.316508710
0.953194201 0.841492772 0.330297172
0.003922000 0.078431003 0.467931718
0.000000000 0.081087738 0.476027638
0.077292822 0.086274996 0.475268483
0.183301985 0.093738355 0.471853197
0.291967183 0.097786456 0.474130005
0.398987949 0.094244003 0.473624468
0.574699283 0.026691733 0.505502999
0.765464544 0.000000000 0.525236785
0.000379548 0.125869736 0.491714269
0.000000000 0.125869736 0.478684187
0.059835717 0.128146634 0.477799177
0.186717451 0.130170897 0.479063690
0.289942801 0.133333281 0.478810728
0.410879463 0.128652811 0.481593996
0.581783593 0.090196274 0.511195719
0.771030664 0.000379548 0.534471869
0.005186648 0.188741192 0.479696721
0.005566099 0.189626917 0.471853018
0.043769829 0.191904098 0.470335364
0.183301985 0.191777185 0.467804998
0.295508921 0.197975650 0.479317009
0.422643453 0.196457744 0.482732624
0.594054520 0.178747714 0.506135106
0.781530499 0.142820910 0.519291461
0.000000000 0.276533872 0.473371208
0.001138547 0.281720459 0.473497897
0.002277099 0.275395423 0.467299461
0.168753728 0.279316723 0.475774735
0.297280371 0.284123838 0.480076164
0.439215571 0.284376889 0.482226342
0.612650335 0.280834645 0.505629599
0.803036034 0.277039737 0.518785715
0.000379548 0.392283171 0.484629989
0.000000000 0.386843562 0.472485811
0.000000000 0.384946018 0.472485811
0.143073738 0.385704964 0.481846690
0.298039168 0.392536372 0.479190260
0.466793209 0.394686997 0.492093921
0.634408474 0.403289288 0.502719641
0.822517335 0.411638111 0.515496731
0.000000000 0.506894171 0.481214494
0.003542452 0.506514668 0.466287017
0.000000000 0.512839973 0.478051722
0.091840893 0.517520607 0.483870983
0.316129357 0.522201240 0.486400992
0.487286747 0.530550241 0.493232489
0.669323206 0.540669978 0.503731728
0.854016602 0.540417492 0.515370250
0.001644712 0.671853542 0.500063300
0.001644712 0.673118353 0.502972960
0.000000000 0.683744371 0.501075387
0.045414187 0.681973279 0.505376220
0.326501876 0.686527550 0.493611932
0.523466110 0.690322518 0.497027427
0.710689366 0.688045740 0.500569284
0.892093360 0.692599714 0.514864028
0.000759092 0.852751613 0.539278686
0.003289105 0.850094914 0.535989821
0.004174738 0.848450303 0.531688690
0.037318453 0.852371871 0.517900109
0.337128550 0.860594511 0.500316381
0.571916401 0.857431710 0.497280270
0.785452008 0.852498114 0.497406870
0.946109891 0.843137383 0.509297788
0.002277288 0.086906999 0.645920277
0.000379548 0.086654447 0.645667255
0.000000006 0.091840714 0.649209261
0.164326280 0.084629998 0.643137157
0.318532467 0.080328912 0.646046758
0.460341513 0.037697539 0.645161033
0.605692565 0.002277288 0.643010557
0.772928119 0.000000000 0.648071051
0.005186744 0.126122802 0.659835696
0.000000000 0.131309539 0.647817969
0.003289008 0.131309539 0.655155003
0.165085375 0.129411995 0.649841845
0.325110644 0.120430157 0.647817910
0.465654761 0.104111552 0.651865959
0.616192341 0.043643091 0.649462283
0.784440458 0.000000000 0.656546056
0.001644712 0.198102102 0.649715364
0.000379548 0.197722659 0.645920336
0.002277288 0.202150196 0.649841666
0.149145842 0.202024102 0.643390536
0.321695209 0.196584284 0.642884493
0.470714718 0.182289749 0.641492903
0.622644126 0.163188010 0.649841845
0.790259361 0.131815106 0.655028224
0.000000000 0.296521366 0.648070872
0.004427648 0.288804591 0.649335921
0.001138644 0.288804591 0.645414174
0.119291723 0.296521634 0.654269218
0.317267627 0.296521634 0.648703158
0.478051633 0.285262287 0.646046817
0.642125189 0.277419299 0.648703218
0.814294577 0.273624361 0.658696949
0.000759096 0.417330742 0.650600731
0.001897546 0.410626024 0.646299839
0.000759096 0.412650257 0.649715543
0.023402823 0.406704783 0.648576796
0.302087396 0.404048383 0.652877867
0.485262454 0.403668821 0.650854051
0.658064365 0.402530164 0.650600731
0.830486953 0.414800733 0.657305300
0.000379548 0.549145997 0.645793855
0.003415545 0.549145997 0.647311568
0.000379548 0.547628045 0.643896043
0.002024260 0.546362877 0.651359618
0.287286580 0.546869159 0.644908547
0.492473483 0.538772762 0.650221288
0.678937078 0.546742260 0.661100268
0.854775608 0.561290443 0.668058276
0.000000000 0.689057231 0.664516151
0.000379548 0.689057231 0.654016256
0.003289004 0.689690053 0.656166852
0.021631915 0.692473173 0.661606550
0.328273445 0.693738341 0.656040549
0.525869429 0.702466488 0.663631022
0.709930241 0.696900785 0.675015569
0.893231869 0.708665252 0.685009480
0.007337313 0.851233304 0.684123933
0.001644715 0.853510618 0.688425183
0.001265168 0.851739228 0.688930869
0.111954540 0.858443856 0.685262322
0.391524434 0.855154872 0.692220390
0.556356788 0.861985743 0.683744371
0.748387218 0.858190596 0.672232807
0.941935539 0.853510618 0.682226300
0.005186845 0.100695834 0.827956617
0.001265167 0.096774153 0.829348564
0.001265167 0.094876900 0.827450812
0.109930761 0.080076002 0.825553417
0.341682732 0.048324019 0.825173914
0.516002417 0.002024260 0.829348564
0.679190457 0.004553996 0.831372619
0.857052505 0.000000000 0.828083396
0.009361286 0.137381539 0.833902597
0.002024167 0.132953838 0.827703893
0.001517998 0.138140231 0.825679839
0.097027227 0.126502246 0.832384348
0.342441440 0.110562891 0.835800171
0.513978601 0.068564020 0.830992877
0.687033474 0.001265167 0.824161768
0.864389360 0.000758999 0.825553417
0.000000000 0.211385190 0.829727829
0.000379548 0.215180367 0.834914446
0.001897737 0.211385190 0.832763851
0.056546580 0.210373268 0.824288428
0.331435740 0.198482022 0.828462839
0.516129136 0.181530550 0.836432517
0.687666118 0.147628203 0.829221725
0.873497665 0.040480871 0.831498682
0.001265167 0.312080830 0.836432815
0.003035990 0.313725442 0.828462780
0.001265168 0.315116823 0.836432576
0.004933830 0.311195433 0.832131565
0.320936352 0.306894273 0.832131267
0.509677351 0.297659785 0.828083277
0.694623291 0.281214178 0.831245959
0.880834579 0.257811487 0.833775938
0.000000000 0.448197007 0.824414790
0.002277285 0.441113025 0.837570965
0.000000000 0.440986723 0.830739737
0.005060025 0.432511002 0.831625283
0.278304756 0.432131559 0.835041106
0.506261647 0.425806373 0.836558938
0.703352273 0.418848544 0.839848459
0.886147559 0.405566365 0.828462541
0.003794996 0.590259433 0.827450871
0.001518192 0.588741243 0.833143592
0.001517998 0.588741422 0.834282279
0.005945655 0.588741422 0.830233753
0.229222059 0.576090813 0.833649576
0.491081715 0.568627417 0.839089394
0.707273781 0.560531199 0.839215636
0.897406399 0.558760285 0.833396435
0.000379544 0.733839035 0.841998577
0.000758992 0.733712792 0.833775878
0.005819358 0.730803370 0.835926235
0.004933824 0.733839214 0.843137026
0.299810380 0.731688917 0.837950706
0.516255677 0.729791224 0.835293829
0.711574554 0.714990556 0.843010724
0.903478563 0.720430255 0.835926473
0.001265167 0.873877585 0.831751823
0.002277285 0.873118579 0.835293889
0.002530013 0.871220767 0.837444484
0.046679184 0.872359395 0.833270192
0.363946706 0.868437767 0.838962436
0.575079024 0.867299438 0.837950647
0.752308488 0.868564606 0.844781876
0.921062410 0.872485578 0.858190536
