Assets/EldamarStudio/100 Retro LUTs Pack/LUTs/cube/Raymond LUT.cube
DOMAIN_MIN 0 0 0
DOMAIN_MAX 1 1 1
LUT_3D_SIZE 32
0.125489995 0.039216001 0.050980002
0.131561995 0.036179613 0.050980002
0.141935542 0.035294000 0.050980002
0.150284842 0.036559161 0.052245162
0.154079556 0.039974999 0.054901998
0.163187936 0.046046998 0.054901998
0.164706007 0.047059000 0.054901998
0.167995006 0.050347995 0.054901998
0.176344097 0.054142904 0.054142904
0.191524506 0.051106524 0.051106516
0.206704870 0.059708871 0.050980002
0.217836738 0.062744997 0.048956260
0.229221642 0.066160642 0.048197355
0.243896037 0.075015999 0.050727036
0.253004402 0.081087999 0.047691423
0.271726787 0.089563802 0.051865995
0.292979181 0.098671801 0.054901998
0.314231545 0.107146993 0.053637009
0.335483998 0.113219015 0.047565006
0.367868364 0.122074358 0.052625004
0.397469729 0.129284993 0.051107004
0.426818401 0.134345129 0.046046872
0.460721463 0.137507990 0.042884007
0.506261945 0.143580005 0.036812000
0.547248244 0.145098001 0.033017293
0.589499950 0.145098001 0.025806665
0.635041177 0.145604059 0.015686000
0.680582285 0.148640454 0.015686000
0.728779554 0.146363169 0.013029845
0.773814321 0.145098001 0.008223019
0.818975508 0.142441407 0.003036392
0.870588005 0.133332998 0.000000000
0.125489995 0.051360000 0.054016385
0.131561995 0.045288000 0.054016385
0.139784768 0.046552613 0.047564611
0.144718438 0.049968325 0.048703160
0.146489158 0.054016840 0.055660997
0.166223541 0.052118998 0.060973998
0.172802255 0.055661321 0.053383678
0.173814386 0.059456382 0.051865615
0.177103385 0.064769283 0.052624710
0.185452506 0.066286907 0.054142900
0.203542009 0.066160388 0.048197389
0.218848854 0.074889250 0.049968127
0.229981035 0.080202386 0.048956260
0.241366416 0.086907029 0.047944386
0.256040782 0.090196386 0.047691423
0.272359371 0.096268386 0.049462192
0.294496983 0.103225991 0.053383805
0.317899734 0.110815957 0.054901998
0.341555983 0.119291790 0.053636998
0.362808377 0.128146425 0.050347649
0.395192742 0.133459732 0.051865615
0.427830249 0.138393387 0.047058746
0.463757098 0.143453509 0.039848395
0.509298325 0.146616399 0.033776388
0.552561939 0.152688399 0.032258388
0.594181061 0.155597717 0.028589657
0.637065470 0.156736061 0.019734003
0.677545905 0.154712453 0.009614000
0.723086357 0.155092001 0.004301012
0.773054779 0.150664419 0.002656613
0.820240438 0.145477802 0.000885613
0.867552340 0.136369392 0.000000000
0.129790992 0.065654770 0.059202999
0.129411772 0.061733000 0.057052772
0.137633994 0.057811771 0.048450224
0.146742389 0.062112547 0.044402160
0.148007318 0.067425996 0.051359996
0.158633709 0.066160843 0.057431996
0.169386089 0.063883543 0.055154681
0.175458863 0.068564221 0.050980002
0.179506987 0.073118225 0.050221100
0.188362002 0.074762523 0.050474484
0.199620783 0.079190545 0.049083002
0.215812519 0.085262284 0.051106997
0.230992869 0.090955004 0.055407774
0.242378280 0.095256031 0.055408031
0.255661398 0.102087416 0.053510774
0.273244977 0.109677769 0.049462192
0.292979181 0.114231579 0.049462195
0.316002309 0.120935984 0.051233415
0.338772982 0.131562203 0.052751224
0.368880361 0.136369422 0.052118644
0.397722721 0.141682506 0.049082745
0.431119382 0.145730764 0.045793649
0.466793239 0.151676252 0.036938746
0.512333989 0.154712141 0.032891002
0.553447545 0.160025224 0.031373002
0.597343564 0.161922917 0.027198339
0.640607357 0.162934780 0.020872710
0.681720376 0.161543459 0.013662012
0.726502299 0.165464997 0.004680786
0.772042692 0.163693786 0.003921539
0.825553358 0.156230241 0.002530009
0.877419770 0.145857006 0.000000000
0.130803004 0.080835164 0.058949839
0.134092212 0.076533936 0.057179064
0.134598389 0.074762926 0.052751452
0.142441168 0.075522155 0.048197322
0.151549563 0.080835164 0.049336065
0.156356946 0.080835164 0.050094835
0.163187832 0.082100004 0.052371677
0.171916410 0.080202162 0.052245162
0.179506987 0.086274162 0.052245162
0.191651002 0.087286167 0.049715482
0.199620709 0.091840737 0.049588997
0.212776899 0.096141897 0.051106997
0.229095146 0.104111165 0.056040641
0.244402036 0.104870155 0.060974099
0.257558674 0.112966403 0.056926101
0.274510145 0.118279636 0.052751552
0.295509189 0.128146797 0.053257357
0.316761553 0.131815150 0.050854158
0.338014007 0.142694324 0.053257350
0.370398372 0.146489352 0.048450001
0.401264727 0.152055740 0.046552747
0.435673237 0.156103998 0.042505004
0.469702810 0.162175998 0.034029163
0.514104903 0.166350260 0.032131903
0.557621777 0.171663150 0.026312679
0.598608732 0.174825683 0.025933178
0.644149244 0.172296003 0.016318841
0.687412798 0.172296003 0.011005552
0.735104442 0.173814148 0.007716858
0.783175409 0.173308104 0.003162766
0.830486834 0.170271710 0.005313001
0.890069842 0.159266159 0.000000000
0.124730997 0.095635995 0.051739097
0.136115998 0.090702452 0.051359549
0.139025778 0.088931449 0.050980002
0.139784992 0.091081992 0.053130776
0.145477548 0.096015446 0.058444448
0.154585928 0.096015446 0.046299674
0.161543459 0.100316450 0.048197001
0.168880612 0.102213837 0.052245162
0.179127440 0.101075090 0.054522451
0.191271454 0.107147090 0.054522451
0.197975993 0.110689409 0.054522451
0.209740698 0.112080991 0.054522451
0.225300536 0.113598995 0.054902095
0.243516549 0.119924031 0.058444485
0.258823395 0.126122534 0.053004265
0.277166605 0.128146544 0.049335808
0.298039436 0.133459538 0.050474644
0.322454125 0.143959150 0.057685450
0.343706548 0.150031939 0.057685439
0.375711381 0.154459193 0.048070829
0.406071812 0.160910740 0.040860195
0.436432242 0.168627545 0.037192002
0.473117977 0.174826041 0.031373002
0.515622795 0.181151092 0.031373002
0.560025275 0.186464101 0.022643976
0.604554296 0.190512091 0.014547549
0.647565067 0.190132543 0.013662002
0.693105400 0.190132543 0.001518014
0.743579865 0.187476382 0.002277285
0.794433951 0.183049023 0.002530331
0.846047044 0.178241938 0.000379548
0.897659540 0.175205544 0.000379548
0.118658997 0.107779995 0.057811871
0.124730997 0.110815607 0.054775484
0.133965760 0.110183060 0.052245159
0.139784992 0.111448221 0.052245162
0.145477548 0.114231452 0.055408064
0.148513928 0.111195058 0.055408061
0.157621682 0.111195058 0.050853610
0.164579064 0.113851771 0.050980002
0.173434213 0.115876026 0.051486067
0.188235059 0.119291879 0.051486067
0.197469935 0.125363857 0.051486067
0.208095998 0.128905669 0.051486067
0.220746338 0.130296990 0.050347712
0.234408930 0.132068038 0.049336098
0.252624929 0.141176403 0.058444478
0.275142580 0.147374928 0.055408068
0.296900809 0.152434930 0.050854001
0.319923788 0.158886522 0.048577067
0.346742928 0.162175953 0.048577063
0.376343936 0.173813999 0.048577063
0.409108222 0.180644929 0.040860198
0.442504883 0.186211124 0.034788195
0.479189962 0.190006435 0.031373002
0.521694839 0.199114844 0.031373002
0.564199507 0.200885877 0.024541717
0.608602047 0.204680860 0.013535956
0.653637052 0.208222821 0.004933873
0.699177384 0.205312937 0.001518014
0.747374535 0.202656776 0.000000000
0.794686615 0.199620724 0.002277282
0.843010783 0.196963996 0.003415935
0.894623935 0.196457937 0.003415935
0.127766997 0.122454315 0.058823999
0.121189319 0.120429926 0.055787612
0.127261311 0.125616327 0.059202999
0.135989830 0.125110477 0.056040324
0.143326774 0.125237316 0.054901998
0.148513943 0.124351703 0.054901998
0.154080003 0.128905639 0.059961997
0.164832309 0.130549937 0.060215026
0.172675312 0.134345189 0.059582647
0.182542488 0.139152810 0.056040645
0.191903874 0.140038326 0.058570318
0.203035995 0.142062321 0.056546584
0.215179995 0.146868989 0.056040645
0.227830425 0.151296362 0.054143257
0.246046975 0.155850738 0.051865764
0.271473795 0.160151511 0.053763356
0.294370860 0.167615190 0.052371677
0.315622866 0.174699306 0.048323683
0.339152604 0.179632977 0.044528674
0.369260341 0.188488334 0.041999001
0.405313045 0.194940060 0.040101260
0.440986931 0.200379640 0.035294000
0.477292806 0.205060318 0.033649687
0.512586832 0.211764902 0.028842678
0.557368815 0.216318697 0.024288682
0.600126624 0.216571674 0.015433338
0.645035088 0.219860733 0.006451677
0.692599714 0.220872864 0.005439551
0.740796864 0.215306833 0.002530322
0.791144371 0.215812758 0.000759106
0.839089036 0.215179995 0.003162669
0.889057994 0.215179995 0.006451677
0.128399715 0.139278993 0.060468286
0.124225385 0.141176298 0.060721315
0.124225296 0.141302690 0.055914003
0.131562442 0.142314702 0.056926005
0.140290722 0.139278993 0.052751549
0.146363154 0.139278993 0.056546707
0.149146304 0.144338995 0.059961997
0.158507288 0.147121981 0.057811294
0.169133291 0.150916696 0.061606776
0.175205290 0.156989247 0.059076998
0.187476158 0.157242283 0.058444131
0.198608711 0.162175983 0.059076551
0.211891070 0.163314626 0.054902293
0.225300029 0.170904368 0.054396294
0.244908109 0.173940405 0.053889878
0.267046094 0.176976606 0.049335711
0.291334510 0.184566408 0.049335711
0.313851833 0.193801254 0.049335707
0.337128282 0.200885415 0.045287699
0.368374735 0.204807058 0.037065357
0.399494022 0.211764723 0.034029264
0.438962698 0.215812981 0.030992875
0.475901484 0.222011492 0.030107304
0.509297967 0.229601696 0.024035294
0.553447127 0.233396396 0.017963300
0.596205235 0.237824038 0.014674295
0.640481114 0.237317979 0.006831001
0.691334844 0.236938432 0.004554003
0.738266826 0.236938700 0.003542137
0.785325766 0.232890457 0.003795492
0.837823868 0.235040694 0.000759100
0.887919307 0.235040694 0.004554003
0.117773905 0.157495201 0.061986096
0.120809905 0.163567200 0.064263389
0.120683223 0.166097105 0.059456129
0.127008066 0.164326206 0.055407997
0.134977907 0.159392655 0.048576999
0.140290916 0.159772098 0.055028841
0.142062008 0.162555203 0.059835680
0.150917098 0.165338203 0.060088389
0.162302002 0.166856200 0.052498192
0.168374002 0.172928199 0.058570962
0.182415962 0.174699187 0.055914126
0.195572421 0.180012345 0.054901998
0.209614351 0.186843738 0.053383902
0.225047067 0.190133095 0.048070934
0.245793492 0.193674773 0.053636990
0.267045856 0.196710810 0.050095003
0.288298279 0.202783197 0.047817901
0.313978195 0.212397203 0.044655506
0.341935217 0.221126065 0.044022992
0.374826074 0.224161997 0.037444986
0.405566096 0.228716090 0.028716166
0.437444270 0.235547185 0.024920871
0.476786882 0.241492674 0.021884521
0.510815978 0.249335915 0.016445095
0.554838598 0.253889889 0.010373102
0.601517975 0.257558256 0.006325001
0.641999066 0.263124973 0.006325001
0.695888698 0.257811278 0.000759007
0.744844913 0.258190840 0.000000000
0.791144609 0.259202987 0.001012121
0.834788263 0.258570164 0.003036392
0.889437139 0.258570164 0.000000000
0.102593519 0.175711975 0.058950484
0.114737511 0.181783974 0.058950484
0.113472514 0.185705200 0.054775458
0.115369998 0.186084658 0.054901678
0.125869513 0.183681443 0.060720995
0.125869513 0.186717048 0.048577007
0.128652826 0.184566826 0.052498519
0.141429693 0.183554977 0.058443993
0.159266382 0.185072973 0.061606579
0.168374002 0.191144988 0.058570959
0.180265740 0.197216973 0.055914123
0.192536473 0.203035980 0.054901998
0.206957504 0.208096147 0.053763356
0.225047067 0.211385503 0.051106546
0.243263826 0.217457488 0.054142926
0.264010280 0.220999181 0.050094999
0.285262674 0.225553393 0.048576798
0.310942590 0.230613977 0.047691114
0.353447437 0.230613992 0.032511484
0.386970341 0.239342153 0.037444998
0.416571707 0.248070762 0.031372521
0.446046621 0.257052660 0.021631518
0.479822487 0.265781462 0.015812518
0.516255319 0.268817067 0.012776902
0.559392810 0.272106290 0.007337488
0.606451750 0.275142282 0.002656811
0.654143095 0.278304577 0.000253000
0.699683428 0.281340986 0.000253002
0.753573775 0.278684169 0.000000001
0.804301262 0.279443234 0.000000000
0.849209666 0.283111989 0.000126516
0.886401474 0.288930982 0.000000000
0.101961002 0.196837872 0.058823999
0.105376124 0.200000003 0.061733127
0.108918130 0.201771006 0.061733127
0.109424129 0.204048038 0.057178870
0.118279234 0.204301327 0.057684995
0.128399864 0.202276930 0.060720995
0.133459866 0.200253189 0.058696996
0.138520002 0.200506151 0.060720995
0.152688116 0.203289002 0.061986096
0.168247506 0.209360987 0.058950480
0.174446732 0.212523878 0.053004257
0.184566736 0.222643867 0.054016385
0.198102415 0.228209868 0.052625000
0.217077911 0.229475036 0.048070870
0.243263826 0.232890859 0.048450418
0.266286969 0.241366044 0.044276007
0.288045317 0.249968246 0.039721809
0.311195254 0.258823872 0.038709585
0.344592094 0.263377875 0.032637965
0.378747523 0.266160518 0.025806289
0.414041609 0.275015593 0.027577261
0.447438240 0.282099992 0.020493133
0.482985318 0.287160337 0.012776872
0.522200823 0.290195942 0.012523903
0.570018828 0.293232143 0.007211004
0.616824985 0.296268195 0.002530328
0.663377941 0.299809873 0.000506064
0.708918273 0.305249453 0.002909870
0.759772241 0.308285832 0.000253038
0.803542316 0.307526737 0.000000000
0.849336147 0.306767881 0.000000000
0.897913039 0.304743856 0.000000000
0.095888749 0.220113993 0.060847737
0.098924875 0.223150119 0.063883871
0.093738012 0.222011253 0.060721260
0.101328008 0.222011253 0.058190938
0.110056549 0.224667996 0.052498292
0.117267616 0.226565301 0.053637005
0.126376003 0.227577567 0.062744997
0.134092286 0.226186246 0.061100710
0.142820850 0.228083506 0.060721260
0.159772009 0.231625512 0.058950484
0.172422469 0.234787852 0.057052772
0.184566990 0.239848495 0.048956260
0.195951909 0.249715507 0.047438361
0.213536039 0.251992494 0.040480748
0.237318397 0.256799668 0.036938749
0.266286969 0.264642954 0.042252004
0.290575385 0.270714551 0.036180004
0.314231396 0.280075967 0.032005109
0.344592214 0.286147982 0.027577450
0.375711381 0.295508891 0.021758292
0.412903190 0.298545003 0.013788751
0.450474381 0.306388259 0.012397140
0.488424957 0.310562968 0.005692748
0.533586204 0.315496325 0.005692748
0.580138803 0.320556253 0.007211004
0.624794304 0.322200984 0.003922000
0.669449925 0.324604332 0.002024256
0.718026698 0.329158485 0.003542448
0.766856372 0.330550075 0.001265167
0.814927042 0.333586454 0.000000000
0.855660856 0.332953900 0.000000000
0.908032775 0.328020245 0.000000000
0.081088006 0.244402289 0.058191001
0.086401105 0.245161384 0.060088746
0.089943223 0.243896514 0.060088709
0.086527646 0.243263632 0.057432320
0.103225641 0.242884174 0.051739097
0.107020937 0.246679291 0.048703291
0.115117036 0.251359969 0.056040645
0.121948294 0.251612991 0.058823422
0.134851202 0.252372086 0.057305805
0.151170135 0.252751648 0.057685353
0.164073229 0.254522413 0.056546710
0.179253608 0.259582520 0.052751746
0.196711004 0.266793638 0.044782002
0.212397397 0.273371637 0.036179610
0.233649760 0.281214625 0.030993003
0.259835631 0.287413150 0.031246157
0.289436758 0.294623792 0.032764360
0.315623075 0.298292130 0.026059791
0.346489966 0.304364294 0.019481063
0.379126996 0.313725322 0.015685998
0.414041549 0.322453737 0.011132101
0.452498585 0.326502264 0.004048484
0.491840452 0.332574278 0.001138644
0.537381172 0.338646293 0.001138644
0.583680868 0.344718277 0.002277288
0.631245971 0.350284278 0.002783356
0.669196725 0.350790352 0.002783356
0.719544649 0.353826702 0.002783356
0.768500924 0.354206264 0.002403812
0.817583740 0.357115835 0.002276998
0.861353219 0.358381033 0.000506007
0.909170985 0.355344623 0.000000000
0.056546904 0.269197017 0.047059000
0.065907620 0.265907615 0.047564998
0.078304715 0.263630748 0.048703227
0.089184128 0.262618899 0.051233165
0.093105964 0.264895558 0.053257484
0.099177971 0.261859924 0.050221100
0.108538680 0.266414016 0.054269616
0.115369707 0.267299324 0.055281617
0.122201122 0.265781105 0.050727099
0.146489918 0.268817514 0.053763483
0.157242134 0.269197017 0.051486131
0.170145214 0.272992015 0.048197228
0.187602609 0.279949635 0.045034967
0.209614038 0.289058030 0.039216001
0.230866402 0.301202029 0.036179617
0.254775554 0.306641221 0.029981006
0.281847000 0.310942054 0.023149973
0.313092679 0.317267150 0.017204434
0.346489936 0.323339939 0.008096033
0.382163048 0.329412013 0.007843000
0.419101477 0.337128311 0.007590032
0.455534250 0.345477283 0.006831130
0.492599458 0.351423502 0.003795488
0.532573998 0.357369006 0.003668968
0.573813558 0.363440990 0.003922000
0.619101584 0.369260013 0.002783359
0.667173088 0.375332087 0.000000000
0.712713420 0.378368467 0.000000000
0.760657549 0.378495008 0.002656833
0.810752511 0.381784022 0.005945797
0.860088646 0.385199428 0.006072009
0.899557054 0.382163018 0.000000000
0.029221771 0.299556971 0.047059000
0.041366547 0.293484956 0.053130999
0.046426248 0.296647400 0.047185220
0.055787519 0.297027111 0.043137170
0.066034600 0.295256257 0.040987015
0.077925608 0.292219877 0.035041504
0.094117604 0.296773970 0.034535438
0.108791709 0.296267956 0.042378597
0.119165003 0.293105483 0.046173427
0.128273159 0.296141893 0.041619502
0.149652049 0.299177527 0.044655140
0.162301987 0.301581234 0.040354010
0.178494230 0.306388408 0.039468586
0.200505659 0.313346028 0.042251609
0.230866402 0.322454393 0.039216001
0.256925792 0.332194597 0.026565623
0.283617765 0.337001592 0.013282821
0.313472122 0.341935366 0.003162598
0.349525541 0.350664318 0.002024044
0.380139321 0.356736392 0.006831009
0.419354886 0.362808406 0.005945744
0.458570659 0.370524943 0.004554423
0.495635867 0.378747880 0.003795488
0.547248304 0.381783485 0.000759096
0.584945977 0.387728989 0.002909872
0.628209710 0.392409652 0.003922000
0.676280737 0.397090465 0.002783352
0.721821845 0.405692846 0.000000000
0.767362177 0.403415561 0.002656833
0.815306306 0.404554188 0.007463982
0.866286933 0.406451792 0.008475817
0.917773783 0.403415382 0.000000000
0.009108014 0.327513784 0.037445009
0.018848984 0.323845595 0.038710013
0.015939435 0.322074592 0.040481016
0.023023378 0.326375425 0.042251654
0.036685959 0.325995982 0.044908188
0.050854214 0.324983865 0.034788191
0.072865210 0.319923788 0.031373002
0.091081619 0.325995803 0.028083585
0.109298013 0.324477792 0.032637402
0.125237003 0.325869471 0.029854398
0.143453673 0.326501906 0.030107334
0.162681788 0.327513784 0.033143461
0.180139095 0.329031974 0.028210007
0.202909604 0.332827032 0.028462980
0.228968799 0.341935396 0.025426824
0.259329587 0.351043820 0.019987406
0.289689988 0.360151798 0.010879396
0.320050329 0.366856575 0.001771228
0.354711980 0.377735734 0.000000005
0.385578722 0.386464566 0.003162813
0.419734448 0.394433856 0.003542069
0.462239116 0.401011795 0.002530324
0.503099203 0.408475488 0.003922000
0.547880888 0.411511689 0.003162900
0.592662573 0.416824609 0.000126516
0.634914219 0.420113593 0.001518196
0.682985187 0.422137856 0.002530195
0.728526294 0.427451223 0.005186547
0.776470542 0.428336740 0.000253028
0.825553298 0.430613548 0.001518196
0.875648081 0.431625783 0.005439809
0.928779185 0.427071571 0.002403804
0.000000000 0.356356382 0.025300620
0.004554198 0.354838580 0.025300620
0.006831419 0.352435380 0.028336616
0.000253031 0.353700221 0.025806617
0.012017814 0.355976939 0.038076818
0.021505564 0.354838580 0.032763813
0.044276014 0.354332358 0.025174135
0.069829226 0.350284576 0.025047587
0.091081813 0.354838580 0.019734100
0.116887823 0.354838580 0.018975196
0.139911354 0.357874572 0.015939202
0.161163986 0.357874572 0.017963070
0.180518627 0.359012932 0.017583815
0.204174846 0.359645396 0.012017814
0.227197975 0.366223782 0.010246590
0.257811397 0.373813987 0.007843007
0.294244170 0.384440184 0.004807003
0.326375544 0.392915994 0.002403808
0.358000994 0.403288990 0.000253034
0.396204919 0.412650347 0.001265165
0.431878448 0.420240432 0.002024260
0.471347362 0.428336173 0.000000000
0.516508400 0.434534699 0.002403808
0.556230187 0.440354109 0.002403808
0.600252748 0.445667177 0.001644712
0.644149125 0.450347871 0.000000000
0.693105400 0.451992452 0.001011999
0.740670264 0.457052797 0.007083993
0.782795608 0.454395980 0.002530012
0.834661305 0.457938343 0.000000000
0.885388911 0.463124782 0.000000000
0.936369002 0.458950162 0.002403808
0.000000001 0.387349516 0.013156017
0.000000000 0.387982100 0.013156017
0.002783188 0.385831714 0.016192026
0.002656839 0.384060979 0.019101596
0.000000000 0.386337578 0.013409046
0.000000000 0.383301884 0.018722026
0.015180515 0.385958195 0.014041757
0.041113563 0.386337638 0.010879306
0.071094595 0.385326117 0.013029530
0.101454616 0.385326117 0.009993914
0.130170450 0.389247537 0.005313424
0.156103507 0.391904116 0.004680749
0.181783617 0.393042475 0.005566002
0.204048023 0.396078140 0.000000000
0.226818368 0.399114519 0.000000000
0.255787373 0.402656525 0.001264990
0.291207969 0.411764532 0.000000000
0.333080113 0.423276126 0.000632576
0.360404581 0.429348111 0.000632576
0.404427677 0.438203484 0.000632576
0.446805835 0.446046710 0.000000000
0.487033367 0.452118695 0.000000000
0.532447934 0.458064198 0.000126512
0.569892764 0.466160446 0.000632576
0.613788843 0.472991526 0.001264991
0.658064365 0.478304625 0.000000000
0.704111516 0.481341034 0.000000000
0.755597353 0.490196377 0.005819002
0.795825183 0.487919033 0.002530013
0.841618896 0.487665951 0.000000000
0.894496739 0.491587937 0.000000001
0.943073571 0.494623542 0.000000001
0.000000007 0.420745999 0.001012002
0.000000001 0.423782408 0.001012002
0.004300995 0.422264218 0.001012002
0.005060028 0.419228196 0.002783163
0.000000000 0.416698426 0.004301422
0.000000000 0.413662046 0.001265032
0.000000000 0.418216020 0.001517998
0.016824745 0.420745999 0.000759032
0.047185317 0.422011226 0.001011999
0.086274974 0.427830964 0.000885517
0.119544812 0.424921095 0.000759033
0.148387194 0.426692277 0.000253032
0.177735627 0.429475337 0.000506000
0.210120037 0.432511002 0.000000000
0.243516386 0.435547382 0.000000000
0.268690586 0.433776170 0.004806991
0.296774358 0.439089000 0.004300999
0.330044478 0.450600564 0.000632576
0.369512975 0.459708959 0.003668965
0.413536072 0.468564332 0.003668965
0.457179427 0.477672696 0.001771226
0.498419046 0.485515922 0.000000000
0.538519979 0.491461426 0.000126512
0.581024826 0.494497031 0.003162901
0.627577484 0.500316024 0.005945672
0.671726525 0.506388009 0.004554008
0.713219166 0.511701107 0.000000000
0.761795878 0.514737487 0.000000000
0.807969451 0.518279910 0.000506002
0.854522288 0.518785954 0.000000002
0.903605163 0.518406451 0.000000002
0.952181995 0.515876055 0.000000007
0.005566004 0.443010390 0.002783357
0.000000002 0.446046770 0.002783357
0.000000000 0.446932375 0.002783357
0.002276996 0.448323727 0.004048196
0.000000000 0.449462384 0.005945648
0.000000000 0.444022804 0.000506066
0.000000000 0.443516731 0.000000000
0.000000000 0.449082732 0.000000000
0.024667906 0.451359749 0.000759096
0.076281115 0.453384012 0.002783355
0.109930500 0.456293851 0.000000000
0.141303137 0.455281734 0.000000000
0.172802269 0.457558721 0.000000000
0.207590356 0.460341364 0.000000000
0.238456368 0.460847437 0.000000000
0.269449592 0.466287017 0.000000000
0.297533393 0.468943745 0.002276996
0.329791516 0.477925509 0.000000000
0.369260013 0.487033337 0.000885611
0.408728391 0.493358403 0.001138643
0.450474501 0.500568986 0.001138643
0.494117886 0.509803891 0.000000000
0.539152443 0.519291818 0.000000000
0.584313452 0.522327483 0.000379547
0.626818240 0.525363684 0.003415931
0.674382865 0.530929744 0.003668680
0.718532145 0.535989761 0.000000000
0.762554824 0.536748827 0.000000000
0.811132252 0.542441368 0.002656833
0.856799483 0.545604229 0.001012141
0.905249774 0.545730770 0.001770991
0.955724359 0.542694390 0.005566004
0.004048004 0.481340438 0.002024260
0.007463737 0.480581850 0.002024260
0.000000000 0.481467456 0.002024260
0.001265161 0.481467456 0.003289421
0.001518192 0.485894918 0.006704743
0.000000000 0.484376699 0.006704737
0.000000000 0.481467456 0.003794996
0.001644708 0.484756470 0.000505999
0.013282831 0.489310473 0.000000000
0.066413738 0.489310473 0.001897743
0.106514871 0.488424838 0.001012129
0.149272472 0.493232459 0.000000000
0.178494617 0.493232459 0.000000000
0.212903336 0.496015191 0.000253032
0.248197436 0.500948429 0.001897740
0.276660323 0.500063181 0.000000000
0.310057104 0.506135166 0.000000000
0.341809273 0.510310113 0.000000000
0.378747731 0.514357746 0.000000000
0.422011137 0.522580445 0.000000000
0.459582210 0.530550241 0.000000000
0.500063241 0.535610080 0.000000000
0.546362996 0.544844985 0.000000000
0.586590648 0.549651861 0.000000000
0.637444258 0.552688003 0.002277288
