Assets/EldamarStudio/100 Retro LUTs Pack/LUTs/cube/Rebecca LUT.cube
DOMAIN_MIN 0 0 0
DOMAIN_MAX 1 1 1
LUT_3D_SIZE 32
0.109803997 0.058823999 0.086274996
0.115875997 0.058823999 0.086274996
0.130549997 0.054522451 0.088425227
0.150031164 0.048450001 0.088931158
0.171663091 0.043136999 0.086274996
0.195951864 0.043136999 0.086274996
0.215179995 0.043136999 0.083744682
0.235040694 0.043136999 0.079064004
0.255534172 0.044654999 0.075268902
0.273750961 0.050727006 0.078304514
0.294876873 0.056799740 0.072612002
0.314104974 0.062871993 0.072612256
0.332321286 0.068944000 0.076787002
0.351043999 0.075015999 0.082353003
0.375331968 0.081087999 0.082353003
0.394813597 0.084756806 0.082353003
0.416065991 0.090828799 0.086907193
0.439089149 0.099936567 0.092853010
0.457305998 0.109044969 0.086780988
0.495003402 0.112586647 0.083491646
0.524984002 0.123212732 0.089942992
0.554332376 0.133332998 0.098039001
0.593801498 0.133585989 0.098039001
0.633269906 0.139658004 0.098039001
0.679569542 0.141176000 0.102592997
0.730929613 0.138393015 0.103099011
0.785579145 0.131815061 0.098545067
0.840227842 0.122707464 0.101581447
0.902846396 0.105629362 0.096648015
0.954206347 0.085641839 0.088804804
0.987856030 0.057305455 0.082353003
1.000000000 0.011765000 0.082353003
0.106767610 0.067931615 0.083238617
0.118912384 0.070968002 0.089310609
0.131435618 0.073118225 0.085009612
0.150031164 0.069702387 0.084123999
0.171283543 0.065148383 0.083618164
0.192915469 0.070461392 0.086274996
0.217204243 0.067931712 0.081214353
0.233143389 0.070714772 0.077672325
0.250980198 0.072738677 0.074510001
0.273750961 0.071979389 0.075268909
0.294876873 0.075142257 0.078304514
0.316129267 0.081087992 0.076660000
0.337634385 0.086021639 0.078684255
0.358886659 0.090196386 0.082353003
0.369259983 0.096268386 0.082353003
0.400758803 0.099936575 0.087159999
0.417583793 0.106008798 0.088424996
0.433649570 0.115749367 0.091081612
0.454269588 0.127260968 0.089816622
0.489184350 0.128020003 0.097659975
0.522707045 0.132700384 0.093738392
0.554332376 0.140417129 0.097027384
0.593927979 0.142694384 0.101201870
0.636306345 0.148766398 0.104111001
0.684882641 0.152561679 0.106388286
0.735609949 0.151929095 0.107526712
0.788614750 0.145983323 0.103605062
0.843263447 0.131815076 0.101581447
0.895256042 0.122707471 0.096648015
0.948639929 0.103858612 0.095888764
0.985705197 0.080835201 0.091840625
1.000000000 0.048197772 0.085389383
0.103731774 0.089942768 0.082353003
0.120176993 0.090828381 0.084123999
0.134471998 0.089563780 0.083744228
0.149651930 0.092599392 0.080202229
0.169512764 0.089942768 0.080581777
0.192535937 0.092472769 0.083618164
0.212017640 0.093105316 0.079064123
0.231372699 0.091713995 0.074636064
0.247817874 0.095256001 0.073877223
0.273497999 0.093611293 0.076660231
0.297027111 0.096394643 0.079569906
0.314231485 0.097406775 0.080581777
0.332953870 0.102087125 0.080581777
0.353953034 0.105376288 0.082606032
0.370651394 0.111448772 0.084503770
0.392536551 0.117267735 0.087159999
0.418342769 0.121821545 0.091714188
0.433776140 0.128399774 0.092979185
0.459582776 0.134471789 0.094497003
0.486147970 0.141935542 0.094244361
0.518785655 0.145730540 0.097659998
0.553194046 0.150790408 0.096141994
0.593801498 0.153953001 0.101961002
0.634282053 0.160025001 0.102972873
0.679316998 0.163820282 0.101707511
0.733712673 0.162682012 0.106135212
0.786843836 0.157874703 0.104364060
0.839847863 0.145983353 0.098039456
0.893990636 0.138266861 0.094497241
0.945603728 0.123846054 0.095509209
0.984819591 0.103858575 0.096268013
1.000000000 0.080329001 0.088425227
0.100695841 0.117267154 0.079823002
0.118912153 0.116002321 0.081087843
0.133712783 0.116381772 0.077672228
0.150157988 0.114611000 0.074636161
0.166476935 0.117267154 0.075395159
0.190765157 0.117267154 0.079316936
0.209993467 0.117267154 0.081088163
0.227830693 0.116002321 0.072865292
0.244529098 0.116002321 0.070588000
0.270841509 0.116002321 0.075648002
0.292726010 0.117647022 0.080075711
0.313472241 0.122454315 0.082353003
0.332068264 0.121315673 0.084629998
0.347881168 0.123845324 0.084883004
0.368121386 0.127893835 0.086907253
0.394307584 0.133965984 0.091208190
0.415560007 0.137507990 0.092979029
0.433776170 0.143579990 0.095382839
0.461606950 0.144845009 0.097786032
0.487666190 0.154459521 0.097786352
0.518279314 0.159140155 0.097912833
0.551676214 0.164200023 0.097912833
0.593801498 0.167488664 0.103352353
0.633269906 0.174699321 0.104491003
0.677292824 0.177229434 0.102213718
0.724604785 0.177356005 0.102087148
0.781278074 0.171790063 0.106641091
0.832890570 0.164199874 0.099051297
0.888424635 0.157748327 0.092726327
0.941302538 0.145857215 0.096267983
0.984060585 0.129411951 0.096141636
1.000000000 0.111954160 0.088931158
0.097659551 0.144212097 0.074510001
0.115496680 0.141935468 0.076786615
0.129032448 0.142441317 0.075648092
0.144465536 0.144971088 0.070461608
0.162681550 0.144212097 0.068184994
0.186970308 0.144212097 0.074256994
0.206577986 0.144971088 0.081341222
0.225553408 0.143326804 0.080455586
0.244529098 0.140290990 0.071726546
0.265781492 0.140290990 0.071726553
0.283744544 0.141050085 0.077925093
0.303984702 0.145983800 0.081214257
0.325996190 0.150917456 0.084629998
0.349778980 0.148134097 0.090195999
0.367994964 0.148134097 0.090195999
0.394687057 0.153320536 0.095761992
0.420113981 0.156736091 0.098039001
0.438709587 0.156862542 0.098039001
0.456926405 0.162934572 0.098039009
0.483871371 0.174193725 0.101581357
0.515369952 0.179127544 0.104237802
0.552434802 0.180898398 0.106261544
0.592409909 0.183807537 0.106135033
0.632890463 0.192156911 0.108665355
0.677672267 0.194813550 0.107906260
0.724225283 0.193801418 0.106894121
0.773687661 0.190385610 0.108538933
0.825300694 0.187350005 0.105502553
0.881467283 0.181657553 0.097912855
0.935609996 0.171031356 0.097912751
0.978747606 0.156736434 0.101454630
1.000000000 0.144591644 0.086274996
0.094623938 0.168500870 0.074510001
0.109803550 0.171537250 0.071473613
0.121188909 0.169260085 0.080202550
0.137128383 0.171030849 0.081720546
0.159645945 0.174572855 0.077292614
0.177861929 0.168500870 0.080329001
0.199620396 0.173560858 0.078810677
0.222011402 0.173687577 0.079443134
0.244529098 0.169892669 0.078178093
0.265781492 0.164578989 0.080834948
0.281214863 0.170398727 0.089563809
0.300948650 0.171410859 0.090069614
0.322200716 0.172928929 0.089184001
0.343706191 0.172422856 0.090195999
0.361922950 0.172422856 0.090195999
0.382542789 0.179633051 0.099809989
0.408349246 0.185199127 0.101834007
0.432890564 0.186464295 0.098039001
0.453890026 0.184186950 0.098039016
0.483238816 0.193042293 0.106388360
0.509297967 0.198861733 0.108792000
0.539658248 0.203415796 0.109297931
0.577229559 0.211131930 0.109171420
0.628842831 0.211131930 0.106135026
0.678431213 0.214927271 0.108665347
0.726249039 0.216065928 0.107906260
0.773814142 0.214547873 0.105376065
0.828336358 0.208602399 0.099430554
0.879949510 0.202909946 0.096394844
0.932573974 0.195066735 0.092346780
0.976217210 0.184060961 0.091334619
1.000000000 0.171916798 0.086274996
0.099178001 0.195319325 0.082100317
0.106767930 0.195825398 0.079063937
0.121948093 0.198861778 0.082479320
0.135610312 0.197849646 0.088804677
0.156230226 0.200253099 0.085641868
0.172295988 0.196331322 0.084377252
0.195572644 0.195319325 0.082353003
0.218469307 0.199747041 0.082606032
0.241998762 0.199241325 0.083491646
0.263251156 0.196711004 0.084756806
0.281214863 0.197217062 0.086021870
0.298418999 0.197217062 0.097153991
0.321441948 0.197849646 0.098924674
0.344718307 0.199494287 0.100063026
0.358380497 0.201770991 0.097786322
0.383807451 0.204174802 0.095382519
0.406831056 0.208475634 0.100822002
0.431245983 0.211132303 0.099936567
0.450600684 0.213788673 0.105629332
0.482732743 0.216824993 0.111448362
0.520683467 0.224035636 0.116761737
0.552814603 0.226692319 0.116382189
0.589626491 0.231119633 0.114611007
0.636432707 0.235926643 0.109171413
0.685768545 0.235926643 0.108412318
0.737128258 0.238709629 0.107021011
0.785958409 0.239342049 0.102846257
0.838582814 0.235294327 0.098798007
0.893105745 0.229222327 0.100442849
0.942947686 0.221379116 0.097406782
0.981404066 0.213156328 0.091714017
0.997469664 0.204301313 0.083744682
0.095383003 0.222643703 0.094497278
0.106388293 0.222643703 0.084883325
0.115623072 0.223149762 0.086654000
0.130803451 0.223656148 0.091461159
0.149398997 0.223276705 0.091461159
0.168374211 0.221505463 0.088425227
0.189500228 0.222643703 0.088678382
0.217077985 0.217710420 0.093864702
0.238330007 0.221505702 0.094623990
0.256925792 0.223276705 0.092852995
0.281847030 0.223276705 0.094497278
0.293485284 0.224541441 0.096015275
0.311701566 0.222643703 0.103605285
0.337761015 0.224920988 0.106135026
0.358253986 0.226565272 0.105882414
0.380771488 0.226312503 0.104490899
0.408095896 0.230866686 0.104490504
0.433143556 0.231752113 0.103984579
0.454395741 0.236811981 0.109044969
0.478305072 0.240101352 0.117014714
0.515749753 0.245034978 0.119544737
0.559266388 0.250095129 0.122580871
0.598101974 0.250980705 0.120809510
0.645161450 0.257052690 0.116255701
0.691334546 0.261859715 0.108159289
0.741302967 0.261859715 0.105376303
0.793422103 0.264136404 0.100316294
0.846173108 0.262239158 0.098418556
0.898798227 0.256546706 0.097406834
0.954838634 0.248703495 0.095256492
0.990132928 0.240480706 0.091334499
0.997722745 0.234408692 0.080708295
0.085515901 0.248450100 0.108918190
0.098418608 0.247691199 0.094497286
0.110815778 0.249968097 0.090702325
0.122454166 0.248703256 0.093738064
0.139152542 0.246047094 0.097153902
0.163820088 0.246047094 0.095256060
0.184060425 0.247817874 0.094244316
0.207969412 0.245793715 0.102213994
0.235294014 0.240480989 0.110562906
0.247438014 0.246552989 0.104490906
0.276280642 0.246047094 0.105629221
0.293485075 0.247311935 0.106641091
0.305629194 0.249209195 0.106641091
0.324604928 0.249209195 0.106894061
0.354458958 0.249209195 0.109930314
0.377735466 0.249082893 0.112081096
0.402783185 0.247565091 0.112080894
0.430739969 0.254269660 0.115116671
0.458190888 0.257558316 0.112334073
0.479443729 0.262112439 0.117394269
0.510942698 0.265528113 0.121569000
0.550917089 0.270588249 0.122580871
0.596583962 0.273877591 0.125363514
0.645161450 0.280582011 0.122327901
0.692220151 0.285895109 0.113978423
0.741302967 0.288424999 0.104617007
0.792916059 0.288424999 0.098545000
0.847311735 0.288424999 0.098039001
0.898545206 0.284630001 0.094623752
0.955218077 0.278304994 0.092094012
0.996204555 0.270082176 0.088298880
0.999240935 0.264010191 0.082226098
0.082479514 0.269702524 0.121062964
0.088551514 0.266666889 0.108918190
0.101454765 0.272359222 0.103099301
0.116382159 0.276027650 0.102846332
0.133080542 0.273371488 0.106261522
0.160404935 0.273371488 0.112333529
0.177482799 0.273371488 0.105376333
0.196205184 0.271853268 0.108286001
0.217078015 0.270841032 0.116634913
0.235293999 0.276913017 0.113598526
0.261985898 0.274256915 0.110436395
0.283365041 0.273371518 0.109677486
0.303352475 0.273497999 0.109677486
0.327640533 0.273497999 0.109930456
0.354964912 0.273497999 0.112966068
0.372801781 0.278304994 0.118406132
0.392915875 0.277925521 0.119671293
0.418595970 0.275522053 0.118153065
0.448956043 0.284630477 0.121189453
0.476407588 0.293485105 0.118406132
0.510942698 0.296647489 0.119671263
0.550411105 0.297912657 0.122580871
0.590512037 0.301201999 0.125363514
0.639088869 0.310309619 0.122327901
0.687665522 0.314737320 0.117014416
0.738899112 0.315116853 0.110688999
0.792916059 0.312713027 0.104616992
0.844528377 0.312713027 0.098545007
0.893611133 0.312713027 0.092726015
0.951169550 0.310689270 0.092093736
0.996078014 0.306514978 0.094750382
0.996204555 0.300442994 0.097406477
0.073624134 0.296773881 0.109930255
0.076787010 0.293738276 0.109424219
0.095761999 0.292852879 0.108032770
0.111954451 0.295888752 0.110310003
0.126249552 0.294876873 0.115369871
0.148513943 0.294876873 0.121441871
0.168247998 0.292346537 0.109803550
0.188741535 0.298544973 0.113092825
0.212777108 0.301074862 0.124225095
0.237444878 0.298544884 0.125490248
0.261479884 0.298797876 0.125363737
0.282732517 0.297785997 0.124351867
0.299810350 0.298924625 0.124351867
0.319038242 0.300442845 0.124098837
0.346363276 0.297785997 0.121821448
0.368880659 0.302592993 0.120050684
0.394181073 0.305629015 0.124604993
0.421378970 0.304237574 0.127008274
0.442631006 0.308791965 0.130044088
0.475775063 0.312334359 0.124731123
0.509044945 0.319291741 0.127260998
0.547501504 0.323339731 0.129285261
0.587096870 0.328399867 0.128020361
0.630107641 0.334724844 0.119418032
0.685515106 0.341555744 0.111827843
0.735989630 0.343832880 0.105123013
0.787603140 0.343326807 0.100062996
0.841619253 0.345730603 0.098798007
0.893231571 0.343073785 0.095382847
0.945603728 0.339278758 0.091334648
0.989120841 0.333333254 0.088551529
0.993168890 0.325236976 0.083491132
0.064516261 0.320050240 0.118026502
0.067552134 0.319038391 0.113978505
0.085642263 0.316129267 0.112080768
0.107400261 0.317394108 0.113851994
0.121821739 0.318152964 0.117647000
0.141429424 0.318152964 0.120430008
0.160152003 0.319671184 0.124984182
0.184946403 0.318279505 0.121315502
0.208476007 0.326628417 0.130044252
0.232005239 0.324351251 0.129285485
0.256420255 0.324098259 0.125364006
0.278684527 0.322074503 0.129411995
0.298039347 0.323212862 0.131688997
0.315243065 0.325743020 0.133206964
0.337254971 0.322707087 0.130170584
0.367868513 0.324857265 0.129158542
0.389120936 0.330929637 0.127640739
0.417963296 0.332574159 0.130803317
0.437571049 0.335610241 0.131056294
0.471726805 0.338646621 0.131814986
0.508918464 0.339785248 0.125743002
0.546489358 0.346616119 0.127261013
0.586337984 0.353700012 0.123213232
0.632637799 0.359772533 0.117899835
0.680455565 0.365844488 0.112839967
0.736748517 0.369133502 0.105123267
0.787096918 0.370145500 0.099557191
0.840227842 0.374699682 0.098039001
0.892219722 0.374446660 0.093358591
0.943832517 0.374952257 0.088551767
0.986717343 0.368753850 0.084377021
0.996204972 0.359645754 0.076407261
0.042884722 0.346995264 0.130550355
0.051612977 0.346995264 0.127893984
0.070841260 0.347122043 0.126249224
0.096015356 0.344339132 0.122200996
0.114610903 0.346615821 0.122580543
0.133585989 0.345856905 0.123339638
0.154079646 0.347248614 0.127514318
0.175458759 0.349778622 0.133839354
0.202024460 0.349778622 0.139911547
0.219861016 0.352434784 0.135357648
0.246173456 0.351422936 0.128146991
0.271853626 0.350537568 0.129032344
0.291967362 0.350917280 0.133965999
0.314484060 0.353193909 0.139278963
0.338013828 0.349272728 0.136242583
0.362555414 0.351043463 0.136748642
0.393295199 0.352182031 0.134471640
0.415180147 0.359519631 0.134471640
0.436938673 0.364073306 0.131941959
0.472106397 0.367109358 0.133333281
0.510436356 0.372802258 0.130676642
0.550916910 0.373814166 0.127640501
0.590638995 0.382542282 0.121948004
0.637191772 0.388614804 0.117899738
0.688045502 0.394687295 0.112586640
0.738266885 0.400253266 0.107021011
0.791903734 0.400253266 0.100949004
0.842884302 0.405060261 0.097280204
0.896773994 0.405819267 0.089310370
0.948386550 0.404174685 0.086654022
0.985831618 0.406324923 0.082353003
1.000000000 0.397976279 0.076787002
0.003668968 0.382163018 0.134092033
0.020366969 0.382416040 0.135863394
0.043516740 0.384060770 0.139405221
0.071347125 0.385072887 0.139152005
0.099177547 0.382542551 0.134218544
0.120429933 0.379506946 0.137254938
0.143959612 0.379001021 0.137760997
0.167868704 0.380392343 0.139152318
0.188109100 0.382416040 0.142441154
0.203289509 0.382416040 0.148513928
0.232510999 0.379759908 0.141050160
0.262871504 0.379254043 0.139784798
0.288425028 0.380771995 0.142567679
0.307906061 0.386338025 0.145098001
0.344338804 0.380266041 0.142061621
0.366603583 0.381151229 0.143579811
0.390639007 0.381910175 0.142314970
0.420493126 0.381278038 0.138014033
0.444781989 0.393422037 0.138014033
0.480202734 0.397469699 0.138014033
0.518026710 0.405692458 0.133460000
0.559013247 0.415306956 0.129917860
0.601897478 0.418595582 0.132826999
0.644781768 0.424794108 0.127007991
0.696141541 0.430866599 0.118658714
0.749145925 0.436686009 0.109297663
0.801012099 0.441999018 0.100443006
0.849588871 0.441999018 0.094371006
0.905882418 0.441999018 0.083491348
0.959519088 0.438963056 0.079190224
0.996710598 0.434156030 0.081593968
0.999746978 0.434156030 0.081593968
0.000632584 0.403415382 0.143200412
0.000632584 0.406451792 0.131056398
0.010879375 0.404554039 0.137128234
0.033902779 0.405313134 0.141176000
0.066413708 0.407084256 0.140290543
0.102213956 0.409866899 0.143326938
0.123466335 0.409360975 0.143832996
0.153573990 0.409360975 0.143832996
0.183049098 0.409234494 0.144465417
0.203289509 0.406704813 0.145477548
0.227198005 0.406704813 0.148640454
0.256799489 0.410120398 0.147122413
0.281467646 0.411511749 0.147754833
0.298798442 0.410625994 0.148134381
0.332194805 0.410625994 0.145098001
0.356609792 0.409360975 0.144465417
0.380265802 0.413029402 0.143579811
0.409487545 0.416571558 0.141808733
0.441745579 0.420746416 0.147122413
0.477166325 0.427324414 0.147122413
0.511701345 0.432763815 0.137634680
0.551422834 0.441113114 0.128399864
0.598861039 0.448956311 0.126754999
0.650474310 0.458064705 0.126754999
0.700189829 0.464263231 0.118658714
0.751043677 0.468943715 0.108159021
0.801771164 0.472612023 0.097153649
0.858697236 0.475395381 0.088299006
0.912586987 0.475395381 0.082226343
0.962555110 0.475395381 0.073118255
0.996078014 0.472359419 0.070082396
0.996710598 0.467552394 0.072485588
0.000000000 0.434281796 0.145098001
0.000000000 0.434914380 0.149778798
0.000000000 0.435799986 0.137634233
0.007084200 0.434281796 0.142441168
0.030613506 0.435799986 0.144338816
0.067046285 0.436811864 0.149398938
0.105249718 0.437317789 0.145098001
0.133080512 0.437317789 0.145098001
0.166477308 0.438076884 0.144338906
0.191018701 0.438330263 0.142694190
0.222391009 0.440607607 0.145604059
0.246679515 0.440607607 0.148640454
0.275142640 0.442504942 0.149020001
0.296141982 0.439974606 0.149526000
0.323086590 0.442125410 0.152941391
0.349272788 0.444528610 0.149904996
0.378115386 0.441492617 0.146869004
0.407463789 0.444022566 0.144212380
0.435547024 0.448829770 0.148513928
0.476533741 0.454648793 0.144212395
0.518659174 0.460720778 0.144212395
0.557115853 0.466793031 0.134598196
0.602909625 0.474636555 0.129791006
0.652245522 0.486021668 0.120682999
0.703858078 0.492852777 0.113851711
0.755471170 0.498924792 0.104743697
0.805566192 0.502972662 0.095129743
0.859456241 0.506009042 0.089816652
0.909677565 0.508791745 0.071347341
0.962555110 0.507021010 0.068817005
0.995192647 0.506388605 0.061606593
0.993674815 0.503352582 0.058570206
0.000000000 0.466160387 0.143579811
0.000000000 0.467678577 0.152688205
0.000000000 0.464642555 0.151296839
0.000000000 0.468437403 0.144212380
0.004807003 0.469575912 0.146616191
0.027577499 0.470714569 0.150411204
0.066539943 0.469196379 0.150916994
0.113345928 0.469196379 0.146616191
0.147501811 0.468437463 0.146616191
0.177103117 0.469955862 0.144338891
0.208728671 0.472991854 0.145604059
0.239089310 0.475522190 0.141049877
0.265655100 0.475522190 0.146363258
0.292600006 0.473118365 0.148007810
0.314357996 0.474889606 0.154079810
0.347754568 0.476407588 0.149904996
0.373561174 0.477925390 0.149905011
0.408728927 0.473750770 0.145098001
0.434788257 0.478937179 0.147248760
0.472738922 0.481973201 0.141935483
0.514104962 0.491081566 0.138140008
0.558634043 0.498165429 0.137128145
0.601391792 0.504870474 0.131309181
0.649968565 0.515623212 0.119164810
0.705376267 0.521695375 0.106261909
0.755597293 0.526375711 0.098545201
0.807590067 0.532321155 0.088551939
0.860215247 0.536369443 0.081467561
0.909171581 0.540923357 0.065528207
0.959519088 0.538899243 0.052118815
0.996963620 0.537634611 0.051233433
0.995193005 0.538267195 0.043390203
0.000000000 0.498418540 0.140543580
0.000000000 0.501454949 0.149019405
0.000000000 0.499937087 0.150790781
0.000632576 0.498924941 0.147754848
0.000253028 0.506894112 0.147754848
0.000000000 0.509677470 0.147754848
0.025300367 0.507653356 0.150284693
0.066666581 0.506261706 0.150031567
0.121821895 0.506135225 0.147122428
0.158253908 0.503099620 0.147122428
0.194560170 0.505882263 0.147122428
0.224920943 0.508285761 0.142821044
0.255914122 0.509551108 0.136116058
0.287033945 0.510563135 0.144718453
0.307906538 0.512081087 0.150411010
0.340923607 0.510816097 0.144465208
0.377103209 0.510816097 0.140796617
0.406325132 0.510183513 0.143833011
0.436685979 0.513219178 0.143832996
0.472612739 0.513472140 0.139532000
0.510310113 0.520430028 0.134724841
0.550790668 0.531562567 0.130423561
0.594054401 0.540670216 0.127134919
0.644655347 0.549778461 0.115496196
0.701707542 0.554332793 0.102340296
0.754964888 0.559266448 0.088172443
0.804553747 0.561796129 0.081088305
0.859203160 0.567615092 0.066034414
0.908538997 0.573054671 0.048956640
0.956989110 0.572675109 0.036685836
0.996963620 0.567362130 0.029348493
1.000000000 0.570398569 0.026312876
0.000000000 0.537887037 0.137507960
0.000000000 0.540923417 0.143579945
0.000000000 0.543959796 0.147754744
0.001265160 0.546236813 0.146489650
0.003289417 0.549399018 0.141682044
0.000253033 0.549399018 0.141682044
0.002530320 0.547122359 0.144212365
0.020113967 0.545730948 0.143959269
0.056040272 0.545730948 0.140923142
0.115749031 0.545604467 0.138014019
0.172548607 0.548387170 0.138014019
0.209740490 0.549399018 0.142062023
0.241239652 0.548513651 0.143200308
0.274889141 0.546995997 0.141682044
0.314358264 0.559139967 0.144718423
0.337634772 0.555851042 0.138393179
0.366730183 0.553321004 0.133838981
0.400253117 0.552688420 0.134724587
0.436686009 0.549652040 0.137760967
0.472612768 0.549905002 0.137760967
0.509044945 0.555597723 0.133459970
0.547754288 0.564959168 0.126628816
0.591018081 0.574067414 0.118026510
0.651739657 0.583175063 0.108918101
0.709171236 0.587729275 0.099557258
0.758759975 0.594939947 0.084377319
0.801518083 0.604300976 0.065907866
0.856166780 0.604300976 0.053763106
0.905502617 0.607463837 0.030740090
0.950537324 0.607210755 0.014295060
0.985831559 0.603035986 0.005060393
1.000000000 0.597723067 0.002024066
0.000000000 0.605186820 0.134471640
0.000000000 0.605439842 0.134977639
0.000000000 0.606325448 0.132447645
0.000000000 0.607464075 0.132321268
0.001138643 0.608602464 0.130043983
0.000506064 0.608602464 0.130043983
0.000000000 0.608602464 0.130043983
0.001138643 0.604174674 0.129538342
0.012523731 0.601897418 0.128020242
0.038836263 0.601897418 0.129032120
0.130043864 0.607590556 0.128905639
0.187729001 0.604553938 0.130929902
0.226059273 0.605313003 0.130550340
0.261226743 0.606958032 0.124224946
0.313346207 0.603921354 0.122200690
0.350410968 0.611258984 0.125237077
0.375079066 0.611258924 0.122200988
0.408475667 0.611258745 0.120935999
0.455661327 0.606072128 0.117520593
0.489310771 0.611385107 0.120556273
0.527640700 0.609487832 0.116761275
0.567994714 0.613029957 0.110689275
0.612650216 0.618469357 0.103099138
0.665401995 0.624920845 0.088677727
0.719291627 0.634029031 0.070461355
0.771789610 0.638077438 0.056546614
0.816445172 0.644023120 0.039089564
0.864263177 0.644023120 0.024668086
0.918911874 0.644023120 0.017836992
0.964199722 0.643390536 0.008475992
0.994307339 0.641239703 0.003922000
1.000000000 0.638962746 0.002783357
0.000000000 0.654142976 0.114358015
0.000000000 0.654142976 0.118153013
0.001897740 0.654142976 0.119544268
0.000632579 0.655408144 0.110942267
0.000000000 0.655281723 0.108791821
0.000000000 0.652245700 0.110310011
0.000000000 0.659835696 0.114105009
0.001644708 0.659835696 0.109171301
0.001138645 0.655787170 0.107147627
0.005692779 0.655787170 0.110183530
0.043137431 0.654016495 0.102719538
0.143327013 0.657685399 0.112333789
0.205566198 0.653889954 0.114231527
0.249082774 0.657938480 0.107653268
0.298798144 0.655155122 0.102972597
0.340923727 0.654902101 0.100948818
0.380392134 0.660974503 0.102467015
0.412017822 0.662492216 0.102467015
0.462365925 0.656420171 0.098925002
0.504870355 0.657685220 0.093611665
0.540164411 0.661859453 0.096647277
0.579632819 0.658823848 0.088551275
0.623655736 0.660215259 0.080581769
0.675268948 0.666287184 0.068943366
0.724984288 0.670840979 0.051106736
