Assets/EldamarStudio/100 Retro LUTs Pack/LUTs/cube/Rebecca LUT.cube
LUT_3D_SIZE 8
DOMAIN_MIN 0.000000 0.000000 0.000000
DOMAIN_MAX 0.903226 0.903226 0.903226
0.109803997 0.058823999 0.086274996
0.171663091 0.043136999 0.086274996
0.255534172 0.044654999 0.075268902
0.332321286 0.068944000 0.076787002
0.416065991 0.090828799 0.086907193
0.524984002 0.123212732 0.089942992
0.679569542 0.141176000 0.102592997
0.902846396 0.105629362 0.096648015
0.097659551 0.144212097 0.074510001
0.162681550 0.144212097 0.068184994
0.244529098 0.140290990 0.071726546
0.325996190 0.150917456 0.084629998
0.420113981 0.156736091 0.098039001
0.515369952 0.179127544 0.104237802
0.677672267 0.194813550 0.107906260
0.881467283 0.181657553 0.097912855
0.085515901 0.248450100 0.108918190
0.139152542 0.246047094 0.097153902
0.235294014 0.240480989 0.110562906
0.305629194 0.249209195 0.106641091
0.402783185 0.247565091 0.112080894
0.510942698 0.265528113 0.121569000
0.692220151 0.285895109 0.113978423
0.898545206 0.284630001 0.094623752
0.042884722 0.346995264 0.130550355
0.114610903 0.346615821 0.122580543
0.202024460 0.349778622 0.139911547
0.291967362 0.350917280 0.133965999
0.393295199 0.352182031 0.134471640
0.510436356 0.372802258 0.130676642
0.688045502 0.394687295 0.112586640
0.896773994 0.405819267 0.089310370
0.000000000 0.466160387 0.143579811
0.004807003 0.469575912 0.146616191
0.147501811 0.468437463 0.146616191
0.265655100 0.475522190 0.146363258
0.373561174 0.477925390 0.149905011
0.514104962 0.491081566 0.138140008
0.705376267 0.521695375 0.106261909
0.909171581 0.540923357 0.065528207
0.000000000 0.654142976 0.114358015
0.000000000 0.655281723 0.108791821
0.001138645 0.655787170 0.107147627
0.205566198 0.653889954 0.114231527
0.380392134 0.660974503 0.102467015
0.540164411 0.661859453 0.096647277
0.724984288 0.670840979 0.051106736
0.924225271 0.681594014 0.006452012
0.006831284 0.825679839 0.000000000
0.000758999 0.829854310 0.000000000
0.000000000 0.833523273 0.000000001
0.012523632 0.839089274 0.001644712
0.351549566 0.827956557 0.006451908
0.550664365 0.827577055 0.003668552
0.738393545 0.827324569 0.001644712
0.919165075 0.819860995 0.002530012
0.002530012 0.967741609 0.005312988
0.002277285 0.972549260 0.006831273
0.001897736 0.967615783 0.008855014
0.008349358 0.962808132 0.003035990
0.288677961 0.963820636 0.003795180
0.532700539 0.960530877 0.001265167
0.729032397 0.951422930 0.002530012
0.902339756 0.944085777 0.002530012
0.085895449 0.058444452 0.184187084
0.166603550 0.043516546 0.172801644
0.254775077 0.059962451 0.176723540
0.325237185 0.089690350 0.168121547
0.403162628 0.109297544 0.182289734
0.514231563 0.128905535 0.185325727
0.672865093 0.134218708 0.179633081
0.890069306 0.080834955 0.180012837
0.090575546 0.144212082 0.176723540
0.150537997 0.148134083 0.172042638
0.237065554 0.144971102 0.169639558
0.314990282 0.153953463 0.183428183
0.401264995 0.163820103 0.185073003
0.507527173 0.176723734 0.180645540
0.661606848 0.184566826 0.179633081
0.872359335 0.166097283 0.175205544
0.078431100 0.245288000 0.181783989
0.140037552 0.251992553 0.190891638
0.222264543 0.242884099 0.180265993
0.299304217 0.245667458 0.182922438
0.398481727 0.253890097 0.186590999
0.507527173 0.264010191 0.189247355
0.680834830 0.279316843 0.183554992
0.890069485 0.272739112 0.173181370
0.027830720 0.341556102 0.191144988
0.101707555 0.341556102 0.197470099
0.190891653 0.344718277 0.201517910
0.291967332 0.342315227 0.199114099
0.382668942 0.350537628 0.198355198
0.507400393 0.370904624 0.194939643
0.674130082 0.388994545 0.184060544
0.888804495 0.393168986 0.161669910
0.000000000 0.457052827 0.196078107
0.005186551 0.458950162 0.200506195
0.134219006 0.469323397 0.199873284
0.258317620 0.469196498 0.205819443
0.368627548 0.469575912 0.208602205
0.502213895 0.483238488 0.188488349
0.692093551 0.518152952 0.164326459
0.902972579 0.531815290 0.149019703
0.000758999 0.640607297 0.174319804
0.000000000 0.650727451 0.175711602
0.000000000 0.648450255 0.178241804
0.192662448 0.648450375 0.175964624
0.369639367 0.652751207 0.161796212
0.530676663 0.655914187 0.159519017
0.714357853 0.668311179 0.139911532
0.920176744 0.680075824 0.104870550
0.000379548 0.818595827 0.077419281
0.000000000 0.825806320 0.075268537
0.003289004 0.823908627 0.067552246
0.006325001 0.822390556 0.061986346
0.333839297 0.826944947 0.052119061
0.543453455 0.820493102 0.038962558
0.730929971 0.820240557 0.023908988
0.916761100 0.814041853 0.003162908
0.007463740 0.968374610 0.003289012
0.000379548 0.968754053 0.004553989
0.004427750 0.966350615 0.005692726
0.000000000 0.963314295 0.004554085
0.272232473 0.962934673 0.008349455
0.526628554 0.957241774 0.000000000
0.723213017 0.948766708 0.006704553
0.899809778 0.938899636 0.003415832
0.065149002 0.043896094 0.292346984
0.144339010 0.045034546 0.289184093
0.228083193 0.068185002 0.283618182
0.317520201 0.094497450 0.285262108
0.400506079 0.116761185 0.286021173
0.508286059 0.123592742 0.287918925
0.676280558 0.078178532 0.293864995
0.892726302 0.001265168 0.276533991
0.076154001 0.137507632 0.284503192
0.138393551 0.140670553 0.286780179
0.219481096 0.152055994 0.288424999
0.303352177 0.157874539 0.288425088
0.387097090 0.172042727 0.284882754
0.502973080 0.173687354 0.286021203
0.668184996 0.156736165 0.288045555
0.885262251 0.086907126 0.278810650
0.054269806 0.234282076 0.295509070
0.112586647 0.249209106 0.285641730
0.201518014 0.246047094 0.291587919
0.295508981 0.249588743 0.289563656
0.387096971 0.252371907 0.286907017
0.504491031 0.258190870 0.285389125
0.680328667 0.260215104 0.280582011
0.895761669 0.238962755 0.275269032
0.002783357 0.343959183 0.285515726
0.074130714 0.341556072 0.285262197
0.185452461 0.343579620 0.291461170
0.275774986 0.346742541 0.288045555
0.373307824 0.350158066 0.288804650
0.498292089 0.364579558 0.284503192
0.678431630 0.379127204 0.278684527
0.893105447 0.370651364 0.262871623
0.000000000 0.457558274 0.283618003
0.001897643 0.459456027 0.281341016
0.097532906 0.462998271 0.289943188
0.240986526 0.462491989 0.284503281
0.361923099 0.466919482 0.283617973
0.502213717 0.484124184 0.282226175
0.694370747 0.509044945 0.270588219
0.906894505 0.522201002 0.249968290
0.000000000 0.641492605 0.267805338
0.002277191 0.646805644 0.274889529
0.000759096 0.646046460 0.271094441
0.140037715 0.647691250 0.267046452
0.356356561 0.653636873 0.265022367
0.522833467 0.649715245 0.255281448
0.717140615 0.661733449 0.235167712
0.920935988 0.672232449 0.225553364
0.003289004 0.819481552 0.207969710
0.006704549 0.821758389 0.204933822
0.002277288 0.828969300 0.211890906
0.000759000 0.824667871 0.206325099
0.309298158 0.822517514 0.197722912
0.532700896 0.825300336 0.192409918
0.732068360 0.820240438 0.184566632
0.915369511 0.814548016 0.169006735
0.000759096 0.964326382 0.143074155
0.000379548 0.965464890 0.152941227
0.002530013 0.965844333 0.154206380
0.000000000 0.965971053 0.150031745
0.223529503 0.960404694 0.145350933
0.510563076 0.955218017 0.136242986
0.712966383 0.954585433 0.127640724
0.901074946 0.943200648 0.119418040
0.024035357 0.050980002 0.390638620
0.109044895 0.056799546 0.398861289
0.206957996 0.075268902 0.394181103
0.302592993 0.095256351 0.398481637
0.389373988 0.121569000 0.394813448
0.503099203 0.124098808 0.399999648
0.679569542 0.056673154 0.419228256
0.900316000 0.001138644 0.423782647
0.032384716 0.144591644 0.385452181
0.102719910 0.143453196 0.388741195
0.195951998 0.152435541 0.387476623
0.290069908 0.157874554 0.395445734
0.380012304 0.175205633 0.389500201
0.497406572 0.166603461 0.403668195
0.669576287 0.128399625 0.407716632
0.895509183 0.000759096 0.403288901
0.006704549 0.246932089 0.396458179
0.082100257 0.242125198 0.390133202
0.187855452 0.241745740 0.397849530
0.276154548 0.249209195 0.393042564
0.379632831 0.255913615 0.392663091
0.503858089 0.246552840 0.395698965
0.690448940 0.219734102 0.394180983
0.911068678 0.119797751 0.382542998
0.005566002 0.346362978 0.385578990
0.011891004 0.346363008 0.392536163
0.149525553 0.342820704 0.394181103
0.262239367 0.348640293 0.391777277
0.374320179 0.343579650 0.383554727
0.507779777 0.346236259 0.383301884
0.696521103 0.343579918 0.381150931
0.917520285 0.325237095 0.374066651
0.000379548 0.461480200 0.400632292
0.001897547 0.463503838 0.392789751
0.009993562 0.465401560 0.393422008
0.210878998 0.464895844 0.391145110
0.353320301 0.465654820 0.384313822
0.509424508 0.480961204 0.376217186
0.710815728 0.493990719 0.363820195
0.919544518 0.493990928 0.356356740
0.002783356 0.641745746 0.384693533
0.003162904 0.643769562 0.378873944
0.000379548 0.649209440 0.373940408
0.003162906 0.648829818 0.367488980
0.325743258 0.648829818 0.366097182
0.530297220 0.647817492 0.371663392
0.726882041 0.659076810 0.351170182
0.930676818 0.657811761 0.342567891
0.002783356 0.823402584 0.334471643
0.000379548 0.824288249 0.338266939
0.000379548 0.826059282 0.328779429
0.002277288 0.827956557 0.328399718
0.238203540 0.827704012 0.327894002
0.519797683 0.824161708 0.324731112
0.730044127 0.820619941 0.315496653
0.930676699 0.807083964 0.312966287
0.001518189 0.962049067 0.303984791
0.002530012 0.967109501 0.314105093
0.000000000 0.970904648 0.312586904
0.002783356 0.963946819 0.307906479
0.107147634 0.961796403 0.296647847
0.484756410 0.958886743 0.303352416
0.707147360 0.948007762 0.287918925
0.907526970 0.944971800 0.292093277
0.001518192 0.060341805 0.526502192
0.043896362 0.063883640 0.511448383
0.173940092 0.083238803 0.516255379
0.286780179 0.093738355 0.510816097
0.386211187 0.115243196 0.524098396
0.498924673 0.118153073 0.518532574
0.677925289 0.036432549 0.549905062
0.898671746 0.001265167 0.572675586
0.002276998 0.146995455 0.515243530
0.029854368 0.152055994 0.520303369
0.171030998 0.153194353 0.514611185
0.280582100 0.158001468 0.512713552
0.387476474 0.166983008 0.512713611
0.495256126 0.166224003 0.513851941
0.673118472 0.114864275 0.547122002
0.895508885 0.001265167 0.554459155
0.002403808 0.242125288 0.524225295
0.004301355 0.247311741 0.522200882
0.144339100 0.242125094 0.517773390
0.260847181 0.247311756 0.514357805
0.373687267 0.253257275 0.508412361
0.498924583 0.244528905 0.522454262
0.692093551 0.205692634 0.542947412
0.911448538 0.071094438 0.549778521
0.001138644 0.351043493 0.511069000
0.000759096 0.354206264 0.511827946
0.054016642 0.347881198 0.520936251
0.236432448 0.341935635 0.516761482
0.364326388 0.343959272 0.513852239
0.506134987 0.335357189 0.517773390
0.707020938 0.308159292 0.524098694
0.923972309 0.254143208 0.519038737
0.002403808 0.456546366 0.509045184
0.000379548 0.463377744 0.517394006
0.000759096 0.466160566 0.518659174
0.156736165 0.464136720 0.518659174
0.333712965 0.466793180 0.506894171
0.522454202 0.459456116 0.502466738
0.732700706 0.460594445 0.502973139
0.944844723 0.441619545 0.497786015
0.002024260 0.642630994 0.535230875
0.001518192 0.643010557 0.532827377
0.000759096 0.644528508 0.525237083
0.002656546 0.647691250 0.516002655
0.265907854 0.647691309 0.509044886
0.513852000 0.652371764 0.498671621
0.750411153 0.647817671 0.497027099
0.941429555 0.637571454 0.489437371
0.000759096 0.824161649 0.504490972
0.002403808 0.827197790 0.502213717
0.000000000 0.832764149 0.495129555
0.004174738 0.828969002 0.483870715
0.080582112 0.831245959 0.480961174
0.487919211 0.826945007 0.475268811
0.732068360 0.821884632 0.470082194
0.929917514 0.803036094 0.461606652
0.002276991 0.965085447 0.478937328
0.002656539 0.967995226 0.481214643
0.003162904 0.967868507 0.478810817
0.001265167 0.969386399 0.475268722
0.058443904 0.963440776 0.469323188
0.469196737 0.956862330 0.464010000
0.703352571 0.949398816 0.470208526
0.904490709 0.940417409 0.463883549
0.001897740 0.058950003 0.673497438
0.000379548 0.063251451 0.671347260
0.144971281 0.068184994 0.683112025
0.283870727 0.080202520 0.670841217
0.403795183 0.082985461 0.670081973
0.536369503 0.075016014 0.667678714
0.680455029 0.026312452 0.670335472
0.898418427 0.003415731 0.690322578
0.000000000 0.139532000 0.664769411
0.006072264 0.142314747 0.671347499
0.117014453 0.143073738 0.667299271
0.265781015 0.147881076 0.670208812
0.397343636 0.146995544 0.668817103
0.522580683 0.138266817 0.669829488
0.678557515 0.095129542 0.672991514
0.894370496 0.001517991 0.684503555
0.002024260 0.236306354 0.678684115
0.005566196 0.243010908 0.671726763
0.023276461 0.240227833 0.677925169
0.245667443 0.240227640 0.670841217
0.391524374 0.235167906 0.670208871
0.529664814 0.225047097 0.664263487
0.691334426 0.190512180 0.671347380
0.915749490 0.043010969 0.689057469
0.000000000 0.360784531 0.671726704
0.000758999 0.350537509 0.671347380
0.004427552 0.340290934 0.670967937
0.180265799 0.335357279 0.667046070
0.361290008 0.333333552 0.666793168
0.526628494 0.324984282 0.663630486
0.706514716 0.296268255 0.666160762
0.925996184 0.240733728 0.675142467
0.000000000 0.492726386 0.667678714
0.002024260 0.483112156 0.669323087
0.002024261 0.481594265 0.675268531
0.002276998 0.471979827 0.669323027
0.302466691 0.456925899 0.672612250
0.513345897 0.455914170 0.663377643
0.734977603 0.440354377 0.661227107
0.946489215 0.412776470 0.653763592
0.000000000 0.646173418 0.669955432
0.001518192 0.644022703 0.670208931
0.006198998 0.646173477 0.671347499
0.001138644 0.642631114 0.673371255
0.204554111 0.647564650 0.661480010
0.508412480 0.638330460 0.661859453
0.739658535 0.636179745 0.654395998
0.939784884 0.624415219 0.650980532
0.002403711 0.818469286 0.665148616
0.003289004 0.821126044 0.661859572
0.000759000 0.820746481 0.659329593
0.003289004 0.826944828 0.650980473
0.066033900 0.825300336 0.647185206
0.489943177 0.823656023 0.647944212
0.735357046 0.819860995 0.643769741
0.924731135 0.802277029 0.634155929
0.004174823 0.962428629 0.640986502
0.001644715 0.966223836 0.633776009
0.003542165 0.963946760 0.633143544
0.001517999 0.966350615 0.640733540
0.135104001 0.960657895 0.639215767
0.501834273 0.953446805 0.643769443
0.720935881 0.945857108 0.638962686
0.911574781 0.936875343 0.639089406
0.000000000 0.048703294 0.821125865
0.000000000 0.050221004 0.823023140
0.084123820 0.050348002 0.825174153
0.278052002 0.046932362 0.816192508
0.422770381 0.026438821 0.817457438
0.574699759 0.000000000 0.813155830
0.730550587 0.000000000 0.812650263
0.908918321 0.001644712 0.808348835
0.000000000 0.135610089 0.820746303
0.005439708 0.128020093 0.820493102
0.039721757 0.132953748 0.816192389
0.269449890 0.127893910 0.819481552
0.413535655 0.119038552 0.812144160
0.572043121 0.078304633 0.811891079
0.730423510 0.001644712 0.812397242
0.895888448 0.000000000 0.803542078
0.003035998 0.230613708 0.821758509
0.005819256 0.230739832 0.823655844
0.003162904 0.230360284 0.822517514
0.228336543 0.225806296 0.812650084
0.403415561 0.222011194 0.822896898
0.556483090 0.193801299 0.812776327
0.733459830 0.145730346 0.812270522
0.920935571 0.014168394 0.811132252
0.000000000 0.340797007 0.816192269
0.001644712 0.335989922 0.816951334
0.002783259 0.329791188 0.816824853
0.111448295 0.325616658 0.818975210
0.360278279 0.321694911 0.816065848
0.544591963 0.304111183 0.814800680
0.731182516 0.279569656 0.810499668
0.927008033 0.215939313 0.803288937
0.002403808 0.487286180 0.817963362
0.000379548 0.483870804 0.816571474
0.007969713 0.470714569 0.814800858
0.000000000 0.453889936 0.820746064
0.288045675 0.447311878 0.805313170
0.523719132 0.439342082 0.811511636
0.741429508 0.426186085 0.807843268
0.942061782 0.405313104 0.796458006
0.002277288 0.644022763 0.811511576
0.000758999 0.650853753 0.818722546
0.005566002 0.642251492 0.815180302
0.003542452 0.638709962 0.810120225
0.164706007 0.632890761 0.812270701
0.506894648 0.629980922 0.807969570
0.744338751 0.626438916 0.798987806
0.940923333 0.622390985 0.799620628
0.003289004 0.815559566 0.806072295
0.001897740 0.816192567 0.801770806
0.001518193 0.813029826 0.797596276
0.000000000 0.822770536 0.800885558
0.071347289 0.813915253 0.803036273
0.500316024 0.813535810 0.792156577
0.754712105 0.810626268 0.793042302
0.919924259 0.807969987 0.787602842
0.000379544 0.962808192 0.761669874
0.003794996 0.961922824 0.774572909
0.002530012 0.958380461 0.775711417
0.005439802 0.957242072 0.778367996
0.205565676 0.954585612 0.779127121
0.584566891 0.943579912 0.788614750
0.767488956 0.938266933 0.790006340
0.913472652 0.937507987 0.798102379
0.005186845 0.045793831 0.946742654
0.000000000 0.043136999 0.942820966
0.008855216 0.041872155 0.945350945
0.220113769 0.031625725 0.943959653
0.400379568 0.003922000 0.942314982
0.556609869 0.001897740 0.940923750
0.731056571 0.000000000 0.934471726
0.899809778 0.000000000 0.937634468
0.002277285 0.122707263 0.945477784
0.000000000 0.125110850 0.942441523
0.008348983 0.121568717 0.953067303
0.210626468 0.116635181 0.941682756
0.391144902 0.099304549 0.941176116
0.553826511 0.044022888 0.940037847
0.720050573 0.001897740 0.939658523
0.897533059 0.002277285 0.932954013
0.003415734 0.225426838 0.946995795
0.001138547 0.224667639 0.943833053
0.000000000 0.225426838 0.941302955
0.158254474 0.216318816 0.946109951
0.364705741 0.207716912 0.941303194
0.543959618 0.184566632 0.943959653
0.722074509 0.123466022 0.942441523
0.903731763 0.002024274 0.937760770
0.000000000 0.326375455 0.938772798
0.001518189 0.323466271 0.938772798
0.000759096 0.327261180 0.948893070
0.000000000 0.321442008 0.937634468
0.326502383 0.311574847 0.945730686
0.520556688 0.295129657 0.936748981
0.712586939 0.265401632 0.933965504
0.903478742 0.211132467 0.934598148
0.002403808 0.457685381 0.937760949
0.001644715 0.456546545 0.946742415
0.003668653 0.447691470 0.943453491
0.001138640 0.443263561 0.946742177
0.245920628 0.436432391 0.941808820
0.495762378 0.431625366 0.942441523
0.704996526 0.418595701 0.932953537
0.909171283 0.399241179 0.934471965
0.005060164 0.616065800 0.948007643
0.000000000 0.620493412 0.940290689
0.001265168 0.613915265 0.939152300
0.001897736 0.615053535 0.940037787
0.179759175 0.620240450 0.940796852
0.499936581 0.626945198 0.936242759
0.716129065 0.619860649 0.932700396
0.912713647 0.620493174 0.929917812
0.000379544 0.778747559 0.924857736
0.000000000 0.783554792 0.928399682
0.003415734 0.780897915 0.929917693
0.004807010 0.784313560 0.923972249
0.140796676 0.792536378 0.928272963
0.535990059 0.798355460 0.920936227
0.753067791 0.805313170 0.922580838
0.916761637 0.811005771 0.924984038
0.000000000 0.940164804 0.920682967
0.000000000 0.946995497 0.925995946
0.004680902 0.937001944 0.925237060
0.002276998 0.944465637 0.925616741
0.319164515 0.940417409 0.922327638
0.608728528 0.940796912 0.924730897
0.791524470 0.934977651 0.921947777
0.914104819 0.933712780 0.918026805
