Assets/EldamarStudio/100 Retro LUTs Pack/LUTs/cube/Rebecca LUT.cube
LUT_3D_SIZE 5
DOMAIN_MIN 0.000000 0.000000 0.000000
DOMAIN_MAX 0.903226 0.903226 0.903226
0.109803997 0.058823999 0.086274996
0.235040694 0.043136999 0.079064004
0.375331968 0.081087999 0.082353003
0.554332376 0.133332998 0.098039001
0.902846396 0.105629362 0.096648015
0.095383003 0.222643703 0.094497278
0.217077985 0.217710420 0.093864702
0.358253986 0.226565272 0.105882414
0.559266388 0.250095129 0.122580871
0.898798227 0.256546706 0.097406834
0.000632584 0.403415382 0.143200412
0.153573990 0.409360975 0.143832996
0.332194805 0.410625994 0.145098001
0.551422834 0.441113114 0.128399864
0.912586987 0.475395381 0.082226343
0.000000000 0.694623232 0.087033875
0.000632580 0.704364240 0.085895173
0.282479376 0.702467263 0.078304887
0.586717248 0.703352094 0.058190763
0.926755309 0.718279541 0.005186845
0.002530012 0.967741609 0.005312988
0.001644708 0.968374670 0.003288997
0.063377589 0.965085447 0.000000000
0.579759538 0.961036921 0.001265167
0.902339756 0.944085777 0.002530012
0.075775005 0.049968295 0.268058419
0.212144285 0.059835702 0.258570701
0.354712099 0.106261700 0.256926000
0.554585874 0.120809585 0.266160399
0.898798227 0.013662510 0.256293416
0.061100710 0.218342990 0.265148699
0.190891996 0.220999420 0.268058419
0.347501695 0.228209972 0.264136821
0.548513532 0.238962695 0.262871414
0.892978847 0.219481587 0.247438535
0.003921581 0.400506109 0.268311322
0.132321298 0.402782977 0.271347404
0.323339701 0.404427677 0.276533991
0.547501385 0.433522969 0.256546557
0.914484143 0.451865792 0.234661579
0.000000000 0.685768366 0.237191990
0.002023998 0.693611324 0.234914705
0.251106948 0.693864405 0.227324575
0.581277847 0.700822115 0.213535592
0.920177042 0.712713301 0.186337873
0.002277292 0.967615783 0.097786456
0.000000000 0.967362523 0.108412430
0.002277292 0.964326382 0.093738295
0.570272267 0.955217779 0.080834761
0.902339816 0.944465697 0.052878171
0.002530012 0.057558831 0.455154806
0.167994991 0.071600288 0.446552396
0.340037793 0.107906409 0.443263829
0.539278924 0.120809577 0.458443820
0.893611431 0.000632584 0.490448803
0.003288997 0.220366985 0.453763396
0.143453717 0.222264409 0.444655389
0.327893674 0.227198109 0.447565109
0.537634611 0.219607994 0.467172682
0.906261861 0.046806119 0.471726686
0.000000000 0.394939810 0.444022387
0.023655899 0.399241090 0.445287824
0.290322810 0.399494410 0.445919961
0.566223800 0.398861796 0.439721674
0.922833323 0.383807570 0.421631575
0.000000000 0.685768366 0.448197246
0.002277292 0.688045621 0.434787929
0.073244967 0.690069258 0.422390968
0.571030796 0.693358243 0.420999557
0.937254727 0.689563572 0.397849232
0.003289417 0.965718210 0.390385538
0.008855285 0.965338528 0.388741076
0.001265006 0.965085626 0.385831803
0.540923238 0.954965055 0.379000515
0.903099179 0.940164804 0.372801781
0.002909872 0.055914126 0.719038367
0.073624097 0.062365707 0.714484334
0.348639816 0.072106130 0.714864254
0.580898285 0.044655755 0.709171116
0.898924410 0.002656833 0.722960114
0.000000000 0.211511701 0.715370238
0.002277292 0.214421555 0.714610875
0.328020096 0.211511701 0.709550798
0.577988327 0.193674713 0.704996824
0.919291377 0.001265167 0.720430374
0.000000000 0.424035698 0.707653224
0.001012128 0.413156420 0.716381967
0.225553393 0.394307405 0.709550858
0.577988863 0.377608955 0.707906544
0.942820847 0.321062386 0.702846408
0.000000000 0.689690113 0.703352153
0.006451582 0.694244146 0.702972829
0.001644712 0.690701783 0.703226149
0.573181510 0.681847095 0.699304104
0.933459640 0.677546263 0.687666118
0.002909872 0.960910797 0.670082450
0.002277124 0.965717793 0.671600461
0.002909718 0.957747757 0.676786900
0.579253674 0.950663984 0.682479501
0.916634917 0.936875343 0.679570079
0.005186845 0.045793831 0.946742654
0.001265167 0.041872155 0.942820966
0.320429981 0.016318584 0.940923333
0.595066428 0.001644704 0.939152658
0.899809778 0.000000000 0.937634468
0.002656833 0.200379536 0.946742654
0.000000000 0.200126559 0.945857048
0.287033409 0.187982276 0.939532042
0.593801320 0.139784992 0.943453550
0.901454508 0.000000000 0.937507927
0.000632584 0.384439975 0.946742654
0.001265006 0.380265683 0.943832874
0.121062398 0.375331968 0.940037787
0.564326286 0.357368678 0.941176534
0.903604984 0.308791816 0.937634468
0.003288990 0.657052636 0.942694306
0.000000000 0.661733210 0.934598029
0.000000000 0.662745118 0.938013732
0.565970838 0.675521970 0.931688786
0.916761577 0.672106385 0.928146482
0.000000000 0.940164804 0.920682967
0.001644708 0.939278901 0.926754951
0.113472365 0.942188382 0.921821654
0.659076452 0.939531803 0.919671059
0.914104819 0.933712780 0.918026805
