Assets/EldamarStudio/100 Retro LUTs Pack/LUTs/cube/Richard LUT.cube
LUT_3D_SIZE 5
DOMAIN_MIN 0.000000 0.000000 0.000000
DOMAIN_MAX 0.903226 0.903226 0.903226
0.141176000 0.098039001 0.074510001
0.175837994 0.124857992 0.101327993
0.237318411 0.178494409 0.151043415
0.322707146 0.265908122 0.237444997
0.444781631 0.409487635 0.389879644
0.235040694 0.176217705 0.152055696
0.250727713 0.191903695 0.164452702
0.297153711 0.238330111 0.210879117
0.372042984 0.324351400 0.300822258
0.487539530 0.462112486 0.438583493
0.378621399 0.334218383 0.309424400
0.388108671 0.343706518 0.318912089
0.417203963 0.380644798 0.353826404
0.496015131 0.462745130 0.442125231
0.603035748 0.583427727 0.559898734
0.596458256 0.569007277 0.545477271
0.595192850 0.567741871 0.544212639
0.620620012 0.596205115 0.569639266
0.656293392 0.642505169 0.616065979
0.757621944 0.738013923 0.714484274
0.831878603 0.814800620 0.790006459
0.831625342 0.819860816 0.792409897
0.844276071 0.832511187 0.810373187
0.869449914 0.857684910 0.822390914
0.894496739 0.890701950 0.855281711
0.163061291 0.115369707 0.091840707
0.185325712 0.134345278 0.110815704
0.255661398 0.196837410 0.169386402
0.348513424 0.291714430 0.271094561
0.462112635 0.434661657 0.411131918
0.233396411 0.177861989 0.152055696
0.269070119 0.206957698 0.179506704
0.315117002 0.254395992 0.232131407
0.381909847 0.342061818 0.316888124
0.502593517 0.477166474 0.453636467
0.392030090 0.355471075 0.331941694
0.399493992 0.361669809 0.334851384
0.431246102 0.394687086 0.367868483
0.507526815 0.478810787 0.455913961
0.618722320 0.600759029 0.572296023
0.608475506 0.583048522 0.559519112
0.606577992 0.585704982 0.562175989
0.624541402 0.604933441 0.581404209
0.666413665 0.650094867 0.624921143
0.765085220 0.745477438 0.721948206
0.844908476 0.826312304 0.799746752
0.836432576 0.827577353 0.799493730
0.850474358 0.838709652 0.811258674
0.873244703 0.864515781 0.833522856
0.899177611 0.892346680 0.863250971
0.205945417 0.148387417 0.128146991
0.224920988 0.167362407 0.147121996
0.264136821 0.205312997 0.177861989
0.351802588 0.307400405 0.283870816
0.484630227 0.455914229 0.433016777
0.279823005 0.224288404 0.195192695
0.293232113 0.234408274 0.206957281
0.319038421 0.266793430 0.236052975
0.400885403 0.365591407 0.338140398
0.526502192 0.499051213 0.475521773
0.381909966 0.345350802 0.318532407
0.402150810 0.362301975 0.337128103
0.454522371 0.425806373 0.401644796
0.523592532 0.497406542 0.473877519
0.628463030 0.607590020 0.584060311
0.620620012 0.596458256 0.572928250
0.621885240 0.603542328 0.580644965
0.641872525 0.622264564 0.598734975
0.682352662 0.661479950 0.637950540
0.769386232 0.755597949 0.727893829
0.842884243 0.829221785 0.801138341
0.845920324 0.833143771 0.800379813
0.851992369 0.848197162 0.816824973
0.881467640 0.869702637 0.840986609
0.907020986 0.897153556 0.870335221
0.270714998 0.211890996 0.184439987
0.286780298 0.225933120 0.198482126
0.319418132 0.260594696 0.235167697
0.372675270 0.323719025 0.300190002
0.493231952 0.465780914 0.442251623
0.338772833 0.283238560 0.257432133
0.341935575 0.292978823 0.264895827
0.371790111 0.324098557 0.300569147
0.413662136 0.378368139 0.352941126
0.534471810 0.512839794 0.489310771
0.426692098 0.385578960 0.367615253
0.442757815 0.414041817 0.386590630
0.499051392 0.471600384 0.448070645
0.530423760 0.510815799 0.487286776
0.637950659 0.618342936 0.594813466
0.606198251 0.574952185 0.554332435
0.606578112 0.586970091 0.563441098
0.639595389 0.622011721 0.597469926
0.703352094 0.683744431 0.660215139
0.776850045 0.757242084 0.733712792
0.850474417 0.835420489 0.807083726
0.852498412 0.839721620 0.807716548
0.867425501 0.855660915 0.825679779
0.888677776 0.876913428 0.849462450
0.909677446 0.906641304 0.876280785
0.392409980 0.352055609 0.331182778
0.401897669 0.361543298 0.340670466
0.431119323 0.394560158 0.367741764
0.476913452 0.449462473 0.425932765
0.548133910 0.525995970 0.502466619
0.448070765 0.416065753 0.392283499
0.454016477 0.422011197 0.398228735
0.478178203 0.450727195 0.427198052
0.519038498 0.493611515 0.470082462
0.585705519 0.563567460 0.540037751
0.562428772 0.540290833 0.516761601
0.574825764 0.552687764 0.529158771
0.593169212 0.571031153 0.547501147
0.622644186 0.601771235 0.578241229
0.671727002 0.652119219 0.628589153
0.669070244 0.649462223 0.625932932
0.675015628 0.655408204 0.631878614
0.700442612 0.682100236 0.657937944
0.752055645 0.738267004 0.711828113
0.784060776 0.772295773 0.744844735
0.837064743 0.825300395 0.797849476
0.841239452 0.826944768 0.800758898
0.853384018 0.841619253 0.814168215
0.882099986 0.870335221 0.842884183
0.925869823 0.922074616 0.891966760
