Assets/EldamarStudio/100 Retro LUTs Pack/LUTs/cube/Richard LUT.cube
DOMAIN_MIN 0 0 0
DOMAIN_MAX 1 1 1
LUT_3D_SIZE 32
0.141176000 0.098039001 0.074510001
0.141176000 0.098039001 0.074510001
0.143326774 0.100189775 0.076660231
0.148893163 0.103225842 0.079696164
0.158001453 0.107020542 0.083491549
0.167109057 0.116128936 0.092599936
0.171157315 0.120177321 0.096647680
0.175837994 0.124857992 0.101327993
0.181909993 0.130929992 0.107399993
0.187981993 0.137001991 0.113472000
0.196963876 0.140164122 0.113724999
0.208095998 0.149272516 0.121821508
0.219101638 0.160278350 0.132827342
0.228210032 0.169386029 0.141935036
0.237318411 0.178494409 0.151043415
0.246426180 0.187602803 0.160151809
0.258570194 0.199747190 0.172296196
0.272485584 0.213662416 0.186211407
0.281594008 0.222770050 0.195319057
0.296268374 0.237444371 0.209993362
0.309551001 0.250727475 0.223276466
0.322707146 0.265908122 0.237444997
0.337887496 0.286907464 0.255787492
0.353067905 0.302087098 0.277039915
0.365970999 0.319544584 0.296014994
0.380897969 0.337760985 0.317014307
0.399620056 0.357495070 0.341302991
0.420872420 0.384819418 0.365590990
0.444781631 0.409487635 0.389879644
0.467299163 0.435547143 0.414168388
0.488551587 0.462871552 0.439342558
0.509804010 0.490195990 0.466666996
0.144212395 0.101075388 0.083618388
0.150284395 0.107147381 0.083618388
0.154585391 0.107147381 0.083618388
0.161037162 0.109297842 0.087033771
0.169386536 0.113092542 0.092220381
0.173181832 0.122200936 0.098671935
0.179759771 0.128778994 0.105249994
0.183301672 0.132321313 0.108791679
0.187981993 0.137001991 0.111953996
0.194053993 0.143073991 0.113472007
0.200126737 0.149146006 0.119544744
0.213156119 0.156356648 0.127893761
0.225173637 0.166350648 0.138899639
0.234028995 0.175205767 0.147754773
0.240354031 0.181530803 0.154079810
0.251866221 0.193042383 0.165591389
0.261606604 0.202783197 0.175332189
0.273118168 0.214294985 0.186843976
0.284630388 0.225806445 0.198355451
0.299304068 0.240480766 0.213029757
0.314484328 0.255661130 0.228210121
0.327766985 0.270967990 0.242505118
0.341049612 0.290069580 0.258950353
0.359139919 0.308159083 0.283111900
0.369766295 0.323339254 0.299810261
0.385326028 0.342188269 0.321442008
0.405692846 0.362555057 0.346869051
0.426945210 0.384819418 0.368627369
0.445540756 0.409487635 0.390259206
0.470841140 0.435547143 0.415939152
0.496394545 0.464642555 0.441492796
0.521947980 0.496268004 0.466666996
0.158000991 0.110563003 0.090576001
0.161922768 0.114484780 0.092726223
0.161542997 0.118405998 0.094876997
0.168880165 0.119671158 0.096141838
0.177229539 0.122706994 0.100948773
0.180265933 0.128272936 0.105250001
0.185831994 0.134850994 0.111322001
0.191903993 0.137633994 0.115749709
0.196204767 0.140923411 0.119544543
0.202276766 0.146995768 0.122327551
0.210499734 0.155217990 0.125995964
0.216571987 0.161289990 0.136116728
0.230233774 0.171410516 0.145983770
0.240354031 0.181530952 0.154079959
0.248323768 0.189500228 0.162049219
0.259202838 0.200379759 0.172928765
0.268311232 0.209487766 0.182036757
0.278051555 0.219228566 0.191777557
0.291714191 0.232890785 0.205439791
0.304490656 0.245667368 0.218216360
0.317773461 0.258949995 0.231498986
0.332700908 0.275901377 0.247438475
0.346236527 0.295255989 0.264136970
0.364452809 0.313472539 0.288424999
0.377988517 0.331562042 0.308033049
0.391271561 0.348133743 0.324604750
0.411258996 0.369133145 0.349652052
0.430866659 0.392030209 0.374193400
0.451612979 0.418089628 0.397596598
0.478684127 0.444149137 0.424161702
0.505882204 0.472359180 0.450094581
0.531941772 0.504490793 0.473118216
0.174952149 0.123972163 0.100442834
0.177988544 0.124478221 0.102213606
0.177988544 0.126249224 0.103984609
0.177482158 0.129285157 0.107021004
0.186211094 0.132700995 0.110436156
0.190133095 0.136622220 0.114357926
0.195699155 0.142188162 0.117394000
0.200506002 0.146236330 0.121821709
0.206578001 0.147754312 0.125616997
0.212650001 0.153826967 0.131688982
0.219101861 0.160278127 0.134851113
0.228716001 0.169892311 0.143959507
0.235926643 0.177102655 0.154965341
0.247438163 0.188614890 0.161163896
0.255534410 0.196710899 0.169259891
0.267046005 0.208222598 0.180771589
0.281214327 0.219861001 0.191145152
0.287286311 0.227197975 0.199114561
0.300569147 0.241745815 0.214294821
0.312966168 0.254143149 0.226692170
0.325110316 0.266287148 0.238836154
0.338266999 0.281467289 0.255028397
0.353447348 0.302466631 0.273624629
0.370525002 0.319544822 0.294497013
0.385452151 0.339026123 0.315496415
0.399114341 0.358507276 0.336243123
0.417331010 0.377735317 0.354965210
0.435546994 0.402023882 0.380771548
0.458949775 0.428968757 0.406704605
0.484756112 0.456293464 0.433270067
0.516381800 0.483617902 0.460973740
0.541050136 0.513599157 0.482226133
0.190132543 0.138393551 0.115243092
0.193168938 0.136116147 0.114863545
0.194434002 0.135610089 0.115243092
0.195319384 0.136495709 0.116128705
0.198355094 0.139532000 0.119164996
0.204427868 0.145603999 0.125237003
0.210879549 0.152055547 0.127387539
0.215306833 0.156483263 0.129032254
0.218722090 0.159898996 0.132447988
0.224794090 0.165970996 0.138519987
0.228336409 0.169512674 0.142061666
0.237065092 0.178241506 0.150790513
0.247691199 0.188867897 0.161416903
0.256799519 0.197975591 0.170524582
0.262997985 0.204174832 0.176723823
0.273877084 0.215053990 0.187602982
0.287539393 0.227197990 0.198229194
0.303605437 0.238962531 0.207843497
0.309677452 0.251106560 0.223023146
0.321695030 0.263630748 0.235800162
0.334218532 0.276154548 0.249082997
0.347374678 0.290575683 0.264136702
0.362302035 0.311574996 0.288045943
0.376976460 0.326755375 0.303225636
0.393295288 0.346869290 0.324098378
0.407716662 0.368121654 0.344844759
0.424162090 0.389880091 0.369766086
0.442378074 0.414168090 0.391018420
0.468184322 0.440733343 0.417204320
0.495508671 0.468058050 0.444528699
0.522833228 0.495383024 0.470841140
0.550158441 0.522707462 0.492093533
0.205312937 0.147501931 0.127387866
0.208349332 0.150537550 0.124351479
0.211385161 0.152561709 0.126122698
0.212649986 0.153826877 0.127387866
0.213535473 0.154712394 0.128273383
0.216571867 0.157748014 0.131309003
0.225174323 0.166350305 0.139911324
0.230487213 0.171663642 0.144212648
0.233523026 0.174699828 0.147248834
0.236938864 0.178114995 0.150664002
0.243010879 0.184187010 0.156736016
0.250601172 0.191777185 0.164326191
0.259076864 0.200253010 0.172802001
0.265907913 0.207083970 0.179632962
0.275015503 0.216192335 0.188741341
0.286021590 0.227197990 0.199746996
0.295129836 0.239341974 0.210373193
0.303858399 0.250853568 0.219481573
0.312713087 0.260214955 0.229095921
0.327134430 0.275142312 0.244275510
0.341808736 0.289816737 0.262744814
0.356483072 0.304491073 0.280455142
0.371410429 0.320683390 0.297153562
0.380518824 0.335863024 0.312334001
0.402023911 0.357874632 0.338899493
0.417836666 0.380265653 0.358001173
0.430487156 0.402024150 0.373181224
0.454522848 0.426312864 0.403162420
0.478051811 0.450600803 0.427071631
0.504617095 0.477166086 0.453637064
0.531941473 0.504490614 0.480961502
0.559266031 0.531815052 0.507273912
0.217962995 0.159140006 0.134471998
0.218469068 0.159645945 0.133965924
0.221505448 0.162681550 0.135230541
0.224541485 0.165717840 0.138266847
0.226186097 0.167362541 0.139911547
0.229221940 0.170398697 0.142947704
0.232258320 0.173434317 0.145983323
0.239721999 0.180897996 0.153447002
0.245161414 0.186337769 0.158886775
0.251739800 0.192915842 0.165464833
0.255154997 0.196331635 0.168880641
0.261227012 0.202403650 0.174952626
0.269829333 0.211005673 0.183554664
0.277292997 0.218469054 0.191018060
0.284123898 0.225300729 0.197849736
0.295635313 0.236812308 0.209361315
0.306261867 0.247438505 0.219987512
0.313978583 0.257938057 0.229095727
0.323086709 0.267046005 0.238203660
0.335230678 0.279190689 0.250348300
0.350411057 0.298165560 0.271220624
0.361543208 0.312586814 0.289057463
0.370777696 0.324857682 0.301328301
0.387096882 0.342441738 0.318911910
0.403035998 0.364452630 0.338646263
0.424035341 0.385958314 0.365464985
0.438077301 0.406578302 0.382289708
0.458317578 0.430866569 0.406578213
0.475015968 0.452624947 0.429095626
0.501075149 0.478684157 0.455155134
0.530170560 0.506008565 0.480708599
0.560783982 0.533333004 0.504743993
0.235040694 0.176217705 0.152055696
0.230107412 0.174572989 0.145477697
0.238836169 0.180012643 0.152561620
0.236812234 0.177988246 0.150537238
0.238710001 0.179885998 0.152435005
0.243010759 0.184187219 0.156736225
0.246047020 0.187223375 0.159772381
0.250727713 0.191903695 0.164452702
0.257558614 0.198734790 0.171283796
0.266666770 0.207843184 0.180392176
0.271600515 0.212776855 0.185325861
0.276660413 0.217836976 0.190385982
0.282732427 0.223908991 0.196457997
0.291081727 0.232257694 0.204806700
0.297153711 0.238330111 0.210879117
0.308032691 0.249209687 0.221758693
0.320176691 0.261353701 0.233902693
0.329411566 0.270588577 0.243137568
0.338519990 0.279696465 0.252245486
0.347122014 0.291587710 0.265781432
0.357874721 0.306135654 0.280581981
0.372042984 0.324351400 0.300822258
0.377482206 0.334598184 0.310942680
0.394180804 0.354332805 0.329158694
0.410752714 0.372169703 0.346363008
0.428968698 0.396457672 0.367615342
0.447691351 0.415686339 0.392157048
0.467045963 0.438835979 0.415686429
0.487539530 0.462112486 0.438583493
0.503225803 0.483617872 0.460088819
0.529664636 0.510942280 0.484756678
0.560783982 0.538266718 0.505249977
0.256293088 0.198988095 0.178621188
0.249462381 0.195192799 0.167236105
0.253004760 0.199240774 0.169260100
0.261859924 0.203035936 0.175584927
0.253510535 0.194686636 0.167235643
0.258444011 0.199620202 0.172169194
0.261227220 0.203921422 0.175711319
0.266667008 0.207843199 0.180392191
0.271980107 0.213156104 0.185705096
0.281087726 0.222264484 0.194813490
0.288045645 0.229222104 0.201771080
0.294876993 0.236053169 0.208602205
0.301708102 0.242884099 0.215433091
0.307780087 0.248956099 0.221505091
0.313852072 0.255028099 0.227577075
0.323972166 0.266666591 0.238456696
0.334598184 0.277292997 0.249083102
0.346742183 0.289437145 0.262492061
0.355977058 0.298672080 0.271979988
0.363820106 0.310563087 0.285895258
0.371030748 0.323845744 0.300316423
0.381151170 0.338014007 0.314484268
0.393295169 0.350410998 0.327008486
0.407842994 0.371030986 0.345857084
0.423023373 0.389247358 0.362555265
0.440354168 0.407843143 0.380518615
0.458570182 0.432131171 0.402277112
0.479569525 0.453636527 0.429348528
0.501960695 0.476027727 0.452498555
0.524731159 0.499304175 0.475775152
0.542568088 0.523845732 0.497659951
0.566856146 0.551170170 0.515875995
0.277545482 0.226312488 0.202909991
0.277545482 0.220240504 0.193801597
0.275015801 0.220746204 0.191018492
0.276534021 0.222770005 0.192789346
0.280834943 0.222011030 0.194560051
0.277798563 0.218975425 0.191524446
0.277672023 0.223908976 0.193927661
0.282732219 0.228210211 0.198608428
0.290196091 0.231372878 0.203921884
0.293232471 0.234408498 0.206957504
0.302340090 0.243516892 0.216065884
0.311321765 0.252498746 0.225047752
0.320303649 0.261480331 0.234029323
0.329032481 0.270208538 0.242757499
0.335104465 0.276280522 0.248829469
0.343580276 0.289563268 0.259709090
0.351296961 0.300063014 0.268817484
0.358886927 0.307653159 0.277672470
0.371030986 0.319797963 0.295888484
0.383048475 0.331815481 0.308158994
0.391144484 0.343959481 0.320429981
0.399367243 0.356230021 0.332700968
0.411511958 0.368627042 0.345224470
0.423655987 0.386843801 0.366476893
0.438203752 0.407463759 0.385325462
0.456167132 0.428463131 0.404806644
0.476786971 0.450347960 0.426565140
0.495002985 0.474635929 0.450853884
0.513346136 0.493485123 0.469955444
0.538899422 0.515496433 0.491966903
0.566856146 0.542314768 0.516128957
0.591144979 0.575458944 0.540163994
0.292978853 0.241998866 0.218469128
0.295888752 0.244654983 0.215180472
0.298038989 0.240733773 0.212523863
0.296521157 0.239721566 0.211258695
0.297659874 0.239215419 0.211005419
0.302213818 0.246299803 0.213029802
0.304237425 0.245793864 0.217583865
0.306261569 0.249462575 0.220999449
0.311321974 0.252498776 0.225047767
0.314358354 0.255534381 0.228083387
0.320303887 0.261479884 0.234028876
0.331435740 0.272612512 0.245161504
0.340290874 0.283744872 0.255155236
0.347375005 0.294370741 0.264009863
0.353446990 0.300442725 0.270081848
0.361922771 0.308918536 0.278557658
0.369512975 0.321568727 0.293231964
0.375584960 0.330423743 0.304870158
0.383175015 0.338013947 0.313978761
0.392536372 0.352941364 0.326628774
0.404553860 0.365211874 0.338772744
0.415686011 0.378367990 0.351929128
0.429854482 0.392536253 0.366097361
0.444781870 0.407969683 0.381783754
0.459203154 0.428463131 0.405312836
0.477166504 0.449715525 0.426185519
0.498418927 0.470967948 0.447437942
0.519038677 0.492852718 0.469322860
0.537254691 0.517140687 0.493611604
0.560784101 0.537634134 0.514104903
0.585578442 0.560784042 0.534598470
0.603794992 0.588109016 0.552814722
0.316255242 0.265275240 0.241745755
0.315243661 0.264262855 0.234661624
0.316255748 0.265021741 0.233776242
0.318026513 0.263250977 0.233776242
0.316888273 0.262112349 0.233396500
0.322960258 0.269576430 0.241366178
0.326501936 0.273118258 0.244908497
0.327893257 0.273118258 0.247691497
0.331309199 0.276533991 0.251107246
0.335610747 0.280834764 0.255408019
0.339532018 0.284756511 0.259329259
0.347628266 0.292852253 0.267425507
0.358633906 0.303858370 0.278431624
0.366097510 0.315117002 0.287792504
0.375711501 0.324730963 0.297406524
0.380138755 0.333206773 0.305882305
0.389247179 0.342315167 0.314990312
0.396457821 0.353320837 0.329790831
0.403921485 0.360784531 0.337254941
0.412776858 0.375205338 0.348893017
0.423782498 0.388488472 0.364832461
0.436938643 0.401644647 0.378241628
0.451992482 0.416951478 0.393422008
0.465275168 0.434029162 0.408602417
0.482479274 0.451739252 0.426565468
0.499051303 0.471600294 0.448070467
0.519671321 0.492220312 0.468690306
0.540923655 0.513472676 0.489942670
0.559519231 0.533333242 0.509803832
0.577735662 0.557621658 0.534092128
0.603415489 0.580012441 0.556483150
0.622011244 0.604300976 0.575079262
0.337887287 0.286907017 0.261101007
0.337128371 0.286147892 0.258823603
0.336243004 0.285262287 0.256166995
0.336243004 0.285262287 0.256166995
0.336243004 0.285262287 0.256166995
0.340797007 0.289816886 0.265275002
0.344338953 0.293358684 0.267552316
0.348007292 0.297026992 0.271221012
0.349525273 0.298545182 0.272739023
0.355597973 0.304617286 0.278811008
0.356483132 0.308918506 0.281973392
0.361290246 0.312587023 0.289057255
0.370398641 0.321694642 0.298165649
0.379254013 0.330550075 0.307020992
0.389626980 0.340923280 0.317393988
0.399114490 0.355218083 0.330550432
0.405186176 0.364326179 0.339658439
0.414294571 0.373434573 0.350031197
0.423402965 0.382542998 0.360151619
0.433649719 0.396078289 0.372042656
0.444655627 0.409361094 0.385705113
0.456799626 0.421505630 0.401897609
0.471726984 0.436685979 0.416951507
0.483871013 0.454901993 0.432131916
0.500569284 0.473118275 0.449588984
0.517646670 0.490195662 0.466666609
0.535357356 0.508918405 0.485388696
0.555344760 0.530170739 0.506641090
0.575078964 0.549904943 0.526375651
0.595572352 0.571663439 0.548134148
0.614674568 0.595952213 0.569765627
0.638709664 0.620240271 0.593295336
0.351297021 0.300822020 0.269956052
0.354332626 0.303858429 0.278557688
0.354965061 0.304491013 0.280961066
0.355218023 0.304744035 0.281214088
0.354965061 0.304491013 0.280961066
0.354965061 0.304491013 0.280961066
0.357748330 0.307273775 0.279190361
0.362176001 0.311701059 0.280835062
0.367489010 0.317520201 0.286401063
0.373561025 0.323592991 0.292473078
0.371916234 0.329918027 0.296141863
0.372928292 0.332195044 0.302719802
0.377988636 0.335357428 0.311574668
0.386843979 0.344212085 0.320430040
0.392915964 0.350284845 0.326502025
0.405439824 0.367615819 0.341429621
0.418342859 0.383554876 0.355850816
0.427703589 0.392915606 0.366476625
0.436812013 0.402024031 0.381657064
0.448450089 0.413156092 0.393548071
0.460594475 0.425300479 0.405692458
0.472486019 0.437698007 0.417837054
0.484883010 0.450094998 0.430234045
0.497280031 0.468311042 0.445540935
0.513725579 0.486274570 0.462745041
0.530803382 0.503352344 0.479822665
0.545730114 0.519291103 0.495762110
0.560910463 0.540543497 0.517014503
0.581150830 0.561542809 0.538013816
0.603668451 0.584566414 0.560784400
0.627324581 0.608855247 0.583175421
0.648577034 0.633144021 0.598355055
0.378621399 0.334218383 0.309424400
0.381657004 0.337254763 0.312460780
0.380392164 0.335989594 0.312460452
0.380518645 0.336116135 0.312586993
0.382162958 0.337760836 0.314231694
0.379253805 0.334850967 0.311321825
0.384313792 0.339911610 0.316381812
0.388108671 0.343706518 0.318912089
0.390259057 0.347374916 0.321821809
0.388741404 0.350917369 0.322833836
0.397723258 0.359898537 0.331814945
0.400252938 0.364326239 0.335610211
0.404427409 0.367868364 0.341049820
0.411131978 0.374572814 0.347754419
0.417203963 0.380644798 0.353826404
0.423276603 0.391524553 0.362302184
0.437318385 0.408602387 0.377861947
0.452371776 0.423655808 0.394180536
0.464136362 0.435420334 0.412017792
0.473244756 0.438962728 0.418848813
0.484882802 0.449588805 0.429980814
0.496015131 0.462745130 0.442125231
0.506135404 0.477419376 0.454522789
0.524351418 0.495635420 0.472738802
0.539025724 0.511574686 0.488045663
0.556230307 0.528779268 0.505249798
0.572802186 0.546363235 0.522833526
0.585199237 0.564832211 0.541303217
0.603035748 0.583427727 0.559898734
0.621884763 0.605818748 0.580518544
0.643137336 0.630107582 0.603289187
0.666792989 0.654396415 0.625680208
0.408348978 0.370018601 0.344085783
0.408981383 0.365844160 0.342315167
0.407716542 0.368880540 0.343200773
0.408475786 0.367615402 0.342947423
0.411511600 0.369133592 0.345224530
0.406451702 0.368121475 0.342188656
0.408601969 0.370271623 0.339531779
0.414674401 0.376343966 0.348892778
0.417710394 0.379379779 0.354965180
0.416319072 0.380771458 0.358254611
0.422517627 0.387223512 0.359772533
0.427577496 0.396331131 0.370904386
0.430613428 0.400126427 0.372801960
0.435420573 0.404680550 0.376090854
0.441492558 0.408601761 0.390765399
0.449968398 0.419481367 0.394433588
0.456040770 0.428589761 0.402023792
0.472612351 0.443896353 0.417962909
0.493611604 0.461353630 0.439721704
0.500569165 0.472359121 0.449209571
0.511574745 0.481087774 0.459076583
0.523719013 0.493232071 0.471220583
0.534345567 0.506894588 0.483364969
0.548007667 0.520556629 0.497026980
0.561669648 0.538772583 0.515243530
0.576723456 0.554079413 0.530550420
0.593422055 0.570778012 0.547248662
0.607463777 0.587096810 0.563567638
0.622517526 0.607716560 0.586590707
0.646046698 0.627703786 0.608349144
0.665275395 0.650474370 0.629348576
0.685009599 0.673245013 0.650600970
0.438709378 0.403415382 0.379000366
0.440227568 0.401897550 0.379000753
0.438076943 0.399240941 0.376597166
0.436306179 0.401012182 0.374067158
0.440733761 0.401391715 0.375964373
0.435800374 0.402530372 0.374067098
0.437318057 0.405060053 0.374067247
0.440480620 0.408222556 0.374699384
0.445035189 0.412776560 0.383807391
0.445035189 0.412776560 0.388361961
0.450854182 0.418595910 0.391651005
0.456420094 0.425174117 0.396710992
0.458317369 0.434282035 0.406578273
0.460974216 0.438077331 0.405186534
0.465781391 0.441112936 0.417077810
0.472738981 0.448323578 0.424794376
0.481846988 0.457432359 0.433902383
0.488551587 0.464136809 0.440606952
0.510563016 0.481846988 0.460468143
0.525996208 0.499304205 0.476913542
0.540417373 0.512966335 0.489437371
0.552561343 0.525110364 0.501581371
0.564706028 0.537255049 0.513725340
0.576850355 0.549399376 0.525869429
0.585958421 0.563061357 0.539531529
0.600885332 0.581277311 0.557748258
0.616192222 0.597596228 0.573561192
0.631372571 0.614800632 0.589753389
0.648070812 0.633776128 0.609867334
0.664263129 0.651992559 0.629601538
0.688045621 0.674130321 0.653004766
0.703226030 0.696015179 0.671853364
0.469702542 0.434408545 0.413535535
0.471473932 0.437444925 0.415939361
0.470208764 0.436179757 0.414674371
0.468437552 0.434408545 0.411638111
0.468817085 0.434788108 0.407463580
0.466287464 0.437824458 0.408222526
0.467678815 0.440227807 0.410120279
0.470714658 0.443263650 0.413156390
0.472991973 0.446806103 0.416698098
0.472991973 0.446806103 0.416698098
0.478178561 0.451992542 0.421884716
0.483617961 0.457432121 0.427324116
0.488678128 0.464010179 0.433396220
0.489184111 0.472865522 0.439469010
0.492599934 0.476280689 0.442884266
0.498671919 0.482352704 0.448956102
0.505629539 0.488424897 0.457684726
0.513472140 0.493864954 0.470335126
0.522580564 0.502972603 0.479443550
0.540923357 0.521315515 0.497786343
0.561543286 0.539405286 0.515876293
0.581024528 0.554838538 0.531309545
0.593168616 0.566982567 0.543453515
0.605313361 0.579127312 0.555597544
0.613536000 0.591904104 0.567741752
0.624541521 0.606198490 0.582036257
0.642251611 0.623908579 0.599747002
0.657431960 0.644907951 0.617836535
0.675268471 0.663504183 0.636053205
0.692346275 0.680582106 0.653131127
0.707526743 0.696521521 0.668817580
0.722707152 0.720809579 0.690069973
0.503098965 0.467804998 0.440859973
0.500063360 0.470841408 0.440859973
0.497533202 0.469576240 0.438962787
0.495761991 0.467804998 0.437191963
0.496141553 0.468184561 0.437824398
0.499177873 0.471220940 0.446932018
0.499177963 0.471727014 0.447690994
0.501075268 0.473624259 0.449588746
0.503352046 0.477419198 0.453383982
0.503352106 0.483238965 0.459202975
0.506261945 0.486148089 0.462112844
0.509550750 0.489437252 0.465401649
0.513978302 0.493864983 0.469828963
0.519544959 0.500190020 0.475901097
0.525617003 0.506262004 0.481973857
0.533839166 0.514484763 0.490196109
0.541176379 0.521821916 0.497532994
0.546869278 0.527261376 0.503731608
0.549905002 0.530296981 0.506767988
0.561796010 0.542188644 0.518658996
0.578494489 0.558886886 0.535357475
0.596963942 0.576849937 0.553320944
0.614421010 0.594307005 0.570777953
0.626565754 0.606451809 0.582921982
0.636432648 0.620873272 0.595066547
0.648070633 0.635800242 0.608602226
0.663504004 0.651233017 0.624035060
0.678684413 0.666413426 0.639215410
0.696520925 0.684756637 0.657305598
0.714737356 0.702972949 0.675521910
0.731815517 0.720050573 0.692599595
0.746995926 0.735989928 0.708285987
0.517014742 0.487286717 0.462618381
0.516761720 0.487539768 0.462618381
0.518026590 0.490575612 0.464769155
0.517520368 0.490069389 0.464263380
0.517520368 0.490069389 0.464263380
0.518152952 0.490701944 0.466160774
0.521189332 0.493738323 0.470208377
0.523086667 0.495635688 0.472106069
0.526122451 0.498671472 0.475142479
0.528146744 0.502719998 0.479190737
0.533839226 0.508665502 0.485136271
0.536875606 0.511701643 0.488172114
0.542188406 0.517014742 0.493485034
0.549652040 0.524478078 0.500948668
0.553194404 0.528020382 0.504490495
0.554459393 0.534092367 0.510563254
0.560910702 0.541303039 0.520809770
0.566982985 0.547375023 0.529411733
0.572169423 0.552561402 0.534598351
0.583554387 0.563947082 0.545983374
0.591903865 0.572296381 0.550537348
0.606578350 0.586970329 0.563440919
0.624794364 0.605439365 0.581783831
0.642251432 0.628210187 0.601897717
0.656672895 0.638077080 0.614041686
0.669575989 0.652245283 0.627577662
0.684756398 0.667425394 0.642757773
0.699936807 0.682605803 0.657938123
0.715117216 0.697786212 0.673118532
0.733206689 0.715875983 0.691208303
0.747880995 0.734092236 0.710309923
0.757368624 0.751170337 0.729285359
0.551929474 0.524478436 0.500948429
0.546236694 0.522580743 0.499051183
0.550284743 0.522833705 0.499304205
0.552055478 0.524604499 0.501075447
0.551296473 0.524604499 0.501075447
0.548260450 0.524604499 0.501075447
0.552688062 0.525237083 0.501707852
0.555724442 0.528273463 0.504743516
0.558760107 0.531309128 0.507779837
0.561796188 0.534345150 0.510816216
0.567741692 0.540290713 0.516761720
0.571789980 0.544338942 0.520809948
0.574826360 0.547375321 0.523845553
0.582163215 0.554712176 0.531182706
0.586843908 0.559392869 0.535863042
0.591271460 0.564832449 0.541302621
0.591271460 0.570904493 0.550411403
0.595951855 0.576344073 0.560657859
0.600758731 0.581151247 0.565464735
0.608602226 0.592789412 0.571410477
0.618848443 0.603036463 0.581657171
0.625933111 0.608096302 0.583681226
0.641366243 0.621758282 0.598229289
0.657811522 0.640733838 0.615939617
0.675648034 0.659329414 0.634155691
