Assets/EldamarStudio/100 Retro LUTs Pack/LUTs/cube/Richard LUT.cube
LUT_3D_SIZE 8
DOMAIN_MIN 0.000000 0.000000 0.000000
DOMAIN_MAX 0.903226 0.903226 0.903226
0.141176000 0.098039001 0.074510001
0.158001453 0.107020542 0.083491549
0.181909993 0.130929992 0.107399993
0.219101638 0.160278350 0.132827342
0.258570194 0.199747190 0.172296196
0.309551001 0.250727475 0.223276466
0.365970999 0.319544584 0.296014994
0.444781631 0.409487635 0.389879644
0.190132543 0.138393551 0.115243092
0.198355094 0.139532000 0.119164996
0.218722090 0.159898996 0.132447988
0.247691199 0.188867897 0.161416903
0.287539393 0.227197990 0.198229194
0.334218532 0.276154548 0.249082997
0.393295288 0.346869290 0.324098378
0.468184322 0.440733343 0.417204320
0.256293088 0.198988095 0.178621188
0.253510535 0.194686636 0.167235643
0.271980107 0.213156104 0.185705096
0.301708102 0.242884099 0.215433091
0.334598184 0.277292997 0.249083102
0.371030748 0.323845744 0.300316423
0.423023373 0.389247358 0.362555265
0.501960695 0.476027727 0.452498555
0.337887287 0.286907017 0.261101007
0.336243004 0.285262287 0.256166995
0.349525273 0.298545182 0.272739023
0.370398641 0.321694642 0.298165649
0.405186176 0.364326179 0.339658439
0.444655627 0.409361094 0.385705113
0.500569284 0.473118275 0.449588984
0.575078964 0.549904943 0.526375651
0.438709378 0.403415382 0.379000366
0.440733761 0.401391715 0.375964373
0.445035189 0.412776560 0.383807391
0.458317369 0.434282035 0.406578273
0.481846988 0.457432359 0.433902383
0.540417373 0.512966335 0.489437371
0.585958421 0.563061357 0.539531529
0.648070812 0.633776128 0.609867334
0.551929474 0.524478436 0.500948429
0.551296473 0.524604499 0.501075447
0.558760107 0.531309128 0.507779837
0.574826360 0.547375321 0.523845553
0.591271460 0.570904493 0.550411403
0.618848443 0.603036463 0.581657171
0.675648034 0.659329414 0.634155691
0.736369550 0.716761529 0.693232059
0.713598967 0.686147988 0.662618577
0.694750071 0.682226539 0.658949971
0.702593446 0.682985425 0.660974026
0.716381907 0.696773887 0.673244894
0.726122677 0.711068809 0.685262561
0.748134017 0.731815457 0.706641257
0.774699330 0.755091846 0.731562257
0.818089962 0.804301023 0.774699509
0.831878603 0.814800620 0.790006459
0.830233872 0.818469286 0.796331286
0.831372321 0.819607794 0.793674827
0.838203371 0.826438844 0.799746752
0.850347936 0.838582933 0.811131954
0.864389777 0.852624774 0.817330778
0.886021674 0.874256670 0.846046567
0.894496739 0.890701950 0.855281711
0.150158450 0.106261544 0.082732551
0.161543012 0.110562995 0.087033994
0.197216645 0.139152542 0.119164996
0.231625542 0.172801733 0.146109745
0.273118526 0.214294538 0.187602550
0.325743437 0.270714551 0.245161280
0.382289559 0.339152575 0.315622985
0.458697110 0.428716093 0.406451344
0.186970547 0.143073544 0.119544543
0.206958011 0.154079556 0.131309554
0.227324083 0.168501094 0.141809076
0.259076536 0.200252742 0.172801733
0.299810350 0.240986735 0.213535741
0.346742541 0.295762539 0.265148520
0.399114519 0.355977148 0.332447529
0.468437642 0.446299613 0.422770649
0.259835571 0.208855554 0.184566557
0.268058211 0.208476007 0.181024998
0.280202538 0.222137645 0.194307193
0.306008667 0.248703554 0.220493436
0.339278907 0.287539274 0.257305741
0.376850069 0.333713084 0.310183078
0.436685622 0.402150601 0.375838071
0.513725519 0.488551646 0.462745041
0.346868634 0.295888633 0.272359639
0.353574008 0.297026992 0.276280642
0.357369095 0.314737529 0.282859117
0.378620982 0.329917967 0.306388259
0.411005735 0.375711620 0.348260641
0.449841976 0.418342948 0.392030567
0.505629599 0.478178620 0.454648912
0.574952602 0.555344641 0.531815231
0.444149196 0.415939182 0.387982041
0.445161402 0.415180385 0.389247179
0.454396069 0.422138065 0.401012182
0.470082283 0.438583285 0.417457283
0.493485183 0.466034174 0.441745549
0.544085741 0.518912017 0.495382756
0.591018081 0.571410477 0.547881007
0.660721242 0.641113222 0.617583752
0.557748199 0.534345210 0.510815740
0.555977464 0.535610497 0.512081027
0.563061237 0.542694211 0.519165277
0.578494787 0.558886766 0.535357118
0.597596347 0.577988505 0.554459333
0.625806451 0.606198490 0.582669437
0.681594193 0.665022314 0.639974535
0.738393307 0.722201049 0.696015000
0.706135094 0.689816535 0.661353827
0.712586999 0.689689994 0.669955969
0.710057020 0.691208005 0.667299569
0.721315503 0.705755532 0.680202246
0.735863090 0.720303595 0.694750309
0.749019504 0.736495674 0.709424555
0.772548974 0.760025561 0.729664981
0.815686226 0.808854997 0.779885828
0.838077188 0.820999324 0.796205044
0.832384765 0.821758330 0.793927789
0.835167527 0.820872664 0.790132880
0.843643606 0.831878603 0.797343612
0.853004396 0.841239810 0.811258793
0.871979892 0.858190954 0.822896957
0.886021495 0.874256730 0.842251658
0.902466595 0.890701950 0.863250971
0.163820192 0.119164996 0.095635995
0.174446538 0.123466447 0.099177547
0.195192993 0.144212186 0.119164996
0.236306340 0.177482635 0.150031641
0.283744276 0.224921092 0.197470099
0.335863352 0.278557837 0.254142731
0.391650975 0.348513573 0.324983984
0.467172801 0.439721823 0.416191995
0.209740549 0.158760458 0.135230646
0.215560004 0.156736091 0.129285082
0.231246084 0.172422081 0.144971088
0.267299116 0.208476007 0.181024998
0.305629075 0.247565091 0.221252531
0.355724186 0.305502862 0.277925283
0.411258578 0.368880570 0.344971538
0.483871222 0.459709227 0.436179429
0.251613021 0.200632185 0.177102998
0.275142193 0.208476007 0.181024998
0.298671991 0.233523190 0.206072196
0.313472092 0.256167114 0.227957189
0.348640263 0.297659874 0.267805278
0.385452092 0.350158095 0.322707087
0.444149375 0.413409352 0.388235092
0.523592710 0.497659773 0.474129975
0.357874632 0.308033079 0.283364654
0.353826612 0.309171557 0.285641730
0.363567173 0.318912089 0.295383096
0.381657273 0.338519990 0.314990282
0.416445524 0.381150931 0.355976939
0.456799448 0.425300479 0.403794914
0.511954486 0.484503537 0.460974097
0.580645144 0.561037123 0.539025664
0.454396188 0.428463191 0.398608357
0.455534637 0.423276603 0.402150810
0.464642555 0.433902562 0.412776351
0.475901634 0.449968636 0.426438898
0.499810249 0.473877281 0.450348079
0.546869040 0.522454262 0.498924524
0.600126147 0.577229738 0.553700209
0.661859870 0.642251849 0.618722141
0.570018768 0.548134446 0.524604499
0.569639325 0.547754824 0.524224997
0.575964749 0.554079711 0.530550241
0.585451961 0.565843999 0.542314887
0.607463777 0.587855816 0.564326108
0.627451062 0.610120356 0.585452199
0.686653733 0.669323325 0.644655347
0.746616066 0.727008402 0.703478694
0.714484572 0.694876552 0.671347558
0.713978529 0.697659552 0.675774813
0.718279421 0.698671639 0.675142467
0.727387846 0.708538890 0.684630156
0.738646388 0.719038367 0.695509374
0.752055526 0.740290523 0.712840021
0.772549033 0.757495463 0.731688738
0.821505070 0.808981538 0.781909943
0.844402492 0.827324510 0.802529812
0.840607226 0.825553298 0.795951724
0.836685717 0.830613434 0.801264644
0.847944140 0.836179435 0.808728516
0.858190954 0.846426249 0.818975270
0.871473908 0.859708905 0.830739915
0.886400878 0.876913488 0.848703384
0.901960671 0.894370735 0.865780950
0.187729344 0.136748642 0.107653640
0.195952103 0.144971192 0.115876086
0.211638004 0.160658002 0.131562188
0.237065345 0.183807641 0.153574005
0.284503371 0.225679994 0.198229000
0.340164393 0.285136074 0.259582609
0.399114639 0.355976939 0.332447618
0.476407349 0.448703647 0.426438808
0.224921092 0.173181191 0.150031641
0.241872460 0.179000631 0.150790542
0.248829737 0.192789093 0.159772083
0.268437535 0.209614560 0.182163551
0.311068982 0.253004402 0.226691812
0.360025525 0.310562909 0.287033528
0.420746386 0.379886091 0.361543447
0.495003164 0.467552245 0.444022417
0.270841569 0.214294657 0.187982202
0.282479554 0.222896740 0.195445731
0.301328540 0.244022638 0.217330739
0.317773640 0.261226833 0.234155282
0.359266460 0.303478718 0.276786625
0.394054174 0.353953093 0.328905374
0.456799448 0.426059455 0.400885373
0.526122689 0.503225684 0.479696512
0.337887287 0.289184004 0.265654981
0.344465554 0.295762539 0.266666710
0.360531181 0.317394078 0.293864906
0.392283618 0.351422936 0.326755285
0.429474980 0.389373988 0.369892180
0.465907633 0.435167640 0.414421260
0.524098575 0.493358552 0.471473545
0.591144621 0.569006562 0.545477569
0.461859822 0.429601848 0.402909636
0.458317250 0.432384491 0.408855259
0.472738743 0.445287764 0.421758622
0.484123975 0.458950281 0.435420394
0.508412361 0.483238399 0.459709376
0.552561700 0.530676723 0.507147610
0.600885272 0.581277728 0.557748139
0.668311179 0.646173120 0.622643828
0.576344371 0.555218339 0.531688571
0.574067295 0.554459453 0.530929446
0.584313512 0.564705610 0.541176379
0.594054222 0.574446678 0.550916970
0.612902999 0.593294978 0.569765925
0.641113162 0.619228184 0.595698714
0.692852736 0.675521791 0.650853634
0.744212568 0.732447565 0.702719569
0.717520297 0.700189829 0.675521910
0.717014611 0.700695932 0.675521910
0.718658924 0.706135154 0.679063678
0.727640569 0.715875983 0.688424945
0.742567718 0.726249158 0.701075494
0.758760214 0.743706226 0.717899919
0.775711238 0.767362177 0.738772810
0.822517455 0.814547837 0.785831690
0.848703206 0.830613434 0.802529991
0.842251658 0.829095185 0.799493730
0.846046805 0.831751764 0.805565953
0.847691417 0.839341998 0.810752392
0.857431769 0.849082828 0.820493460
0.874256730 0.862492025 0.829728067
0.889942944 0.878178656 0.850727618
0.907779992 0.896014988 0.874130011
0.220240191 0.166223809 0.141176000
0.226059541 0.172042832 0.146995649
0.237444997 0.183427989 0.158380806
0.261733174 0.202909186 0.175458193
0.293864787 0.235041186 0.207590178
0.339658439 0.282352924 0.258317471
0.408096254 0.366477281 0.343706369
0.486780614 0.459329575 0.435799986
0.255154729 0.203415647 0.180265889
0.260215104 0.201391384 0.173940375
0.277925432 0.215053633 0.187223196
0.288804531 0.230739921 0.202909380
0.317014515 0.258190811 0.230739832
0.363187850 0.312966645 0.289436817
0.427704096 0.387602478 0.364073277
0.501328111 0.476154447 0.452625155
0.309424281 0.256926090 0.234155372
0.327261537 0.261353642 0.236179546
0.324478298 0.268690884 0.242758095
0.340543717 0.284756541 0.258064538
0.358887076 0.309424073 0.281088084
0.401138484 0.361037165 0.337507993
0.463757157 0.433017164 0.406325281
0.536369264 0.515243530 0.493232042
0.357748657 0.306767613 0.283238620
0.367615283 0.317773551 0.293105870
0.380391866 0.334977835 0.311448455
0.408981383 0.372928262 0.348133802
0.427450746 0.392156631 0.367741704
0.475648195 0.448197186 0.420620084
0.524731278 0.502846301 0.479316980
0.595319211 0.570904315 0.547375262
0.447438389 0.407337368 0.385325581
0.447817832 0.410752803 0.387222916
0.459835380 0.432384402 0.402530164
0.484503537 0.460468173 0.428715914
0.525616646 0.498165548 0.474636167
0.561163664 0.538519740 0.514990628
0.604048193 0.584440231 0.560910702
0.664642572 0.651233137 0.623908997
0.580265701 0.553573668 0.530044258
0.577862501 0.556356907 0.531688452
0.585831523 0.566223562 0.543453336
0.611005664 0.586590648 0.563061237
0.623023212 0.603415728 0.579886138
0.648197234 0.631625772 0.606578052
0.698418915 0.682605922 0.657179177
0.750157773 0.734345257 0.708159566
0.725616395 0.704237759 0.679949284
0.719924033 0.702593565 0.680202186
0.727008224 0.711954415 0.686148167
0.736369491 0.716761470 0.693232059
0.747375011 0.732321560 0.706514835
0.761922777 0.750157773 0.722706795
0.781910241 0.770145297 0.742694259
0.828968942 0.816445529 0.789374113
0.853383958 0.831878603 0.804933608
0.843643308 0.835293949 0.809740543
0.850094616 0.835799932 0.809613764
0.855407894 0.843643308 0.816192329
0.863630772 0.851865768 0.824414790
0.874762833 0.862997830 0.833016753
0.893484950 0.881720245 0.854269266
0.910436451 0.898671448 0.871220767
0.260594755 0.201770738 0.174319729
0.266793430 0.207969531 0.180518538
0.280961663 0.222137824 0.194686830
0.298165739 0.239342257 0.211891249
0.318912178 0.263124257 0.234155461
0.358507246 0.303478748 0.281973481
0.404174268 0.361037254 0.337508261
0.495255888 0.467804849 0.444275856
0.289690256 0.239468738 0.215939343
0.293485254 0.239468738 0.209614560
0.304870069 0.249841988 0.224541441
0.322074383 0.267046183 0.241745636
0.343200266 0.288172156 0.263630539
0.369006991 0.325869471 0.302340090
0.417836815 0.381783754 0.354712278
0.507147431 0.483491778 0.458443791
0.345604002 0.296141982 0.268564194
0.353447199 0.296900868 0.272485852
0.355344743 0.306641340 0.276786745
0.366476655 0.319291621 0.291714013
0.388741255 0.341556102 0.313978255
0.409360826 0.375584841 0.347374916
0.462112576 0.434661567 0.407843173
0.545856953 0.526249170 0.502719641
0.386211276 0.348639995 0.322327644
0.400505990 0.361164004 0.335736722
0.423149973 0.387856007 0.365970969
0.436053008 0.403036028 0.382289380
0.455281258 0.423782289 0.398228824
0.473244995 0.449588984 0.422011465
0.529284894 0.505629361 0.482099921
0.606578171 0.585452199 0.561922669
0.463377923 0.438962936 0.411384910
0.468437672 0.440227568 0.413029730
0.482732207 0.458317369 0.434788197
0.508539021 0.484882981 0.461353362
0.544465363 0.524857342 0.501328349
0.562808096 0.543200672 0.519671142
0.614927471 0.594560504 0.571030915
0.670967698 0.650600731 0.627071559
0.565717697 0.534471750 0.512839973
0.567488909 0.539278746 0.520303905
0.575711489 0.556103468 0.532574475
0.598608375 0.574952364 0.551423371
0.631499171 0.607843220 0.584313691
0.669955432 0.646299481 0.622770548
0.706641495 0.687033474 0.663504481
0.752055526 0.732447565 0.708918571
0.717899978 0.702087045 0.676660299
0.721948028 0.706135094 0.683997333
0.729411602 0.710563064 0.686653912
0.740670025 0.727387786 0.700695932
0.758886874 0.743074059 0.717647254
0.771410525 0.756357014 0.730550289
0.789753258 0.777988255 0.750537217
0.835673392 0.821379066 0.791397929
0.852498591 0.835673809 0.807590008
0.850094616 0.838329911 0.807083905
0.852751434 0.840986788 0.812017798
0.862492025 0.850727439 0.821758509
0.869323254 0.859835684 0.831625819
0.883364856 0.871600389 0.844149411
0.894370735 0.883744359 0.855913818
0.910183728 0.906388581 0.873750746
0.315622985 0.256799579 0.229348570
0.321189284 0.262365282 0.234914273
0.330550253 0.271726876 0.244275883
0.346489638 0.295508921 0.264136642
0.367489189 0.321062386 0.294244170
0.392916024 0.346489519 0.319671035
0.432258278 0.396964282 0.369513273
0.489816785 0.463124782 0.439594805
0.330802798 0.287665814 0.264136821
0.342315257 0.291334271 0.263757288
0.350158185 0.300316334 0.268564284
0.366350353 0.321821481 0.292599738
0.386717260 0.341049790 0.317900240
0.408096284 0.369513184 0.344465554
0.446426570 0.415686548 0.393801272
0.499936998 0.474509656 0.452245831
0.383048475 0.349272460 0.322580367
0.391018361 0.352435350 0.326628655
0.396331280 0.356356591 0.328652382
0.410120010 0.371537030 0.347248733
0.430107474 0.391524255 0.367236197
0.449968666 0.419228226 0.394054115
0.490196258 0.462745279 0.439215481
0.544339001 0.518405974 0.494876623
0.454648912 0.424920917 0.402529985
0.460594445 0.433143467 0.406325340
0.469955474 0.436938465 0.412903011
0.479317009 0.451866299 0.428336293
0.499304086 0.471853077 0.448323697
0.517014444 0.491840661 0.468311161
0.545477629 0.525869608 0.502340198
0.601012170 0.578874171 0.555344641
0.499810278 0.472106278 0.450221390
0.504870534 0.479696542 0.456166804
0.520809531 0.501201570 0.477672338
0.560531020 0.540923595 0.517393827
0.577356279 0.557748497 0.534218490
0.599367201 0.576470613 0.552941203
0.624541163 0.601644397 0.578115165
0.672106326 0.652498305 0.628968954
0.593422055 0.573561072 0.548134208
0.605566144 0.585705161 0.560657561
0.616192102 0.593295097 0.569765925
0.631119728 0.608222783 0.584693253
0.652245641 0.636432648 0.611005485
0.688298762 0.669449687 0.645540774
0.705123246 0.692599297 0.665528297
0.751675963 0.739911079 0.712460399
0.697279990 0.685515523 0.654775500
0.702846289 0.687792301 0.661985993
0.711322248 0.696268260 0.670461535
0.721947908 0.710183620 0.682732642
0.741049528 0.727767408 0.701075494
0.769006789 0.757242262 0.729791224
0.801518202 0.789753258 0.762302279
0.833522916 0.825553715 0.796837509
0.845287859 0.833523214 0.801518261
0.848070920 0.836305916 0.808854878
0.850853682 0.839089036 0.807083964
0.860594749 0.848829746 0.816824734
0.866919756 0.865781248 0.830233812
0.888551533 0.876786709 0.849335670
0.898418784 0.893485069 0.863756776
0.909677565 0.908539057 0.877545655
0.392409980 0.352055609 0.331182778
0.394054353 0.353700221 0.332827181
0.406957805 0.366603464 0.345730633
0.418469250 0.380644977 0.354459167
0.441366315 0.406071931 0.381657302
0.470082343 0.438583374 0.417077631
0.502593279 0.475142241 0.451612920
0.548133910 0.525995970 0.502466619
0.411638021 0.377103031 0.350031465
0.416191876 0.378367901 0.355471045
0.423529565 0.388235062 0.366097510
0.439089298 0.403795302 0.381657302
0.459202975 0.426944971 0.403289139
0.484882951 0.458191097 0.434661567
0.513725221 0.491587371 0.468058228
0.560151756 0.539405346 0.517014742
0.462238967 0.434787989 0.411258757
0.461986303 0.434535325 0.408475399
0.468943626 0.441492647 0.417963117
0.481467634 0.454016626 0.430487126
0.500316143 0.474383324 0.450853616
0.526122689 0.498671621 0.475142419
0.553826928 0.528905869 0.505375862
0.595066547 0.573940516 0.550410986
0.527767241 0.502593219 0.479063630
0.532194674 0.507020712 0.483491510
0.534977436 0.512839735 0.489310443
0.547881067 0.525743067 0.502213776
0.562807977 0.540669978 0.517140985
0.578241765 0.558633804 0.535104096
0.604933858 0.585325897 0.561796010
0.640101194 0.620493233 0.596963942
0.581150949 0.559013307 0.535483658
0.590765476 0.568627417 0.545098126
0.603036046 0.583428025 0.559898674
0.624288380 0.602150619 0.578621268
0.636938870 0.614800811 0.591271162
0.651992083 0.632384896 0.608855069
0.670082211 0.650474191 0.626944840
0.698292196 0.678684175 0.655154765
0.646805644 0.625679612 0.602150440
0.645667255 0.624541283 0.601011813
0.653510273 0.632384837 0.608855069
0.667425454 0.649335623 0.625047326
0.707020938 0.688931108 0.664643049
0.727008343 0.715243518 0.687792480
0.742820919 0.728526473 0.702340305
0.763820469 0.752055466 0.724604487
0.746110082 0.731815100 0.705629230
0.744591773 0.732068300 0.704996765
0.748134255 0.733080268 0.707273602
0.757115841 0.744591892 0.717520416
0.773181438 0.760657609 0.733586192
0.792030513 0.780265510 0.752814472
0.827071428 0.815306962 0.787855983
0.844907999 0.833143353 0.805692375
0.837064743 0.825300395 0.797849476
0.835420489 0.823656023 0.793675005
0.840986788 0.829221785 0.801770747
0.848829746 0.837064803 0.809613764
0.858317792 0.846552730 0.819101751
0.875521898 0.863756895 0.836305857
0.899050772 0.887286842 0.859835744
0.925869823 0.922074616 0.891966760
