Assets/EldamarStudio/100 Retro LUTs Pack/LUTs/cube/Robert LUT.cube
DOMAIN_MIN 0 0 0
DOMAIN_MAX 1 1 1
LUT_3D_SIZE 32
0.133332998 0.074510001 0.094117999
0.136369392 0.077545613 0.097153611
0.143706769 0.082732551 0.098039001
0.152814835 0.083744675 0.098039001
0.161543012 0.078431003 0.098418549
0.167614996 0.078431003 0.101454936
0.173687637 0.083491646 0.107020997
0.181404278 0.087919287 0.108159289
0.191271186 0.090195999 0.106641091
0.203415975 0.090196006 0.109677471
0.212650120 0.096014999 0.101075128
0.227830499 0.098039001 0.098039001
0.244908631 0.101454645 0.100315996
0.260088950 0.110309996 0.106135026
0.275268555 0.116381995 0.109171413
0.297659576 0.120050803 0.107400194
0.318911970 0.127640992 0.107400186
0.339025527 0.138519987 0.108539008
0.366349995 0.144592017 0.102467008
0.390891731 0.153447360 0.104743645
0.415180475 0.162555248 0.105881996
0.443516970 0.170651257 0.103858002
0.479948968 0.176723987 0.098291993
0.516381800 0.182796001 0.104364000
0.552814543 0.191144705 0.103605293
0.592030287 0.198861346 0.099178009
0.632511139 0.203922004 0.094117999
0.662871838 0.203922004 0.094117999
0.706514716 0.209234998 0.094117999
0.750284314 0.211765006 0.092346780
0.792789161 0.211765006 0.091081604
0.835294008 0.211765006 0.094117999
0.136369392 0.086654000 0.097153611
0.136369392 0.086653993 0.091081612
0.143706769 0.089690164 0.094117776
0.154080003 0.091081835 0.096268229
0.164958954 0.088298380 0.098418549
0.173687771 0.093611389 0.101454936
0.184819773 0.091081709 0.104490675
0.186970279 0.095635995 0.108412318
0.191271201 0.099304385 0.109677285
0.203415990 0.099304393 0.112713091
0.218469128 0.102213517 0.112839609
0.227830246 0.108158991 0.106135003
0.243010893 0.112460285 0.104111001
0.260088950 0.119165353 0.105881996
0.275268555 0.122453988 0.106135026
0.292852610 0.128525987 0.109171413
0.314358205 0.135230795 0.107400194
0.335989922 0.144591987 0.108032599
0.363314390 0.150664017 0.111574605
0.387855411 0.165085360 0.105502605
0.415939063 0.172802001 0.103984743
0.443516731 0.179759383 0.102846384
0.474003494 0.185958117 0.101201870
0.513346195 0.194940001 0.104364000
0.549778342 0.203289285 0.105881996
0.587602556 0.208222777 0.102213621
0.628463149 0.209994003 0.096647680
0.668943822 0.209994003 0.094117999
0.709930599 0.215306982 0.094117999
0.751549482 0.217836991 0.090576015
0.795445740 0.215180397 0.085389175
0.844402373 0.208728611 0.081973225
0.132954001 0.100948773 0.098039001
0.139405221 0.100948773 0.096268006
0.141555995 0.098797999 0.096647777
0.151929229 0.100569226 0.098419003
0.162175775 0.099556997 0.100569226
0.164200157 0.105629005 0.103605159
0.175838217 0.104111321 0.106641449
0.189626917 0.102720000 0.106388062
0.193421766 0.107020900 0.107653223
0.205566213 0.108412229 0.109297514
0.214168131 0.113472678 0.109423995
0.227324516 0.114484549 0.109423995
0.241113409 0.120303541 0.107020639
0.259835988 0.126628965 0.107779741
0.273118317 0.133459583 0.105881996
0.290701836 0.138899535 0.106135026
0.310436428 0.143453345 0.109171413
0.332321376 0.151296571 0.108032770
0.358128011 0.158886790 0.111068770
0.389120787 0.169007137 0.110309765
0.417204231 0.178494766 0.109930031
0.446552902 0.184566766 0.106388234
0.474383235 0.190765277 0.104237735
0.513851941 0.199873686 0.107273869
0.546742737 0.206831291 0.105881996
0.584566355 0.215939313 0.103099011
0.624541342 0.218722284 0.097533070
0.667046070 0.220367000 0.094497457
0.709550858 0.221378982 0.096268229
0.760910749 0.218595788 0.092726246
0.802656353 0.219228208 0.088425227
0.849209249 0.216444999 0.084882773
0.129411995 0.114863992 0.100569002
0.134724781 0.114863992 0.100569002
0.140796781 0.113978386 0.098924614
0.145098001 0.112207159 0.104491003
0.157621548 0.111827701 0.103352457
0.159898937 0.115243316 0.102846064
0.169512987 0.116255313 0.109677158
0.179506525 0.116129160 0.109424450
0.193168923 0.116888061 0.106388062
0.204807013 0.119923681 0.105881996
0.212397158 0.123339579 0.105881996
0.227577344 0.126628995 0.107147157
0.238583475 0.127767354 0.107147157
0.259076834 0.133965865 0.109803997
0.273244828 0.143073738 0.107779741
0.287666142 0.151043609 0.105881996
0.307400346 0.155597806 0.104870185
0.330550104 0.160531148 0.108538985
0.356103808 0.170272142 0.109803997
0.386211216 0.178115368 0.108538836
0.418975472 0.186591148 0.110436417
0.448324114 0.192663148 0.111448027
0.475901484 0.198861629 0.105755515
0.513092935 0.207969755 0.106514901
0.548260570 0.213536009 0.104996711
0.582795620 0.218469635 0.101834171
0.622264206 0.227071315 0.095762163
0.664009988 0.230866611 0.091967456
0.710309565 0.231246158 0.094244152
0.755344331 0.230992958 0.094497018
0.807716668 0.222770169 0.091081604
0.847185135 0.227324158 0.091461159
0.130171001 0.126628548 0.105881996
0.130171001 0.126628548 0.105881996
0.133712992 0.127007991 0.102719545
0.139784992 0.127387539 0.101454616
0.146236539 0.127007991 0.109424450
0.161416933 0.123972379 0.100316063
0.174066991 0.125996217 0.108158998
0.182542548 0.128273159 0.111701161
0.189373538 0.132447988 0.109044902
0.198481932 0.135483608 0.106008515
0.209487885 0.135230541 0.106640995
0.227956980 0.137254804 0.108285703
0.246173099 0.140670449 0.110183448
0.256040514 0.143453091 0.109930478
0.274256527 0.152181968 0.109803997
0.288045585 0.161669806 0.107779741
0.305503190 0.167741910 0.105123192
0.328273505 0.172675133 0.102846444
0.358633578 0.184819952 0.108918443
0.386590451 0.191398010 0.106641188
0.416571647 0.199367732 0.107020736
0.448703557 0.207843542 0.108412415
0.476407439 0.213915542 0.105502546
0.510056973 0.222770199 0.102719903
0.545351028 0.227703825 0.099683717
0.583554626 0.230360672 0.096268132
0.623402655 0.233523443 0.093485452
0.662871718 0.239595443 0.087413453
0.711448252 0.240354449 0.088931151
0.758506894 0.242125317 0.090195999
0.800885260 0.242884010 0.090322606
0.840354443 0.236811996 0.093359001
0.136243001 0.135736927 0.105881996
0.136243001 0.135736927 0.105881996
0.136243001 0.137887150 0.108032770
0.139784992 0.140417159 0.107020773
0.146236554 0.142188385 0.106388062
0.155344933 0.139151990 0.106388062
0.167994991 0.141176388 0.109930001
0.175205708 0.140923232 0.110436000
0.180265844 0.142694250 0.106388062
0.189373568 0.153700396 0.106008522
0.213029802 0.150917009 0.111700997
0.230739996 0.152435198 0.112712994
0.245413989 0.156609938 0.113219060
0.253004134 0.161669880 0.112966090
0.271220893 0.161669880 0.109930478
0.287033707 0.172801927 0.109803997
0.307780176 0.179886192 0.109297931
0.334092557 0.184819847 0.108159423
0.361669958 0.196963966 0.105882056
0.392030656 0.203542024 0.103605419
0.418089867 0.211511731 0.102466933
0.446932197 0.220620126 0.102972999
0.479443043 0.229095921 0.102466933
0.515875876 0.235167935 0.102466933
0.549525321 0.241745874 0.099683717
0.587602377 0.244528934 0.095256008
0.629601121 0.245540947 0.090702064
0.671979308 0.248703048 0.090449065
0.711448491 0.249462053 0.089690059
0.758254230 0.251233280 0.090195999
0.804933488 0.252498329 0.089310616
0.849462032 0.248955995 0.087286994
0.132194996 0.152435005 0.113472320
0.132194996 0.152435005 0.113472320
0.134345219 0.154585779 0.111321546
0.135989845 0.155091479 0.109803677
0.141555995 0.155977011 0.106640995
0.152814612 0.159392372 0.110941999
0.159392685 0.156356648 0.108412318
0.169892386 0.156103611 0.107906327
0.176976681 0.156862512 0.104870319
0.187855527 0.169007286 0.108412318
0.208981410 0.164073125 0.111700997
0.225174189 0.169133246 0.115749255
0.240101323 0.174319997 0.115116678
0.249715343 0.180391997 0.113472030
0.265654832 0.184946001 0.110436417
0.291081786 0.189753607 0.114610992
0.311321974 0.200126439 0.113345809
0.337001801 0.206451565 0.111701265
0.362429023 0.216698319 0.108665347
0.384946406 0.220746651 0.110689029
0.417204410 0.228715897 0.109550677
0.445414245 0.237824127 0.108538806
0.477166295 0.246679515 0.106768005
0.508791506 0.250348330 0.101961002
0.545224249 0.256420314 0.101961002
0.583048284 0.261100650 0.096394658
0.625553131 0.263251007 0.089690067
0.668057859 0.268310875 0.087666318
0.712966442 0.266160637 0.085136004
0.755977094 0.264389426 0.083364785
0.806451380 0.264136612 0.080834694
0.858570278 0.261100650 0.076154359
0.127767280 0.169006705 0.116002291
0.126122996 0.172295704 0.117647000
0.131562218 0.171157479 0.115496226
0.133332998 0.172928706 0.111194998
0.136369288 0.171410412 0.107400090
0.145983294 0.177482411 0.116002411
0.154712006 0.175964311 0.116129026
0.165717706 0.172928691 0.109803997
0.174826086 0.172169402 0.105249994
0.186084732 0.182542965 0.109550998
0.203668579 0.182162955 0.112713128
0.218848810 0.182921946 0.114104547
0.234408930 0.189753339 0.117140934
0.248576999 0.195572376 0.115116678
0.265148699 0.203035697 0.112080708
0.283365071 0.209107891 0.112966284
0.307653487 0.218216673 0.114484489
0.333080113 0.226185828 0.112080708
0.359392971 0.233269960 0.110056974
0.385831654 0.240101352 0.112586647
0.413029730 0.245287955 0.112080708
0.446426123 0.253383696 0.111068577
0.477545798 0.261859506 0.108159289
0.509424388 0.267931908 0.105123281
0.544338524 0.271600693 0.100316294
0.582162917 0.277672708 0.100316294
0.624414861 0.280455410 0.092979066
0.666919589 0.284250408 0.089943454
0.710436463 0.285641819 0.086907163
0.759266078 0.279317200 0.085515484
0.804806769 0.278937429 0.079822719
0.859456003 0.278178692 0.072232708
0.123212896 0.184946194 0.116002090
0.123213291 0.191018194 0.117520481
0.126502231 0.192156777 0.115496226
0.131815001 0.189627096 0.114231192
0.134092093 0.189627096 0.107779644
0.141682193 0.194940105 0.117267780
0.148766324 0.194939777 0.120050810
0.158886611 0.192662716 0.118153289
0.174826086 0.190385997 0.112081088
0.183934495 0.196457997 0.112081088
0.198102772 0.200379223 0.112713128
0.210499987 0.204174459 0.113724999
0.225300536 0.206451744 0.113345645
0.246299967 0.209994063 0.115875974
0.264516085 0.219101667 0.112839587
0.282605797 0.226565182 0.111448102
0.300822198 0.234155372 0.112207197
0.323972136 0.245667562 0.109171420
0.354332954 0.248956233 0.109044902
0.384692997 0.257558554 0.110309750
0.415053457 0.264769197 0.111068644
0.446426123 0.270082086 0.108032964
0.479948968 0.276280612 0.104743592
0.513978601 0.285389006 0.102846004
0.549652040 0.289184302 0.100569099
0.588234961 0.292093962 0.096521005
0.628716171 0.297659904 0.096015073
0.671473920 0.297912896 0.092979461
0.713978529 0.299810141 0.091461167
0.759519100 0.298039138 0.088678002
0.810119867 0.291840911 0.088172011
0.855661094 0.297912896 0.076027997
0.114104509 0.203162983 0.125110477
0.123212889 0.209234983 0.122074865
0.125363499 0.213156208 0.117140926
0.125743002 0.213409171 0.116255321
0.128020093 0.210879505 0.119924426
0.146236867 0.210879505 0.110816032
0.151296631 0.213662177 0.112713195
0.156230003 0.214800492 0.115622737
0.165717721 0.214674011 0.118153095
0.183934495 0.214673996 0.121189475
0.195951998 0.220745996 0.115369737
0.206198767 0.226692006 0.113724999
0.218849003 0.230360985 0.112586647
0.237191573 0.231246457 0.109803975
0.255408317 0.240354076 0.106767580
0.278431445 0.249462292 0.103731811
0.300822198 0.256925970 0.105376475
0.323972136 0.263883561 0.109171420
0.354332954 0.272991955 0.106135018
0.384692997 0.281847328 0.103225872
0.415053457 0.289057970 0.104237735
0.446426123 0.294117838 0.104996644
0.479948968 0.297532976 0.101707980
0.516381800 0.306641370 0.092599578
0.552688062 0.308918476 0.092979282
0.591903746 0.309044987 0.092852801
0.634788156 0.309803903 0.089943066
0.680329263 0.312839538 0.086907454
0.723086417 0.313092500 0.089184150
0.765590847 0.313218981 0.086654015
0.810246408 0.312839508 0.082605995
0.858697474 0.313092500 0.082099997
0.102087006 0.227198005 0.119671002
0.105376393 0.230360866 0.116634645
0.118785769 0.229981095 0.117900029
0.122580871 0.232763857 0.116634868
0.123339877 0.235040992 0.119038679
0.131436005 0.235040992 0.120050937
0.147122458 0.235040992 0.110942543
0.153320879 0.239341870 0.114104867
0.160910875 0.241871864 0.116887905
0.174826100 0.241871864 0.115622737
0.190133005 0.238962740 0.118659124
0.202277005 0.243010461 0.116634868
0.215686426 0.249335766 0.116634868
0.234155908 0.254902035 0.115116999
0.255028814 0.258697331 0.109424450
0.278051972 0.262997955 0.106388062
0.302340388 0.274130166 0.106388316
0.325616837 0.284376860 0.109171420
0.351423085 0.291207939 0.106135026
0.379000485 0.294750333 0.105881996
0.411132187 0.303605258 0.102972873
0.443516999 0.310689390 0.101960741
0.477166355 0.315749735 0.099051133
0.516381800 0.322074771 0.098292090
0.550537288 0.322074592 0.089184292
0.590512097 0.322833657 0.088298999
0.634535134 0.325363874 0.087286867
0.677672446 0.330803305 0.086654454
0.725869715 0.328525901 0.080961339
0.772422194 0.326502085 0.079696365
0.817204058 0.326249123 0.076534003
0.861733139 0.328272849 0.076534003
0.083870754 0.253510237 0.113599002
0.088930883 0.258570373 0.112586871
0.096521273 0.255281478 0.115875773
0.106641658 0.253510237 0.115116999
0.108918749 0.258064270 0.113599002
0.118279748 0.261353254 0.114990681
0.129917815 0.259329498 0.116002418
0.146742910 0.259329498 0.111827739
0.156609923 0.263883412 0.116381839
0.170018747 0.265148252 0.115875773
0.187096864 0.266287118 0.112586871
0.202277258 0.267299503 0.113599002
0.213282615 0.271473736 0.112460360
0.228842556 0.278937489 0.111574747
0.248324126 0.280202657 0.109044746
0.278051972 0.287286460 0.107400194
0.300822198 0.291840255 0.104364194
0.325869858 0.303605139 0.106388420
0.352941304 0.309677482 0.106135026
0.377988368 0.314990610 0.105881996
0.411005467 0.318026513 0.103984743
0.444528848 0.326881379 0.100948870
0.478051722 0.333839476 0.097912520
0.515622914 0.338014245 0.096015260
0.556609571 0.343327224 0.095256291
0.592789233 0.341682494 0.087540001
0.637065291 0.344086170 0.085262872
0.681087852 0.348639965 0.082226485
0.726881802 0.350790679 0.080961339
0.771916568 0.349525511 0.076660238
0.820872784 0.346742660 0.072739013
0.866792977 0.347501248 0.070462003
0.061480008 0.280834645 0.108665355
0.065275013 0.284629643 0.108665355
0.074636139 0.287792295 0.111827999
0.086906873 0.283111632 0.116255350
0.091081806 0.282352626 0.110942349
0.103225999 0.285388649 0.110942349
0.115369998 0.287286311 0.114610963
0.129664764 0.287033647 0.113724999
0.149399355 0.287033647 0.113724999
0.165717527 0.289689809 0.116381831
0.180392101 0.291587502 0.112966351
0.198861614 0.293485284 0.110942349
0.212903351 0.296521634 0.108665355
0.223023027 0.302340597 0.105629027
0.242125183 0.303225994 0.104743645
0.270082146 0.309297800 0.104743645
0.300822198 0.316887647 0.105502546
0.323339552 0.322959781 0.101834364
0.353194326 0.329032570 0.103352033
0.380265653 0.335104614 0.104743645
0.413282454 0.340417534 0.101707742
0.448703378 0.343453139 0.097660005
0.482099742 0.352055490 0.094750129
0.517520428 0.355091900 0.093738258
0.557368517 0.359266639 0.092979357
0.600758970 0.363693982 0.090196364
0.640228033 0.363693982 0.084630288
0.684503376 0.366097182 0.079190105
0.732321441 0.367994845 0.078431003
0.776091337 0.369260013 0.075521596
0.821252525 0.371030986 0.072485976
0.872865021 0.368753642 0.066666998
0.036685940 0.308412075 0.105123028
0.036685940 0.308159024 0.105881996
0.044528969 0.314357847 0.108285740
0.059708968 0.318658948 0.110815868
0.078431033 0.315496057 0.112966031
0.090575807 0.309424073 0.112966031
0.103225999 0.312966049 0.117773578
0.117520697 0.317393750 0.118026614
0.134725034 0.319418043 0.112713002
0.159013048 0.319418043 0.112713002
0.169765905 0.319671065 0.112966031
0.186717242 0.319924027 0.113219000
0.205059990 0.321315646 0.111701027
0.218216062 0.323846012 0.106135026
0.239468426 0.326881617 0.103099421
0.265021801 0.331815064 0.102213971
0.293864399 0.337887049 0.103478804
0.324098587 0.343706101 0.105376035
0.351423055 0.349778891 0.099304035
0.381024688 0.356104016 0.100316361
0.416571736 0.361923009 0.097912975
0.454269379 0.367488921 0.092346974
0.488045931 0.370651066 0.086401485
0.521821856 0.373813957 0.089184128
0.559772253 0.376597315 0.089184001
0.601770937 0.379886389 0.086907014
0.646806061 0.382163018 0.081340939
0.686274409 0.382163018 0.078304559
0.735610366 0.382163018 0.077419005
0.782163322 0.381910056 0.074636050
0.827071548 0.383428007 0.069196619
0.878684044 0.389500022 0.066160999
0.006325193 0.338772804 0.096015424
0.006325193 0.335736424 0.105123043
0.008475967 0.339784950 0.110183001
0.022264622 0.343959808 0.111827739
0.045667164 0.342947662 0.109677419
0.072359055 0.339784801 0.103858426
0.089563817 0.338772804 0.106388107
0.108159706 0.341682494 0.110056877
0.128147110 0.343200713 0.108159326
0.149905443 0.340670377 0.100569010
0.171284288 0.343580246 0.103478879
0.187982410 0.345983535 0.105882168
0.206830993 0.349525392 0.108285643
0.224288061 0.354205996 0.109171413
0.248576805 0.351170361 0.109171413
0.269829184 0.351802796 0.106135190
0.296900809 0.356103808 0.105249576
0.327893943 0.361543238 0.106514573
0.360531420 0.364958495 0.108412392
0.385072410 0.373813897 0.096774399
0.416318774 0.378494710 0.093485266
0.451992661 0.384187281 0.090828583
0.488045931 0.391903400 0.089437097
0.530550003 0.397976190 0.086401477
0.568880379 0.398861796 0.080076136
0.609740734 0.402277380 0.077040017
0.653384089 0.406198740 0.075268939
0.698418379 0.403415382 0.072232559
0.740543544 0.403415382 0.066540018
0.786717117 0.401644617 0.067046233
0.832511127 0.401012212 0.065528430
0.881720424 0.404680401 0.060089007
0.000000000 0.369133592 0.098924994
0.000000000 0.366097182 0.105629414
0.000000000 0.369512588 0.101834029
0.002783357 0.371790141 0.106641009
0.018343017 0.370651782 0.107779741
0.039595149 0.369639665 0.107779995
0.078557841 0.364326596 0.104490675
0.098418899 0.367615581 0.102593005
0.121189289 0.370651782 0.104870290
0.145730689 0.369260103 0.105629310
0.162176073 0.369639635 0.098545067
0.187476441 0.368627518 0.099557199
0.207969636 0.370904446 0.103351995
0.228462875 0.375205606 0.107147224
0.257052600 0.374320209 0.104997002
0.276533782 0.378494769 0.107400194
0.297786206 0.375458777 0.105881996
0.326755315 0.378621191 0.103984587
0.361923009 0.385198832 0.099936970
0.389373839 0.391397953 0.096268184
0.419354528 0.398608595 0.093611933
0.455787450 0.402150661 0.091587670
0.495003164 0.408222318 0.090069517
0.532953799 0.412017792 0.087033898
0.575458348 0.418089986 0.086274996
0.616445243 0.419734657 0.080329128
0.659456074 0.424288720 0.079316996
0.704996407 0.425047338 0.078178354
0.745477438 0.424667776 0.058064215
0.793295324 0.426438987 0.060847394
0.841872275 0.424668163 0.063377813
0.891966999 0.424667776 0.058823999
0.001518192 0.394940197 0.104996994
0.001518192 0.393421978 0.104997009
0.003035997 0.393801391 0.104870416
0.000505998 0.401138246 0.097027190
0.003542355 0.399114549 0.102846190
0.018343003 0.397976190 0.109297931
0.053763643 0.394434005 0.105755873
0.087792709 0.393422186 0.102593005
0.111322001 0.397976190 0.098039001
0.139405295 0.397976190 0.104870290
0.161163673 0.396458000 0.101075128
0.181404054 0.397470117 0.099557191
0.208728731 0.396710724 0.099557191
0.231246218 0.399241030 0.104364194
0.260341823 0.397976190 0.102593422
0.287159979 0.399747193 0.104364187
0.306894183 0.402783185 0.102846004
0.329411536 0.397976190 0.102846004
0.363187790 0.404427409 0.096394762
0.392789364 0.412270904 0.092852831
0.425426900 0.418343157 0.090575546
0.459835410 0.423403054 0.091587938
0.501075149 0.426565170 0.088678196
0.537508011 0.430992901 0.087033898
0.576976538 0.431752175 0.081720807
0.620872974 0.436432511 0.081720807
0.665022194 0.439974904 0.078810938
0.712586582 0.444022954 0.077798814
0.751296401 0.445920199 0.067172751
0.800885499 0.447691411 0.056293197
0.848071158 0.450727582 0.059203018
0.896521211 0.448956192 0.054269809
0.003289425 0.418722540 0.109171420
0.003289424 0.418722540 0.101202026
0.006072226 0.418089956 0.101328425
0.005945576 0.420619994 0.100063413
0.000632576 0.428589135 0.094750412
0.008981942 0.425806463 0.105882429
0.039595492 0.423402816 0.103479013
0.074257113 0.423023254 0.099051304
0.102340572 0.425300539 0.096774012
0.132700592 0.425300539 0.096774012
0.159518868 0.423023254 0.098671578
0.184692815 0.423402816 0.100695670
0.210119903 0.425173908 0.101961002
0.236433014 0.428462625 0.101707973
0.262239397 0.426565558 0.101328425
0.291966975 0.425300539 0.103731766
0.319670737 0.425300539 0.102846004
0.340290695 0.425933123 0.097406588
0.367615163 0.425933123 0.097406581
0.398355305 0.431752324 0.094623774
0.431246042 0.439595550 0.091587849
0.468311220 0.444655418 0.089184128
0.504870474 0.447691053 0.085895494
0.541809201 0.453257143 0.084377430
0.581151247 0.453763247 0.078811139
0.621505380 0.454775453 0.073877424
0.668058634 0.457811207 0.072865427
0.719670951 0.463757455 0.069702558
0.758633554 0.466540307 0.065401703
0.805565894 0.470208764 0.062365796
0.859582603 0.472612530 0.057305448
0.896015406 0.475648135 0.045161430
0.000253039 0.452118993 0.106135018
0.000253033 0.452118993 0.090955421
0.004554031 0.449968219 0.093738228
0.006578160 0.449715197 0.098292030
0.003668965 0.452877969 0.097786024
0.003668965 0.452877969 0.097786017
0.029727992 0.452624977 0.096268348
0.067172460 0.452371955 0.092979282
0.105376229 0.452624977 0.090701997
0.135736987 0.452624977 0.090701997
0.160277978 0.452624977 0.099430859
0.188867509 0.452371955 0.103731692
0.220746264 0.451486349 0.104490660
0.254649073 0.449715078 0.101707958
0.269829422 0.455787838 0.098671570
0.298038989 0.453890145 0.100695826
0.328399390 0.452624977 0.100695767
0.355471134 0.453257561 0.097406574
0.373687953 0.456293970 0.094370961
0.406578332 0.453510612 0.091587611
0.437824458 0.459076762 0.088551775
0.471727133 0.465907872 0.086527966
0.510942519 0.468943506 0.085895486
0.550410926 0.471979916 0.076787084
0.591903567 0.475268662 0.072991744
0.631372333 0.480581671 0.070841029
0.671094239 0.488172024 0.069829017
0.722707331 0.491208404 0.063757025
0.763693750 0.491841018 0.055281170
0.808222353 0.495635957 0.050221290
0.857558191 0.499684006 0.045414388
0.905123055 0.499936998 0.036053028
0.005566004 0.474383384 0.103099354
0.000000002 0.477166712 0.096268386
0.004300999 0.477166712 0.093991235
0.005313001 0.477292925 0.095509000
0.001138643 0.479949355 0.092093542
0.001138643 0.479949355 0.089690343
0.026439283 0.479949355 0.089690343
0.068311036 0.476660371 0.090196282
0.111195192 0.475901365 0.091713995
0.141555995 0.479949355 0.095761999
0.171663716 0.479949355 0.090575509
0.202023953 0.479949355 0.091587894
0.234282002 0.478810996 0.093105689
0.268058062 0.476028085 0.093358666
0.290828794 0.477040201 0.090322927
0.310816169 0.480708569 0.092093535
0.335483909 0.481467545 0.092093833
0.362049311 0.482732743 0.090955332
0.388867617 0.483618349 0.094370961
0.418216407 0.483871400 0.091334641
0.449715495 0.482732743 0.090195999
0.484124243 0.488172382 0.087033652
0.525110841 0.492852718 0.083112143
0.559266269 0.493232280 0.074003734
0.605565906 0.503099382 0.076280639
0.644907951 0.504870057 0.066413365
0.681973100 0.508918107 0.056672633
0.731308937 0.518785775 0.055154644
0.774952233 0.519165337 0.046426497
0.819860756 0.522707343 0.040860135
0.868437886 0.527893722 0.037824258
0.917014718 0.529791057 0.032511353
0.005945744 0.503225744 0.088678271
0.005565996 0.500569403 0.095889002
0.000506003 0.503352702 0.094370969
0.004048004 0.502087533 0.093611740
0.000000000 0.504617274 0.087919191
0.000000000 0.509171426 0.084883198
0.027197896 0.509171426 0.088172257
0.067425646 0.507526755 0.083238557
0.114231281 0.503984809 0.086021453
0.145730719 0.508918464 0.092093743
0.174193740 0.509171426 0.092220001
0.204680502 0.511068702 0.086274520
0.236938536 0.511068702 0.083238617
0.269576043 0.508791983 0.084503263
0.298798054 0.507147729 0.083111942
0.326375782 0.507653654 0.084883198
0.350664198 0.510689259 0.086401008
0.374573112 0.512460530 0.085009828
0.404933482 0.511195719 0.089816995
0.431498736 0.513092995 0.083744653
0.461859465 0.513092995 0.080708265
0.493232131 0.514105082 0.080708265
0.532827258 0.519038737 0.076786779
0.567994952 0.519038737 0.074762836
0.610879302 0.524351716 0.065654747
