Assets/EldamarStudio/100 Retro LUTs Pack/LUTs/cube/Robert LUT.cube
LUT_3D_SIZE 5
DOMAIN_MIN 0.000000 0.000000 0.000000
DOMAIN_MAX 0.903226 0.903226 0.903226
0.133332998 0.074510001 0.094117999
0.181404278 0.087919287 0.108159289
0.275268555 0.116381995 0.109171413
0.443516970 0.170651257 0.103858002
0.706514716 0.209234998 0.094117999
0.127767280 0.169006705 0.116002291
0.165717706 0.172928691 0.109803997
0.265148699 0.203035697 0.112080708
0.446426123 0.253383696 0.111068577
0.710436463 0.285641819 0.086907163
0.006325193 0.338772804 0.096015424
0.108159706 0.341682494 0.110056877
0.248576805 0.351170361 0.109171413
0.451992661 0.384187281 0.090828583
0.740543544 0.403415382 0.066540018
0.003922000 0.537634254 0.074510001
0.066413529 0.538899362 0.081214301
0.298924387 0.542188644 0.076407000
0.506388247 0.544465423 0.067552134
0.791903853 0.577229321 0.019607902
0.005312988 0.830739558 0.001265167
0.000000000 0.834914327 0.002023991
0.306767553 0.841871977 0.001265006
0.592030227 0.850727439 0.000000000
0.864769399 0.856925726 0.002656833
0.135610282 0.082353003 0.185325697
0.175205410 0.094117999 0.182415992
0.266160399 0.118026704 0.187982276
0.441239685 0.134977713 0.194180995
0.711448312 0.167236179 0.191903695
0.112713292 0.170651421 0.176849693
0.160783991 0.177861989 0.180771694
0.261227131 0.195825279 0.187349692
0.443516970 0.236052990 0.184693277
0.719544590 0.257811725 0.187982693
0.001265006 0.337760687 0.179759577
0.083618008 0.338393122 0.190891996
0.237697706 0.347881377 0.183048576
0.448071092 0.375964373 0.183680996
0.746109843 0.393548399 0.183301881
0.001644708 0.533333540 0.188361824
0.000000000 0.537254691 0.185325861
0.288931102 0.538266838 0.182795539
0.510309815 0.544465363 0.185705408
0.788235605 0.577229321 0.173940390
0.003542137 0.838709414 0.144971430
0.001644708 0.836938560 0.137760609
0.290069669 0.841872275 0.127640724
0.587855935 0.849462271 0.124351725
0.870082378 0.855281472 0.097786359
0.107147001 0.097406581 0.338772804
0.166350707 0.102972701 0.328272969
0.263504416 0.120936416 0.327007949
0.448070943 0.125489995 0.362049550
0.725490153 0.081467621 0.378621221
0.052119020 0.189626992 0.325996101
0.137001708 0.183048576 0.328272969
0.253384113 0.192536697 0.328272969
0.447438240 0.208601832 0.352814674
0.726502240 0.200632408 0.371537238
0.000000000 0.339405358 0.330929816
0.001897590 0.343326777 0.324731082
0.231498986 0.355091393 0.342694819
0.460214943 0.369766086 0.353193790
0.754965425 0.365464568 0.359645814
0.002277288 0.537254691 0.353826791
0.001264999 0.539278924 0.359645814
0.248956114 0.541176498 0.357621819
0.504111350 0.543832958 0.359645814
0.799114585 0.569006860 0.372169375
0.005945571 0.832004726 0.368880808
0.000000000 0.839215875 0.358380824
0.215053558 0.838583469 0.371410668
0.575078845 0.849968255 0.363946676
0.870714843 0.859582603 0.361036986
0.002023998 0.103984997 0.551423252
0.124604695 0.111068577 0.552687824
0.284503818 0.116002284 0.554332376
0.473877132 0.118532874 0.551296294
0.736495733 0.063124612 0.588614762
0.000000000 0.200758830 0.545098126
0.024794456 0.199367419 0.550790250
0.274383515 0.202656567 0.547121942
0.461859226 0.211132139 0.546363115
0.739152312 0.193801284 0.578874052
0.000000000 0.373434812 0.545477271
0.003542133 0.375079095 0.545730531
0.222137660 0.370145380 0.549399257
0.470461667 0.367488801 0.550410926
0.766350269 0.355344683 0.581783533
0.000000000 0.541556239 0.557242274
0.000000000 0.539279103 0.560531378
0.210752785 0.543832958 0.561796367
0.510310233 0.549399257 0.567109287
0.818975389 0.556230128 0.594560444
0.003289165 0.839848459 0.607337117
0.000000000 0.844022572 0.605566084
0.090448961 0.844402134 0.606324792
0.540543914 0.850347579 0.600759089
0.869449377 0.856925786 0.597849250
0.003922000 0.112586975 0.847817540
0.001265167 0.115749568 0.834281743
0.302846372 0.107906409 0.841746032
0.561290085 0.072738722 0.839215636
0.819101393 0.000000000 0.842504561
0.002277292 0.220746696 0.841239393
0.006198873 0.221758559 0.845034599
0.278431237 0.215433285 0.838836312
0.551549613 0.207210407 0.844402194
0.817204416 0.159645900 0.847691417
0.000000000 0.402909815 0.851739407
0.000632584 0.395066381 0.844781637
0.199747205 0.396331638 0.850347579
0.547375083 0.380265504 0.842504561
0.836179554 0.349145979 0.849715114
0.000000000 0.597217262 0.855913818
0.002656578 0.592156708 0.860088468
0.129411563 0.586337924 0.857938170
0.543453336 0.577229381 0.854901731
0.860594749 0.562176108 0.860341430
0.000000000 0.864769399 0.852751434
0.000000000 0.865781248 0.857431591
0.001897590 0.863504410 0.852877617
0.542567909 0.862112582 0.861100435
0.866034269 0.866034210 0.868564546
