Assets/EldamarStudio/100 Retro LUTs Pack/LUTs/cube/Robert LUT.cube
LUT_3D_SIZE 8
DOMAIN_MIN 0.000000 0.000000 0.000000
DOMAIN_MAX 0.903226 0.903226 0.903226
0.133332998 0.074510001 0.094117999
0.161543012 0.078431003 0.098418549
0.191271186 0.090195999 0.106641091
0.244908631 0.101454645 0.100315996
0.318911970 0.127640992 0.107400186
0.415180475 0.162555248 0.105881996
0.552814543 0.191144705 0.103605293
0.706514716 0.209234998 0.094117999
0.130171001 0.126628548 0.105881996
0.146236539 0.127007991 0.109424450
0.189373538 0.132447988 0.109044902
0.246173099 0.140670449 0.110183448
0.305503190 0.167741910 0.105123192
0.416571647 0.199367732 0.107020736
0.545351028 0.227703825 0.099683717
0.711448252 0.240354449 0.088931151
0.123212896 0.184946194 0.116002090
0.134092093 0.189627096 0.107779644
0.174826086 0.190385997 0.112081088
0.225300536 0.206451744 0.113345645
0.300822198 0.234155372 0.112207197
0.415053457 0.264769197 0.111068644
0.549652040 0.289184302 0.100569099
0.713978529 0.299810141 0.091461167
0.061480008 0.280834645 0.108665355
0.091081806 0.282352626 0.110942349
0.149399355 0.287033647 0.113724999
0.212903351 0.296521634 0.108665355
0.300822198 0.316887647 0.105502546
0.413282454 0.340417534 0.101707742
0.557368517 0.359266639 0.092979357
0.732321441 0.367994845 0.078431003
0.001518192 0.394940197 0.104996994
0.003542355 0.399114549 0.102846190
0.111322001 0.397976190 0.098039001
0.208728731 0.396710724 0.099557191
0.306894183 0.402783185 0.102846004
0.425426900 0.418343157 0.090575546
0.576976538 0.431752175 0.081720807
0.751296401 0.445920199 0.067172751
0.005945744 0.503225744 0.088678271
0.000000000 0.504617274 0.087919191
0.114231281 0.503984809 0.086021453
0.236938536 0.511068702 0.083238617
0.350664198 0.510689259 0.086401008
0.461859465 0.513092995 0.080708265
0.610879302 0.524351716 0.065654747
0.784060359 0.548386991 0.033523127
0.001644712 0.650853574 0.037318014
0.000000000 0.647564530 0.034408730
0.068564303 0.645034611 0.036938440
0.257811576 0.651992202 0.024794381
0.386717290 0.656925738 0.016445441
0.525110483 0.657431841 0.013156438
0.661227107 0.665528297 0.006578009
0.812397122 0.679696560 0.002277288
0.005312988 0.830739558 0.001265167
0.001265167 0.836559296 0.000758999
0.003795184 0.834155500 0.002530012
0.213788778 0.838836193 0.004807010
0.398355544 0.843896210 0.000000000
0.554079711 0.848956406 0.001265167
0.712460518 0.851612747 0.002277288
0.864769399 0.856925726 0.002656833
0.129411995 0.078810550 0.146615997
0.153320551 0.089816548 0.141935095
0.196078002 0.096015446 0.139152542
0.239848197 0.114104643 0.146615997
0.310183376 0.125743344 0.143832743
0.413029730 0.154459193 0.147501618
0.548513532 0.185705289 0.146236554
0.710436463 0.196204722 0.136875257
0.127893895 0.127387539 0.146236554
0.145477548 0.127767086 0.142694101
0.188993990 0.132447988 0.142314553
0.229601279 0.147375003 0.143073544
0.304364532 0.166603550 0.139532000
0.413915187 0.193042547 0.142947540
0.543326855 0.217457533 0.142314538
0.714105010 0.228589550 0.135230541
0.116128996 0.192409649 0.142314553
0.135737002 0.192409649 0.149399355
0.166224003 0.193548203 0.149399459
0.218975544 0.206831202 0.143453181
0.304744184 0.233016819 0.144338906
0.409108222 0.257811278 0.141555652
0.550411165 0.284882843 0.136748835
0.719923854 0.288804740 0.131941542
0.055787273 0.281973273 0.143073544
0.083744459 0.283997536 0.137128189
0.137254909 0.292220116 0.147122368
0.210753083 0.293358743 0.139531910
0.292093277 0.316887647 0.135610193
0.409361243 0.337381452 0.136116445
0.557874918 0.354965091 0.132574290
0.731435895 0.362555623 0.123466447
0.002403808 0.394433707 0.135230541
0.003415642 0.389753520 0.139911339
0.101834103 0.396331161 0.135989636
0.208981469 0.399620295 0.132447898
0.298544914 0.403921545 0.137507558
0.425426930 0.415307075 0.129791349
0.576976776 0.432890654 0.125869647
0.755724192 0.443896532 0.121315368
0.001518192 0.499304205 0.126502350
0.000000000 0.506768167 0.133965999
0.089690283 0.505629539 0.131562084
0.229601622 0.506009102 0.133460000
0.347501367 0.507147729 0.128146634
0.464895457 0.507147670 0.127767086
0.608096004 0.525616467 0.123086996
0.783175170 0.549398839 0.107147455
0.002403711 0.650727510 0.103858106
0.001897740 0.650853574 0.103858106
0.038962457 0.650727510 0.100696005
0.239215538 0.653130531 0.105376303
0.382416010 0.653889775 0.097533301
0.516635299 0.659329534 0.088677980
0.658570349 0.665148795 0.079316981
0.806198835 0.677798867 0.061100841
0.001644716 0.833775997 0.016318569
0.000379548 0.835926473 0.012523582
0.001265168 0.838962734 0.015433462
0.187476426 0.841998458 0.010120383
0.389374018 0.844149590 0.001138547
0.553193986 0.849968135 0.001518192
0.710183322 0.854269564 0.003162908
0.864769399 0.856925726 0.004553989
0.131815001 0.083112098 0.197470099
0.145857006 0.094117999 0.199493647
0.186590895 0.096394897 0.200632200
0.236306444 0.108158998 0.198734745
0.318153083 0.121568806 0.213915199
0.413915128 0.122327901 0.217963189
0.550537288 0.136495903 0.212397203
0.712460518 0.151549906 0.213915199
0.124730997 0.124604993 0.196331546
0.141935095 0.134471640 0.190765560
0.176344097 0.132068440 0.197090551
0.230360195 0.139911458 0.195445642
0.308285832 0.156103909 0.212523907
0.416698456 0.162934795 0.206831291
0.553067923 0.184566543 0.207716823
0.712840080 0.197849423 0.215939552
0.104363993 0.189627096 0.191271201
0.136621997 0.189627007 0.195952103
0.161543101 0.202150196 0.196710989
0.220619738 0.207210645 0.193927631
0.301581293 0.224035084 0.198229000
0.410373390 0.244402111 0.201391101
0.550411165 0.264136702 0.208222583
0.722580612 0.269703001 0.208476007
0.022264719 0.288298190 0.199114099
0.051866166 0.285515547 0.199873090
0.128273442 0.289057285 0.199873105
0.195066184 0.295383006 0.203795090
0.291334212 0.312966645 0.204554096
0.409740806 0.331815541 0.200126544
0.555850625 0.345604092 0.202150196
0.735104620 0.347627640 0.210499942
0.000759096 0.395699084 0.205440000
0.001518095 0.390892088 0.201770738
0.069955811 0.397976220 0.206072181
0.192915723 0.397596538 0.202529728
0.291967273 0.403542101 0.201391101
0.426565558 0.414800942 0.201391101
0.578367889 0.426186115 0.205313101
0.754459143 0.436053127 0.205565929
0.002656642 0.505249977 0.213662356
0.000000000 0.506514907 0.204933465
0.024541548 0.510436594 0.200506002
0.211132377 0.507273734 0.204554006
0.336622387 0.509930313 0.202909291
0.456673115 0.511068702 0.202150196
0.612523854 0.522833705 0.207716912
0.785199285 0.542314708 0.202277198
0.003036190 0.648450375 0.196458191
0.000000000 0.649209261 0.201391488
0.001518199 0.647564530 0.201391488
0.219734535 0.652118802 0.197343096
0.370272160 0.655281425 0.194433898
0.513851941 0.656925738 0.193295360
0.654395819 0.663251519 0.195319295
0.813409209 0.677419484 0.188994288
0.000000000 0.840986550 0.172296196
0.004301451 0.834661603 0.176723450
0.003162904 0.836938679 0.173687369
0.149399072 0.841872334 0.176343903
0.378747642 0.844149590 0.166729957
0.546616316 0.847691119 0.167615488
0.706641018 0.852245331 0.154332682
0.871347249 0.856040537 0.148387119
0.116508357 0.094117999 0.289184004
0.139278650 0.096900649 0.276913643
0.177861989 0.100695640 0.282479644
0.235927001 0.112080991 0.277419269
0.309803843 0.121948451 0.300822198
0.413409352 0.122707352 0.307400644
0.543832898 0.115369715 0.315622985
0.723339379 0.083617844 0.321442008
0.101075001 0.131688997 0.279316634
0.128652900 0.133207008 0.283744186
0.174066991 0.139532000 0.270209074
0.225300536 0.142188549 0.276913643
0.303985000 0.150790647 0.298545182
0.413029730 0.158001453 0.301201731
0.553573549 0.157621995 0.314104915
0.718658626 0.138772890 0.317646742
0.074130617 0.198608637 0.275016010
0.100948550 0.196584284 0.274130166
0.154459000 0.202529743 0.280961543
0.214674190 0.208855554 0.282100081
0.305123627 0.217457563 0.287918746
0.410246581 0.226818338 0.294623911
0.557116032 0.234661832 0.301960826
0.723845601 0.232637554 0.307020783
0.000000000 0.287539274 0.281340986
0.019481361 0.292599648 0.274636626
0.095129818 0.292979181 0.281593621
0.195066288 0.300442636 0.293105990
0.294876546 0.311448425 0.287539274
0.412144095 0.324478000 0.290195823
0.567488492 0.330677003 0.298292279
0.740923166 0.332321286 0.310689449
0.000379548 0.398861200 0.289436728
0.002403808 0.394054174 0.286654174
0.005186560 0.396837652 0.287539274
0.174952641 0.398355633 0.289057165
0.293864727 0.405439645 0.296394855
0.426692098 0.412523925 0.293738186
0.585452318 0.423908979 0.302467108
0.758760154 0.426312476 0.313472718
0.000000000 0.505629659 0.298924625
0.003162904 0.501328468 0.300822288
0.002783363 0.502466857 0.296015292
0.182163268 0.511574984 0.305249661
0.327513933 0.509930313 0.301454872
0.454775572 0.509171426 0.307526708
0.611258626 0.524857461 0.305502981
0.789373517 0.538519740 0.314864010
0.001138644 0.648703218 0.312839627
0.000759096 0.647944093 0.310436279
0.000000000 0.648323834 0.306767941
0.170398340 0.652624905 0.306641340
0.357368797 0.655787230 0.309551001
0.505755663 0.658949971 0.305882335
0.651612937 0.663883507 0.307779968
0.817077935 0.678051770 0.305502743
0.004933830 0.838203430 0.310815990
0.003795086 0.838583291 0.307273805
0.002277188 0.842125118 0.301075459
0.065148965 0.841619253 0.298418462
0.357874662 0.844022751 0.298545271
0.535863221 0.848323822 0.300316453
0.705249786 0.848703265 0.296521336
0.870588064 0.855534434 0.294244349
0.081720807 0.096521199 0.385325581
0.120430157 0.099936642 0.387729377
0.170778006 0.105882190 0.387602478
0.232637286 0.110183448 0.384946048
0.310183376 0.120682992 0.383807391
0.416318923 0.123086803 0.401897460
0.548892975 0.116255514 0.426186115
0.724731028 0.078178361 0.441745371
0.054902270 0.144212186 0.383807391
0.099177547 0.139911354 0.385958552
0.158254176 0.148640260 0.390132993
0.230360284 0.148640260 0.381910026
0.305123627 0.158001453 0.391271532
0.413915098 0.159898907 0.401897281
0.557368636 0.153700203 0.422138095
0.726248920 0.134724751 0.437697560
0.000000000 0.210752904 0.375838280
0.032763921 0.208855450 0.384313762
0.130297005 0.209108189 0.386084467
0.212017745 0.212650537 0.381530374
0.294623882 0.221758187 0.386970252
0.415433198 0.228336543 0.396331370
0.558254361 0.232764095 0.415939301
0.731309593 0.219607919 0.435167462
0.001138644 0.301960617 0.386590719
0.001518095 0.306388199 0.384186953
0.032258183 0.303099155 0.389500171
0.178620994 0.306641400 0.382542849
0.289689988 0.313345999 0.387349844
0.419354916 0.319291443 0.402656198
0.570018828 0.320556283 0.417836815
0.746362925 0.313598990 0.425047368
0.000000000 0.389247179 0.379633158
0.000379548 0.396837533 0.398481756
0.000000003 0.400379181 0.393295258
0.147374928 0.404680640 0.398355544
0.299937189 0.404933572 0.399241179
0.433143884 0.413662195 0.401391625
0.591777384 0.411385298 0.407337368
0.768247902 0.412397385 0.425553352
0.002024260 0.506768167 0.418342888
0.000758999 0.506009161 0.409234732
0.000759096 0.506009042 0.406704634
0.138519719 0.504364431 0.414041817
0.314990640 0.509930313 0.410752803
0.456799716 0.514611185 0.411132365
0.619481087 0.521315455 0.420999646
0.800126493 0.530676842 0.428336471
0.002403808 0.649968326 0.430740088
0.000000000 0.650600731 0.426312387
0.003162711 0.649968326 0.426945210
0.076660186 0.653636873 0.423782200
0.333459556 0.656925738 0.422011465
0.498671740 0.659203053 0.424541175
0.651992440 0.658443987 0.420493484
0.828589439 0.677292705 0.427704036
0.002403808 0.838583291 0.432890564
0.001138640 0.839215755 0.423655868
0.005060156 0.841998518 0.429854274
0.000000000 0.848703325 0.429475009
0.312081158 0.847564876 0.426312715
0.519038618 0.851865768 0.429095566
0.698039353 0.851739526 0.427704096
0.868564188 0.855787396 0.428716213
0.010120267 0.103984743 0.519038737
0.068690822 0.106135443 0.523213267
0.157242462 0.109803997 0.517267823
0.243263632 0.110942349 0.514104784
0.335863173 0.115749262 0.511827707
0.432384700 0.123592734 0.512839973
0.558507264 0.115749262 0.522327423
0.732700586 0.065654941 0.560531259
0.003542452 0.140417099 0.514611185
0.022897273 0.141429350 0.518532276
0.136495903 0.146109730 0.519038737
0.233775914 0.148893192 0.505755603
0.330676764 0.153573900 0.507779777
0.434914917 0.156736284 0.513472557
0.559645712 0.153700292 0.527893782
0.732953906 0.131941721 0.551676035
0.002024260 0.221758187 0.513219476
0.002656546 0.223402902 0.505502939
0.069576263 0.224161997 0.517393708
0.209614545 0.222896829 0.514231741
0.322580487 0.224035189 0.511448383
0.424414992 0.233902737 0.513725340
0.563693702 0.231372803 0.526755214
0.738646328 0.216824844 0.548766613
0.000000000 0.322833270 0.515116751
0.000379548 0.323213041 0.505375981
0.001897546 0.312080622 0.518406153
0.155091897 0.320050627 0.514484465
0.300948918 0.317646831 0.513472557
0.423402578 0.318152905 0.510689437
0.572549105 0.318152905 0.525996089
0.756103754 0.311574727 0.550411344
0.005819256 0.415812433 0.515117347
0.002024260 0.417204648 0.513472497
0.002783356 0.417963445 0.511575162
0.103731737 0.415686548 0.514990628
0.292726368 0.415939391 0.518279672
0.439468712 0.410626203 0.524477959
0.599114478 0.412523955 0.538519740
0.779506505 0.406830996 0.552308738
0.002024260 0.509171426 0.520809472
0.000758999 0.509930432 0.519670844
0.001517998 0.511448443 0.521568596
0.091081738 0.514737487 0.523086488
0.303098917 0.513472497 0.532700479
0.461733460 0.519038677 0.534724772
0.629601300 0.520936012 0.538772762
0.807084024 0.523339510 0.557874739
0.000000000 0.649209261 0.552941442
0.000000000 0.650980055 0.549399018
0.000379548 0.653004348 0.550284684
0.029601553 0.655407727 0.548513770
0.312713832 0.659202993 0.554206312
0.487286747 0.661606848 0.547248721
0.658317804 0.663251579 0.551296711
0.843516469 0.675395131 0.558254361
0.003289105 0.838077307 0.568627536
0.001518192 0.840101063 0.573940456
0.000000000 0.842504740 0.566856384
0.001138644 0.844022751 0.569006801
0.263250738 0.849209130 0.561922729
0.497027427 0.847817540 0.564073265
0.691207886 0.853383839 0.561796010
0.872738540 0.852624655 0.560151637
0.002277288 0.106514998 0.671094537
0.001897740 0.107779734 0.669070303
0.111701727 0.109677091 0.669576406
0.246046990 0.108159281 0.672106266
0.361796170 0.105123289 0.673497796
0.481720477 0.095888719 0.659962118
0.600126863 0.085009433 0.666160822
0.742441475 0.049082920 0.674889266
0.007084001 0.148893282 0.675901294
0.000379548 0.150917456 0.674383581
0.068817541 0.154206097 0.663377643
0.234282002 0.154965267 0.665654719
0.349399090 0.152182192 0.662365556
0.481973469 0.147121981 0.667678714
0.604301035 0.139658108 0.663251519
0.745983303 0.119544633 0.669196784
0.000000000 0.231878474 0.670461535
0.001518192 0.230360284 0.666413605
0.004807197 0.231119186 0.665401518
0.200126916 0.229854435 0.669323206
0.335736662 0.232637376 0.665528417
0.469702452 0.233143643 0.661606669
0.602529824 0.221885100 0.663883567
0.754712045 0.211765110 0.675521910
0.000000000 0.332447648 0.672106564
0.000000000 0.328526199 0.660974264
0.001138644 0.328526199 0.667172551
0.110436291 0.324604928 0.666034162
0.314104915 0.328652740 0.666413724
0.459329545 0.327640891 0.665528536
0.604048073 0.320556283 0.664389849
0.764958858 0.306008637 0.674763024
0.000000000 0.432384372 0.666160643
0.000000000 0.435293794 0.674636126
0.002277094 0.434788167 0.669576406
0.028462909 0.427830398 0.670588136
0.298039079 0.423908979 0.665528238
0.466034025 0.417963654 0.671094537
0.618975341 0.413029999 0.673497796
0.792536139 0.399999946 0.688930690
0.001644712 0.537254512 0.673371255
0.002783259 0.537634015 0.679316819
0.003035998 0.534977555 0.675901115
0.023655981 0.529032171 0.675395250
0.298544973 0.528273165 0.679443240
0.476280749 0.521695018 0.678937554
0.645287812 0.522580326 0.685389042
0.818722188 0.524731457 0.700695813
0.000000000 0.664516091 0.675648510
0.000379548 0.659582555 0.677925289
0.001644712 0.663124681 0.682858527
0.002277288 0.661606550 0.683491588
0.291081280 0.667172551 0.689310491
0.487666190 0.669070303 0.688298225
0.664516091 0.671726584 0.694623590
0.844781876 0.677672386 0.699177742
0.000379544 0.841618955 0.707273602
0.000000000 0.841998398 0.704870224
0.004427749 0.843390286 0.708032846
0.001138644 0.847058833 0.711574912
0.269829184 0.847311616 0.713093102
0.489436895 0.856546283 0.711701512
0.683491528 0.853004396 0.709044695
0.869576097 0.860467851 0.710309505
0.003922000 0.112586975 0.847817540
0.000379548 0.115369715 0.836685479
0.017710198 0.116508737 0.835799813
0.231752083 0.103731826 0.843516767
0.384566367 0.097533010 0.834408283
0.524857581 0.079823174 0.839974761
0.667678833 0.029348290 0.838456750
0.819101393 0.000000000 0.842504561
0.000379548 0.160531089 0.846426547
0.001265167 0.153953254 0.840986788
0.005439583 0.158254385 0.836685538
0.208981469 0.160151541 0.835546672
0.379253387 0.152308539 0.841745853
0.519797444 0.141176388 0.838330269
0.662871480 0.115623109 0.839848280
0.816191912 0.049841933 0.840607405
0.000759096 0.241999090 0.836432338
0.003162904 0.243517086 0.838203669
0.006451821 0.244529098 0.840227485
0.163566992 0.244528905 0.845793486
0.356483102 0.241366193 0.841366470
0.510815680 0.235547453 0.843643427
0.665022075 0.217963099 0.844402492
0.817204118 0.188994199 0.845920324
0.001518189 0.344592065 0.838583291
0.001138644 0.346236467 0.842378438
0.001265167 0.345350802 0.840227604
0.043390207 0.346236467 0.841113210
0.331435800 0.339658320 0.843263745
0.503858209 0.332700729 0.844528794
0.661100626 0.320556283 0.843896270
0.828083336 0.296647847 0.843643188
0.000000000 0.454016536 0.844781518
0.001138640 0.452371806 0.843136966
0.000759097 0.446299911 0.843516469
0.001138644 0.441998810 0.840354323
0.310815990 0.438330233 0.845667362
0.501834154 0.431245744 0.851486325
0.673118472 0.420746267 0.848956585
0.843010604 0.399620175 0.850347579
0.000000000 0.566097498 0.855407774
0.000000000 0.569386423 0.857431710
0.001138645 0.562049210 0.851992548
0.004427749 0.552435160 0.849209368
0.281088024 0.550157964 0.853004456
0.498671621 0.545603752 0.854901671
0.681973040 0.536875010 0.856546283
0.858064651 0.524731457 0.856040478
0.002277288 0.701960683 0.856672943
0.000379548 0.696141660 0.854775310
0.005819161 0.702846289 0.856166780
0.000000000 0.699936509 0.855407953
0.271600187 0.696015477 0.861353517
0.489436895 0.693738163 0.855913877
0.685768247 0.685515404 0.858443856
0.868310988 0.686527252 0.860847414
0.000000000 0.864769399 0.852751434
0.002656833 0.862871528 0.863756955
0.000759096 0.864010334 0.851865649
0.003795180 0.866540253 0.864642560
0.207337156 0.860594332 0.858570457
0.490196079 0.859582543 0.861606479
0.694750369 0.858190536 0.860974193
0.866034269 0.866034210 0.868564546
