Assets/EldamarStudio/100 Retro LUTs Pack/LUTs/cube/Robin LUT.cube
DOMAIN_MIN 0 0 0
DOMAIN_MAX 1 1 1
LUT_3D_SIZE 32
0.078431003 0.098039001 0.121569000
0.075395390 0.095003389 0.112460613
0.074510001 0.094117999 0.109803997
0.080835164 0.095382839 0.112333998
0.096394993 0.098039001 0.118026547
0.114611000 0.098039001 0.121062934
0.142947644 0.098039001 0.124098673
0.173307985 0.094750002 0.125489995
0.204427287 0.087918907 0.127007991
0.237824485 0.078810520 0.133079991
0.274130732 0.075521871 0.127514005
0.318659484 0.070462003 0.123466261
0.367236286 0.060974360 0.123845994
0.415813059 0.045034938 0.129411995
0.464389801 0.020746185 0.129411995
0.520177364 0.006072009 0.129411995
0.577862144 0.000000000 0.132447988
0.633649290 0.000000000 0.138519987
0.682226956 0.000000000 0.144592002
0.725237012 0.000000000 0.147881359
0.765844226 0.007589993 0.152814999
0.805313110 0.027830247 0.161923125
0.844528556 0.064389460 0.176723987
0.877925694 0.103857912 0.182796001
0.911322296 0.141049564 0.193421990
0.943326950 0.177482307 0.204174668
0.972169042 0.212397069 0.214295074
0.993421435 0.239721417 0.229475439
0.998734832 0.272359461 0.252624929
1.000000000 0.305756122 0.275142163
1.000000000 0.337381572 0.297280192
1.000000000 0.364706010 0.321568996
0.075395390 0.095003389 0.112460613
0.075395390 0.095003389 0.118532613
0.083112001 0.089816995 0.111574993
0.091713995 0.091840841 0.112333998
0.104743704 0.098418549 0.118405998
0.117647387 0.101075388 0.124098539
0.143453717 0.098545067 0.124604613
0.173307985 0.098039001 0.120556295
0.202909291 0.095509097 0.117140710
0.231752485 0.090955295 0.120935991
0.279696703 0.090575777 0.124098867
0.322707236 0.081593879 0.122454390
0.369133532 0.072359264 0.123845994
0.415813059 0.060974356 0.128905997
0.464389801 0.045034960 0.123339996
0.512966573 0.027956981 0.123339996
0.570271969 0.016698197 0.127893791
0.627577126 0.010879011 0.134218603
0.676154137 0.006072014 0.135483623
0.727514327 0.019987360 0.147122324
0.766982853 0.032637376 0.154712260
0.803289115 0.056166764 0.161922619
0.838583052 0.094623759 0.171157226
0.874889314 0.131183073 0.188868001
0.910563171 0.159266144 0.199493989
0.944718659 0.188488021 0.210246667
0.975205481 0.219481185 0.220872983
0.996457815 0.251866192 0.238583058
0.996457577 0.281846702 0.251107246
0.995192826 0.311321735 0.270335346
0.995698988 0.341302812 0.293864578
1.000000000 0.370777994 0.324604601
0.072359227 0.102720000 0.111954227
0.072359227 0.102720000 0.115875997
0.078811005 0.098418996 0.115496226
0.092220157 0.096141838 0.115749389
0.106767774 0.102719545 0.121188998
0.125996098 0.105755933 0.120177001
0.142188549 0.108032681 0.116887994
0.171157628 0.106641002 0.120176993
0.201517969 0.106641002 0.116634868
0.230234474 0.104996704 0.119671263
0.275774956 0.100569226 0.124857865
0.326375961 0.098545492 0.127893746
0.371031046 0.089057550 0.124604873
0.416066051 0.080708705 0.125616997
0.466540009 0.067425594 0.127135009
0.515116811 0.062997982 0.132321224
0.562175810 0.052371774 0.127767429
0.619734108 0.045161135 0.134345338
0.674382985 0.040607333 0.141935557
0.721442103 0.051865913 0.146615937
0.767362475 0.065148532 0.154965222
0.805313110 0.084882796 0.164832264
0.840986550 0.118279733 0.173308015
0.875395596 0.150664032 0.185452044
0.903225780 0.175837994 0.190512210
0.936875522 0.204300985 0.206830859
0.969513059 0.232637540 0.220999286
0.997343421 0.261100560 0.240859985
0.999493957 0.289689928 0.253763646
0.998228788 0.320050359 0.265907943
0.996457994 0.348639965 0.289563566
1.000000000 0.379000783 0.325489998
0.068057999 0.114863992 0.116255321
0.068057999 0.112333998 0.116761386
0.073244616 0.113092996 0.119291387
0.087413006 0.108286165 0.113724999
0.102213837 0.110942319 0.121315375
0.122959837 0.113093093 0.116128996
0.149778485 0.116128840 0.115116999
0.171916395 0.118785322 0.114358157
0.202277184 0.118785322 0.118153065
0.232637987 0.118785314 0.120177329
0.275015861 0.115496323 0.124857999
0.323339581 0.111448258 0.126375735
0.374952734 0.108412646 0.129411638
0.417584062 0.102720127 0.121315971
0.465148360 0.093611494 0.124351829
0.518152773 0.091081321 0.135357350
0.563946605 0.088045321 0.140417024
0.611385107 0.085768305 0.135104403
0.670840979 0.085895136 0.149019808
0.716381907 0.094244167 0.151802644
0.760025322 0.107653312 0.156736001
0.801518202 0.120809443 0.163820133
0.840733647 0.144212633 0.175838321
0.874130547 0.171157315 0.187223271
0.901961029 0.194686592 0.192030162
0.930297136 0.216444984 0.197975636
0.959139884 0.248830065 0.217710122
0.989500225 0.273877144 0.236685589
1.000000000 0.299557090 0.252498478
1.000000000 0.327387512 0.267172784
1.000000000 0.356862694 0.283744395
1.000000000 0.386844009 0.321694851
0.060847450 0.127767086 0.121569000
0.061606452 0.122454092 0.119291611
0.066666551 0.124225095 0.121568546
0.078684159 0.126881704 0.122453928
0.099177547 0.124225549 0.113724999
0.111321546 0.124225549 0.110689387
0.145856962 0.125996217 0.114863999
0.178747699 0.129411712 0.118912160
0.207210645 0.132068545 0.121189453
0.237571448 0.132068545 0.118153065
0.277039856 0.132068545 0.120177321
0.322201043 0.130044281 0.119544744
0.371916384 0.127387643 0.118785642
0.422264516 0.124605000 0.122327968
0.461606383 0.121695131 0.119797580
0.515875816 0.121821545 0.129664794
0.566350400 0.119544543 0.139152348
0.611005664 0.116508529 0.142314583
0.665654540 0.128652558 0.151422977
0.709550738 0.135610104 0.152941003
0.752814472 0.146995276 0.157494992
0.793168783 0.161796212 0.164199680
0.832258403 0.177229568 0.173181534
0.865401864 0.198481992 0.187602907
0.895003259 0.218975365 0.197090551
0.924731195 0.240227744 0.205186531
0.956483066 0.261353612 0.217710122
0.977735400 0.288677961 0.229854882
0.993674815 0.313346088 0.246932417
1.000000000 0.338267148 0.265907496
1.000000000 0.364832550 0.285641551
1.000000000 0.392156988 0.312965989
0.045667067 0.145983875 0.121569000
0.051739067 0.145983875 0.124604613
0.061100610 0.144971862 0.122327775
0.074762933 0.145983875 0.122074932
0.093105540 0.145477936 0.119797774
0.108285934 0.145477936 0.113724999
0.140670583 0.142947614 0.115749381
0.172675699 0.145856932 0.117647000
0.201518089 0.150664091 0.118912160
0.234535053 0.153320938 0.121189453
0.276533782 0.153320938 0.118153065
0.320556760 0.151296675 0.118153065
0.368880570 0.149398938 0.118785642
0.419228137 0.148892999 0.122327968
0.455660880 0.148892999 0.131435573
0.511827588 0.153193936 0.133712798
0.564452648 0.155217931 0.140290990
0.610752702 0.155470923 0.144591942
0.662618876 0.162048936 0.145350978
0.708918273 0.171410292 0.151675999
0.755850434 0.181909859 0.160530984
0.797343254 0.194560200 0.169639260
0.829222023 0.207590356 0.176217929
0.859582841 0.228842765 0.182289943
0.892726302 0.245541140 0.196711272
0.923719287 0.264516503 0.206198931
0.953573942 0.285262853 0.214801013
0.977735400 0.303858340 0.229854882
0.993674815 0.328525871 0.244655117
1.000000000 0.349272460 0.265654445
1.000000000 0.369892597 0.287159920
1.000000000 0.392156988 0.306894004
0.020366682 0.169259995 0.116508357
0.026438681 0.171790317 0.114484616
0.041113228 0.171790317 0.119670995
0.059076678 0.170525149 0.120303839
0.080581777 0.169639543 0.121189453
0.102213934 0.171790317 0.117267452
0.127514318 0.169259995 0.121315315
0.159013376 0.167868316 0.122706994
0.193927959 0.171410412 0.122706994
0.241492838 0.174446806 0.123972155
0.278558046 0.174573317 0.126249447
0.325110793 0.178621307 0.125237316
0.373434633 0.178241640 0.127514318
0.424541086 0.178494602 0.131688997
0.467805117 0.180771321 0.133965895
0.516255677 0.187982127 0.138266519
0.572042823 0.195698828 0.142821059
0.620872676 0.200632527 0.149525732
0.672486007 0.208602294 0.155218005
0.721062660 0.214927316 0.158254325
0.760910749 0.227830693 0.164326310
0.800885618 0.240607262 0.175205305
0.831372797 0.252751619 0.184313670
0.864136815 0.266793221 0.190385684
0.896774292 0.285768300 0.201012254
0.930170655 0.301201642 0.215939656
0.960657835 0.320177048 0.226439312
0.984946251 0.340417296 0.239595443
0.991144478 0.361416578 0.257305443
0.995698869 0.382163048 0.274256706
0.996710956 0.400379628 0.301454872
1.000000000 0.419987321 0.331182629
0.006198711 0.198481694 0.112080708
0.007337006 0.198229089 0.115623094
0.013788851 0.199114695 0.119038701
0.029475303 0.196584702 0.122580700
0.053763404 0.194686860 0.123719446
0.083112173 0.200252920 0.118153065
0.119797610 0.194940090 0.124351703
0.152055696 0.191903695 0.128778994
0.180898085 0.192662790 0.128778994
0.231499076 0.195699185 0.128778994
0.277040035 0.197469980 0.131688863
0.321568757 0.201517984 0.134345278
0.370145559 0.208728626 0.133206919
0.422011137 0.211005732 0.137254998
0.474509925 0.216824695 0.137254998
0.519923985 0.221378490 0.138013914
0.570019364 0.230486885 0.145603716
0.621505201 0.239595264 0.151296869
0.673118293 0.248703659 0.158380762
0.723592758 0.256673425 0.163567364
0.764579475 0.266793430 0.168500990
0.798987985 0.281973839 0.175585121
0.829854548 0.294623882 0.187223211
0.867805183 0.305249691 0.197849423
0.899557292 0.320303380 0.206830859
0.928779304 0.338519722 0.218975618
0.960404754 0.353953034 0.233902931
0.985831857 0.372928113 0.247185275
0.994813144 0.394180506 0.266286969
0.997596204 0.408728391 0.284503400
0.995445967 0.427830577 0.305376559
1.000000000 0.446805716 0.341809005
0.003922000 0.230360284 0.112839997
0.001644709 0.228083566 0.121189281
0.002150774 0.227198184 0.128146902
0.005186906 0.226186186 0.129411995
0.017710453 0.220873192 0.130171001
0.051486678 0.228842348 0.122960158
0.100822210 0.222770423 0.126755312
0.142188400 0.217710480 0.131056279
0.180898085 0.213156104 0.135610089
0.214294508 0.216192499 0.135610089
0.261353523 0.220746323 0.137001768
0.309424400 0.226565272 0.138519838
0.361037165 0.233016834 0.140037641
0.410372972 0.242378190 0.137507960
0.470588386 0.251992524 0.138013899
0.520683050 0.257811487 0.138772994
0.566223681 0.265401274 0.144086093
0.614168584 0.274509668 0.153700098
0.665528178 0.283618063 0.156609982
0.715623021 0.292726457 0.163947001
0.758507431 0.302973181 0.170018986
0.792915940 0.315370232 0.177103117
0.823402524 0.330297589 0.186211497
0.864009917 0.339405388 0.200126916
0.898165584 0.353826463 0.212270692
0.926502228 0.369639426 0.221252322
0.951296985 0.386338174 0.233396992
0.978621364 0.401011825 0.248323619
0.993042231 0.419227988 0.271852881
0.997849226 0.435673267 0.292852491
1.000000000 0.444528580 0.309171468
1.000000000 0.465781003 0.336495906
0.003922000 0.257685483 0.124984011
0.003922000 0.257685483 0.131055996
0.003795484 0.257559001 0.137254521
0.002656840 0.257559001 0.137001678
0.002530063 0.257305980 0.130171001
0.017710438 0.257305980 0.136243001
0.076786637 0.250095159 0.136622488
0.127893597 0.245920509 0.135357291
0.168754086 0.243516907 0.135610104
0.214294508 0.234408498 0.144718483
0.250600725 0.243263885 0.141808614
0.291714013 0.252119213 0.139025792
0.341302782 0.259962440 0.137381494
0.401264578 0.266666979 0.137507975
0.458949685 0.278810978 0.140543580
0.516761363 0.288425297 0.143453330
0.569259822 0.300316244 0.149399191
0.617204189 0.313978076 0.156736493
0.662745476 0.323086470 0.156736508
0.708538830 0.332194865 0.167995006
0.750537694 0.341303259 0.176090986
0.786844015 0.351549983 0.183175117
0.817330539 0.363694012 0.192283496
0.850727737 0.372802436 0.201391906
0.884503782 0.388741463 0.215306684
0.914990664 0.405439645 0.226059318
0.942188561 0.419734538 0.233396992
0.969512939 0.428842902 0.245541006
0.991524279 0.440860450 0.276407242
0.999873459 0.456925899 0.303984880
1.000000000 0.471220493 0.323592842
1.000000000 0.477925003 0.333459496
0.003922000 0.293738008 0.137127995
0.003922000 0.293738008 0.137380987
0.003922000 0.289436996 0.137001783
0.003922000 0.290448993 0.139531717
0.002530323 0.293738008 0.138899222
0.002530065 0.293738008 0.144971877
0.037950449 0.286148310 0.140923232
0.099683367 0.283618003 0.143453538
0.150790542 0.284123957 0.143453553
0.196331516 0.279317111 0.141808614
0.247691602 0.273118615 0.150917009
0.282100111 0.274130493 0.151929140
0.325363636 0.279696643 0.154079869
0.380265266 0.288298815 0.156862840
0.435294211 0.303098977 0.149272457
0.502593338 0.315243602 0.149904877
0.562302530 0.330930054 0.149399191
0.615053952 0.347628027 0.153573990
0.662871957 0.356735855 0.162682012
0.702846408 0.368627578 0.165464655
0.744338691 0.377861977 0.173434600
0.781783640 0.386970133 0.178494737
0.814041853 0.396963865 0.183934107
0.844654977 0.403288901 0.195825174
0.873498142 0.414674580 0.204933554
0.908412576 0.428842723 0.218848646
0.941303015 0.441492945 0.233017191
0.966223538 0.450601310 0.257178992
0.990891755 0.462365866 0.274636656
1.000000000 0.474509835 0.301454812
1.000000000 0.488677830 0.324857712
1.000000000 0.498797894 0.342061847
0.001897744 0.334218502 0.143200263
0.001897744 0.334218502 0.143200263
0.001897744 0.331941754 0.145098031
0.004427744 0.328399748 0.142062083
0.005186741 0.331815213 0.142820716
0.000506065 0.330170512 0.143959358
0.006578082 0.328652561 0.143959358
0.062491864 0.322833955 0.149398699
0.127008036 0.323592663 0.153573737
0.180139244 0.320556700 0.147501290
0.237571090 0.318659216 0.151929140
0.283111960 0.310562968 0.156989008
0.318785638 0.305249900 0.156609744
0.366856307 0.309551209 0.159392789
0.419734091 0.324730814 0.160910845
0.478304863 0.343579590 0.156989008
0.540543854 0.355724365 0.161543190
0.597090483 0.374193817 0.160531417
0.648450732 0.386084825 0.165717736
0.692726135 0.402023971 0.169512913
0.732194960 0.412270963 0.172548994
0.770651281 0.420366734 0.179506868
0.805186510 0.428463012 0.185198992
0.839341998 0.436432749 0.201138526
0.871473849 0.445034564 0.217077538
0.898798645 0.454395980 0.224794239
0.933713019 0.465275109 0.237065062
0.959519207 0.475901693 0.255281419
0.983807325 0.485641986 0.272612393
0.999240875 0.494243979 0.296141893
1.000000000 0.504996598 0.320682943
1.000000000 0.516002238 0.343073726
0.000000000 0.384692907 0.151928991
0.001138644 0.381277561 0.150790647
0.000000000 0.383681029 0.151802778
0.001391646 0.378494918 0.153447479
0.006325098 0.378874362 0.150790647
0.001012001 0.377355993 0.148513347
0.000000000 0.373434275 0.146868646
0.011638181 0.375205636 0.147121698
0.094370656 0.369892716 0.160784096
0.165338501 0.365717769 0.156609654
0.229601383 0.364452899 0.158127874
0.278178126 0.359519303 0.160025388
0.321821272 0.350410908 0.163060993
0.361543417 0.341809243 0.157748029
0.410499364 0.351675838 0.165085405
0.464642376 0.368247718 0.165717840
0.518532395 0.388361663 0.165338188
0.573813677 0.401138693 0.173813984
0.628969252 0.416318983 0.172295675
0.679823041 0.434282303 0.173687354
0.728399575 0.446806014 0.177862078
0.763820708 0.455914140 0.183934599
0.799873233 0.462112635 0.193421751
0.836305797 0.470208883 0.210626155
0.869323254 0.480455637 0.226565629
0.901075661 0.487033248 0.241492629
0.929412067 0.493105263 0.250094712
0.958001435 0.503984869 0.261733085
0.979253590 0.512333810 0.280708462
0.993548214 0.521947920 0.302972794
1.000000000 0.528905332 0.331182808
1.000000000 0.538013637 0.355976909
0.000000000 0.446173042 0.168626994
0.002783355 0.437824428 0.166097388
0.002024258 0.440860271 0.164452970
0.001012129 0.443390191 0.165465042
0.003795484 0.434535474 0.164706007
0.000759097 0.437571108 0.164706007
0.000000000 0.431245744 0.163187742
0.000000000 0.429601461 0.158760041
0.026059469 0.431878865 0.154965058
0.147501871 0.419734120 0.164073452
0.221252531 0.416571915 0.164958969
0.274889469 0.411259055 0.164958969
0.318532646 0.404807448 0.166603386
0.364326060 0.395446032 0.169386029
0.406830788 0.392409652 0.172422409
0.455787361 0.399620622 0.173560992
0.505123377 0.415560186 0.173054993
0.555091619 0.435800433 0.174067020
0.612776875 0.450980097 0.180139035
0.669956088 0.468943745 0.180391997
0.727134705 0.481973708 0.184946030
0.776470304 0.491334915 0.193042219
0.804680943 0.500316083 0.205060467
0.841619015 0.506388068 0.219987139
0.873497605 0.517014563 0.232637569
0.903605342 0.525237322 0.245035022
0.934472084 0.528779030 0.259709090
0.967868447 0.534851015 0.280961454
0.985578775 0.540670037 0.307020813
0.995445967 0.550031483 0.334598154
0.999746978 0.561290443 0.362808168
0.999746978 0.570398033 0.393168986
0.000000000 0.482605785 0.168626994
0.000000000 0.482605785 0.171663389
0.002783358 0.480708361 0.164832219
0.002024255 0.483870953 0.166476905
0.001012132 0.482479692 0.173434854
0.003795481 0.470967442 0.164706007
0.000759094 0.471473366 0.172296315
0.000000000 0.467931509 0.172296107
0.017457284 0.466793299 0.167109311
0.095888764 0.462238848 0.161037073
0.188235283 0.461732805 0.167235583
0.258697182 0.455028653 0.167994574
0.312460631 0.449968815 0.171410218
0.358254075 0.447059155 0.178494409
0.406830788 0.434914380 0.178494409
0.449335575 0.427071601 0.183933988
0.492220193 0.433017373 0.182668999
0.536116540 0.448323965 0.179759562
0.588488162 0.466160476 0.183175415
0.640607297 0.484124124 0.180898055
0.693485379 0.500442624 0.189879730
0.745351315 0.513345778 0.202150404
0.789500594 0.524604797 0.214168072
0.838077426 0.530676782 0.223276481
0.870461941 0.541302800 0.233649701
0.899431050 0.550664008 0.246173650
0.928400040 0.556103408 0.263757467
0.961796403 0.562175393 0.296141833
0.981909931 0.565591216 0.317394197
0.992409587 0.572802007 0.345224321
0.996710598 0.582542777 0.374952167
0.996710598 0.591650367 0.405312985
0.000000000 0.523845553 0.175837800
0.000000000 0.519038558 0.183681190
0.000000000 0.523339570 0.171663240
0.001518196 0.523845553 0.169386148
0.000000000 0.524604797 0.178115189
0.001012131 0.516508520 0.171031058
0.001391678 0.519291401 0.167488709
0.001644708 0.511068702 0.174952805
0.002403819 0.507273793 0.174193710
0.034408957 0.509171069 0.168374315
0.153446883 0.497026771 0.171410605
0.236432403 0.497026771 0.173434600
0.297912657 0.490195990 0.172295958
0.344971240 0.487665981 0.175838038
0.393547982 0.484123766 0.177988797
0.434914589 0.476786554 0.182795793
0.475901186 0.466160774 0.188867792
0.517900109 0.469955772 0.186970234
0.569513083 0.481087804 0.186464161
0.621126115 0.496900707 0.186337635
0.672738731 0.515116990 0.188993990
0.722327769 0.531815052 0.200632319
0.769133687 0.546489835 0.211384982
0.810879230 0.552561820 0.222770095
0.857179224 0.558633804 0.238709763
0.890955150 0.570524812 0.256546617
0.922833502 0.579126894 0.277292967
0.958127618 0.587096632 0.304996610
0.971030951 0.590512455 0.320556819
0.989246964 0.598861575 0.352435112
0.996078014 0.606831133 0.382921994
0.996078014 0.612902820 0.410246819
0.000000000 0.560278356 0.186463997
0.000000000 0.561796188 0.187982202
0.000000000 0.558254182 0.189879626
0.000000000 0.561796188 0.172928333
0.001138547 0.561416745 0.180771649
0.004554189 0.556483388 0.182668984
0.000000000 0.557495356 0.179127052
0.000126516 0.556609869 0.177988410
0.003162914 0.545224547 0.181783900
0.003922066 0.549778521 0.178747505
0.104870096 0.540037513 0.180012673
0.210625798 0.531941354 0.181024805
0.283870727 0.531941354 0.179886445
0.334598094 0.526628375 0.177103192
0.384439975 0.524098396 0.178874403
0.427324384 0.517773211 0.185831800
0.466793180 0.513219357 0.188867792
0.504364133 0.502340376 0.193674803
0.549778819 0.504870355 0.191524029
0.598355532 0.513219357 0.189753190
0.646932542 0.527261376 0.193548188
0.700569212 0.544465303 0.203668177
0.748134255 0.562049329 0.214421004
0.790385783 0.572296023 0.226565391
0.831372619 0.578368008 0.240227565
0.872739077 0.587223351 0.258443952
0.909171224 0.598861337 0.285388887
0.945603669 0.607969463 0.310688972
0.968753815 0.614800811 0.331941843
0.983174980 0.621632159 0.355471104
0.996963620 0.629348576 0.393168777
0.997596204 0.631119192 0.419355184
0.000632576 0.591904104 0.197975576
0.000632576 0.599114299 0.194433555
0.000000000 0.598734736 0.193801165
0.000000001 0.594560146 0.195445716
0.000000001 0.594560146 0.182163551
0.008349367 0.591777444 0.196078226
0.004174679 0.590638936 0.196078315
0.000000000 0.587349951 0.194054574
0.000759117 0.583428502 0.193295479
0.003795545 0.583428502 0.190259084
0.087286301 0.576343954 0.191397563
0.175458267 0.572169125 0.191397563
0.261985958 0.569006681 0.189626634
0.325996101 0.567994595 0.186843991
0.379506618 0.561163545 0.186843991
0.425806582 0.553320348 0.192789346
0.465528190 0.547248304 0.197975576
0.504996538 0.544212520 0.197343156
0.535357416 0.538140476 0.197343156
0.578367949 0.538519740 0.195192933
0.622643590 0.544085860 0.197216988
0.670967817 0.555345058 0.206072003
0.727893949 0.570651174 0.224035010
0.772422373 0.586337507 0.236179814
0.813409269 0.596584141 0.248323992
0.855281711 0.604806900 0.265148550
0.890196443 0.616445541 0.282858640
0.926248968 0.625553131 0.309677005
0.957368672 0.634028792 0.338899463
0.981909990 0.643137217 0.367994905
0.996963620 0.650600970 0.396078229
1.000000000 0.647564530 0.429475427
0.003668965 0.628336966 0.207084015
0.003668965 0.628336966 0.213156000
0.001518193 0.629095972 0.207463786
0.000000001 0.627324760 0.205945984
0.000000003 0.624921024 0.209488019
0.000000003 0.624921024 0.209488019
0.000759033 0.622137666 0.208222657
0.000000000 0.617710114 0.205186769
0.000759119 0.613915145 0.202403918
0.003795596 0.616824985 0.199367523
0.094117634 0.605186999 0.205060005
0.169259995 0.603668690 0.206577986
0.237697944 0.605945587 0.204300985
0.301708072 0.607463896 0.198988035
0.368500739 0.595319092 0.198988035
0.422011405 0.588487983 0.201391846
0.463757187 0.583681166 0.204933763
0.498924553 0.580645382 0.206451580
0.538393080 0.577609003 0.203415960
0.577103138 0.571537018 0.203415960
0.617077649 0.568121254 0.205060244
0.661100388 0.569386303 0.211385027
0.712713540 0.576723993 0.224035040
0.752181947 0.594940007 0.236179829
0.792156875 0.610626280 0.248324022
0.838583291 0.622264624 0.267425656
0.887160063 0.631625950 0.291967064
0.914484441 0.640733540 0.307147413
0.945224643 0.647184968 0.341935575
0.972042918 0.655281246 0.374066919
0.991397560 0.663504004 0.400885224
1.000000000 0.668817043 0.420367092
0.001138643 0.673118353 0.244023085
0.001138643 0.670335770 0.238962382
0.001138643 0.670335770 0.245034918
0.001265161 0.669070601 0.242884740
0.002783357 0.666793346 0.244402632
0.002783357 0.669197083 0.239595026
0.000253035 0.664136410 0.242125362
0.000000000 0.660847485 0.236306041
0.016698377 0.657432079 0.231752023
0.062239625 0.658444226 0.230739892
0.124730974 0.649715364 0.222517729
0.190512121 0.643643677 0.220493212
0.250094920 0.641745806 0.221252292
0.310057104 0.639342070 0.222517684
0.369260132 0.634788275 0.225047380
0.424035102 0.629854262 0.222644180
0.472612202 0.625679970 0.223403364
0.512333870 0.620746613 0.225174144
0.551802397 0.611258447 0.226438969
0.591271460 0.608222723 0.217836648
0.623150110 0.604047954 0.221632123
0.658064663 0.603035867 0.228589714
0.700316489 0.607337415 0.240354210
0.739784896 0.614927411 0.244528458
0.783807814 0.628589332 0.265781224
0.825680315 0.644655287 0.282732368
0.872739017 0.657432377 0.306894183
0.911448061 0.664263308 0.335737169
0.938773096 0.673371553 0.358886689
0.961922944 0.681340814 0.393042117
0.983301580 0.689563334 0.428842157
1.000000000 0.695635378 0.464136750
0.000000000 0.699683726 0.262618989
0.003794996 0.696647644 0.264136672
0.001897740 0.699557245 0.260973811
0.000632579 0.697027266 0.265781432
0.002024260 0.694496989 0.267172992
0.002024260 0.699051201 0.267172575
0.001391678 0.696394801 0.259203076
0.013156408 0.695255697 0.262239039
0.037191745 0.692726076 0.257178843
0.111954689 0.691587746 0.258317471
0.162555322 0.682858884 0.245793864
0.210625723 0.679696262 0.240607217
0.256546259 0.675521970 0.234534726
0.309677362 0.669955432 0.238077313
0.372296214 0.668564141 0.246047050
0.417583764 0.661732912 0.242378041
0.467678368 0.658696949 0.245414436
0.512966394 0.655028760 0.244655415
0.553700030 0.645414293 0.242631033
0.593169093 0.641619086 0.247817844
0.628842771 0.636685669 0.244402200
0.656167150 0.631625295 0.246426716
0.690069795 0.630992949 0.253004730
0.729538202 0.633522987 0.257811576
0.767868340 0.646046758 0.271094292
