Assets/EldamarStudio/100 Retro LUTs Pack/LUTs/cube/Robin LUT.cube
LUT_3D_SIZE 5
DOMAIN_MIN 0.000000 0.000000 0.000000
DOMAIN_MAX 0.903226 0.903226 0.903226
0.078431003 0.098039001 0.121569000
0.173307985 0.094750002 0.125489995
0.464389801 0.020746185 0.129411995
0.805313110 0.027830247 0.161923125
0.998734832 0.272359461 0.252624929
0.006198711 0.198481694 0.112080708
0.152055696 0.191903695 0.128778994
0.474509925 0.216824695 0.137254998
0.798987985 0.281973839 0.175585121
0.994813144 0.394180506 0.266286969
0.000000000 0.482605785 0.168626994
0.000000000 0.467931509 0.172296107
0.406830788 0.434914380 0.178494409
0.745351315 0.513345778 0.202150404
0.981909931 0.565591216 0.317394197
0.000000000 0.719924271 0.272738993
0.037444640 0.719544530 0.276407540
0.366350353 0.697280109 0.263377964
0.656167150 0.664010108 0.273751140
0.916887641 0.710436285 0.379127055
0.445161402 0.864136994 0.531055987
0.484376729 0.868184805 0.527893782
0.540543556 0.861606777 0.521441996
0.677419364 0.852877915 0.503099203
0.862997949 0.836938620 0.527514398
0.019228298 0.104237713 0.217077985
0.208602399 0.086274996 0.232131407
0.435294062 0.052878011 0.231498972
0.785958409 0.059456289 0.293991148
0.988741100 0.368500739 0.420999497
0.006831295 0.218089700 0.225553408
0.188361391 0.212523401 0.240607396
0.460467786 0.239974394 0.272992104
0.774825811 0.308412671 0.325996131
0.988487959 0.440860391 0.425173640
0.000000000 0.494370401 0.289943099
0.147754431 0.480961531 0.286654145
0.425427109 0.450601220 0.280202687
0.748007894 0.521189392 0.340417564
0.962428629 0.585578442 0.451359779
0.121315725 0.720176697 0.403289109
0.243896514 0.717647135 0.405186683
0.402023941 0.692093730 0.371536821
0.655155003 0.664643049 0.364579707
0.900948584 0.718659222 0.469323486
0.518911600 0.861353636 0.579000413
0.534345329 0.865781307 0.583807468
0.571410358 0.859329462 0.563820422
0.687665939 0.844655395 0.549398959
0.858696938 0.834281981 0.558886647
0.008475584 0.132700577 0.458444208
0.228336811 0.127134711 0.470840961
0.570398629 0.027324181 0.506894231
0.733712673 0.004553996 0.461100370
0.971536756 0.220113605 0.511321843
0.001644708 0.275648504 0.442378104
0.197469980 0.253384113 0.464389354
0.545730472 0.249841809 0.501580954
0.726754904 0.223402947 0.469449848
0.955850840 0.406324774 0.548007846
0.003289416 0.525742948 0.507526815
0.199873522 0.519544482 0.507780075
0.505502343 0.509424388 0.525110364
0.733966112 0.555850804 0.564705968
0.934345186 0.637571216 0.643516779
0.393927813 0.741429389 0.574952483
0.464010119 0.737507820 0.579000652
0.578747809 0.711321890 0.583301783
0.694117546 0.676407516 0.559013426
0.911321819 0.738899231 0.631498873
0.627956748 0.862239242 0.687286317
0.667046189 0.858697057 0.699177325
0.676913142 0.854396284 0.674130201
0.715749562 0.844402075 0.644528866
0.870335221 0.835546970 0.639594734
0.027198365 0.212903127 0.687539101
0.307779551 0.210626006 0.698418975
0.602656484 0.198987827 0.716634870
0.848324120 0.220114246 0.742441118
0.954965055 0.229981065 0.684882939
0.045667216 0.341429412 0.679696560
0.277419418 0.330296844 0.692852914
0.577482402 0.344085962 0.713725150
0.830740094 0.382668793 0.731309116
0.941556036 0.361796409 0.692473292
0.026312362 0.540037811 0.665654838
0.253890067 0.538140237 0.660341442
0.529411674 0.544339061 0.690196216
0.793169260 0.578368127 0.734851241
0.919923961 0.544338882 0.698924839
0.392409980 0.749272227 0.723845243
0.458697110 0.747627676 0.725363731
0.588108540 0.733586431 0.725996137
0.754206121 0.718912125 0.728653133
0.908791780 0.776723802 0.781024814
0.713725090 0.872232616 0.780012667
0.738519847 0.867805302 0.787476361
0.774573088 0.862239242 0.791777432
0.824541211 0.850221515 0.788867950
0.882985473 0.833522975 0.769639790
0.382416397 0.405818582 0.873497784
0.471853137 0.409740597 0.867299080
0.637571216 0.434661418 0.870082378
0.827703953 0.478304744 0.870208800
0.975331962 0.519417763 0.875900984
0.388235569 0.484503448 0.858064532
0.473371297 0.492346466 0.857052803
0.640227795 0.506008923 0.863630652
0.814294994 0.539658368 0.869196653
0.968753874 0.567994535 0.875015736
0.398102403 0.615938962 0.845920146
0.483238310 0.619860828 0.847311795
0.629221797 0.619228363 0.851866245
0.804554105 0.645793915 0.863251269
0.946615934 0.677419662 0.870208383
0.460721046 0.748639941 0.838330030
0.504111052 0.749651909 0.850348055
0.587729156 0.732953846 0.839468420
0.771663249 0.742441297 0.851613104
0.931561947 0.784313738 0.872106135
0.701201737 0.873371005 0.861480176
0.716508448 0.873370945 0.865781128
0.770904243 0.867552221 0.869449794
0.840101004 0.860341787 0.865148842
0.912586987 0.853763640 0.870841026
