Assets/EldamarStudio/100 Retro LUTs Pack/LUTs/cube/Robin LUT.cube
LUT_3D_SIZE 8
DOMAIN_MIN 0.000000 0.000000 0.000000
DOMAIN_MAX 0.903226 0.903226 0.903226
0.078431003 0.098039001 0.121569000
0.096394993 0.098039001 0.118026547
0.204427287 0.087918907 0.127007991
0.367236286 0.060974360 0.123845994
0.577862144 0.000000000 0.132447988
0.765844226 0.007589993 0.152814999
0.911322296 0.141049564 0.193421990
0.998734832 0.272359461 0.252624929
0.060847450 0.127767086 0.121569000
0.099177547 0.124225549 0.113724999
0.207210645 0.132068545 0.121189453
0.371916384 0.127387643 0.118785642
0.566350400 0.119544543 0.139152348
0.752814472 0.146995276 0.157494992
0.895003259 0.218975365 0.197090551
0.993674815 0.313346088 0.246932417
0.003922000 0.230360284 0.112839997
0.017710453 0.220873192 0.130171001
0.180898085 0.213156104 0.135610089
0.361037165 0.233016834 0.140037641
0.566223681 0.265401274 0.144086093
0.758507431 0.302973181 0.170018986
0.898165584 0.353826463 0.212270692
0.993042231 0.419227988 0.271852881
0.000000000 0.384692907 0.151928991
0.006325098 0.378874362 0.150790647
0.094370656 0.369892716 0.160784096
0.321821272 0.350410908 0.163060993
0.518532395 0.388361663 0.165338188
0.728399575 0.446806014 0.177862078
0.869323254 0.480455637 0.226565629
0.979253590 0.512333810 0.280708462
0.000000000 0.560278356 0.186463997
0.001138547 0.561416745 0.180771649
0.003162914 0.545224547 0.181783900
0.283870727 0.531941354 0.179886445
0.466793180 0.513219357 0.188867792
0.646932542 0.527261376 0.193548188
0.831372619 0.578368008 0.240227565
0.968753815 0.614800811 0.331941843
0.000000000 0.699683726 0.262618989
0.002024260 0.694496989 0.267172992
0.037191745 0.692726076 0.257178843
0.256546259 0.675521970 0.234534726
0.467678368 0.658696949 0.245414436
0.628842771 0.636685669 0.244402200
0.767868340 0.646046758 0.271094292
0.930043995 0.695762038 0.374066949
0.088804372 0.797976017 0.369133532
0.150917172 0.799620271 0.373687744
0.249335825 0.791524410 0.370145440
0.339405239 0.787349641 0.356103539
0.459582567 0.768753946 0.338772833
0.616571724 0.757115245 0.343706548
0.749905288 0.742062271 0.348260552
0.871473312 0.744845033 0.370398581
0.445161402 0.864136994 0.531055987
0.464263231 0.869829416 0.536242604
0.486400694 0.867678523 0.526628673
0.517773390 0.861606658 0.526122451
0.558001161 0.860467970 0.509677410
0.648576558 0.853384018 0.499809742
0.758760393 0.845919967 0.512207448
0.862997949 0.836938620 0.527514398
0.072612457 0.105122998 0.150917456
0.112839997 0.093738452 0.150917456
0.204806745 0.089437097 0.152814999
0.350031257 0.082100354 0.172042638
0.545857370 0.067172453 0.202277198
0.751170456 0.089816473 0.232637271
0.888298750 0.189120561 0.273371279
0.995825231 0.303858310 0.320050329
0.042757548 0.139532000 0.148513541
0.100695550 0.135230541 0.162302107
0.190259188 0.141809091 0.172422186
0.346110195 0.148134097 0.188108906
0.541555941 0.145224541 0.209614530
0.737128437 0.169386521 0.227957278
0.864768982 0.234155640 0.250474364
0.982036591 0.323086590 0.305629522
0.016192455 0.231119290 0.179886445
0.093359001 0.230739743 0.190512091
0.189120740 0.216951191 0.181404442
0.362934828 0.237697646 0.199114099
0.550916851 0.267046183 0.205565736
0.735230982 0.308159441 0.236306354
0.880708337 0.362175614 0.272865236
0.989120543 0.423655778 0.331435859
0.000379548 0.378367990 0.211891532
0.006704549 0.375331938 0.206578553
0.134977743 0.365211815 0.204933539
0.322074711 0.348766804 0.204806820
0.511322141 0.382036477 0.209108189
0.714358032 0.436432809 0.232890531
0.849968612 0.472991645 0.272991568
0.963946462 0.508286297 0.334977806
0.000000000 0.556230366 0.230360374
0.000758999 0.551549554 0.223150194
0.024794631 0.544465363 0.218089744
0.285009265 0.524857461 0.224035382
0.467931837 0.507273734 0.231372729
0.645540655 0.524477959 0.239342436
0.827577651 0.577229619 0.291714132
0.957874417 0.608981669 0.369386405
0.005945744 0.695635736 0.310942292
0.014294639 0.690448999 0.306641310
0.116508283 0.684503615 0.290449083
0.283491522 0.674004197 0.285388917
0.467425376 0.654396176 0.281467617
0.624288321 0.635547101 0.286780536
0.766350567 0.637444615 0.304111540
0.922833681 0.694244206 0.411258787
0.145224288 0.789879858 0.397849560
0.209614173 0.796710849 0.409108102
0.269828916 0.787982047 0.396204919
0.354585886 0.777356088 0.384566814
0.454775631 0.767995059 0.371031255
0.611132443 0.754205763 0.367995292
0.741555989 0.732700527 0.370272070
0.863250911 0.734977603 0.387350053
0.467172682 0.864010274 0.544085920
0.486907095 0.866919637 0.548640192
0.507779896 0.865907490 0.546616256
0.527640641 0.861100733 0.535863280
0.566982925 0.855281472 0.527008355
0.652751386 0.854775488 0.518785417
0.751423299 0.842757940 0.523592591
0.849335849 0.836938620 0.537002027
0.006325001 0.102719903 0.242884189
0.108918093 0.098418549 0.256672621
0.241999194 0.087033898 0.263251096
0.350031346 0.077799007 0.239215642
0.534092367 0.016698102 0.266413987
0.729791164 0.009108283 0.297280341
0.881594241 0.168374449 0.352308661
0.982416093 0.369512737 0.442757696
0.024794454 0.153953537 0.238583535
0.101075098 0.142188534 0.250347644
0.230993167 0.143832639 0.254649192
0.342188358 0.135610089 0.252751529
0.529411674 0.132194564 0.275016010
0.724731207 0.152308643 0.310689539
0.863124907 0.263883740 0.364579529
0.970398307 0.385452092 0.435547173
0.000759096 0.250727206 0.250601083
0.092093542 0.245540738 0.271980017
0.228589267 0.245161280 0.267932028
0.377102911 0.250980616 0.280075639
0.550664306 0.285895079 0.318026185
0.727514029 0.333206832 0.351296842
0.861353397 0.395319402 0.396331280
0.977608800 0.467172921 0.454775274
0.002656642 0.397975922 0.292852283
0.091587998 0.398861825 0.291334301
0.242631182 0.396205276 0.299557567
0.349525839 0.375458658 0.295383006
0.540796995 0.403921574 0.310057163
0.712840140 0.447438121 0.344718724
0.838330388 0.489816606 0.397596449
0.956482887 0.532447755 0.455028206
0.000000005 0.573561192 0.332827389
0.064389907 0.564832330 0.347374946
0.206451386 0.561037242 0.330423385
0.321821392 0.539785087 0.316508383
0.490449309 0.518659174 0.312587202
0.658064365 0.539911270 0.340038180
0.828463256 0.587729216 0.404174477
0.943832934 0.624541163 0.479696304
0.218469024 0.695129454 0.426312298
0.235546917 0.700569391 0.422138184
0.281846941 0.687286496 0.408728570
0.360404819 0.677925408 0.394054294
0.482099950 0.658317387 0.376343906
0.632384539 0.639595091 0.373181850
0.769892752 0.647185326 0.396078259
0.917140961 0.702972770 0.496141881
0.313978732 0.791018367 0.484124094
0.343073845 0.785325348 0.485515356
0.384313673 0.788361728 0.486401170
0.428462923 0.780265689 0.470208824
0.487792462 0.767236173 0.449588984
0.620366633 0.748386979 0.442631274
0.739658296 0.735990047 0.440227360
0.862365484 0.741808891 0.458570689
0.528020144 0.859835505 0.596457899
0.529538095 0.860467792 0.598102808
0.550031662 0.864262819 0.594180763
0.570904315 0.861606658 0.579506516
0.595066130 0.857178926 0.565591156
0.662871778 0.847944260 0.558759987
0.759519100 0.839721620 0.557368398
0.861732841 0.828463078 0.566223860
0.014547646 0.118279286 0.385072649
0.068058096 0.119544543 0.380265653
0.278811187 0.103099450 0.398735195
0.456293643 0.052625000 0.406451285
0.538772583 0.026186008 0.379379809
0.694496930 0.000000000 0.393295377
0.861353517 0.068817258 0.429981291
0.983301759 0.281973094 0.486021608
0.004301451 0.182542890 0.366982728
0.081594095 0.174699277 0.373687267
0.254775643 0.163314536 0.389753640
0.438962728 0.142947540 0.402150631
0.532700419 0.129791334 0.382668853
0.686274469 0.092473090 0.389373988
0.850348115 0.182416022 0.432890654
0.973813951 0.328273177 0.487286657
0.005566002 0.275395453 0.373307914
0.080328546 0.276913524 0.370904744
0.238836288 0.272612095 0.396458089
0.439468503 0.270968080 0.417836845
0.540417373 0.254522175 0.399494171
0.713472724 0.273497909 0.421758533
0.851486444 0.371410817 0.476660341
0.961290121 0.478558242 0.548007846
0.000000000 0.433396906 0.410373271
0.022137638 0.427956820 0.420493275
0.241999090 0.425933272 0.424161822
0.415432930 0.413788915 0.432258278
0.564326227 0.426692069 0.441619247
0.702340126 0.480455518 0.491840452
0.827830613 0.530929863 0.539911151
0.932700634 0.578367889 0.580012619
0.057432178 0.595319629 0.460973829
0.193295106 0.599873602 0.460594475
0.317773461 0.590892076 0.469196498
0.441366017 0.573561192 0.474762976
0.535104394 0.550537586 0.459203273
0.688045382 0.573687315 0.493232042
0.827324748 0.609614491 0.539531887
0.932827175 0.649589181 0.589626789
0.322074741 0.712587059 0.525869370
0.365211904 0.709677756 0.529284894
0.432131469 0.700316370 0.537128627
0.492220014 0.691334426 0.526628494
0.534218431 0.672865450 0.503099382
0.654901743 0.651612818 0.500316620
0.784440100 0.669702709 0.523086846
0.922327697 0.717520595 0.594686866
0.450853527 0.792410254 0.579506636
0.482353300 0.796458006 0.580645323
0.514611065 0.792156875 0.585072935
0.534218550 0.785705209 0.570524991
0.566477120 0.772802174 0.552688062
0.640607238 0.758001149 0.535990119
0.751549244 0.742062271 0.527387261
0.869955599 0.747121990 0.544465482
0.622264385 0.861733198 0.660594463
0.629854381 0.856293559 0.664263368
0.627577305 0.858570397 0.660847485
0.639848232 0.857937992 0.650347769
0.653636813 0.856546640 0.630613625
0.680328846 0.851233423 0.611638427
0.774952471 0.843516707 0.616318643
0.863883615 0.829348564 0.621378541
0.003035997 0.153573811 0.538267195
0.049715374 0.150410995 0.542188168
0.295888454 0.136242896 0.547501445
0.492599458 0.107020542 0.575079143
0.674636185 0.027830375 0.591650963
0.724857688 0.027704177 0.548640072
0.834408462 0.009107991 0.536749005
0.959266186 0.160278365 0.552940845
0.004807003 0.204301089 0.530803025
0.032131631 0.206831187 0.528273046
0.282226563 0.201391384 0.545224369
0.483365178 0.183301985 0.570524931
0.650221348 0.160910740 0.583427906
0.711322188 0.141176522 0.536116004
0.819607854 0.117900081 0.523845673
0.948260427 0.227830559 0.550663829
0.002403808 0.319671065 0.517014265
0.074509725 0.319291621 0.528779268
0.249715298 0.302340180 0.546110153
0.458696902 0.302340180 0.566982746
0.643263340 0.313219368 0.587729156
0.709045053 0.290449262 0.553194225
0.824541211 0.289690197 0.546995342
0.949019551 0.403794914 0.579759538
0.001138644 0.452245712 0.529791117
0.016698178 0.451233357 0.537508011
0.233649641 0.435420364 0.527893364
0.413409263 0.438836008 0.559392631
0.598482192 0.454522610 0.574573040
0.696773887 0.437318206 0.554585576
0.807463706 0.461227268 0.560404718
0.928272963 0.534724653 0.612144113
0.032764167 0.607337356 0.572042942
0.138266832 0.603542209 0.587602615
0.298671663 0.600379348 0.577482581
0.444402128 0.590512633 0.579127252
0.588361502 0.584693372 0.591018200
0.700063169 0.589753449 0.602656186
0.823782265 0.629348338 0.640354276
0.919038653 0.677925110 0.686401010
0.419354737 0.731941700 0.628209949
0.451486528 0.730550170 0.621758521
0.502466857 0.727261305 0.630866289
0.566477001 0.715116739 0.624541342
0.630107224 0.698671758 0.624668002
0.688045502 0.676660538 0.611764789
0.818216443 0.701075435 0.630107462
0.920430243 0.739405513 0.691334724
0.512207448 0.809740365 0.652118921
0.530044436 0.810499310 0.653257310
0.564073265 0.804174423 0.655281186
0.614800870 0.795699239 0.660847425
0.661227047 0.785452068 0.655281365
0.681847215 0.768880248 0.624667943
0.771157563 0.754712045 0.613662362
0.882226527 0.765464783 0.639595389
0.637191594 0.865275323 0.708032608
0.653257430 0.867931783 0.709803820
0.684756517 0.861606658 0.720556617
0.723845541 0.857305527 0.727008164
0.722833633 0.856419802 0.713472545
0.737887323 0.847058654 0.688931167
0.787096858 0.839848042 0.678051710
0.872991621 0.833902597 0.678810954
0.003922000 0.197722733 0.660214722
0.150158003 0.198229194 0.669702888
0.332827002 0.191903993 0.670841336
0.511068940 0.180771366 0.688804388
0.677292883 0.173813730 0.699936807
0.816951215 0.175585464 0.713092983
0.857178986 0.166476727 0.663377702
0.949145794 0.186717182 0.652245700
0.003035997 0.242251724 0.647944272
0.127514362 0.241619542 0.654775560
0.317773372 0.243516997 0.664516211
0.490955263 0.236432374 0.675901651
0.659961879 0.231372565 0.688298464
0.798481941 0.243516818 0.699810326
0.840860486 0.225806564 0.659455836
0.938899159 0.228463203 0.644528925
0.038836446 0.361416847 0.638456464
0.153320804 0.351928890 0.645414472
0.292346805 0.341429293 0.654648840
0.477419525 0.345604002 0.673877358
0.638709843 0.365717977 0.685135901
0.785452127 0.383428186 0.703225613
0.839215636 0.363187581 0.671853065
0.935230672 0.362555265 0.663124740
0.004807100 0.464136451 0.627451062
0.081340820 0.468311280 0.635167718
0.279570043 0.467804998 0.642504513
0.433270007 0.463883609 0.642884195
0.604427516 0.482226372 0.674889088
0.757495344 0.504237652 0.699936688
0.811258852 0.477419347 0.659076869
0.914231539 0.464516014 0.655787468
0.108538814 0.596710920 0.650221229
0.208222643 0.598228812 0.652624965
0.319797665 0.595951915 0.653384030
0.438203692 0.580645382 0.651612878
0.583554447 0.587349713 0.667172730
0.735357165 0.603794694 0.697026908
0.808222473 0.587349653 0.676407218
0.916002691 0.598987997 0.683870792
0.355977476 0.724983990 0.697532952
0.395066261 0.721062481 0.705882311
0.457179159 0.723086715 0.704111636
0.535483658 0.716382027 0.699683428
0.624541402 0.703732193 0.698292077
0.722833693 0.693611503 0.703352690
0.826691985 0.707273960 0.720429778
0.910562754 0.761290431 0.762555540
0.558127761 0.815180302 0.721821487
0.587476015 0.814041495 0.734724760
0.618216217 0.816445291 0.730803072
0.668184578 0.809361041 0.739785075
0.718532443 0.803542197 0.739279151
0.764705598 0.789753437 0.733333468
0.798102558 0.768374681 0.710183442
0.899304092 0.785199046 0.750790536
0.693990886 0.873750687 0.766350746
0.709171355 0.865275443 0.769765913
0.724604487 0.864009976 0.770271957
0.744212389 0.863503933 0.770777822
0.777735472 0.858570457 0.777229488
0.806324959 0.849715471 0.776976705
0.817709982 0.841492772 0.749652028
0.883238554 0.836811841 0.753194213
0.187729254 0.272486001 0.775711536
0.268943548 0.271220803 0.779000521
0.400126368 0.269955665 0.782922328
0.535863280 0.277672559 0.787982166
0.681846976 0.290828258 0.797217131
0.814168453 0.318279266 0.811385274
0.917267263 0.346236557 0.802529991
0.967868209 0.328779370 0.778494298
0.164199531 0.307527274 0.755977154
0.243263811 0.305503011 0.761037230
0.377482653 0.308791816 0.770778000
0.523592710 0.314611077 0.775458634
0.666034162 0.325869620 0.791524351
0.801897407 0.355218291 0.795572281
0.911321998 0.371663362 0.799494267
0.952435076 0.352814376 0.772422433
0.185831457 0.403162569 0.759519041
0.228336394 0.399873465 0.760404766
0.364832193 0.402403474 0.768627286
0.511448383 0.408602178 0.770651758
0.654016495 0.431499362 0.785325408
0.786843657 0.455281734 0.794433832
0.898292243 0.476786733 0.808096230
0.947754383 0.456040800 0.780645132
0.175458461 0.512966275 0.741049528
0.243896186 0.516887963 0.738266945
0.362555206 0.515243292 0.751423120
0.481087893 0.507906556 0.754965127
0.626438856 0.526249170 0.770145357
0.765717864 0.541176438 0.786843538
0.873624384 0.560025215 0.799746931
0.927008212 0.528399944 0.772928298
0.176217645 0.607969403 0.731941760
0.237065300 0.609360993 0.740417302
0.326122463 0.602530003 0.735736847
0.460594356 0.598987937 0.746489704
0.611132264 0.604933381 0.765591264
0.743326664 0.619861186 0.785578847
0.866793215 0.641745567 0.801011980
0.916382134 0.618975461 0.776091278
0.375331730 0.725237012 0.764959276
0.398228675 0.719164848 0.775458694
0.450221568 0.714737415 0.775838256
0.517520726 0.709298015 0.769639432
0.596331477 0.694876671 0.766097486
0.710689485 0.696647227 0.769639313
0.851233244 0.724604726 0.807337284
0.903984785 0.714610934 0.785705090
0.489437014 0.813030005 0.791397572
0.515370071 0.804301262 0.791144967
0.552941203 0.805692494 0.794813454
0.608349264 0.805818975 0.794054568
0.683111966 0.799494028 0.795572519
0.751549244 0.789247274 0.794687033
0.827704310 0.783934295 0.794687033
0.906388283 0.799241245 0.813155830
0.730803013 0.864642382 0.819860756
0.744085789 0.869829416 0.812650263
0.755850613 0.867552102 0.822897077
0.788235188 0.869070411 0.828336477
0.823655963 0.865148544 0.831372678
0.848323762 0.862112761 0.834914327
0.869955659 0.850221574 0.823909283
0.893737912 0.838709712 0.808601797
0.382416397 0.405818582 0.873497784
0.416824877 0.404807031 0.865527987
0.493105710 0.413029701 0.870840967
0.587096810 0.424161732 0.871853173
0.693105578 0.445287943 0.869449973
0.799367428 0.470967591 0.871979952
0.903099060 0.502972782 0.874636173
0.975331962 0.519417763 0.875900984
0.367615134 0.422896773 0.862871826
0.407842845 0.427577466 0.851233661
0.476913333 0.437318027 0.861859500
0.579253614 0.447817832 0.863251209
0.685135782 0.464010298 0.868817151
0.791777313 0.488298297 0.871473789
0.892599761 0.512839913 0.868184686
0.973561049 0.521441936 0.877166152
0.382416397 0.499683857 0.855534673
0.414547771 0.501328170 0.855281711
0.493358850 0.508791745 0.853257716
0.584819436 0.521062732 0.859708846
0.691460907 0.528526068 0.865907848
0.788235545 0.548513830 0.863630533
0.886654258 0.571410477 0.869323134
0.964705765 0.580392063 0.875268698
0.403921187 0.580265641 0.837950826
0.449588865 0.586464226 0.847058594
0.499051303 0.576470375 0.843010545
0.573434055 0.583048582 0.853510618
0.681340754 0.585831642 0.855534494
0.774066865 0.602909505 0.858696878
0.870461762 0.620746076 0.862618506
0.952055573 0.634029269 0.866919637
0.347248405 0.645288050 0.831625640
0.401011944 0.646173596 0.841112971
0.470714748 0.647564948 0.840859950
0.569259942 0.648829818 0.846679151
0.665528178 0.646932364 0.848323822
0.763314545 0.665022373 0.855534792
0.861480057 0.687159896 0.860847354
0.940670252 0.704491138 0.868311346
0.437697649 0.729664564 0.841619253
0.463124692 0.731309235 0.843896389
0.496015072 0.725363553 0.842504501
0.537381172 0.718532443 0.841365874
0.634535491 0.708032966 0.841112971
0.752182066 0.725236833 0.855154932
0.854901969 0.743706524 0.860341787
0.934092224 0.770398557 0.870588183
0.544971049 0.808981597 0.854522765
0.566476941 0.809993386 0.848956406
0.592536449 0.802530050 0.852498829
0.632510722 0.798481941 0.851865947
0.686653733 0.795319736 0.847691655
0.739911079 0.783680975 0.844528735
0.837317765 0.789247274 0.855787635
0.921442032 0.818722427 0.870461524
0.701201737 0.873371005 0.861480176
0.705123484 0.873371005 0.876154304
0.725363433 0.872612059 0.866792977
0.754079580 0.869702578 0.864262819
0.784945786 0.863883615 0.862871826
0.829474926 0.862365544 0.865654945
0.870714605 0.856040418 0.867551982
0.912586987 0.853763640 0.870841026
