Assets/EldamarStudio/100 Retro LUTs Pack/LUTs/cube/Roger LUT.cube
LUT_3D_SIZE 5
DOMAIN_MIN 0.000000 0.000000 0.000000
DOMAIN_MAX 0.903226 0.903226 0.903226
0.000000000 0.000000000 0.000000000
0.037950993 0.013409289 0.003288997
0.136748403 0.064769410 0.037318408
0.268817246 0.162934989 0.127640992
0.409487635 0.307526946 0.251233637
0.141302973 0.064768992 0.038962699
0.174320117 0.087665990 0.055660985
0.238077387 0.139025688 0.101454817
0.327007830 0.222137690 0.181530699
0.456546813 0.361163795 0.290448815
0.346742779 0.239468813 0.192409813
0.359392673 0.255154818 0.209993392
0.407463372 0.304869950 0.248576820
0.473497808 0.374826223 0.298291951
0.584692895 0.483365208 0.393801630
0.579759359 0.469956130 0.381657124
0.580771267 0.478178412 0.384692818
0.611511707 0.509550810 0.419354796
0.660088420 0.560152173 0.468944013
0.731815219 0.636685789 0.544592083
0.788614810 0.716887772 0.642504573
0.802150309 0.718785763 0.628842413
0.818090022 0.734472036 0.649589002
0.846552730 0.766223729 0.694496691
0.876280844 0.808348954 0.740543544
0.002277292 0.002277292 0.002277292
0.055281702 0.014420994 0.006577994
0.170398265 0.088298410 0.057305690
0.292979419 0.187096834 0.156356588
0.429727793 0.327766806 0.263630807
0.153067395 0.073624700 0.039595284
0.178241685 0.101075694 0.060214989
0.252119094 0.153067395 0.115496263
0.342061847 0.237191692 0.192030683
0.477166474 0.376597166 0.301960677
0.357115805 0.252878070 0.203162506
0.369512826 0.265275091 0.218849078
0.412017792 0.310056806 0.252498806
0.486274540 0.383048952 0.310056806
0.595192730 0.497153342 0.405945480
0.587223232 0.482099831 0.393801242
0.588994324 0.485009372 0.395825237
0.620366991 0.513852000 0.422643811
0.665022254 0.565085292 0.473877132
0.734598339 0.641239524 0.548766792
0.801770747 0.722453833 0.644908488
0.808348954 0.722074568 0.637191594
0.818089783 0.740670383 0.658823133
0.846805632 0.770398200 0.696774125
0.876280785 0.812017858 0.741176426
0.034661576 0.015053578 0.003289416
0.084756270 0.031752121 0.011132416
0.191017970 0.102719560 0.070714824
0.306767970 0.200885251 0.157748252
0.445414215 0.343453348 0.279317230
0.177609116 0.096521109 0.062492117
0.197849274 0.116129108 0.077546112
0.264516145 0.169765696 0.132448122
0.357748002 0.259709269 0.215559706
0.488551378 0.386590809 0.311701268
0.368880838 0.259709239 0.213282809
0.381657064 0.276027828 0.228589684
0.423782796 0.321821839 0.264262974
0.499683797 0.394433647 0.319165379
0.597722769 0.495761961 0.405565798
0.593168855 0.488551259 0.400632381
0.595698833 0.493864417 0.401897520
0.624541223 0.522580206 0.432384253
0.668311417 0.569639683 0.477799118
0.737255096 0.642884254 0.553320646
0.800379634 0.716129243 0.636559010
0.808348775 0.724984050 0.640733719
0.817330599 0.742315054 0.656040370
0.845161319 0.770777822 0.692346513
0.877545595 0.809613764 0.736495793
0.097280122 0.042251870 0.011890996
0.132447690 0.063757285 0.036306284
0.215179980 0.121695407 0.083744414
0.328653127 0.222770125 0.185452133
0.452624947 0.353700101 0.288551629
0.211511537 0.116761275 0.087033570
0.232131407 0.133080691 0.096774146
0.290702105 0.184819952 0.147501275
0.377988815 0.276027828 0.223023579
0.500063062 0.400000095 0.319291413
0.383933961 0.281341225 0.227071404
0.392409652 0.294750094 0.236811981
0.436558932 0.334598094 0.271220952
0.507147551 0.402530253 0.320809662
0.598355174 0.495761961 0.406830966
0.599367380 0.495383114 0.400379270
0.604301274 0.503605247 0.412776828
0.626438975 0.526502252 0.435294122
0.668944001 0.572802007 0.479696125
0.733333111 0.638203681 0.548134208
0.796837449 0.718152940 0.632384777
0.806957603 0.724351645 0.637697756
0.818090022 0.737002015 0.654143035
0.841872096 0.766476750 0.689816415
0.877925456 0.809361100 0.744844675
0.180644959 0.094244145 0.061606653
0.200885803 0.114484400 0.079316802
0.262871832 0.166856393 0.128272980
0.364326239 0.261100829 0.212650418
0.486653805 0.388614774 0.304870129
0.250474393 0.150158107 0.116381988
0.273624539 0.169386581 0.127514154
0.324098527 0.220114097 0.180898100
0.408348978 0.306388289 0.252118975
0.520935893 0.420872688 0.338140577
0.392282963 0.290322810 0.239341989
0.405060112 0.301707685 0.249715567
0.441998810 0.341935545 0.275901139
0.515243411 0.414674252 0.332194835
0.608222783 0.506261766 0.416065812
0.614041984 0.518659115 0.423023432
0.624794364 0.522833347 0.430613369
0.631625712 0.529664874 0.439468831
0.657431960 0.557495296 0.466287434
0.727514088 0.630866766 0.538013935
0.797722995 0.722074568 0.634534776
0.813788474 0.727387607 0.640733659
0.821378767 0.740290582 0.654142737
0.837950468 0.763567328 0.683870733
0.876280785 0.811005771 0.745856583
