Assets/EldamarStudio/100 Retro LUTs Pack/LUTs/cube/Roger LUT.cube
LUT_3D_SIZE 8
DOMAIN_MIN 0.000000 0.000000 0.000000
DOMAIN_MAX 0.903226 0.903226 0.903226
0.000000000 0.000000000 0.000000000
0.016065547 0.000379548 0.000000000
0.048576999 0.017203998 0.009360998
0.099810347 0.046552639 0.021884998
0.175332189 0.092346996 0.063377798
0.250600994 0.144718468 0.109424472
0.323465973 0.217583984 0.177735567
0.409487635 0.307526946 0.251233637
0.062239543 0.021125998 0.011385452
0.085768551 0.022643998 0.019608000
0.111195192 0.050094999 0.022643998
0.153447196 0.076660283 0.048829734
0.213029906 0.121315375 0.086906992
0.274509728 0.179253280 0.139658734
0.344718546 0.244528830 0.199493989
0.425426781 0.334092319 0.270967782
0.175458282 0.085262097 0.060215093
0.176217288 0.100189999 0.071221001
0.210753098 0.112713091 0.085262090
0.236559197 0.141302735 0.102467000
0.281973273 0.176091090 0.140797094
0.329791158 0.223908991 0.180771470
0.392409891 0.290449262 0.234914467
0.469955862 0.378621131 0.300063014
0.285768658 0.183301985 0.150158361
0.293485433 0.187602744 0.146742538
0.312207550 0.204806730 0.170271635
0.339658648 0.233775929 0.190638632
0.376091182 0.271347404 0.225932837
0.417583883 0.315622896 0.258570373
0.468690634 0.376217604 0.303352624
0.547374964 0.447438300 0.360404789
0.413662195 0.306894183 0.253510386
0.415559739 0.308791816 0.252245188
0.422897071 0.320936292 0.260594457
0.448829979 0.348007649 0.277925372
0.480961382 0.380518585 0.306261986
0.524731338 0.418848455 0.341302991
0.568627238 0.468058378 0.379633188
0.633143961 0.531435966 0.442251831
0.536242485 0.428463221 0.348260462
0.535989940 0.431625724 0.350284725
0.541808665 0.440733582 0.354838818
0.564199686 0.464263469 0.376091003
0.590259016 0.490069658 0.402023911
0.626691997 0.520683408 0.434535474
0.661732793 0.563567281 0.471473575
0.714104712 0.615939438 0.523845434
0.686147988 0.584187567 0.489436984
0.679949284 0.585452259 0.488298714
0.687033534 0.589626551 0.497153461
0.698418617 0.604300916 0.510183573
0.712840080 0.618722498 0.524604499
0.736369550 0.640354276 0.546742260
0.755470991 0.670461535 0.576343954
0.790385664 0.704111516 0.620999515
0.788614810 0.716887772 0.642504573
0.804174721 0.715622544 0.633396327
0.801897585 0.719544590 0.639721572
0.813535750 0.729917586 0.647564590
0.826818287 0.743200362 0.658317327
0.842504680 0.761669636 0.689942837
0.857558489 0.780518472 0.711322069
0.876280844 0.808348954 0.740543544
0.000000000 0.000379548 0.000000000
0.020366998 0.004301451 0.000000000
0.065022096 0.028210098 0.009360999
0.130803093 0.062618904 0.032004993
0.194180995 0.110436186 0.077039830
0.264642298 0.164832532 0.126755178
0.339152575 0.233269989 0.190132990
0.425173938 0.322453946 0.264010102
0.081846550 0.025047097 0.019228453
0.090069994 0.037571095 0.012524000
0.120176636 0.058697093 0.030107547
0.171537206 0.091208346 0.056672737
0.231752187 0.135483906 0.104870088
0.293358743 0.187476352 0.152181834
0.348260552 0.249968529 0.201138288
0.426312506 0.319544762 0.259202987
0.175837740 0.095509097 0.060974188
0.182036623 0.106515095 0.068437643
0.214674100 0.117394187 0.087666094
0.244402200 0.145983636 0.116634995
0.292599767 0.186717451 0.150663853
0.340796977 0.236812025 0.191777080
0.405692667 0.303732067 0.246679083
0.483871222 0.384946287 0.314104795
0.289436728 0.191904083 0.153067723
0.306894571 0.195445731 0.161416903
0.320935756 0.215433300 0.177102998
0.349145651 0.246679187 0.200505987
0.380391926 0.275648177 0.229475066
0.417583883 0.315622896 0.258570373
0.468311220 0.367488831 0.297406644
0.537760615 0.432258070 0.351676077
0.422770619 0.314611256 0.261985749
0.415812552 0.316002667 0.264010191
0.433143586 0.332320929 0.271853179
0.453889936 0.353446931 0.282226652
0.489563465 0.388488173 0.308538944
0.524731338 0.423655987 0.338899285
0.570398390 0.470841467 0.383048356
0.630993187 0.530423522 0.441239685
0.540290475 0.434408456 0.356103450
0.543453455 0.440860271 0.351549268
0.552941322 0.451233089 0.363946468
0.571790159 0.465781271 0.377609015
0.597216904 0.495255888 0.405059904
0.627830684 0.525869727 0.435673714
0.664769173 0.567362189 0.474889129
0.711068988 0.622643530 0.527387977
0.682099998 0.580012560 0.495762289
0.687412858 0.591397524 0.501075447
0.690069437 0.595951617 0.501834452
0.702972889 0.608855188 0.514737606
0.720050454 0.622643590 0.530170739
0.735736668 0.640860260 0.546489298
0.751929045 0.662365556 0.570524871
0.779759586 0.692346513 0.602023900
0.811005354 0.718152940 0.638962388
0.804427803 0.721062303 0.637318075
0.808222651 0.720809639 0.637191594
0.814674377 0.731056213 0.650980234
0.825553417 0.743200362 0.666160822
0.841112971 0.764452696 0.694117546
0.857937932 0.784693420 0.713598847
0.874383569 0.807969511 0.740543544
0.000759096 0.000759096 0.000759096
0.022643996 0.005060451 0.000000000
0.071221001 0.026565190 0.015686000
0.139405191 0.064516351 0.037065350
0.211511806 0.114990175 0.086780280
0.280834824 0.174952641 0.139658630
0.350031346 0.244908273 0.200253278
0.435040891 0.333079904 0.270461917
0.085389003 0.027703643 0.005819451
0.105756000 0.037571095 0.011258544
0.131562099 0.063377991 0.031625543
0.180898085 0.100189991 0.065654986
0.241113275 0.144086093 0.111574732
0.306388080 0.200506002 0.162935004
0.362302452 0.259455830 0.212144285
0.434029251 0.340164781 0.267425358
0.188741088 0.100189999 0.061606187
0.200126648 0.100949086 0.071980089
0.216951191 0.129159003 0.086780295
0.252119184 0.154585645 0.116508275
0.302340180 0.194940001 0.160405084
0.350158066 0.245034978 0.200379461
0.413535655 0.311575085 0.254522473
0.492599517 0.396837622 0.315369904
0.305249721 0.196584180 0.154206187
0.310310096 0.204427183 0.166856185
0.330297530 0.224035278 0.184946090
0.354585648 0.249462530 0.204427183
0.383175254 0.281087995 0.231878281
0.422137976 0.320936382 0.257558256
0.475774944 0.373434573 0.301834434
0.544465303 0.438203722 0.356862724
0.430107296 0.324098587 0.262365282
0.422517508 0.318152994 0.266666740
0.435547262 0.336622298 0.271727085
0.457811713 0.357368827 0.290954739
0.494244188 0.391524285 0.317267299
0.525995910 0.425679743 0.342314988
0.572802067 0.470841467 0.380645066
0.634155691 0.528399706 0.433776170
0.552308738 0.447185397 0.359139532
0.550917029 0.444655240 0.359645933
0.556862593 0.456925809 0.372802079
0.578874350 0.471347362 0.385958493
0.599241138 0.496774018 0.407589823
0.628589749 0.526628733 0.434914708
0.670588374 0.570145369 0.479190469
0.719924033 0.623529434 0.530550301
0.680961311 0.582036376 0.482479572
0.686653852 0.591777086 0.500695944
0.695888281 0.598228812 0.508918464
0.705123544 0.606198370 0.516761482
0.719291508 0.625173986 0.531056404
0.732195020 0.636179268 0.545857310
0.750663996 0.654902101 0.567868590
0.779126942 0.694370687 0.605186462
0.803794980 0.720176816 0.641619325
0.798987925 0.726881921 0.639595568
0.807590008 0.724351645 0.638709605
0.818216324 0.734598458 0.651992500
0.828210175 0.750284493 0.671347201
0.840733647 0.766350448 0.686653614
0.856293321 0.784566700 0.713345766
0.877545655 0.811511517 0.743706465
0.023023643 0.006198998 0.005566002
0.045793545 0.012523999 0.003542452
0.085009649 0.031245997 0.016065644
0.145224646 0.069576286 0.039847996
0.218975633 0.126881987 0.098418549
0.282732368 0.176090986 0.141049996
0.354332656 0.251233280 0.202530265
0.437823981 0.340417415 0.277798951
0.098671995 0.042631544 0.006957998
0.115496546 0.047691092 0.020240093
0.144086093 0.068058096 0.040227544
0.193801641 0.102466993 0.068817094
0.246679276 0.150284395 0.111828089
0.310183465 0.204300985 0.161163986
0.374193639 0.273750722 0.223529741
0.451233655 0.348260432 0.280834824
0.200885549 0.106894553 0.075901195
0.202024207 0.111448549 0.077419192
0.229980826 0.136243090 0.097786091
0.258823633 0.162428737 0.122453839
0.302214086 0.203921646 0.163567185
0.358380646 0.253257722 0.212650433
0.423402905 0.321441919 0.264389664
0.499304175 0.397723168 0.322706968
0.304364651 0.206830993 0.166476652
0.309424281 0.211891636 0.166730002
0.330677092 0.225932628 0.190259174
0.356483281 0.251739651 0.206324935
0.391777158 0.289816171 0.236559197
0.434408754 0.332447737 0.271347523
0.485515535 0.385831565 0.310056984
0.554079831 0.449335724 0.364705443
0.429981202 0.326881826 0.269829452
0.425174266 0.331182361 0.271727085
0.440227479 0.339405626 0.278937280
0.461733013 0.361289918 0.290069640
0.491460919 0.391144812 0.310816169
0.529158711 0.427704185 0.346615821
0.577229619 0.475901634 0.387856007
0.635041058 0.534597993 0.436559200
0.547628105 0.445793808 0.361416548
0.551676214 0.449082941 0.362049073
0.562681794 0.460847616 0.372675478
0.577229381 0.475268573 0.385072559
0.603542089 0.501581073 0.411385089
0.628589690 0.532953680 0.439595103
0.669449747 0.571283758 0.475142479
0.718785644 0.624667764 0.528020263
0.684376895 0.584692895 0.493358284
0.690575659 0.589373946 0.497280180
0.692978978 0.595572114 0.499810338
0.700695932 0.606577933 0.512460649
0.713852048 0.620873034 0.529032111
0.732700467 0.639721751 0.547880769
0.751549542 0.661985993 0.567868590
0.782669187 0.699810088 0.610752463
0.812523961 0.718279421 0.636305928
0.800379753 0.720935822 0.635547161
0.807083726 0.725995958 0.639848471
0.818595827 0.734977961 0.653130949
0.827704012 0.748639882 0.667552054
0.843769491 0.765211582 0.688930690
0.858823299 0.784060657 0.716002226
0.877545595 0.809867144 0.745856941
0.053130992 0.017204192 0.006957998
0.071979895 0.023908548 0.009740644
0.105629191 0.043769997 0.016318997
0.159013182 0.085768647 0.048829831
0.224794373 0.128273189 0.096267998
0.296900988 0.186970368 0.152940720
0.364200175 0.262239188 0.211258367
0.448703647 0.346742630 0.282605976
0.127640992 0.054648992 0.026818736
0.130297542 0.061353736 0.027324190
0.156989440 0.083744280 0.045667544
0.203668177 0.111195184 0.080961540
0.261226892 0.155344531 0.127134547
0.321189106 0.215306982 0.174446389
0.378747523 0.274763286 0.227830276
0.454522610 0.352561593 0.282479376
0.212270901 0.122074477 0.086906999
0.222517177 0.123339646 0.099936545
0.237318099 0.140923187 0.096142091
0.270208895 0.172675550 0.134598285
0.314105183 0.208222374 0.166603193
0.364959002 0.260594457 0.214421183
0.427704066 0.325743288 0.262365460
0.504364073 0.404048055 0.325236887
0.311448425 0.206704468 0.166097194
0.322833270 0.213788986 0.171789840
0.336116195 0.231372714 0.185958534
0.364705831 0.257558286 0.212144271
0.396837443 0.294876844 0.241619438
0.439847916 0.336749077 0.274130166
0.484250516 0.390765369 0.309930354
0.548892975 0.449715257 0.362302244
0.435420573 0.330423564 0.277925372
0.435926735 0.333965749 0.272106647
0.446426272 0.345983446 0.279570103
0.466034204 0.365591377 0.292093158
0.495762378 0.392283171 0.319544166
0.535483778 0.431119829 0.345730454
0.577482343 0.473118395 0.384692997
0.633775949 0.530550122 0.442884207
0.551676035 0.449715018 0.359519005
0.552561879 0.448576659 0.358633667
0.561922908 0.458697140 0.372169614
0.581151366 0.477166206 0.391018182
0.601518393 0.499557376 0.409361362
0.634535491 0.528526485 0.440354198
0.669323206 0.572169662 0.479570001
0.716508508 0.620872736 0.529791415
0.681720495 0.583554566 0.489310265
0.684250712 0.590132833 0.487159789
0.691714048 0.597596407 0.503478646
0.701201558 0.605945587 0.514104903
0.715369940 0.622770548 0.528652549
0.733206749 0.643643320 0.550284743
0.754585326 0.665022373 0.573181510
0.790638924 0.701834202 0.614927053
0.804300785 0.717267573 0.629095256
0.800758958 0.715875924 0.635420382
0.806957603 0.723339736 0.638456762
0.815939009 0.732321143 0.647438407
0.824288666 0.748639524 0.663630724
0.839974344 0.766856313 0.683364868
0.859582484 0.785578847 0.716381550
0.881467640 0.808601916 0.744338751
0.090195999 0.035167996 0.009867260
0.104996800 0.045414191 0.022011194
0.135484084 0.067299090 0.040606994
0.180012375 0.098165728 0.064010091
0.246426642 0.141682193 0.106008731
0.305376470 0.199493989 0.164199993
0.368627727 0.270714730 0.221126020
0.450094610 0.351928771 0.286527634
0.147501543 0.071979992 0.032005288
0.157874748 0.078304805 0.046426352
0.183428273 0.096647635 0.064136803
0.218089834 0.127261549 0.088298373
0.261480302 0.165085196 0.125869274
0.318911999 0.217584193 0.176976487
0.379000574 0.277040005 0.226059571
0.449083000 0.347501546 0.281214595
0.235293925 0.137507737 0.106514998
0.238583356 0.141302735 0.115622833
0.256926179 0.155091986 0.130171001
0.281847090 0.182036832 0.143200189
0.328273177 0.222390980 0.181530476
0.375205457 0.271220744 0.224288732
0.429981261 0.328020275 0.268690914
0.505882204 0.407084167 0.322580576
0.321442127 0.215559617 0.182036638
0.334598273 0.224667981 0.187602744
0.346615821 0.239974722 0.200885534
0.367741734 0.264263004 0.212523744
0.399873704 0.297153831 0.245414436
0.440101266 0.339278936 0.274762988
0.484250814 0.384566605 0.308791935
0.547880828 0.447185189 0.360531449
0.437318116 0.334598124 0.276154190
0.438203722 0.347248822 0.275395632
0.453130931 0.359898657 0.290322632
0.477039993 0.373561084 0.303858280
0.500948906 0.397849143 0.323971719
0.530297339 0.433017194 0.344085723
0.573181629 0.472612023 0.381150812
0.627956927 0.525237143 0.432764083
0.561922729 0.464010209 0.367994994
0.562808216 0.461859465 0.371157259
0.574193537 0.470967799 0.384440362
0.591524482 0.483997494 0.398608357
0.606704891 0.506768167 0.418595910
0.634535491 0.540417492 0.446299464
0.669196784 0.571031213 0.478937417
0.710815787 0.616698325 0.522580624
0.679190278 0.585072756 0.483112276
0.688171983 0.586970270 0.499051303
0.692093611 0.597975850 0.503858209
0.702466726 0.605059803 0.512587011
0.715116978 0.617710114 0.525236845
0.729538202 0.638836324 0.545477748
0.749778271 0.658570588 0.570018888
0.790132821 0.700063586 0.615686297
0.797343671 0.720176816 0.633649528
0.803921342 0.720682919 0.637191474
0.808981657 0.721568644 0.641745687
0.815939248 0.732321382 0.651233435
0.824541211 0.745730400 0.664136529
0.841618955 0.764958799 0.687539458
0.856167018 0.783681095 0.712207496
0.878178537 0.807842851 0.747627676
0.130676985 0.059455995 0.032004997
0.146489576 0.071600445 0.044149447
0.170777991 0.092346996 0.057052575
0.209234625 0.120556280 0.086400926
0.263883263 0.162934989 0.125996277
0.321568429 0.215686440 0.176597014
0.386210978 0.280961543 0.231625274
0.460088491 0.358127534 0.291461080
0.169386730 0.089310706 0.046426542
0.181024805 0.091208249 0.058697287
0.201897353 0.111321904 0.079190291
0.235673472 0.143706650 0.103225887
0.280708551 0.179759547 0.142820835
0.332953781 0.227071285 0.187982291
0.392156810 0.290195823 0.235420734
0.454016626 0.354332507 0.290322721
0.247438371 0.144844800 0.112839803
0.252751559 0.153194457 0.124225453
0.271853358 0.172295809 0.143326804
0.300822079 0.194940090 0.158128098
0.338393450 0.232511073 0.187855899
0.382036746 0.284250379 0.230993167
0.442504466 0.339785188 0.276407361
0.506894052 0.408854991 0.324731112
0.332447946 0.226565629 0.183427915
0.339025855 0.235800177 0.194433734
0.354458839 0.248576730 0.205439731
0.376723289 0.273118287 0.223150000
0.409234822 0.307273805 0.248450428
0.446806014 0.343706369 0.280328900
0.492852628 0.388614953 0.317393899
0.550158083 0.445414454 0.360784441
0.445667207 0.342188358 0.274003983
0.451106817 0.350411087 0.285641819
0.459835559 0.359392583 0.288172007
0.475268841 0.374825925 0.301328242
0.499051154 0.396331459 0.321315348
0.531562090 0.430486739 0.345730454
0.572043002 0.468437642 0.381530255
0.624415159 0.518658996 0.431878507
0.572802007 0.474636465 0.378747702
0.584060907 0.481720477 0.392283469
0.589500010 0.483238399 0.399367452
0.598987877 0.497026891 0.406830937
0.612650216 0.510689259 0.420493275
0.632763684 0.527514219 0.431119442
0.665275276 0.567109287 0.475016028
0.702719808 0.606704533 0.516382039
0.679317296 0.581910312 0.486148000
0.679822862 0.584567010 0.495382726
0.689563453 0.592156708 0.499683350
0.698924243 0.601518273 0.509044945
0.713852167 0.611891210 0.517141163
0.727640510 0.633522987 0.539405584
0.744338989 0.653130829 0.564579546
0.780391991 0.694117546 0.603542089
0.801517963 0.715243161 0.639089346
0.806072176 0.718658924 0.632890344
0.801770806 0.721821547 0.635293841
0.810119987 0.727640331 0.644908488
0.823023498 0.741935611 0.655787468
0.834535241 0.759772420 0.681214273
0.853257596 0.776217639 0.704490602
0.878937602 0.808728516 0.744718134
0.180644959 0.094244145 0.061606653
0.186211258 0.099810436 0.067172691
0.208222657 0.121821828 0.086653970
0.246173471 0.144844994 0.108032800
0.289690167 0.192156821 0.148766190
0.346615732 0.244908556 0.199746996
0.416318834 0.314357817 0.258064717
0.486653805 0.388614774 0.304870129
0.207084104 0.115496531 0.070461698
0.210752994 0.118785545 0.074889258
0.233775824 0.131182820 0.099177845
0.265781105 0.163693815 0.127134621
0.306515008 0.202150196 0.165970996
0.360404789 0.255661041 0.211258635
0.417077810 0.315116823 0.258823723
0.490196258 0.386337519 0.309424073
0.270462096 0.160531089 0.129791155
0.273371369 0.171283856 0.145350829
0.290322721 0.186337993 0.143453181
0.318911791 0.213029817 0.172422498
0.356862813 0.253636956 0.205186382
0.404807091 0.306641251 0.250601083
0.460215092 0.360531032 0.287033439
0.528020024 0.430739969 0.341429651
0.338266999 0.237318084 0.190638632
0.344592065 0.243643284 0.199493855
0.362049460 0.257305443 0.211891443
0.384946108 0.286780298 0.232258111
0.414168358 0.315623075 0.260847390
0.457558364 0.356736213 0.290701896
0.507906318 0.406325072 0.330550283
0.568880081 0.465654641 0.377988636
0.444781840 0.341555983 0.282479733
0.450347841 0.349905044 0.281214565
0.454143018 0.353700221 0.282479346
0.468311638 0.367868543 0.296647638
0.499937177 0.397722840 0.324224979
0.535104454 0.433270097 0.346615940
0.580265701 0.480834842 0.386337906
0.631372452 0.531941831 0.435674012
0.587729454 0.488298625 0.398734897
0.593548715 0.491587728 0.401391715
0.595951736 0.493990719 0.403794736
0.598608375 0.496647358 0.406451374
0.603542089 0.499051183 0.410120010
0.629348516 0.527387440 0.435673475
0.665907860 0.566477180 0.474256992
0.707020760 0.611385345 0.518026710
0.700443089 0.604301035 0.511701703
0.707906425 0.607084036 0.517267406
0.700062752 0.609740674 0.516002238
0.710309863 0.619987190 0.526249051
0.720050454 0.625173926 0.531435907
0.727893591 0.633775949 0.539658487
0.743453264 0.656420231 0.562302291
0.780771434 0.694497108 0.607210696
0.797722995 0.722074568 0.634534776
0.809993327 0.725616515 0.640607476
0.811005771 0.732447624 0.648829758
0.819860995 0.736242831 0.651359797
0.824161828 0.743074000 0.656925857
0.833649576 0.760531485 0.675521672
0.848450303 0.775205493 0.702213824
0.876280785 0.811005771 0.745856583
