Assets/EldamarStudio/100 Retro LUTs Pack/LUTs/cube/Roger LUT.cube
DOMAIN_MIN 0 0 0
DOMAIN_MAX 1 1 1
LUT_3D_SIZE 32
0.000000000 0.000000000 0.000000000
0.000000000 0.000000000 0.000000000
0.002150774 0.000000000 0.000000000
0.007716838 0.000000000 0.000000000
0.016065547 0.000379548 0.000000000
0.019101935 0.003415935 0.000000000
0.027198322 0.008981999 0.000000000
0.037950993 0.013409289 0.003288997
0.048576999 0.017203998 0.009360998
0.054649010 0.023276001 0.015432999
0.072358996 0.023529001 0.012776872
0.086527511 0.033649247 0.015812997
0.099810347 0.046552639 0.021884998
0.115496032 0.055661030 0.028210031
0.136748403 0.064769410 0.037318408
0.155597597 0.078684792 0.051233795
0.175332189 0.092346996 0.063377798
0.195951983 0.105123565 0.072485574
0.214168027 0.120303981 0.081593983
0.232384726 0.129917651 0.093485013
0.250600994 0.144718468 0.109424472
0.268817246 0.162934989 0.127640992
0.287033975 0.181151003 0.145856977
0.305249989 0.199367821 0.164073005
0.323465973 0.217583984 0.177735567
0.341682315 0.235799968 0.192662969
0.360910982 0.255534172 0.211385071
0.385198981 0.282859325 0.232637435
0.409487635 0.307526946 0.251233637
0.433775932 0.331815392 0.269449949
0.458949804 0.356989563 0.290322572
0.486274987 0.384314001 0.317647010
0.000000000 0.003036387 0.000000000
0.003036387 0.000000000 0.000000000
0.011638386 0.002150774 0.000000000
0.017330838 0.004301225 0.003795161
0.022517096 0.006072000 0.008728839
0.028210323 0.006451548 0.006072000
0.033776388 0.014547934 0.001012001
0.045667700 0.017836999 0.004933705
0.057685386 0.019481290 0.010120292
0.063757397 0.023276007 0.009361003
0.081467383 0.035167739 0.015432997
0.095635369 0.039721772 0.016824869
0.111195251 0.051866025 0.025300641
0.129917443 0.064516380 0.037065387
0.142821178 0.070841409 0.043390408
0.159265950 0.082352988 0.050094996
0.179885983 0.098418601 0.061859608
0.201391563 0.112966187 0.073118150
0.217204422 0.123339601 0.084630385
0.238203764 0.141303331 0.110436760
0.250980735 0.153067768 0.118153028
0.267805398 0.167995125 0.130676866
0.290069580 0.184187368 0.148893371
0.308285594 0.202403441 0.167109400
0.328778863 0.222896889 0.183048666
0.347754329 0.241872326 0.198734969
0.366477072 0.261100769 0.216951117
0.388235360 0.285894930 0.235673830
0.412523329 0.310563236 0.259582341
0.436811984 0.336622536 0.271473587
0.462871581 0.363946944 0.288171798
0.492347002 0.393421590 0.317647010
0.010752774 0.003922000 0.004300999
0.020240385 0.007337387 0.006451774
0.023276772 0.004300999 0.000000000
0.034155611 0.007337387 0.001265161
0.038962319 0.009993774 0.007464000
0.043263867 0.009993774 0.006198839
0.049335998 0.015433321 0.009234775
0.057052705 0.021252289 0.001518069
0.071221091 0.024035323 0.008349223
0.081467785 0.029854298 0.012270518
0.092726000 0.039468739 0.015812773
0.108918250 0.049589254 0.023909027
0.121188767 0.055787772 0.028336773
0.139152065 0.067932032 0.039974969
0.155091837 0.079696767 0.047944222
0.173940733 0.092725992 0.056166995
0.187602550 0.104870379 0.065274991
0.208096132 0.120556533 0.078051567
0.224794760 0.131182760 0.091714188
0.241239592 0.146489725 0.109171599
0.260594696 0.159013242 0.127008215
0.272486120 0.171916351 0.132827118
0.293105751 0.187223226 0.147628203
0.311321765 0.205439776 0.165844232
0.331815064 0.225933045 0.186084494
0.353067428 0.248576730 0.202656552
0.372549057 0.268817306 0.221378833
0.393801421 0.291460961 0.241239876
0.417710483 0.315749645 0.256166935
0.440227717 0.343579918 0.285768121
0.466793329 0.371284038 0.296141386
0.498418987 0.400379539 0.317647010
0.032258317 0.008981999 0.009108162
0.039342318 0.012523999 0.010879387
0.045034770 0.013409387 0.006578388
0.053131159 0.011638161 0.006325160
0.061100323 0.015433547 0.007843452
0.063251093 0.018090161 0.005186839
0.071347155 0.023150161 0.011511998
0.077798702 0.028842609 0.013156455
0.087666191 0.032637320 0.007843159
0.102340646 0.041239653 0.018975163
0.111701280 0.047818031 0.023655869
0.122327410 0.056926090 0.029475091
0.137507796 0.067173123 0.039722126
0.150284320 0.073751122 0.046047159
0.168500826 0.086907245 0.054142892
0.185325950 0.100822181 0.064515963
0.203289002 0.114484377 0.072612159
0.216698140 0.127893969 0.086021140
0.234914944 0.141303018 0.101833984
0.249082804 0.154965207 0.115749530
0.264895469 0.168880403 0.130297303
0.284124136 0.179000407 0.143453181
0.299936950 0.194054306 0.153194010
0.318152994 0.212270811 0.169133335
0.334851444 0.232764274 0.188361436
0.357368648 0.256673127 0.209487334
0.377609074 0.279443234 0.226186067
0.397343427 0.299177557 0.244402424
0.422517478 0.324351609 0.264010131
0.450094998 0.349652261 0.283491284
0.474004030 0.380897909 0.314231128
0.507021010 0.408981979 0.325237006
0.062239543 0.021125998 0.011385452
0.062618993 0.021505548 0.011765000
0.065148771 0.021125998 0.008981999
0.071347155 0.022264546 0.009740998
0.085768551 0.022643998 0.019608000
0.085768551 0.031752385 0.010499613
0.095509097 0.038709998 0.016571868
0.104364090 0.044022996 0.021125998
0.111195192 0.050094999 0.022643998
0.123339981 0.056167003 0.028716002
0.132953674 0.060088869 0.034408543
0.142061800 0.067172825 0.040860090
0.153447196 0.076660283 0.048829734
0.168121591 0.088551961 0.060721479
0.185958087 0.097659566 0.066919990
0.199747056 0.109171085 0.077039994
0.213029906 0.121315375 0.086906992
0.228462681 0.134345531 0.095129520
0.246679500 0.152561575 0.113345556
0.260468096 0.165211558 0.126375720
0.274509728 0.179253280 0.139658734
0.290955156 0.193801254 0.154838964
0.312081009 0.206198975 0.170145065
0.330297083 0.224415004 0.182795808
0.344718546 0.244528830 0.199493989
0.361290485 0.267425627 0.217963189
0.385199040 0.293864608 0.238330066
0.400379419 0.309044957 0.247438446
0.425426781 0.334092319 0.270967782
0.455534220 0.360404819 0.294750154
0.487665713 0.386591017 0.316508502
0.518026590 0.419987440 0.340796560
0.089563929 0.033269998 0.008349065
0.092599548 0.036306385 0.011385452
0.097279996 0.034535162 0.016066000
0.100315928 0.037065160 0.020113997
0.103984542 0.043896385 0.025679998
0.113092929 0.046931997 0.019608000
0.120683245 0.056040380 0.025680255
0.128652871 0.059708998 0.031499222
0.134724870 0.062238995 0.034787998
0.141555980 0.068311006 0.040860001
0.153699994 0.077292867 0.044022869
0.163314193 0.085389249 0.051613186
0.174699575 0.093358867 0.060215220
0.189373970 0.100695968 0.069829091
0.198482350 0.109803565 0.078937471
0.213915050 0.121315598 0.085135996
0.227071449 0.133459866 0.095255993
0.240354434 0.146236569 0.107020557
0.255787879 0.161669955 0.122453943
0.276787311 0.174319938 0.137887299
0.292726099 0.188361660 0.148766726
0.307906151 0.203542054 0.160911128
0.324225008 0.218342975 0.176217839
0.342441827 0.236559004 0.194433868
0.360657841 0.254775584 0.211637974
0.376470655 0.273497909 0.227071330
0.394686908 0.294244140 0.241745934
0.418595433 0.318153352 0.259582430
0.439088792 0.338646710 0.274003804
0.464895606 0.366223842 0.294750154
0.493232459 0.394686639 0.316002578
0.521062970 0.423023075 0.337760925
0.111828320 0.047944319 0.020493317
0.114863925 0.050980706 0.023529708
0.120050319 0.051866319 0.026565546
0.124857478 0.051739477 0.029727999
0.126502097 0.057558544 0.032890547
0.131308928 0.060594708 0.033270322
0.140417323 0.066160642 0.032258321
0.147881001 0.073624320 0.039721996
0.155471191 0.076154418 0.044402320
0.165085644 0.080455646 0.050474323
0.171916634 0.086907186 0.056166869
0.184060633 0.093991317 0.063251249
0.193674967 0.103731997 0.070082352
0.205819324 0.113092996 0.076660067
0.217204407 0.124477886 0.088045731
0.226312801 0.133586109 0.097153507
0.239721641 0.145603999 0.106388375
0.251865983 0.157748148 0.118532628
0.265148699 0.171031296 0.131815299
0.278305382 0.183428332 0.144465372
0.299557239 0.195572317 0.159645736
0.316002131 0.210120127 0.170019120
0.331308991 0.225426972 0.182289973
0.349525809 0.243642986 0.200506002
0.367741972 0.264136285 0.216445282
0.385958314 0.282606006 0.231625304
0.403289378 0.301328391 0.245287746
0.425553620 0.323592901 0.265527993
0.447185427 0.345224768 0.281087816
0.470208555 0.370019138 0.298038930
0.498545229 0.399620503 0.316761255
0.529158711 0.428589642 0.334724665
0.141302973 0.064768992 0.038962699
0.141050026 0.069450080 0.038709670
0.141302690 0.070335694 0.043390639
0.147374690 0.072865695 0.047691405
0.150790527 0.075901404 0.047691409
0.153826460 0.077672631 0.046932638
0.160278022 0.083238699 0.054016694
0.174320117 0.087665990 0.055660985
0.180392116 0.093737997 0.061733183
0.190765664 0.097659767 0.067805409
0.197090685 0.103605695 0.073877402
0.203921691 0.111321986 0.077039950
0.216065705 0.116255626 0.085009702
0.225933045 0.126881704 0.089310408
0.238077387 0.139025688 0.101454817
0.247817799 0.148766503 0.111195594
0.258444369 0.159392685 0.121821404
0.270588398 0.171536684 0.133965984
0.282732457 0.183681235 0.146110013
0.294876724 0.195825711 0.154964998
0.307779938 0.207969695 0.167362437
0.327007830 0.222137690 0.181530699
0.342314690 0.238076985 0.191650972
0.360531509 0.256293416 0.209866986
0.377102971 0.273497671 0.222517282
0.395319313 0.293358386 0.239089325
0.413030058 0.312587142 0.252245337
0.432005405 0.334978133 0.271220416
0.456546813 0.361163795 0.290448815
0.482858896 0.379380137 0.305755645
0.508032799 0.405819178 0.324857295
0.539911389 0.434661984 0.341555685
0.175458282 0.085262097 0.060215093
0.173181579 0.090575770 0.056419808
0.170904517 0.091587901 0.059835549
0.170145288 0.094876997 0.067425996
0.176217288 0.100189999 0.071221001
0.179633126 0.100189999 0.064390004
0.184440091 0.104491092 0.071221098
0.194054306 0.108918384 0.080708481
0.210753098 0.112713091 0.085262090
0.216825098 0.118785098 0.091334872
0.223655999 0.125616744 0.098165989
0.229728192 0.132953838 0.101707995
0.236559197 0.141302735 0.102467000
0.248450160 0.144845128 0.108792037
0.260088742 0.156483188 0.120430082
0.271347284 0.165464908 0.130170897
0.281973273 0.176091090 0.140797094
0.292853028 0.188867658 0.151676089
0.304744124 0.201138213 0.163567111
0.318406105 0.212523818 0.171663105
0.329791158 0.223908991 0.180771470
0.342947304 0.238077179 0.192916006
0.358127654 0.256166667 0.204933509
0.375711739 0.273750901 0.221252099
0.392409891 0.290449262 0.234914467
0.408981323 0.307020962 0.246679306
0.428210139 0.326249152 0.265907973
0.444149524 0.350537896 0.281846642
0.469955862 0.378621131 0.300063014
0.497532994 0.403162360 0.319291353
0.524730802 0.420999169 0.336242765
0.552056015 0.445287973 0.357495189
0.202783480 0.112586498 0.081467494
0.202783465 0.115622886 0.075395495
0.202656984 0.114484243 0.078051984
0.202530473 0.116634697 0.086654015
0.203542471 0.124478012 0.095509015
0.209614471 0.124478012 0.083365023
0.213029653 0.127008334 0.084124342
0.217836499 0.130170792 0.092473492
0.225932717 0.133965492 0.103478879
0.238077492 0.140037507 0.112586498
0.247058600 0.149019361 0.121568382
0.254016519 0.155977011 0.128526002
0.260088980 0.163314149 0.132068008
0.266666979 0.172169536 0.133080050
0.275774568 0.181277901 0.142188430
0.289816320 0.188108981 0.151423305
0.303225487 0.197343498 0.162049487
0.314104676 0.210120067 0.172928482
0.320177466 0.225300476 0.179000512
0.337634474 0.234788343 0.190891519
0.349905223 0.244022757 0.200885236
0.361164093 0.256293267 0.211132005
0.376344472 0.274383485 0.223149508
0.391524076 0.289563864 0.232257918
0.409108073 0.307147473 0.248577058
0.427197933 0.325236976 0.263630956
0.446426123 0.344465137 0.278051972
0.470714897 0.368753880 0.302339971
0.497280300 0.393042624 0.315623134
0.522833407 0.419355094 0.333460122
0.545603752 0.445287913 0.354459554
0.564200044 0.469576001 0.375711977
0.238835990 0.137001738 0.096900873
0.227198005 0.134218380 0.096647866
0.231498986 0.137254775 0.103478871
0.230487004 0.137001738 0.107273705
0.229095548 0.141555861 0.110436097
0.242757872 0.151675865 0.113472745
0.243769869 0.151675865 0.106388092
0.249715433 0.157621697 0.111574829
0.257052600 0.163946733 0.120935991
0.264895827 0.170018733 0.127893388
0.268310994 0.173181608 0.131182745
0.281467110 0.180265725 0.140291125
0.291334629 0.187476382 0.148387089
0.299177885 0.196331739 0.154205874
0.305629313 0.202783287 0.160657406
0.314737529 0.211891055 0.169765800
0.327387720 0.221505374 0.180391997
0.338899314 0.233017147 0.191903576
0.347248822 0.243642986 0.200252891
0.358886898 0.258823365 0.209108233
0.371157616 0.268184751 0.219228476
0.383301854 0.280328721 0.231372744
0.400252998 0.298292011 0.247058734
0.412649989 0.310689777 0.253383785
0.430107445 0.328146845 0.264768869
0.448323846 0.346362829 0.281720459
0.468057930 0.365591019 0.297912866
0.494749874 0.389879763 0.317393839
0.516381800 0.411511689 0.333712667
0.539658189 0.433776140 0.351423144
0.562808037 0.458823562 0.370904565
0.585072875 0.485135853 0.388108999
0.267172515 0.161290497 0.126249492
0.265148729 0.162302107 0.120177239
0.257811248 0.163567275 0.124731250
0.263883561 0.164073333 0.129285246
0.262365729 0.164073244 0.127387494
0.272612423 0.172928259 0.136748850
0.279190511 0.179000244 0.140796855
0.279190511 0.179000244 0.138013497
0.287160158 0.186970085 0.145983338
0.294496983 0.194307238 0.153320491
0.299683869 0.199493855 0.154459104
0.304743767 0.204553992 0.159519225
0.317646861 0.211764634 0.168627620
0.326755017 0.220873028 0.177735537
0.334598243 0.228716239 0.185578749
0.343074054 0.237191945 0.194054037
0.352182448 0.246299565 0.203162432
0.363187939 0.257938147 0.213535488
0.372295976 0.268437803 0.221252233
0.384187520 0.281087875 0.232384354
0.394433767 0.292472750 0.237697721
0.403542131 0.304617226 0.248577118
0.418595761 0.322706997 0.265401751
0.432637513 0.336749047 0.273371518
0.449335575 0.353447229 0.288045496
0.468943655 0.370271891 0.296014816
0.487792403 0.387855500 0.311068863
0.510562956 0.409107864 0.329285234
0.534598053 0.428716034 0.348893076
0.554079652 0.449968427 0.364073426
0.576850057 0.472991824 0.386590809
0.602277279 0.500316262 0.406325251
0.285768658 0.183301985 0.150158361
0.291081756 0.185199261 0.145604253
0.291081727 0.188235417 0.146109998
0.287792325 0.189880118 0.151675999
0.293485433 0.187602744 0.146742538
0.298798352 0.192915648 0.156609625
0.304870635 0.198987633 0.163693637
0.309930652 0.204047635 0.168753639
0.312207550 0.204806730 0.170271635
0.321315169 0.213156119 0.179000467
0.326375723 0.220493287 0.179379985
0.332448006 0.226565272 0.183428288
0.339658648 0.233775929 0.190638632
0.348766327 0.243137285 0.199493989
0.357874691 0.253131062 0.207716763
0.366982788 0.262239456 0.216824830
0.376091182 0.271347404 0.225932837
0.385199577 0.280455202 0.235041201
0.394307345 0.292093962 0.241619289
0.406198710 0.304238021 0.250980288
0.417583883 0.315622896 0.258570373
0.427703887 0.325742900 0.264642626
0.437065274 0.343580127 0.279316992
0.451233566 0.358760536 0.287413239
0.468690634 0.376217604 0.303352624
0.486021280 0.393042266 0.319164962
0.507273734 0.409234703 0.324224710
0.526122868 0.428083271 0.341808885
0.547374964 0.447438300 0.360404789
0.569259763 0.467425793 0.380392164
0.588361919 0.487792611 0.398229182
0.615180373 0.514357984 0.425300628
0.298166037 0.203036070 0.155977070
0.305755675 0.203542069 0.158760428
0.310815811 0.204933807 0.161796317
0.312081009 0.207211033 0.165338069
0.313472539 0.206831530 0.171030611
0.316508174 0.209867135 0.174067006
0.322074682 0.215433061 0.179886028
0.326882005 0.222011060 0.185452029
0.332953930 0.226818159 0.191271052
0.342061549 0.229854554 0.197343051
0.345856905 0.238962904 0.198102072
0.351676077 0.246047020 0.202403545
0.358886719 0.253257662 0.209108382
0.367995054 0.262365997 0.218216062
0.377103418 0.274509996 0.224288061
0.385958225 0.283997804 0.232510835
0.395066202 0.293105811 0.241619229
0.404427588 0.301960558 0.250727594
0.413536012 0.311068982 0.259835988
0.425174057 0.323466092 0.265655011
0.437065065 0.335357100 0.271980017
0.449209243 0.347501278 0.280075997
0.461480498 0.359519511 0.292220026
0.473751038 0.374446958 0.298545063
0.490702063 0.392157048 0.313472599
0.507273674 0.408728689 0.330044359
0.523213148 0.424921095 0.345224142
0.544465482 0.446173459 0.360404491
0.562807977 0.466919810 0.375584871
0.582795203 0.488172174 0.394307226
0.604047596 0.509045005 0.416698217
0.625300050 0.527261019 0.440987021
0.346742779 0.239468813 0.192409813
0.337634385 0.245540798 0.192409813
0.343073815 0.241745800 0.195193157
0.343453377 0.242631376 0.195699066
0.341302931 0.245920375 0.195319355
0.355977297 0.240227878 0.198355764
0.361543208 0.245793819 0.206451476
0.359392673 0.255154818 0.209993392
0.355723977 0.262238920 0.212017491
0.357241929 0.260215312 0.215559810
0.366350263 0.271979809 0.221631810
0.378241628 0.279443383 0.228463069
0.389247447 0.286654025 0.234661758
0.398355782 0.295762360 0.239468426
0.407463372 0.304869950 0.248576820
0.414167970 0.312207580 0.254648805
0.422390580 0.320430189 0.262871593
0.432131380 0.328905374 0.271979958
0.443895936 0.335356981 0.281088352
0.453004330 0.352814704 0.281847388
0.462745160 0.364073575 0.288804650
0.473497808 0.374826223 0.298291951
0.485768467 0.386843890 0.310435981
0.500948906 0.395952284 0.322580785
0.520050645 0.415433645 0.335737079
0.536495805 0.431878775 0.350158364
0.550284564 0.446173459 0.363440901
0.568754196 0.467425823 0.378621250
0.584692895 0.483365208 0.393801630
0.604047537 0.503352582 0.412523985
0.625299990 0.525490344 0.435547382
0.646552384 0.548513412 0.462239385
0.383301795 0.273497790 0.221631780
0.376597196 0.274762779 0.214420989
0.376090825 0.278684556 0.220872760
0.380644947 0.274636418 0.225679979
0.378747582 0.276533782 0.225679785
0.383807719 0.274509788 0.222643927
0.388994575 0.276154578 0.233143449
0.391777575 0.282226592 0.234028786
0.388741404 0.291334569 0.234028786
0.392030388 0.293232262 0.238709465
0.398355454 0.299936771 0.244655594
0.407463849 0.310057044 0.248703331
0.417330950 0.315369964 0.254775614
0.424161971 0.322201043 0.258570611
0.435420364 0.333459973 0.269829184
0.444528610 0.342567593 0.278937578
0.452118784 0.351676375 0.283491373
0.461859584 0.361037374 0.290828556
0.474003583 0.367109388 0.299936950
0.483364940 0.377102703 0.307906777
0.494370580 0.391524464 0.315496773
0.503984928 0.401138663 0.323086470
0.514737546 0.411890984 0.331055790
0.527640700 0.423276663 0.343200594
0.542821109 0.439215779 0.355344802
0.561037481 0.457558632 0.370398641
0.574699640 0.472232848 0.384566784
0.591018677 0.493485212 0.401644409
0.611385524 0.504617631 0.419228584
0.630107582 0.523339927 0.432637721
0.648703456 0.544592381 0.455534548
0.665401578 0.567362607 0.485894978
0.413662195 0.306894183 0.253510386
0.415180355 0.308412373 0.248956174
0.406451613 0.309044957 0.245161146
0.413282365 0.310816169 0.246679217
0.415559739 0.308791816 0.252245188
0.412144393 0.309930176 0.253004164
0.417710304 0.310942292 0.257558376
0.422137976 0.315623373 0.265907377
0.422897071 0.320936292 0.260594457
0.428210199 0.326249182 0.264389575
0.432764381 0.330803394 0.268943727
0.440860242 0.338899255 0.276028097
0.448829979 0.348007649 0.277925372
0.452751219 0.352308393 0.281088173
0.463630378 0.363187999 0.291966975
0.471852988 0.371410578 0.300190002
0.480961382 0.380518585 0.306261986
0.490702182 0.392663181 0.311195165
0.502846181 0.400506198 0.321188956
0.510689318 0.407843024 0.328779548
0.524731338 0.418848455 0.341302991
0.533839226 0.430993259 0.350411117
0.542188466 0.440860063 0.353952885
0.555724144 0.454396158 0.367488980
0.568627238 0.468058378 0.379633188
0.585199296 0.486274362 0.391777158
0.600000143 0.501075149 0.407337129
0.614168406 0.519291401 0.425553381
0.633143961 0.531435966 0.442251831
0.654396355 0.544592381 0.456926137
0.670335591 0.567615747 0.473497778
0.680581987 0.590133190 0.505629182
0.444149107 0.340923101 0.284882993
0.448197365 0.344591916 0.287412971
0.443263769 0.344845116 0.282479554
0.438203543 0.342947543 0.276407391
0.448829532 0.343706548 0.268817097
0.440480858 0.346995205 0.280202150
0.445287794 0.348133713 0.284756303
0.452118695 0.350790381 0.288804561
0.458696634 0.357369035 0.295129627
0.461733013 0.360404640 0.292094022
0.464769393 0.363440990 0.294876665
0.471853256 0.369259864 0.301328212
0.480455101 0.378367782 0.307653546
0.486527115 0.387223125 0.308159530
0.495255917 0.395951927 0.316887707
0.501328111 0.403289109 0.323592573
0.508918345 0.409614146 0.328779340
0.518026531 0.419355124 0.332447529
0.530170500 0.431499153 0.344591558
0.538013697 0.439342141 0.352435261
0.550411046 0.447944134 0.362934798
0.565464973 0.460088223 0.374699265
0.568753600 0.472106457 0.377988607
0.582922041 0.486274898 0.392156869
0.595825076 0.499177963 0.405060142
0.608854830 0.513472497 0.418469101
0.626059532 0.530676544 0.430613130
0.638203561 0.542820573 0.448576868
0.653763652 0.555597663 0.463504374
0.673751175 0.570778131 0.478810906
0.691587925 0.585705519 0.492852569
0.694623530 0.613030016 0.520177007
0.486653954 0.377355963 0.297027022
0.471473575 0.383427948 0.309170991
0.469070017 0.382795751 0.305249810
0.470335007 0.377482831 0.298924834
0.476153970 0.371030986 0.296141565
0.476153970 0.377102971 0.299177945
0.477925360 0.380392283 0.302972645
0.481467664 0.383175224 0.306008726
0.486274809 0.387982130 0.310816079
0.495129496 0.396837503 0.319418430
0.498165846 0.399873853 0.322201133
0.505249679 0.402909696 0.327260971
0.514357567 0.408728600 0.332447678
0.522959948 0.417583972 0.335483968
0.529031932 0.423655957 0.341555953
0.532953799 0.432384789 0.347880960
0.539279222 0.438203752 0.353953034
0.548387408 0.443643183 0.359771967
0.557494938 0.455788016 0.365844041
0.569639683 0.467932016 0.377988726
0.581277847 0.475774974 0.387729228
0.593927979 0.484376967 0.396331251
0.605186403 0.496394545 0.402277440
0.614294827 0.505502939 0.411385089
0.626185954 0.517394066 0.423276603
0.636938632 0.530929685 0.438203931
0.647311985 0.545856953 0.454901963
0.659455955 0.558000922 0.467045963
0.668943822 0.572801769 0.479696661
0.685895145 0.591271162 0.497406691
0.704491019 0.608475626 0.516128540
0.715875983 0.619102061 0.532320976
0.501328051 0.394307375 0.317520380
0.500063002 0.394813359 0.318532348
0.497786164 0.398735136 0.324225128
0.498418748 0.398229361 0.321442395
0.500695705 0.395572722 0.319924176
0.500695705 0.401644737 0.318152934
0.503225386 0.405186415 0.321189344
0.504616976 0.406578034 0.322580725
0.508032739 0.409234405 0.324478269
0.517140865 0.416318506 0.329538137
0.520430207 0.422391266 0.338393480
0.525490344 0.427451372 0.343453377
0.533839345 0.432384729 0.348387003
0.542694688 0.439342350 0.351929337
0.548766732 0.442883998 0.360531032
0.557241917 0.451359808 0.369006813
0.564073205 0.458950013 0.375458360
0.573181629 0.464515954 0.382162958
0.582289755 0.474509984 0.390385717
0.591398060 0.483871371 0.399241120
0.599747360 0.496015370 0.407590389
0.610120356 0.505882382 0.416824698
0.622264326 0.518026352 0.426692009
0.634028912 0.529790998 0.438456476
0.645414591 0.541176558 0.449841946
0.657558680 0.553320765 0.461986333
0.668564379 0.566603363 0.476407379
0.680708349 0.578747332 0.488551378
0.692852378 0.590892017 0.500695348
0.707400441 0.607716680 0.516382039
0.722327709 0.627956927 0.535736680
0.728779018 0.644655347 0.552814364
0.536242485 0.428463221 0.348260462
0.532447457 0.426565468 0.348260462
0.532700479 0.426818490 0.348513484
0.535736859 0.431119710 0.350284725
0.535989940 0.431625724 0.350284725
0.534471691 0.431625724 0.348766536
0.538899183 0.438962877 0.346995324
0.540290475 0.438709497 0.353320688
0.541808665 0.440733582 0.354838818
0.549778700 0.447944224 0.357874721
0.553067565 0.452118695 0.362934589
0.558127701 0.458191454 0.370018721
0.564199686 0.464263469 0.376091003
0.572043002 0.470082432 0.379886419
0.576470733 0.473118037 0.385705054
0.581151426 0.480961263 0.392915547
0.590259016 0.490069658 0.402023911
0.599367321 0.497153610 0.409108043
0.608475745 0.506261706 0.418216437
0.615686357 0.513472319 0.425427079
0.626691997 0.520683408 0.434535474
0.631752133 0.529791296 0.439595342
0.641366243 0.539405286 0.449209243
0.655281425 0.553320467 0.463124484
0.661732793 0.563567281 0.471473575
