Assets/EldamarStudio/100 Retro LUTs Pack/LUTs/cube/Rose LUT.cube
DOMAIN_MIN 0 0 0
DOMAIN_MAX 1 1 1
LUT_3D_SIZE 32
0.000000000 0.003922000 0.000000000
0.015180387 0.000885613 0.000000000
0.038962770 0.000000000 0.000000000
0.067552321 0.000000000 0.000000000
0.098671995 0.000000000 0.000758999
0.135104001 0.000000000 0.006830999
0.171536639 0.000000000 0.007843000
0.204680398 0.000000000 0.004554003
0.235800087 0.000000000 0.000759096
0.269196510 0.000000000 0.003795482
0.305502743 0.000000000 0.001012129
0.343959242 0.000000000 0.000000000
0.382289290 0.000000000 0.000000000
0.418469101 0.000253032 0.000253032
0.451866239 0.003289416 0.003289416
0.490069777 0.001518196 0.001518196
0.532574177 0.000000000 0.000000000
0.578114688 0.000000000 0.000000001
0.623655975 0.000000000 0.000000003
0.666413784 0.000000000 0.002783357
0.712713480 0.001897740 0.002024260
0.758254111 0.003922000 0.000000000
0.797849000 0.004048480 0.000000000
0.840353787 0.007084098 0.000000000
0.880581856 0.007843000 0.000000000
0.918659329 0.012017662 0.000000000
0.954080045 0.021631999 0.000506064
0.984439969 0.033775985 0.003542448
0.996204793 0.048576806 0.019860962
1.000000000 0.060215198 0.039848160
1.000000000 0.071979970 0.059329588
1.000000000 0.090195999 0.074510001
0.006072000 0.009994000 0.000000000
0.015180387 0.019101612 0.003036387
0.041113544 0.018215999 0.000885613
0.071853541 0.016951161 0.000000000
0.104364544 0.015559838 0.000379548
0.138140395 0.018215999 0.003795387
0.169513032 0.023276644 0.004807387
0.201644361 0.024288775 0.004807387
0.232763886 0.024288775 0.002277291
0.266160905 0.024288775 0.000759098
0.305376261 0.024288775 0.003795482
0.343959242 0.028336771 0.001012131
0.380012274 0.030360773 0.000000000
0.413156062 0.030360773 0.000000000
0.454901844 0.030613802 0.000253029
0.490702212 0.028842581 0.000885613
0.531056404 0.028842578 0.000000000
0.574446499 0.030993190 0.000632576
0.617583990 0.033396389 0.003036385
0.668691158 0.038962387 0.000253031
0.711954355 0.039468389 0.000885613
0.754205883 0.041366126 0.000000000
0.791903555 0.043390386 0.000000000
0.837318182 0.043516871 0.000000000
0.877545655 0.048829768 0.000000000
0.915622890 0.053130765 0.000000000
0.952055693 0.060088389 0.001518063
0.987476349 0.067172378 0.009614449
0.996584356 0.074004054 0.020619974
0.996457994 0.086274736 0.032764196
0.994813383 0.097533375 0.049841963
0.996963620 0.111448385 0.071473613
0.005692774 0.035420772 0.008601999
0.021252384 0.042378157 0.000885613
0.043263771 0.040733546 0.001771226
0.079949707 0.041998707 0.000000000
0.114611223 0.042251997 0.000000000
0.137381166 0.048829611 0.001265161
0.172548860 0.045793641 0.008223000
0.201264918 0.053510703 0.003289295
0.232637197 0.054269679 0.002530322
0.267425716 0.052878000 0.002277290
0.302340090 0.055028774 0.000759097
0.337760985 0.053004518 0.001771226
0.378115058 0.058696996 0.000000000
0.413029820 0.060721003 0.000253032
0.451739550 0.060721003 0.002150774
0.491587609 0.062618747 0.000000000
0.526502192 0.059582353 0.000000000
0.569639325 0.062618569 0.000632576
0.618216217 0.068690583 0.003668965
0.662618577 0.070208549 0.001138643
0.706641674 0.074383289 0.000000000
0.747880876 0.075648189 0.000000000
0.785831511 0.078684285 0.000126512
0.831372738 0.080708548 0.002150774
0.870208979 0.080961540 0.000000000
0.909677386 0.087033533 0.001391672
0.946869135 0.093105540 0.003162773
0.983301878 0.099177539 0.010626442
0.997469962 0.103099436 0.018089974
0.998228788 0.107400537 0.033775944
0.995192826 0.118405983 0.051107015
0.998228788 0.130549997 0.079190545
0.006452000 0.070082322 0.010626001
0.020872839 0.073624320 0.004807162
0.048070930 0.072359160 0.001265161
0.075395316 0.070082322 0.000000000
0.119797930 0.072739154 0.000000000
0.141176388 0.079190388 0.000000000
0.172801808 0.080708317 0.003795161
0.205566019 0.080328703 0.008096457
0.234408408 0.087159999 0.001265161
0.270335168 0.084629677 0.003795482
0.302592874 0.086147867 0.001012129
0.338519752 0.086400904 0.001265161
0.373055279 0.085641801 0.000126517
0.414801061 0.091081321 0.000000000
0.451233804 0.091081321 0.002024255
0.490069777 0.093485124 0.001518196
0.531562209 0.096015133 0.002529999
0.566223741 0.094243899 0.001897584
0.617710173 0.102087282 0.003668966
0.662491739 0.104111157 0.002403804
0.701834023 0.106008895 0.000000000
0.742315114 0.108033158 0.000000000
0.782162964 0.110942312 0.000000000
0.826565564 0.115117066 0.001897743
0.865275383 0.115876161 0.001644712
0.899304569 0.116129145 0.000126511
0.937761068 0.120683089 0.002656839
0.973434687 0.124477990 0.007210833
0.994939983 0.130423829 0.013282827
0.998228788 0.134724930 0.027703946
0.996963620 0.138646141 0.044148985
1.000000000 0.150031164 0.074889518
0.011006001 0.105376549 0.000000000
0.022770159 0.105376549 0.002656839
0.047944319 0.104364321 0.003542452
0.079570152 0.103858255 0.003036387
0.106894545 0.106135547 0.000000000
0.143327326 0.106135547 0.000000000
0.177229777 0.110816091 0.000000000
0.208981857 0.114863932 0.001265160
0.239722088 0.117140643 0.003542452
0.273118496 0.117140643 0.003542450
0.304743528 0.117520094 0.001012129
0.340037763 0.117899641 0.001644708
0.377988726 0.118279189 0.002783356
0.414421499 0.121568546 0.000253032
0.450854242 0.121821545 0.000379548
0.490069777 0.124604799 0.000000000
0.531815171 0.128020436 0.002276998
0.576470137 0.130676657 0.006831037
0.615939379 0.133713052 0.003795420
0.660973907 0.137128279 0.003922000
0.700821996 0.139405280 0.002024260
0.739278793 0.141050085 0.000379548
0.781657040 0.141176566 0.000253036
0.823908806 0.146995544 0.000000000
0.861859560 0.148893088 0.000000000
0.896268308 0.148893088 0.000000000
0.927135050 0.149146035 0.000379548
0.960531414 0.146109641 0.000379548
0.988235235 0.152940914 0.006071987
0.998228788 0.160278067 0.019860711
0.996963620 0.165970638 0.038456533
1.000000000 0.172042638 0.050600551
0.004934001 0.132700935 0.000000000
0.035293996 0.132700935 0.000000000
0.057811476 0.137001932 0.000506065
0.087413162 0.140291035 0.001771226
0.119038545 0.142568320 0.003036387
0.146362931 0.139531940 0.000000000
0.180265382 0.142062247 0.000000000
0.212017462 0.143959865 0.000000000
0.242378250 0.144465804 0.000506065
0.273118496 0.144465804 0.000506065
0.312333852 0.147374928 0.000506065
0.344212443 0.149905130 0.000000000
0.377229631 0.150158167 0.000506065
0.411385119 0.148892939 0.000253032
0.447817862 0.154964939 0.003289416
0.489057660 0.160024926 0.001012131
0.529538155 0.165591374 0.000000000
0.570651114 0.169892788 0.001012002
0.612902999 0.170145839 0.000759035
0.657938123 0.175964877 0.003289422
0.697786391 0.175838053 0.002024260
0.736243188 0.173814058 0.001012128
0.778621435 0.171537340 0.003289423
0.818089843 0.174572960 0.000253031
0.855787575 0.178115219 0.000000000
0.892220318 0.179253861 0.000000000
0.927135050 0.179759800 0.000506064
0.960531414 0.182542413 0.003415935
0.985957980 0.184819698 0.011385077
0.996584058 0.190638840 0.021758415
0.996963620 0.195825472 0.035420917
1.000000000 0.199367806 0.047564935
0.026692318 0.175205320 0.000000000
0.046932317 0.175205320 0.000000000
0.072991863 0.177356094 0.000000000
0.098545477 0.180518642 0.001265161
0.129032314 0.181910321 0.003542452
0.158506930 0.181024700 0.000506065
0.188361645 0.180518642 0.000000000
0.221758008 0.185199320 0.000000000
0.254522175 0.186970323 0.000759096
0.288424999 0.186970323 0.002530321
0.319924176 0.187349766 0.000000000
0.359392554 0.188361645 0.002024256
0.393548280 0.190891966 0.001391678
0.429095387 0.191397965 0.000000000
0.470082104 0.197469950 0.000759094
0.511321902 0.201138154 0.003795482
0.555344939 0.207084015 0.002530322
0.597470045 0.211891636 0.001897746
0.639974952 0.211891651 0.000000003
0.680202365 0.217457637 0.002783357
0.725743055 0.219734639 0.007716997
0.762049258 0.219354823 0.006578193
0.798355520 0.219354838 0.006198685
0.837824583 0.217584059 0.000759096
0.872738957 0.220619664 0.000000000
0.908918619 0.222264320 0.004174662
0.945351303 0.223276317 0.009108256
0.980771422 0.228336170 0.016192123
0.988488317 0.226312473 0.027071785
0.998608351 0.231119618 0.043263804
0.996837378 0.238077238 0.058570907
0.994939983 0.244402647 0.072359636
0.042504996 0.212523401 0.003288997
0.064009994 0.212523401 0.000000000
0.083238542 0.213029474 0.000000000
0.113852158 0.214800701 0.001265161
0.141176537 0.214800701 0.003542452
0.165211707 0.214800701 0.000506065
0.202150345 0.219734401 0.000000000
0.224288404 0.219734401 0.000000000
0.258443892 0.225047305 0.000000000
0.294876695 0.225932688 0.002150775
0.328779012 0.224288404 0.001012129
0.365211934 0.227577403 0.000379548
0.402403355 0.228716046 0.002277292
0.439089090 0.231752366 0.000000000
0.482985497 0.236432686 0.000000000
0.523845553 0.241745606 0.000759096
0.567868590 0.244781598 0.002277292
0.612777114 0.250095099 0.003542283
0.655282021 0.251106977 0.003542031
0.693358660 0.253383994 0.004427646
0.734977722 0.255660981 0.004427999
0.778494418 0.257685244 0.007463875
0.811132252 0.261353582 0.004680516
0.850601017 0.261353582 0.003162707
0.885515571 0.259582818 0.000000000
0.918912292 0.262618423 0.001391672
0.954586089 0.262871414 0.011512000
0.989879668 0.266666383 0.024035247
0.998734832 0.268058240 0.037444647
1.000000000 0.265401691 0.051613159
0.998229027 0.272359312 0.075521953
0.992156982 0.281467706 0.094497278
0.050094999 0.244402200 0.007084097
0.072106093 0.243643090 0.001771000
0.091334552 0.244402200 0.000000001
0.118406162 0.245161280 0.000506065
0.155977100 0.245161280 0.003162904
0.172296017 0.245161280 0.000506065
0.207210541 0.250474513 0.000000001
0.238709688 0.254649192 0.000000001
0.258444101 0.255408108 0.000000000
0.294876873 0.258443713 0.000000000
0.332827091 0.257937968 0.000759096
0.369765848 0.260215193 0.000000000
0.407716632 0.265148640 0.000000000
0.441366047 0.267931998 0.000000000
0.485389143 0.270461649 0.000000000
0.526881814 0.275901079 0.000000000
0.567868590 0.281214386 0.000000000
0.612777114 0.282985598 0.001264991
0.655282021 0.285768241 0.007336999
0.692979097 0.286780298 0.007084097
0.732447445 0.288298279 0.005186648
0.773181319 0.288804352 0.002909872
0.812650442 0.294750571 0.000000000
0.852119029 0.297786176 0.002403808
0.887033403 0.296268374 0.001644712
0.920429885 0.296015412 0.000632577
0.953826964 0.298545092 0.005186902
0.987223327 0.298545092 0.022896884
0.997469962 0.300442815 0.039215807
1.000000000 0.301454961 0.055914178
0.999747038 0.300442606 0.074003957
0.993674994 0.309551001 0.104364000
0.062239006 0.280835003 0.004048482
0.077419393 0.277798623 0.001012097
0.092979267 0.279190302 0.000000002
0.118406169 0.282100171 0.000000002
0.155977100 0.284630477 0.000126516
0.180265874 0.284630477 0.000126516
0.209234491 0.284630477 0.000000002
0.240100920 0.285010010 0.000000004
0.270588100 0.285768896 0.000000003
0.303984523 0.288804531 0.000000000
0.346236259 0.294749975 0.002909869
0.382416219 0.298418760 0.001771227
0.417204469 0.301581353 0.000000000
0.453510046 0.304364026 0.000000000
0.489942789 0.304364026 0.000000000
0.531562090 0.309297502 0.000000000
0.572422564 0.315369904 0.000000000
0.612777114 0.319418401 0.001264991
0.655282021 0.316382021 0.007336997
0.695003390 0.319165349 0.005060352
0.734345138 0.323972464 0.002150745
0.772928238 0.327767491 0.000126517
0.809614062 0.328146994 0.000000000
0.849083304 0.331182599 0.000000000
0.883997798 0.329664826 0.000126516
0.917394102 0.329411864 0.000000002
0.950790584 0.331941485 0.002150519
0.984186947 0.331941485 0.014294505
0.996331394 0.331941485 0.032005154
1.000000000 0.333839238 0.051866163
1.000000000 0.336622387 0.073750965
0.999746978 0.339911044 0.098292001
0.071473867 0.317267746 0.001012129
0.092473261 0.317141235 0.000885613
0.116255641 0.316255629 0.004300999
0.135736868 0.316002578 0.003288999
0.162555099 0.316888005 0.000000000
0.191903859 0.327008009 0.000000000
0.223782316 0.324478328 0.005059999
0.256166995 0.325743139 0.005818999
0.287792742 0.327008009 0.005818998
0.319038361 0.327893376 0.005818995
0.349525601 0.328019857 0.000000000
0.385958105 0.332068145 0.001012129
0.420493394 0.335104525 0.000000000
0.456925929 0.338646591 0.000000000
0.493358672 0.346615732 0.000000000
0.532194614 0.346615732 0.000000000
0.572675586 0.350157917 0.000000000
0.612144530 0.354206264 0.000000001
0.652372122 0.355723888 0.001518005
0.689310849 0.355470866 0.004807357
0.728652716 0.358380735 0.003922000
0.767109275 0.360404760 0.001897743
0.803415477 0.358633518 0.000000000
0.837318063 0.361669838 0.000000000
0.874509871 0.360151440 0.000000000
0.908538759 0.359898686 0.004174662
0.942441225 0.362428725 0.009740870
0.978241384 0.362428725 0.017077858
0.995698750 0.362428725 0.029221846
0.996457994 0.364199936 0.054016486
0.995951951 0.365465134 0.077798970
1.000000000 0.364452749 0.098039001
0.086653993 0.353700519 0.000000000
0.107906371 0.353700519 0.000000000
0.127388030 0.357748508 0.004300999
0.153447241 0.357748508 0.005313001
0.173940346 0.355850756 0.000000000
0.201012120 0.361416757 0.000000000
0.233902574 0.364958555 0.005059999
0.265654653 0.363567233 0.006198711
0.297154099 0.366223603 0.005819260
0.326249301 0.367488742 0.005819258
0.360657990 0.369512498 0.004048257
0.391018271 0.369512498 0.002024256
0.425553292 0.370271862 0.000885612
0.461733043 0.371537209 0.000253032
0.496394545 0.377102822 0.002024256
0.541302741 0.385072500 0.000000000
0.579253376 0.385072500 0.000000000
0.616318882 0.386970252 0.000000001
0.651612997 0.388614535 0.000000005
0.688298702 0.388867497 0.004807097
0.724731445 0.388867497 0.002150744
0.762049377 0.391777396 0.001897744
0.797343493 0.390891761 0.000000000
0.830739975 0.392030418 0.000000000
0.864389300 0.394560218 0.000000000
0.902213693 0.392915517 0.000000000
0.937381387 0.394813240 0.007716746
0.973814130 0.394813240 0.016824737
0.991650581 0.394813240 0.032258231
0.999746978 0.394813240 0.047944199
0.996204972 0.396710992 0.073750943
1.000000000 0.394813240 0.091967262
0.107147284 0.407210916 0.000000000
0.127261013 0.407210916 0.001138644
0.149778545 0.410373539 0.002024002
0.169386625 0.412776917 0.005313001
0.194054171 0.412397355 0.000379548
0.219101846 0.411638260 0.001138644
0.249841958 0.413029581 0.002783001
0.282732397 0.415559560 0.006198711
0.314611167 0.415559560 0.003162904
0.343074143 0.418216407 0.002783356
0.375711739 0.422390670 0.002783356
0.410373271 0.422264189 0.005060354
0.443010569 0.419986904 0.002783356
0.479443341 0.417204261 0.000000000
0.513725340 0.419354469 0.002150772
0.555723846 0.424920708 0.001518196
0.599367321 0.430613548 0.001138644
0.635167480 0.430613548 0.000506068
0.666034281 0.430613548 0.000000006
0.703099370 0.430613548 0.004427650
0.739532113 0.428336263 0.004048004
0.772928774 0.429348409 0.000000000
0.806198657 0.432131767 0.000505985
0.840607226 0.431119621 0.004553996
0.872865200 0.431119651 0.007969637
0.905628979 0.431625277 0.013662277
0.943074048 0.432131350 0.015686274
0.977609217 0.432763934 0.027830262
0.990891755 0.432763934 0.044149272
0.997849226 0.435040921 0.063504219
0.999114394 0.434155315 0.084376849
0.998861372 0.433902264 0.103352629
0.130677029 0.483871013 0.000000000
0.148134008 0.484630048 0.003036387
0.172801778 0.486780822 0.002024258
0.196837202 0.487792850 0.000000000
0.218848571 0.485262543 0.000379548
0.246172965 0.482226163 0.003415935
0.276533663 0.481720090 0.001644710
0.308791697 0.483111739 0.001391676
0.342694193 0.485136032 0.003162904
0.379126996 0.485136032 0.000126516
0.407083869 0.490449011 0.000000000
0.440733552 0.490955293 0.003541996
0.476660252 0.487286806 0.005566002
0.513093054 0.481720090 0.000505999
0.549525797 0.481720090 0.000505999
0.587855816 0.483617842 0.000253032
0.627324522 0.486401200 0.001518192
0.665781558 0.489058018 0.003795423
0.699177980 0.489058018 0.000759034
0.737381399 0.489058018 0.002783357
0.775205493 0.485515565 0.002277292
0.808855176 0.482226163 0.000000000
0.836558998 0.485009551 0.000379505
0.872991800 0.481973171 0.012397035
0.905123532 0.479190350 0.022517283
0.935989916 0.476660401 0.034914650
0.965591073 0.474130124 0.050601061
0.992915452 0.477166504 0.062745050
0.998734832 0.477293044 0.077798843
1.000000000 0.480329037 0.096774161
0.999367416 0.483997464 0.118279569
0.996331036 0.480961055 0.145603999
0.145857409 0.502086997 0.000000000
0.154965028 0.511195421 0.003036387
0.178873777 0.514105201 0.003922000
0.199873328 0.517141223 0.002024255
0.215812966 0.518911898 0.000379548
0.243137360 0.521695256 0.003415935
0.278052062 0.521189213 0.003922000
0.313219398 0.521189213 0.001644708
0.348260283 0.521062672 0.000632584
0.382163405 0.518532395 0.000126516
0.412776411 0.518532395 0.000000000
0.448576748 0.521821618 0.000000000
0.483997405 0.522454381 0.001265006
0.516128659 0.521189213 0.000505999
0.552561402 0.521189213 0.006577994
0.586591005 0.518785417 0.004174802
0.624288559 0.518532395 0.003289416
0.663124681 0.519797564 0.004554414
0.699177980 0.522454381 0.006831023
0.729791045 0.522454381 0.003795347
0.767741799 0.520556629 0.003922000
0.803542256 0.517899811 0.002277288
0.833523333 0.518405914 0.000379505
0.869955420 0.515370309 0.009487906
0.904111445 0.514611244 0.021505414
0.938266933 0.515370131 0.037191641
0.971410096 0.516128838 0.057685114
0.995951831 0.513599277 0.080961809
0.999367416 0.511322021 0.098418772
1.000000000 0.510689437 0.119544327
1.000000000 0.511954427 0.138772577
0.999367416 0.511321843 0.151675999
0.153826997 0.541935384 0.000000000
0.167742223 0.543832958 0.003036387
0.187602609 0.548639834 0.001771226
0.210879132 0.551676154 0.005313356
0.226818785 0.554712117 0.006072253
0.252118915 0.557748497 0.001012131
0.282226622 0.563061535 0.003922000
0.317014664 0.558127820 0.002277292
0.351928890 0.556609809 0.000759096
0.385325670 0.556862891 0.002403803
0.415812820 0.556736350 0.000000000
0.446173310 0.556736350 0.000000000
0.483364999 0.557115912 0.001138644
0.516508102 0.555850744 0.002150772
0.550790608 0.555850744 0.001770998
0.587223411 0.555850744 0.005439809
0.622137964 0.552814364 0.002403808
0.660088301 0.553826332 0.001518196
0.696521163 0.560404718 0.002783036
0.729791045 0.558254540 0.002656548
0.762049198 0.556356788 0.001518196
0.797469974 0.553320408 0.002530324
0.827956915 0.551802278 0.002783276
0.862112820 0.548766673 0.011891097
0.900822103 0.545730472 0.027830759
0.934471846 0.545603991 0.044402443
0.968880117 0.546615839 0.064642861
0.996963859 0.543580234 0.083238870
1.000000000 0.542947769 0.107020952
0.994686782 0.545224607 0.125236943
0.995445788 0.545603991 0.149145797
1.000000000 0.544085801 0.167362601
0.164453194 0.579886377 0.000000000
0.181151375 0.584440172 0.001518195
0.193674996 0.585072637 0.001771226
0.219228163 0.589373350 0.000000000
0.238583356 0.592283189 0.007590360
0.261732996 0.594180942 0.003036258
0.291081637 0.596710980 0.001012130
0.321568877 0.599114478 0.002277292
0.355724186 0.591524303 0.000759096
0.389879495 0.593042612 0.003795482
0.420366734 0.593169153 0.001012129
0.452245295 0.591650963 0.001518192
0.483744711 0.591650963 0.001518192
0.519797385 0.588994205 0.003668968
0.554459035 0.587729394 0.000632584
0.587223351 0.587729394 0.003921609
0.625174344 0.590765357 0.003922000
0.661606312 0.587728977 0.001518192
0.698038995 0.593295157 0.001518191
0.730170608 0.592789352 0.000000000
0.763567030 0.591271400 0.000000000
0.795952082 0.588235319 0.001012128
0.826185703 0.585199058 0.003922000
0.856799483 0.582163095 0.008855296
0.894750059 0.579127312 0.027830375
0.928652823 0.574699223 0.041872468
0.961290240 0.574952185 0.064642876
0.991650641 0.573940635 0.085895233
1.000000000 0.573561192 0.102972761
0.999240994 0.574067175 0.126755148
0.992789209 0.577482581 0.150284365
1.000000000 0.574446142 0.179506987
0.177735999 0.611511946 0.000000000
0.195319593 0.620619714 0.001264990
0.206830993 0.623908699 0.000000000
0.219860747 0.626438677 0.000632576
0.247185126 0.631372154 0.000253029
0.268943518 0.631119132 0.002783359
0.297786206 0.631119132 0.002024254
0.327514380 0.630486727 0.000000000
0.358128011 0.630360246 0.000126520
0.394560009 0.627324581 0.003162907
0.425173730 0.627198100 0.001012129
0.457558244 0.625806451 0.001391680
0.491587341 0.623908699 0.003289424
0.524731457 0.624161661 0.003289424
0.560404539 0.621884942 0.000632584
0.593295157 0.619987547 0.004174580
0.626312375 0.621758521 0.005692620
0.664516568 0.626565516 0.003289426
0.700948656 0.623529136 0.003289423
0.731815159 0.623276114 0.001138645
0.764705718 0.622643709 0.000000007
0.797090292 0.620999098 0.000379559
0.827450991 0.617836952 0.003415944
0.855281472 0.614294648 0.003922009
0.890448868 0.611891210 0.021505576
0.924351454 0.609361351 0.043263640
0.953194559 0.603794634 0.053384043
0.983807564 0.606577992 0.086021416
0.996204793 0.605692565 0.103352122
1.000000000 0.606325150 0.123212948
1.000000000 0.604807138 0.146616191
1.000000000 0.601770699 0.183049023
0.183808044 0.647944093 0.000000000
0.198988438 0.657052457 0.006071994
0.214421228 0.661859810 0.003035998
0.230107367 0.665907979 0.001265161
0.250221550 0.670841396 0.003289420
0.277545959 0.667805016 0.000253036
0.306894630 0.667551994 0.002783355
0.335610688 0.665907741 0.002024260
0.363947004 0.663883984 0.000000000
0.394560039 0.663757443 0.000126518
0.425173759 0.663630962 0.000253032
0.457558274 0.663630962 0.000000000
0.492093295 0.663377941 0.000253032
0.527767122 0.663630903 0.000253032
0.558127940 0.666666567 0.000253032
0.593801618 0.661986053 0.002403804
0.626692057 0.659456015 0.002656779
0.658443809 0.659961998 0.000253040
0.691841066 0.659961998 0.000253046
0.722707033 0.659708977 0.000253046
0.756862521 0.657811761 0.000000028
0.791018307 0.654016674 0.000000042
0.821379006 0.648197055 0.000379587
0.851739883 0.642125070 0.003415987
0.884124279 0.640860021 0.019861324
0.915243626 0.641998768 0.045540962
0.944086134 0.643263936 0.071600102
0.980518878 0.640227497 0.086780481
0.995192945 0.635040998 0.111448683
1.000000000 0.634788275 0.136496127
1.000000000 0.634915054 0.160025612
1.000000000 0.629095972 0.176977068
0.220493376 0.734471500 0.000000000
0.235673770 0.732447863 0.000505997
0.248703390 0.735104501 0.002276996
0.264516056 0.736243129 0.001265161
0.283491731 0.738140583 0.003922000
0.308412313 0.735104144 0.003289422
0.333207011 0.734598100 0.002783357
0.363061339 0.734598100 0.002277292
0.391524285 0.732700884 0.000759096
0.419861108 0.730677128 0.002783355
0.455787092 0.727893770 0.000000000
0.484123617 0.725870013 0.000000000
0.517140627 0.723972440 0.000000000
0.553320467 0.722074747 0.000000000
0.586211562 0.720050335 0.000000000
0.616571724 0.720682740 0.002403804
0.649209440 0.718405724 0.005439805
0.680834889 0.717773318 0.006198581
0.716382325 0.715623081 0.008349366
0.746995389 0.712839723 0.011132008
0.781150818 0.710942507 0.026312478
0.814547479 0.707906604 0.033396736
0.843137026 0.703605115 0.033902720
0.873497844 0.697533131 0.044908289
0.899304628 0.691461086 0.057052672
0.929791331 0.689057469 0.077293023
0.959013164 0.687792361 0.102466725
0.990891874 0.682479322 0.124477819
0.995446026 0.682099760 0.147628009
1.000000000 0.678052008 0.170145541
1.000000000 0.679064155 0.198987931
1.000000000 0.678684354 0.229348391
0.235293999 0.772422493 0.000000000
0.250474393 0.769386351 0.000000000
0.263503999 0.777988732 0.001897740
0.276913166 0.776723564 0.000632579
0.297153801 0.776090980 0.002024260
0.329032004 0.774572790 0.002024260
0.341935635 0.772169471 0.002024260
0.372801960 0.773813784 0.008602253
0.402909279 0.774066746 0.006071994
0.430234492 0.772169471 0.005692739
0.460594743 0.767235875 0.004807126
0.494749993 0.769892275 0.005692737
0.523213029 0.766856611 0.006831090
0.558127761 0.763820410 0.008349024
0.593168736 0.760784030 0.013282729
0.624162018 0.760151446 0.015686534
0.656040192 0.758633673 0.020240728
0.688045382 0.757621646 0.023655888
0.724478245 0.754585683 0.026691962
0.755344808 0.751549363 0.033523113
0.789500237 0.750410736 0.038456462
0.823908746 0.748386979 0.057685118
0.852244973 0.746236205 0.061227221
0.882605851 0.741935492 0.078684472
0.910309851 0.735863447 0.089310266
