Assets/EldamarStudio/100 Retro LUTs Pack/LUTs/cube/Rose LUT.cube
LUT_3D_SIZE 5
DOMAIN_MIN 0.000000 0.000000 0.000000
DOMAIN_MAX 0.903226 0.903226 0.903226
0.000000000 0.003922000 0.000000000
0.204680398 0.000000000 0.004554003
0.451866239 0.003289416 0.003289416
0.758254111 0.003922000 0.000000000
0.996204793 0.048576806 0.019860962
0.042504996 0.212523401 0.003288997
0.224288404 0.219734401 0.000000000
0.482985497 0.236432686 0.000000000
0.778494418 0.257685244 0.007463875
0.998734832 0.268058240 0.037444647
0.145857409 0.502086997 0.000000000
0.313219398 0.521189213 0.001644708
0.552561402 0.521189213 0.006577994
0.803542256 0.517899811 0.002277288
0.999367416 0.511322021 0.098418772
0.240354121 0.785579145 0.000000000
0.367742091 0.795066416 0.017710369
0.587476075 0.790132701 0.036685526
0.820873141 0.777735353 0.075901113
0.998734832 0.750284374 0.190638632
0.404300779 0.978114963 0.305249572
0.483364820 0.987476110 0.340796858
0.623782575 0.976723671 0.345730424
0.809487641 0.965211689 0.360784590
0.996204793 0.957115650 0.408475429
0.002277292 0.001644708 0.171663702
0.204680413 0.000000000 0.179506689
0.453510523 0.001644708 0.195192695
0.760151565 0.000000000 0.205945566
0.994560063 0.000000000 0.208349109
0.022264414 0.205312982 0.182795689
0.226312399 0.212523416 0.193548411
0.481341213 0.223655984 0.201771110
0.763440967 0.229222119 0.201391563
0.996204793 0.242631227 0.215433285
0.094117582 0.488678098 0.192157000
0.290322423 0.501201630 0.198102415
0.538140416 0.506767869 0.203036115
0.788867950 0.503478825 0.213156402
0.997469842 0.500569105 0.241745934
0.216065869 0.772169292 0.206325114
0.357368708 0.781024516 0.222011700
0.573434830 0.774446130 0.227704242
0.803541839 0.765970647 0.238709405
0.997469962 0.742694438 0.288172126
0.407337040 0.972801924 0.375711411
0.482858926 0.976470709 0.399114460
0.619860649 0.973434389 0.408349186
0.806072056 0.962934732 0.418595701
0.993674815 0.957115650 0.465401411
0.007210577 0.003289416 0.404807240
0.221379116 0.001644708 0.407084107
0.461732805 0.000000000 0.423150212
0.757874787 0.000000000 0.448956519
0.990385532 0.000000000 0.447311789
0.004933705 0.197469980 0.417203963
0.229854703 0.196204975 0.433649808
0.485515505 0.199746698 0.432890803
0.759519517 0.184060544 0.439721674
0.989120543 0.196331635 0.438835979
0.000000000 0.479949772 0.448576808
0.249462694 0.490449220 0.446932524
0.525743008 0.487160236 0.451866239
0.779127121 0.483870804 0.450601220
0.994307399 0.491208196 0.463757217
0.158886701 0.759139955 0.467299074
0.340417534 0.768627524 0.472612500
0.560657501 0.762681723 0.468184382
0.802529693 0.756862700 0.466919392
0.994939983 0.743200541 0.506514668
0.420113593 0.965718031 0.538899601
0.489942789 0.967235863 0.563820601
0.626438797 0.964958966 0.563188016
0.804174244 0.959771752 0.572296083
0.987729371 0.951928794 0.605945408
0.001012128 0.000000000 0.682859242
0.247185394 0.000000000 0.692219973
0.504490495 0.000000000 0.696521282
0.761163950 0.000000000 0.695509136
0.993674815 0.000000000 0.691208303
0.001897579 0.188614696 0.700949013
0.231751829 0.191904113 0.698671699
0.505502343 0.171284139 0.705249727
0.771283984 0.149778396 0.710563123
0.990132689 0.186590672 0.686654091
0.000000000 0.476027936 0.704870403
0.214800835 0.478051811 0.723212838
0.514231205 0.471094251 0.716634989
0.784313679 0.467931509 0.710815966
0.993042409 0.499051213 0.702972889
0.149272248 0.762049139 0.718912125
0.330802947 0.770778000 0.725110352
0.561036944 0.762681723 0.724477828
0.790512264 0.752308369 0.719038427
0.986463964 0.757621765 0.733965933
0.488424897 0.960025072 0.745224357
0.540290773 0.964958906 0.759013295
0.654775679 0.959392488 0.761037230
0.804933429 0.955850780 0.753700078
0.980012834 0.952940941 0.772043049
0.007843000 0.000000000 0.937760592
0.241745517 0.003542137 0.929411709
0.492978960 0.000000000 0.930423379
0.749272466 0.000000000 0.931182742
0.993674755 0.000000000 0.936369658
0.002277292 0.171663538 0.933585942
0.215433285 0.163440734 0.932447791
0.487792373 0.154712111 0.931435466
0.748766601 0.145604089 0.931815088
0.993295252 0.160657763 0.931435525
0.000632584 0.443389982 0.932320952
0.143706515 0.440354079 0.935737073
0.482605785 0.447311819 0.940290630
0.751296699 0.455154985 0.937002063
0.992409945 0.481467634 0.935104430
0.161922842 0.728146553 0.927640617
0.313345969 0.734345198 0.931435764
0.541176558 0.734978020 0.932068050
0.763061464 0.740164280 0.930423617
0.985957980 0.754964948 0.936116099
0.468564570 0.966350615 0.937507927
0.524984300 0.967994869 0.931182802
0.657305181 0.961796165 0.936369658
0.816065788 0.955850780 0.934977591
0.960910857 0.957241774 0.936242819
