Assets/EldamarStudio/100 Retro LUTs Pack/LUTs/cube/Rose LUT.cube
LUT_3D_SIZE 8
DOMAIN_MIN 0.000000 0.000000 0.000000
DOMAIN_MAX 0.903226 0.903226 0.903226
0.000000000 0.003922000 0.000000000
0.098671995 0.000000000 0.000758999
0.235800087 0.000000000 0.000759096
0.382289290 0.000000000 0.000000000
0.532574177 0.000000000 0.000000000
0.712713480 0.001897740 0.002024260
0.880581856 0.007843000 0.000000000
0.996204793 0.048576806 0.019860962
0.011006001 0.105376549 0.000000000
0.106894545 0.106135547 0.000000000
0.239722088 0.117140643 0.003542452
0.377988726 0.118279189 0.002783356
0.531815171 0.128020436 0.002276998
0.700821996 0.139405280 0.002024260
0.861859560 0.148893088 0.000000000
0.988235235 0.152940914 0.006071987
0.050094999 0.244402200 0.007084097
0.155977100 0.245161280 0.003162904
0.258444101 0.255408108 0.000000000
0.407716632 0.265148640 0.000000000
0.567868590 0.281214386 0.000000000
0.732447445 0.288298279 0.005186648
0.887033403 0.296268374 0.001644712
0.997469962 0.300442815 0.039215807
0.107147284 0.407210916 0.000000000
0.194054171 0.412397355 0.000379548
0.314611167 0.415559560 0.003162904
0.443010569 0.419986904 0.002783356
0.599367321 0.430613548 0.001138644
0.739532113 0.428336263 0.004048004
0.872865200 0.431119651 0.007969637
0.990891755 0.432763934 0.044149272
0.164453194 0.579886377 0.000000000
0.238583356 0.592283189 0.007590360
0.355724186 0.591524303 0.000759096
0.483744711 0.591650963 0.001518192
0.625174344 0.590765357 0.003922000
0.763567030 0.591271400 0.000000000
0.894750059 0.579127312 0.027830375
1.000000000 0.573561192 0.102972761
0.235293999 0.772422493 0.000000000
0.297153801 0.776090980 0.002024260
0.402909279 0.774066746 0.006071994
0.523213029 0.766856611 0.006831090
0.656040192 0.758633673 0.020240728
0.789500237 0.750410736 0.038456462
0.910309851 0.735863447 0.089310266
1.000000000 0.718911707 0.171916351
0.286527276 0.875395298 0.086780548
0.334851235 0.875142694 0.121568561
0.421378881 0.876154363 0.132321358
0.528526187 0.874256909 0.139405549
0.645035148 0.864389360 0.144085735
0.774446487 0.859455824 0.158001289
0.895635307 0.851866245 0.175331846
0.994181037 0.838456571 0.233396545
0.404300779 0.978114963 0.305249572
0.446553051 0.986843348 0.332194865
0.499809891 0.984439969 0.339784652
0.580645502 0.979379773 0.337634385
0.675395310 0.976470649 0.343200386
0.781910360 0.969512939 0.360025436
0.893358529 0.963693798 0.375331879
0.996204793 0.957115650 0.408475429
0.000000000 0.000000000 0.082226098
0.098671995 0.000000000 0.090449542
0.239342541 0.003542452 0.102213643
0.368500918 0.003542452 0.096268095
0.527767360 0.000000000 0.104490541
0.705249786 0.000000000 0.108032897
0.866034269 0.001644712 0.108791798
0.987855971 0.008475989 0.119291529
0.008601999 0.097912997 0.090069994
0.118279092 0.102972642 0.097533546
0.233016729 0.106894545 0.093991093
0.371284276 0.114358090 0.094370544
0.518026769 0.117014542 0.099936545
0.676027596 0.126122981 0.100695737
0.839848578 0.130929798 0.100822352
0.983048499 0.138140529 0.111195222
0.051359549 0.240480989 0.095129639
0.142947629 0.246806100 0.099051446
0.265148669 0.242758185 0.102593094
0.397469789 0.250980645 0.103352092
0.555723965 0.271853089 0.113219447
0.714484334 0.273371279 0.100569353
0.865022302 0.281214386 0.106767826
0.991271377 0.285515368 0.127134815
0.092726439 0.391144663 0.096900985
0.180391833 0.394813001 0.108918093
0.292599380 0.398355365 0.095762536
0.427703917 0.399873465 0.099683732
0.569765747 0.409740806 0.098924637
0.718026459 0.422138184 0.106008731
0.859202862 0.422011375 0.113851734
0.988361418 0.421379149 0.133965820
0.139405385 0.560530961 0.085641906
0.225173935 0.569892526 0.085388906
0.336875379 0.571536899 0.087665997
0.470968097 0.573940635 0.093738347
0.609614372 0.569133580 0.090449348
0.747628212 0.570777774 0.098672003
0.880708575 0.566097617 0.120176829
0.992536187 0.566223860 0.163061231
0.215939447 0.749904931 0.104111090
0.279822767 0.755850732 0.111068889
0.385452300 0.753826559 0.112587079
0.511701345 0.752687991 0.120935827
0.643010795 0.745224476 0.123213023
0.778494775 0.740543962 0.134092540
0.903225839 0.724857450 0.158001095
0.994433939 0.713345766 0.213282526
0.272612095 0.852625251 0.143073887
0.323971838 0.863251090 0.158760384
0.406578392 0.860214829 0.165085211
0.512713552 0.859961927 0.173687726
0.633523107 0.856546283 0.185199067
0.761796236 0.849082768 0.196078360
0.885895014 0.849841952 0.214800641
0.988487959 0.830992997 0.257052332
0.400000066 0.968880653 0.316002637
0.440606922 0.979759336 0.340923607
0.493358642 0.977103114 0.357115567
0.577862024 0.970777988 0.359139830
0.673750579 0.971536756 0.364452779
0.776470363 0.961796045 0.373055011
0.884882987 0.960151315 0.387729466
0.994939983 0.955471277 0.420366973
0.000000000 0.003162904 0.200506091
0.100190096 0.000379548 0.203668296
0.235041186 0.000000000 0.208349094
0.383934289 0.000000000 0.227198184
0.539658487 0.000000000 0.231119201
0.709297717 0.000000000 0.230993181
0.861859500 0.000759096 0.235041186
0.991777062 0.001265167 0.233396277
0.000000000 0.097533450 0.193042547
0.107653543 0.103858449 0.203668207
0.243263647 0.105376549 0.215053648
0.381909907 0.100695647 0.218596101
0.527893484 0.093358807 0.220999286
0.686274469 0.074509718 0.219355106
0.847311974 0.075268716 0.223276481
0.986211061 0.089563727 0.230487198
0.031373002 0.231878281 0.217710286
0.131182626 0.239721984 0.220114097
0.271853179 0.244402185 0.220873192
0.406198651 0.255028546 0.231119186
0.558633447 0.255408108 0.231878281
0.718152821 0.261353523 0.236306354
0.863377631 0.260847449 0.231878281
0.993674815 0.272232950 0.248324186
0.029475356 0.396837473 0.219861180
0.153826639 0.390891910 0.225427181
0.291587830 0.398355484 0.227830276
0.421505094 0.400759369 0.224668086
0.578241825 0.404301018 0.229348272
0.718785346 0.410246551 0.235673472
0.865528286 0.415053546 0.237444818
0.987981856 0.417836994 0.246046826
0.102593184 0.557115495 0.225679994
0.192789093 0.566477180 0.223276183
0.325996101 0.567995071 0.225680187
0.459076464 0.568880320 0.229980737
0.605819166 0.567362309 0.226439089
0.746362686 0.566477060 0.231878281
0.881467462 0.562555254 0.245920196
0.992536187 0.563693941 0.270335168
0.200379550 0.744338751 0.248576999
0.261985809 0.748133779 0.253383726
0.373814195 0.747121751 0.248576924
0.500822365 0.742947221 0.253890097
0.641240001 0.740290880 0.256167203
0.772675335 0.729538321 0.259203076
0.897659659 0.716634750 0.269449830
0.994939983 0.710057020 0.305123270
0.256040484 0.854902029 0.258950353
0.307906300 0.859455824 0.272232652
0.397976011 0.856546342 0.278557986
0.505755723 0.853890061 0.279443204
0.633902550 0.851866066 0.287033558
0.761796176 0.851866245 0.296394467
0.884756267 0.848703325 0.312966406
0.991144776 0.832258284 0.347881109
0.405059665 0.971536756 0.392662853
0.431119829 0.970019102 0.405692607
0.492726147 0.974193633 0.412523866
0.574572980 0.969639540 0.418975055
0.667931914 0.965338528 0.422517508
0.777229488 0.960910618 0.428462982
0.885642290 0.957368612 0.451613128
0.996204793 0.955091715 0.472485691
0.001138644 0.002783356 0.338013649
0.119038187 0.000759096 0.341556102
0.252372026 0.002783356 0.346742541
0.382289290 0.000000000 0.349778622
0.545603991 0.002403808 0.375205249
0.720429957 0.000000000 0.384440541
0.876533926 0.001138644 0.380012572
0.994939983 0.000000000 0.381024450
0.000379548 0.093611546 0.329664469
0.118279092 0.094750188 0.335357279
0.252751559 0.093991093 0.343959242
0.381909937 0.089690447 0.345097840
0.537760794 0.081214547 0.361923099
0.699557424 0.029980905 0.363946736
0.859456182 0.006831284 0.363820344
0.989626586 0.007590279 0.367995083
0.001517998 0.240986556 0.356103718
0.124984354 0.236938730 0.349651814
0.266413987 0.238583460 0.363187730
0.420746267 0.240480989 0.366223723
0.571157515 0.242884278 0.372928351
0.728020191 0.232257918 0.369007081
0.877166212 0.234661549 0.365464628
0.998355269 0.249841988 0.377861828
0.022264719 0.394180924 0.368374616
0.139405191 0.401644349 0.369892716
0.285895169 0.400885254 0.373434395
0.430613548 0.400885254 0.362807930
0.578621268 0.400885254 0.372295916
0.725237370 0.405692399 0.366097629
0.867172599 0.405312926 0.371789962
0.988361418 0.410752445 0.381783634
0.001138644 0.563441157 0.367868423
0.137887195 0.567615747 0.372928351
0.303352118 0.575205266 0.371030629
0.464769065 0.571663737 0.377735496
0.613914907 0.570145547 0.368247986
0.744844794 0.566982746 0.371789634
0.879949570 0.562302530 0.384186924
0.991524339 0.566097379 0.397849262
0.162934646 0.742441475 0.398229003
0.241872534 0.748640180 0.395445645
0.365212083 0.749651909 0.399114639
0.500442624 0.742188454 0.398102283
0.643137455 0.740670323 0.404427469
0.774699628 0.734345436 0.399114639
0.897533178 0.714737356 0.405439645
0.995445669 0.709044993 0.438709617
0.247311994 0.853510261 0.401897579
0.305249840 0.861732960 0.409234732
0.399114460 0.857558429 0.411258459
0.510056973 0.857432246 0.413662285
0.631499410 0.853384256 0.416571558
0.761416674 0.853763521 0.425933003
0.892219901 0.846805930 0.433396637
0.992536187 0.831878722 0.465022355
0.414168328 0.970271945 0.488424808
0.451866120 0.973055065 0.509424388
0.509803951 0.970777988 0.514863968
0.578114808 0.971916676 0.512080967
0.671600401 0.965971053 0.516887963
0.775205493 0.961796045 0.528526247
0.881973445 0.958127499 0.537254810
0.990132928 0.959519148 0.563820183
0.011132197 0.000000000 0.483365178
0.131309345 0.000000000 0.489184022
0.263124377 0.000000000 0.486527294
0.402150631 0.000000000 0.494244188
0.553700328 0.002403808 0.510816157
0.719797492 0.002403808 0.524984360
0.870335460 0.000000000 0.522454083
0.994939983 0.000000000 0.521442235
0.001138644 0.087792896 0.475774705
0.127261549 0.086527549 0.482353270
0.265148729 0.083871096 0.483238280
0.403542161 0.074130453 0.491587728
0.548387170 0.053890262 0.494623840
0.699051082 0.011511897 0.502466738
0.860088706 0.005819353 0.517900288
0.989879608 0.007716807 0.509677529
0.003162904 0.227830380 0.508412182
0.109930098 0.235041112 0.510816097
0.273498118 0.235040992 0.514737189
0.427324623 0.233902633 0.517520607
0.572802305 0.227957100 0.514737189
0.727893531 0.227577552 0.519797802
0.876786709 0.224794388 0.523466170
0.996710896 0.242504746 0.524098456
0.003162807 0.389879584 0.521947801
0.110183448 0.398987919 0.523972273
0.276913583 0.393421799 0.516381800
0.430613548 0.392283261 0.514737606
0.585452199 0.392156482 0.513978779
0.733965635 0.393421918 0.515370250
0.871979654 0.398861527 0.513219535
0.988740981 0.411638081 0.521948040
0.000000000 0.561796188 0.536116183
0.141050085 0.572043002 0.535104394
0.300949097 0.575205266 0.534345388
0.454649001 0.569639146 0.530550420
0.612144411 0.565718174 0.528905392
0.752687991 0.564199984 0.524604797
0.881594002 0.561796188 0.532574177
0.994686604 0.566983044 0.547121942
0.166477010 0.748260498 0.551170230
0.246046901 0.749019504 0.551676214
0.363946855 0.745730519 0.556356549
0.494497299 0.744465470 0.555597484
0.631372392 0.737887502 0.546995163
0.772169292 0.730803192 0.542947173
0.894623697 0.718911827 0.551549613
0.995445728 0.717014432 0.573434472
0.288298458 0.855914176 0.550664186
0.343453646 0.862491846 0.558001161
0.416192263 0.859076440 0.560278356
0.507147253 0.858191073 0.551549435
0.634788394 0.857558429 0.557874560
0.759772003 0.850601017 0.554965138
0.888678074 0.850221574 0.568627298
0.992409945 0.836938381 0.586464405
0.430992782 0.967362463 0.602656364
0.469576001 0.969892800 0.612270713
0.514990509 0.970398545 0.617963493
0.592030644 0.968880355 0.622011364
0.681340992 0.964958966 0.623908997
0.780771375 0.961163938 0.626312375
0.884124041 0.954332590 0.636053205
0.988108754 0.957115650 0.658443809
0.002024260 0.000000000 0.638330460
0.136622533 0.004048004 0.645034730
0.278304845 0.000759096 0.647944212
0.423782289 0.000000000 0.651233077
0.569007099 0.002024260 0.651992202
0.714611232 0.000000000 0.654016495
0.863251567 0.000000000 0.658064485
0.993674815 0.000000000 0.653510571
0.008096253 0.067425899 0.638077259
0.115243092 0.073118351 0.629981041
0.265021831 0.058823708 0.642504692
0.412017465 0.031878553 0.642125487
0.556356668 0.010499643 0.640607297
0.709297895 0.001138547 0.649715006
0.860088646 0.000000000 0.651233196
0.987096608 0.005692736 0.648576736
0.003415642 0.224035278 0.651866198
0.075901456 0.224668205 0.658697486
0.265907735 0.219987273 0.658697367
0.422138184 0.219734550 0.661353707
0.572169721 0.209867090 0.659076810
0.726502240 0.202909201 0.657179415
0.871094227 0.209108293 0.653637111
0.991144776 0.236938655 0.657052577
0.000000000 0.380392164 0.659835517
0.017330926 0.382669240 0.664389789
0.243769646 0.379633248 0.665781140
0.420366734 0.376976907 0.659709096
0.581024766 0.376597196 0.667172670
0.732953727 0.374320179 0.658191204
0.871220827 0.384693176 0.653510392
0.989120543 0.407337099 0.658697248
0.005945744 0.554459393 0.673370957
0.062492013 0.555724084 0.679063499
0.271979719 0.555344403 0.676027596
0.430360526 0.549778521 0.671600163
0.593042195 0.550664365 0.668690741
0.747375369 0.550664365 0.669323027
0.874889076 0.563440919 0.666033983
0.986717224 0.580392122 0.676533818
0.133079991 0.732700467 0.687539697
0.219481528 0.737887561 0.697406471
0.352308482 0.737634063 0.698545098
0.485642284 0.734598219 0.693358481
0.622011364 0.725237012 0.688045263
0.758127689 0.716887951 0.687665761
0.875648320 0.717267513 0.688171744
0.987981856 0.721948266 0.696774244
0.281720251 0.849842012 0.677925289
0.336242795 0.847058535 0.683744252
0.419861108 0.849841774 0.687033355
0.525742948 0.852625132 0.693232298
0.640860140 0.848576844 0.696015179
0.758127689 0.849842012 0.690069497
0.883871257 0.850853562 0.700569272
0.984692872 0.841619492 0.714484572
0.484629869 0.957747996 0.725742936
0.508412242 0.964199901 0.728779137
0.555977046 0.959645569 0.729917705
0.614041507 0.960530877 0.730044246
0.680961072 0.958633423 0.729285419
0.774825990 0.956609726 0.725869715
0.878431559 0.957747996 0.732827067
0.983554780 0.953953087 0.750031590
0.000000000 0.000000000 0.797596276
0.143832847 0.000000000 0.799241006
0.283744276 0.000000000 0.801771283
0.429348558 0.000000000 0.802656651
0.573687494 0.003162904 0.805439293
0.719165206 0.001897740 0.796458006
0.872738898 0.000000000 0.807716548
0.988235235 0.000000000 0.787476540
0.007337449 0.045034643 0.791397750
0.120809518 0.040101096 0.791777134
0.269955814 0.019734390 0.794180989
0.423782438 0.007337351 0.791144729
0.568754196 0.002656643 0.793927789
0.714990616 0.000000000 0.797596335
0.863251567 0.000000000 0.795951545
0.989120603 0.000000000 0.785958409
0.002277288 0.212397188 0.794307232
0.032764360 0.211132348 0.800759196
0.251359999 0.215560094 0.801264882
0.415686429 0.206451446 0.802656591
0.575964510 0.198229194 0.804680526
0.727514029 0.187097192 0.802909493
0.877545655 0.181530282 0.809361458
0.992156625 0.220113829 0.794813156
0.000000000 0.367741913 0.796584606
0.001138644 0.364579350 0.800505638
0.227704093 0.365844369 0.809740901
0.405818969 0.361037254 0.807210624
0.568500698 0.364959002 0.804807007
0.727893293 0.364452899 0.807716489
0.880581796 0.368374646 0.807210624
0.989626586 0.390132725 0.785072565
0.003289004 0.539784968 0.810246468
0.010752896 0.536622405 0.806325257
0.240986466 0.536622107 0.803668439
0.416065872 0.535863161 0.808602154
0.578241408 0.535104275 0.808728278
0.734598160 0.542441845 0.807716548
0.881720483 0.545857191 0.811005592
0.989879608 0.569765985 0.795698702
0.095762245 0.713598728 0.818089604
0.198735088 0.713598847 0.826818585
0.331309110 0.713093042 0.816824853
0.466793388 0.709804058 0.816951275
0.609487474 0.711827874 0.817457259
0.745603740 0.710942745 0.812397480
0.876027822 0.714611173 0.821125865
0.980012774 0.725869894 0.809993684
0.261227101 0.853510559 0.807716548
0.323339522 0.852245688 0.811132073
0.408602208 0.853384137 0.817204237
0.520303667 0.853004634 0.816571534
0.639468431 0.846299529 0.815053642
0.760151446 0.846299529 0.823023140
0.872738838 0.848576784 0.825047255
0.970145285 0.844022810 0.828589737
0.478811026 0.958760202 0.816318870
0.504997015 0.958507061 0.821632028
0.540543914 0.958380461 0.824035347
0.619101822 0.956103444 0.828083217
0.700063288 0.958633423 0.840607285
0.795066476 0.952687800 0.843263924
0.876154304 0.953573525 0.838583410
0.974446297 0.952308357 0.855407894
0.007843000 0.000000000 0.937760592
0.134218812 0.000000000 0.931941330
0.282732278 0.000000000 0.928652644
0.420366645 0.002783356 0.935231030
0.572422564 0.000000000 0.933712780
0.710815907 0.000000000 0.931688547
0.857685149 0.000000000 0.934092343
0.993674755 0.000000000 0.936369658
0.004807297 0.018975638 0.924477756
0.104364105 0.013029793 0.928146482
0.269070327 0.006451639 0.923972070
0.420873076 0.004554092 0.927134633
0.564199984 0.001138547 0.930170655
0.713346004 0.000000000 0.927893639
0.854522467 0.001265167 0.922833800
0.989500046 0.000379548 0.928273201
0.000000000 0.207843021 0.927767038
0.009614540 0.205565736 0.928652346
0.245540828 0.202656358 0.929917812
0.411132246 0.202782989 0.932447612
0.560151517 0.198102280 0.932447612
0.711574972 0.194181100 0.929031909
0.859076500 0.197975993 0.932068050
0.990512192 0.217836916 0.934724748
0.002783356 0.358001292 0.926881611
0.000000000 0.359519094 0.933965802
0.209867299 0.357242197 0.930929720
0.398608655 0.358127713 0.933965802
0.554712057 0.360278279 0.925742924
0.705629528 0.364073098 0.926122427
0.856419981 0.370651633 0.927134335
0.992409945 0.382542729 0.931055963
0.004807003 0.520430028 0.934471965
0.005313185 0.526248932 0.931435764
0.217836916 0.523339629 0.933206677
0.397090465 0.525743365 0.935736418
0.556483209 0.528146565 0.931055963
0.709550679 0.535736620 0.934851408
0.855534554 0.540417552 0.928905487
0.991017938 0.559519172 0.934092343
0.111321792 0.692725897 0.933206737
0.202656433 0.695129573 0.940797091
0.323465914 0.695382714 0.933712780
0.458823562 0.695129573 0.934092104
0.591903687 0.696521401 0.929790795
0.723845720 0.702719629 0.934977651
0.863250852 0.707020700 0.933712780
0.986463904 0.720050573 0.931815028
0.302340239 0.839974821 0.932447612
0.352688253 0.836938381 0.931561768
0.424668133 0.839595318 0.930044115
0.525869906 0.836938441 0.932068050
0.638962924 0.839215636 0.931561828
0.753447235 0.839721739 0.934471965
0.862871349 0.843263865 0.935610533
0.980138779 0.846679091 0.931182802
0.468564570 0.966350615 0.937507927
0.496394336 0.967868149 0.936242819
0.537634492 0.969513059 0.937001884
0.612397194 0.965464652 0.936495900
0.697280347 0.956989169 0.936748803
0.793042421 0.954585612 0.932953715
0.883111954 0.951928794 0.940923631
0.960910857 0.957241774 0.936242819
