Assets/EldamarStudio/100 Retro LUTs Pack/LUTs/cube/Scott LUT.cube
LUT_3D_SIZE 5
DOMAIN_MIN 0.000000 0.000000 0.000000
DOMAIN_MAX 0.903226 0.903226 0.903226
0.098039001 0.094117999 0.074510001
0.271347404 0.082353003 0.076786712
0.525110364 0.071220584 0.056167006
0.838583112 0.057811871 0.004933870
1.000000000 0.032637846 0.002656833
0.139911413 0.244528979 0.060088586
0.276913673 0.239974394 0.059456002
0.549019516 0.272359103 0.016192604
0.836938620 0.279190570 0.000000000
0.998355269 0.259582400 0.000000000
0.211132422 0.536116004 0.004554423
0.361290097 0.545730531 0.002277292
0.599620342 0.537507832 0.000000000
0.843770087 0.534851372 0.002277288
0.994054437 0.504743814 0.000000000
0.280455261 0.790512264 0.001012128
0.399114698 0.796331227 0.003668706
0.611638248 0.790512264 0.005566292
0.848324060 0.777735353 0.001012128
1.000000000 0.736875415 0.004174717
0.347880989 0.985957980 0.005186845
0.428336382 0.992409945 0.000000000
0.600126863 0.985957980 0.000000000
0.815306842 0.976090968 0.001265167
0.994813144 0.966350615 0.000000000
0.111448288 0.086274996 0.199746698
0.262871385 0.086274996 0.206957698
0.530044079 0.011638179 0.205312982
0.841492951 0.000000000 0.181150824
0.996711016 0.000000000 0.161543399
0.146109715 0.241239995 0.203668699
0.291334689 0.240607411 0.204680413
0.557874382 0.247818008 0.190638676
0.838203847 0.240986526 0.167994827
1.000000000 0.229474828 0.154332563
0.169259995 0.529285073 0.141809002
0.341302961 0.535863101 0.142821118
0.594054520 0.531941712 0.129411578
0.843137383 0.516508400 0.118659116
0.998987913 0.490702122 0.129158691
0.268437862 0.783934414 0.050221667
0.388994575 0.788235545 0.048956245
0.600885391 0.781657100 0.046299927
0.847059131 0.772801816 0.045540672
1.000000000 0.735610425 0.071600199
0.331182718 0.985198796 0.112459995
0.423023582 0.983048499 0.136496171
0.594433844 0.982036591 0.133839339
0.814042032 0.970524907 0.125742882
0.996078014 0.960783899 0.130929887
0.134724990 0.082985587 0.446679384
0.291967124 0.067931585 0.447311789
0.536242783 0.003162596 0.457811773
0.836305857 0.002277288 0.460088491
0.994687021 0.000000000 0.428336382
0.101834595 0.240607411 0.451613098
0.294876844 0.230487123 0.453890204
0.563061178 0.212523818 0.455154806
0.837571204 0.183554530 0.442124993
0.997343481 0.214041784 0.429980904
0.069197014 0.525742948 0.452498823
0.304364264 0.527387679 0.451233804
0.601644814 0.521821737 0.446679384
0.834281862 0.511321962 0.440100789
1.000000000 0.493738204 0.433649361
0.267805278 0.774825811 0.434661508
0.392662704 0.781657159 0.441872090
0.604807258 0.776091278 0.436559081
0.838203847 0.770271838 0.434914768
0.998734832 0.736495674 0.438203394
0.350537628 0.976091266 0.445287555
0.432763815 0.979759455 0.456419796
0.598229229 0.975458622 0.455787390
0.808096051 0.968627512 0.450347900
0.999367416 0.956483245 0.459202766
0.142188132 0.049968131 0.715117097
0.311827838 0.015939135 0.723592341
0.557115853 0.000000000 0.719038367
0.825933278 0.000000000 0.713219404
1.000000000 0.000000000 0.681340992
0.080582306 0.225300267 0.722201109
0.300695986 0.220366985 0.722201169
0.566856563 0.203036264 0.723465919
0.835926533 0.166477114 0.714357674
0.998987913 0.215433374 0.680455267
0.093864866 0.509044707 0.714610994
0.323972255 0.512334108 0.727134824
0.583301365 0.516255617 0.718658864
0.831625819 0.508791804 0.702593088
1.000000000 0.525110364 0.691840708
0.297153831 0.779759407 0.712080956
0.406578124 0.782669246 0.713725150
0.606325090 0.777103007 0.708791852
0.823782265 0.763061285 0.706261992
1.000000000 0.752940953 0.706894457
0.466033936 0.969639778 0.717773318
0.525110602 0.972548902 0.727641046
0.635547280 0.970904827 0.724224925
0.801265121 0.967994928 0.702340245
0.998734832 0.958127439 0.712207437
0.137254998 0.001265167 0.945477784
0.303731859 0.001265167 0.944844961
0.539405406 0.000632584 0.940923214
0.798608363 0.000000000 0.944844782
1.000000000 0.000000000 0.931055963
0.052371748 0.214168116 0.939911544
0.282099873 0.210246697 0.943200648
0.534218848 0.192536280 0.940544128
0.798734963 0.174699649 0.936116517
0.997722745 0.169639379 0.938899636
0.068944052 0.489057809 0.937002063
0.301707685 0.493991107 0.942820966
0.549905241 0.497659385 0.942188382
0.798987865 0.495635778 0.938646317
0.994687021 0.504237533 0.929158330
0.266034007 0.753573537 0.933965445
0.376217693 0.758507371 0.932827175
0.578874111 0.756483018 0.932068050
0.797976136 0.756483436 0.937254488
0.996204793 0.759772301 0.922833622
0.430233955 0.975458801 0.920682967
0.487539679 0.978747785 0.920050800
0.640101254 0.973561168 0.921947718
0.819608033 0.967615783 0.929411650
0.991144776 0.961163759 0.933839679
