Assets/EldamarStudio/100 Retro LUTs Pack/LUTs/cube/Scott LUT.cube
LUT_3D_SIZE 8
DOMAIN_MIN 0.000000 0.000000 0.000000
DOMAIN_MAX 0.903226 0.903226 0.903226
0.098039001 0.094117999 0.074510001
0.184187084 0.078431003 0.074889451
0.300949097 0.081593908 0.073750906
0.443390280 0.074510001 0.068310998
0.619481385 0.070588000 0.047944002
0.797090173 0.058823999 0.014041752
0.940417528 0.050348002 0.000000000
1.000000000 0.032637846 0.002656833
0.114104547 0.163820103 0.067425996
0.183807552 0.156736106 0.077292554
0.301328540 0.160278544 0.069829099
0.442251623 0.167741999 0.060468100
0.614927173 0.174067095 0.037950620
0.790512443 0.172422081 0.005566196
0.926375270 0.166982815 0.000758999
1.000000000 0.157495096 0.000000000
0.152056009 0.271853179 0.050221097
0.203288749 0.278937191 0.053383995
0.313346088 0.274130285 0.051865999
0.467678398 0.298924625 0.023403266
0.645540476 0.311828107 0.003922000
0.801264703 0.319417953 0.000000000
0.938140273 0.309551001 0.001518192
0.998102248 0.294750124 0.000000001
0.196711004 0.440227926 0.002276998
0.257811189 0.445034921 0.000379548
0.367236167 0.446299553 0.002783357
0.498418897 0.447944283 0.000000000
0.654016435 0.461353272 0.000000000
0.800252974 0.455661029 0.000000000
0.930423677 0.445034981 0.001138644
0.998481810 0.431752086 0.000000000
0.228083193 0.603415370 0.000000000
0.291208357 0.620620191 0.000758999
0.396458179 0.618216395 0.000000000
0.528146327 0.614294350 0.001138644
0.674636185 0.611258388 0.002403808
0.809993684 0.606578350 0.000000000
0.935610354 0.583934307 0.000000000
1.000000000 0.565212190 0.003922000
0.278430998 0.770271719 0.000000000
0.321189165 0.774446309 0.000000000
0.422896832 0.767995000 0.001138645
0.549904883 0.764959097 0.002276998
0.687159717 0.758633673 0.004048004
0.820999742 0.750410676 0.002024260
0.941556275 0.729664743 0.005439708
1.000000000 0.704490900 0.001897740
0.300316274 0.878684282 0.001644712
0.345856786 0.879317284 0.002024260
0.430234194 0.877672553 0.002403808
0.544085979 0.875395298 0.004553996
0.662239373 0.871347547 0.001518192
0.798355401 0.859455824 0.003794996
0.929285586 0.858064532 0.000000000
1.000000000 0.830234170 0.001265167
0.347880989 0.985957980 0.005186845
0.375079125 0.988235235 0.004554179
0.447058916 0.989879608 0.001265167
0.546109676 0.984440148 0.002276998
0.666413784 0.980518460 0.001518192
0.783681452 0.978114963 0.002530012
0.914231718 0.967615783 0.000000000
0.994813144 0.966350615 0.000000000
0.105881996 0.093738452 0.139152542
0.176723540 0.086274996 0.140290990
0.294624001 0.089816548 0.137128085
0.439088941 0.073877104 0.133333087
0.616065741 0.046552811 0.123592354
0.792030454 0.016698200 0.105629556
0.923972309 0.001644712 0.082859263
0.999620438 0.000000000 0.061227106
0.119544543 0.156356543 0.135989547
0.195192993 0.159898996 0.139531985
0.289057195 0.163440645 0.132068545
0.439088821 0.160278544 0.121568806
0.608981788 0.161163554 0.111068554
0.774826288 0.154459283 0.095762290
0.916002274 0.144591630 0.069449551
0.999620438 0.134092376 0.047185402
0.147754550 0.275016010 0.108918093
0.212776646 0.271853089 0.123845905
0.313346207 0.272991747 0.121948354
0.463757187 0.288298309 0.107526898
0.640480816 0.303225994 0.089816645
0.791397572 0.304870099 0.058064803
0.925363600 0.296268374 0.036180004
0.998734832 0.278178096 0.013156187
0.177482635 0.432131559 0.064136356
0.244781733 0.432131529 0.065781265
0.354332745 0.434914827 0.055913907
0.485389352 0.438456446 0.045034818
0.646552920 0.450727731 0.009740643
0.791650772 0.447691709 0.005439902
0.921821713 0.433649540 0.001897643
0.998481810 0.420746565 0.001644716
0.218596101 0.601265013 0.000000000
0.272232533 0.606451571 0.001138644
0.388361812 0.606451571 0.000759096
0.522707224 0.605313003 0.001518095
0.664136767 0.605313003 0.000000000
0.801644266 0.591271460 0.002024260
0.928652525 0.577735424 0.000000000
1.000000000 0.561037123 0.000000000
0.258697182 0.760657907 0.000000000
0.320809722 0.759898722 0.001518192
0.413030088 0.760404885 0.000379548
0.539911389 0.759013116 0.001897740
0.676660478 0.751928926 0.002024260
0.811005473 0.745224476 0.003542452
0.938519835 0.722074628 0.000000000
0.998481810 0.700948834 0.000759092
0.290829003 0.866034091 0.000379548
0.338393271 0.871853292 0.000000000
0.420999408 0.871853292 0.001518192
0.534345329 0.866666555 0.000000000
0.664263010 0.864009857 0.003162904
0.793548644 0.856673181 0.003542452
0.925110579 0.856166840 0.004174544
1.000000000 0.824415147 0.000379548
0.337128371 0.979759336 0.005819156
0.370018721 0.989879608 0.004554282
0.441113561 0.985578537 0.002783166
0.542820692 0.980012715 0.001138547
0.658823788 0.976976633 0.002530012
0.781277657 0.972675443 0.001265167
0.912334025 0.964452922 0.001265167
0.997722745 0.964326322 0.003542166
0.114484094 0.087033898 0.224794179
0.183807537 0.086654447 0.221632093
0.297786176 0.087033898 0.234282091
0.442631185 0.056799814 0.237318188
0.632131338 0.000000000 0.234155178
0.801518261 0.000000000 0.213535562
0.937254608 0.000000000 0.204427287
0.996205032 0.000000000 0.196963921
0.134471640 0.158381000 0.221632093
0.195952088 0.152056009 0.221632183
0.295762539 0.154838547 0.223655730
0.449209720 0.137254998 0.227957100
0.624415100 0.090448909 0.219481200
0.786210954 0.071094356 0.204806730
0.921568573 0.069829002 0.202529937
0.998734832 0.058317631 0.191145092
0.150663912 0.264769107 0.227198184
0.204933539 0.271853060 0.226439089
0.333839118 0.269450009 0.234282091
0.475142628 0.279316753 0.221758097
0.642504454 0.281340897 0.209993809
0.799241006 0.275901198 0.202909291
0.929538190 0.269576281 0.188867986
1.000000000 0.262618512 0.187982187
0.131055996 0.434914827 0.196078539
0.223782539 0.434155822 0.204806745
0.353573740 0.438962907 0.203668296
0.496141911 0.436938465 0.193801552
0.650474131 0.440101266 0.192283645
0.795951784 0.433522999 0.182416201
0.925490141 0.425427288 0.169133186
1.000000000 0.410878927 0.174066842
0.185705096 0.603289306 0.163694099
0.252624750 0.606830895 0.161417007
0.383302093 0.607210517 0.162808299
0.516002655 0.605313063 0.159392744
0.667678595 0.597090185 0.148766384
0.799620509 0.587349832 0.145350739
0.927893460 0.572928190 0.154206187
0.997343361 0.557621717 0.159013197
0.249209285 0.755597413 0.148893192
0.305629194 0.759772122 0.144086093
0.405439764 0.761416852 0.140797183
0.535357296 0.754332781 0.135736749
0.671600163 0.747628093 0.132321104
0.812397122 0.740164697 0.124984182
0.933839321 0.719038606 0.131182566
0.998481870 0.697406590 0.156862646
0.285389006 0.862871587 0.107147194
0.329285264 0.869829476 0.121062569
0.419355005 0.869196773 0.119544379
0.526248991 0.867172778 0.117014468
0.659962296 0.861227036 0.114611089
0.787223101 0.856546283 0.107400276
0.929538190 0.855787277 0.109804273
0.999240935 0.826059461 0.142821074
0.327640891 0.985451877 0.181783438
0.373434752 0.984060645 0.193548247
0.440481007 0.982542694 0.190891892
0.540923476 0.982416153 0.191651091
0.656926215 0.977229536 0.187982008
0.779886246 0.970272183 0.187476367
0.911828101 0.962808192 0.185578719
0.994813144 0.959266067 0.188615099
0.127134994 0.086274996 0.367741913
0.202656448 0.085136354 0.365338713
0.312966555 0.074635997 0.364959270
0.451233268 0.039089363 0.375584930
0.640480816 0.000000000 0.407842904
0.801138699 0.000000000 0.382416278
0.936495900 0.000000000 0.361543357
0.998861372 0.002530012 0.350790471
0.131815091 0.149652094 0.359519184
0.199493632 0.152055994 0.360278249
0.318912178 0.143453091 0.363061517
0.453637183 0.126248986 0.369766176
0.633017242 0.068184562 0.378620923
0.797723055 0.005313091 0.368500829
0.924224913 0.005819450 0.348640203
0.997469962 0.006831090 0.340290934
0.117773809 0.271094084 0.364959270
0.201897547 0.265148640 0.373561263
0.332574636 0.267552465 0.374066830
0.485009372 0.266413987 0.369259834
0.659329772 0.250347853 0.372548848
0.809107840 0.239215836 0.353953063
0.939658582 0.253004193 0.351296544
0.999620497 0.251992553 0.349778444
0.101834364 0.436179578 0.372295916
0.198734641 0.439721823 0.377861917
0.341556102 0.437444717 0.365718186
0.498924553 0.437824309 0.362175912
0.659202993 0.436306059 0.359392554
0.799620748 0.428083539 0.355597287
0.925869942 0.418722630 0.345351011
1.000000000 0.407716453 0.348893106
0.089816377 0.608096361 0.339152277
0.212650448 0.610752702 0.347501725
0.371916562 0.610879064 0.355344623
0.520303309 0.603035748 0.347374797
0.673877180 0.599114716 0.344844908
0.803668499 0.586211205 0.344592303
0.927261174 0.572928429 0.349525273
0.998734832 0.557748318 0.346742630
0.243010908 0.759898722 0.351423025
0.307273924 0.757115543 0.352561384
0.412271082 0.757874727 0.356862634
0.533965647 0.755091846 0.354079396
0.677166343 0.749651909 0.350663841
0.816445649 0.744212747 0.343833297
0.930803239 0.719038606 0.342947274
0.999240875 0.702972889 0.355471343
0.274509996 0.869196594 0.337381363
0.331056237 0.873497963 0.345604092
0.416318834 0.869576156 0.340290934
0.530677021 0.866413653 0.343074292
0.658444047 0.863250971 0.343453735
0.792662978 0.858570635 0.340164602
0.927513897 0.854143262 0.340290934
0.999620438 0.827197790 0.348133922
0.343453616 0.981277466 0.371536613
0.377861977 0.983301759 0.375458419
0.450600773 0.984187007 0.383554637
0.547248304 0.980898023 0.376470447
0.656799138 0.980012596 0.375331998
0.780012488 0.969765902 0.373434275
0.905629754 0.965971053 0.369386256
0.997596204 0.961290061 0.378874272
0.139658198 0.076913200 0.528652608
0.214800999 0.065908000 0.533712804
0.337002009 0.044149101 0.531941354
0.470334798 0.007590359 0.533459544
0.633649588 0.000000000 0.538899362
0.802656889 0.001518192 0.542568088
0.936622500 0.004680709 0.518785477
0.998861372 0.000000000 0.504238009
0.123845994 0.144971192 0.525869787
0.198102385 0.146615893 0.527513921
0.331688762 0.134092197 0.529538155
0.474004090 0.109550744 0.530803025
0.629095316 0.059329629 0.526375353
0.788994491 0.003415545 0.528020382
0.926628709 0.004174738 0.511954546
0.998861372 0.010752996 0.500569344
0.074763007 0.268691093 0.538266957
0.186211348 0.265275449 0.536622286
0.334472090 0.262492210 0.538266957
0.491208106 0.258190840 0.538646638
0.656673312 0.246806204 0.539911211
0.808349133 0.235673562 0.523719013
0.931562483 0.244276091 0.511448324
0.999240935 0.269576192 0.510183513
0.075015649 0.439848125 0.538519800
0.180012360 0.439848036 0.535610378
0.341049731 0.426818460 0.536116004
0.502466738 0.429601729 0.535736561
0.654143274 0.425553620 0.523592710
0.796837270 0.427451283 0.517014563
0.919165313 0.432637662 0.510436475
0.997216642 0.436053246 0.514484465
0.106009178 0.605819225 0.533459604
0.219987273 0.610119998 0.527007997
0.367362291 0.610499501 0.531182468
0.524225295 0.602530360 0.524857402
0.666160345 0.601897180 0.519291401
0.796204984 0.590512395 0.524225354
0.922454059 0.578115165 0.518659174
0.998734832 0.569639146 0.515117049
0.273877442 0.757242084 0.536749125
0.330170721 0.758633673 0.528146565
0.426565617 0.756356359 0.532574356
0.543200314 0.752308428 0.529284954
0.670208871 0.747248769 0.519038618
0.809740305 0.739026189 0.520556629
0.924478054 0.722200692 0.518153131
0.996457577 0.706768155 0.530170679
0.337634385 0.869196355 0.522454083
0.380012661 0.868817031 0.528779328
0.442125082 0.867552221 0.525110483
0.536369383 0.865275025 0.520303488
0.652878225 0.864516079 0.519418061
0.791018486 0.860974014 0.511701345
0.919165313 0.853384256 0.508412361
0.998481810 0.832890272 0.515496492
0.368501008 0.976597190 0.532953799
0.390765518 0.979886174 0.539152443
0.459455997 0.980391920 0.540544212
0.551929057 0.981783569 0.535483837
0.660341382 0.974193633 0.530044019
0.773434520 0.971536756 0.530297399
0.900062919 0.966730058 0.529032171
0.998481810 0.958506942 0.531941354
0.143200263 0.057052262 0.681720436
0.224920899 0.040986814 0.678431451
0.340923190 0.010373006 0.679569721
0.486274540 0.000000000 0.683871090
0.634281933 0.000000000 0.685515463
0.783428431 0.000000000 0.675774693
0.928526521 0.000000000 0.665275455
1.000000000 0.000000000 0.640860438
0.129411995 0.132827535 0.671094477
0.212776735 0.126122802 0.675648212
0.335989982 0.118026353 0.676407039
0.484629840 0.085136354 0.683997393
0.628715873 0.024035454 0.670588493
0.789373755 0.001897740 0.679190278
0.925363600 0.000758999 0.655661166
1.000000000 0.008855257 0.640986741
0.055787902 0.254142940 0.685009658
0.192157090 0.258064449 0.688677967
0.333080202 0.251739442 0.686021626
0.483365178 0.244022921 0.684630096
0.646805584 0.236179456 0.686401010
0.795192420 0.223909199 0.674130142
0.927513957 0.233143285 0.655914068
1.000000000 0.262491912 0.646299660
0.044528916 0.421252370 0.680961132
0.179127187 0.421252370 0.678810835
0.334724814 0.416824937 0.680202246
0.488931268 0.419354916 0.678684115
0.656040609 0.416951090 0.677419364
0.803542018 0.411891192 0.670208752
0.912207305 0.425426900 0.649841666
0.998734832 0.438330144 0.650221407
0.125110909 0.593927920 0.680455685
0.230233923 0.592156649 0.686021507
0.364452839 0.595066488 0.676280856
0.516761541 0.594560385 0.672991693
0.663757205 0.590385795 0.677545488
0.790765285 0.590006351 0.664895773
0.907906711 0.594813466 0.662112474
0.998481810 0.602024078 0.675648272
0.275901735 0.750410736 0.683744669
0.323592305 0.756862640 0.672991693
0.425300479 0.752308488 0.675774693
0.544085979 0.745224357 0.675648212
0.669702888 0.740543962 0.674130023
0.797469735 0.732700467 0.671853185
0.906894267 0.723213196 0.669829488
0.998734832 0.720050514 0.671726704
0.360025257 0.863504291 0.660847783
0.395951569 0.862112463 0.667551994
0.469955683 0.864009798 0.670967817
0.567615390 0.858444035 0.678052008
0.667046130 0.858443975 0.676154494
0.781024694 0.859961808 0.661986470
0.907400310 0.852118790 0.667046189
0.999240935 0.837697566 0.668184757
0.464768887 0.969639540 0.694749773
0.486780822 0.971157610 0.695256054
0.535736918 0.969006777 0.696015298
0.584187090 0.971663654 0.691587627
0.658570647 0.972422659 0.676154137
0.773181617 0.969006777 0.671220601
0.901581287 0.962808192 0.675015688
0.998734832 0.958633602 0.678051710
0.146742716 0.024541717 0.814927518
0.224920794 0.015939297 0.816824853
0.339405388 0.000000000 0.822643876
0.481467634 0.000000000 0.821125865
0.629348338 0.000759096 0.817330718
0.773813725 0.001897740 0.813029766
0.933206499 0.000000000 0.814927518
1.000000000 0.000000000 0.784819722
0.118785739 0.124351539 0.815433264
0.207843289 0.116888098 0.811258972
0.335104376 0.099177741 0.819228351
0.474130273 0.070841104 0.811385095
0.625680089 0.006831090 0.814927518
0.773434281 0.001518192 0.809740782
0.930170774 0.000000000 0.804807246
1.000000000 0.006198712 0.770272136
0.048956718 0.249209195 0.811891198
0.182669103 0.248324186 0.819355011
0.327640802 0.245161295 0.825933099
0.472865462 0.241745740 0.816191971
0.634029269 0.230233997 0.817963362
0.787602723 0.216698200 0.817836702
0.932447851 0.214421496 0.810879469
1.000000000 0.257052422 0.781277299
0.029474914 0.411511898 0.806704521
0.169259921 0.412397116 0.814168215
0.327387482 0.409108102 0.816318750
0.475901634 0.410373271 0.817204297
0.635167837 0.408475697 0.810879469
0.784440339 0.405186743 0.810626149
0.927008271 0.409234613 0.797090173
0.998861372 0.432637721 0.778620958
0.138772458 0.572802126 0.814168453
0.234535024 0.577861965 0.811511874
0.366730064 0.579000354 0.812523723
0.499683857 0.585072696 0.811385095
0.641239882 0.582163274 0.806957424
0.785325766 0.576344073 0.806577921
0.918532491 0.579127312 0.802403271
0.995572209 0.590133190 0.782922149
0.259329557 0.738646746 0.815939069
0.314610839 0.739784896 0.811638474
0.409487724 0.739658356 0.810120165
0.528652728 0.736242950 0.815307021
0.659076571 0.734092236 0.811764538
0.779886007 0.730044186 0.812650263
0.908665538 0.730297208 0.806451559
0.993801475 0.737254560 0.805186689
0.342062265 0.863630295 0.784566283
0.385199249 0.867805302 0.792410016
0.455914378 0.867425740 0.796964288
0.561543345 0.859708965 0.797596276
0.668564141 0.857305288 0.804807246
0.785705209 0.855534732 0.806704521
0.897279978 0.850221574 0.803162515
0.993674815 0.840986609 0.807463408
0.458823502 0.968627334 0.801264644
0.479696780 0.973434627 0.800379336
0.533333242 0.963693678 0.803541899
0.607969701 0.969006777 0.812397480
0.707147360 0.965591550 0.815812767
0.787349701 0.966097474 0.816571951
0.885136068 0.963693798 0.807083964
0.995825231 0.959898651 0.809614360
0.137254998 0.001265167 0.945477784
0.213282719 0.000000000 0.941935360
0.335104257 0.000000000 0.945098042
0.468311250 0.001265167 0.941555798
0.616698205 0.001138640 0.942947447
0.760657728 0.000000000 0.945350826
0.909550786 0.002656833 0.938646376
1.000000000 0.000000000 0.931055963
0.109424353 0.114104845 0.937761068
0.199747264 0.100948699 0.934977651
0.325237185 0.087413259 0.940417349
0.466793180 0.058570459 0.939658523
0.614421070 0.008349283 0.939152300
0.759898663 0.001897547 0.933712780
0.910183728 0.000000000 0.936369658
0.996457577 0.003542452 0.927134693
0.027324459 0.249336019 0.940417647
0.162934661 0.247944638 0.936242938
0.315496445 0.246426463 0.941682756
0.463251293 0.239342362 0.942314863
0.608602107 0.234661460 0.938899636
0.762555480 0.227071285 0.939152360
0.910689294 0.222391009 0.937760770
1.000000000 0.229095355 0.938393354
0.026692269 0.401012063 0.933965743
0.163061023 0.405819207 0.944844842
0.312966555 0.404680431 0.937507987
0.462492287 0.408855081 0.938393235
0.609740615 0.406198651 0.937381446
0.759519458 0.404807270 0.935104489
0.906768084 0.403415561 0.933080196
0.997723043 0.414421111 0.931815386
0.119924195 0.566097319 0.937760770
0.217963502 0.571790040 0.940797031
0.343453288 0.572928250 0.931182742
0.484123856 0.572296023 0.937634468
0.622011602 0.570904374 0.929664552
0.759392560 0.574446440 0.934977651
0.907147586 0.570398510 0.932953715
0.997596204 0.579127192 0.930044115
0.247058928 0.721441746 0.936242759
0.301834196 0.723339498 0.934597909
0.394686759 0.724098563 0.937634289
0.512207627 0.722833693 0.933333278
0.636685610 0.725996315 0.932321429
0.763314366 0.724098563 0.938266933
0.900442600 0.723719060 0.933586180
0.998734832 0.724857450 0.923086643
0.316128850 0.862365425 0.931562304
0.357621729 0.860974014 0.925490260
0.437824279 0.859961867 0.929285049
0.540796816 0.860468090 0.933965862
0.657684982 0.854143202 0.934471905
0.776723266 0.852751553 0.931562304
0.884503424 0.849209428 0.924984038
0.993674815 0.851486683 0.930423617
0.430233955 0.975458801 0.920682967
0.457558334 0.980771720 0.925869823
0.504237831 0.981783748 0.918532550
0.598734975 0.975711405 0.924224794
0.690701842 0.969006717 0.924731135
0.793548763 0.967109501 0.926375508
0.892093599 0.959771752 0.925869823
0.991144776 0.961163759 0.933839679
