Assets/EldamarStudio/100 Retro LUTs Pack/LUTs/cube/Scott LUT.cube
DOMAIN_MIN 0 0 0
DOMAIN_MAX 1 1 1
LUT_3D_SIZE 32
0.098039001 0.094117999 0.074510001
0.116255775 0.091081612 0.077545613
0.136622772 0.090195999 0.078431003
0.159139991 0.086400837 0.077166162
0.184187084 0.078431003 0.074889451
0.214547858 0.078431003 0.077925064
0.242378324 0.080961324 0.078431003
0.271347404 0.082353003 0.076786712
0.300949097 0.081593908 0.073750906
0.328273535 0.078557521 0.070714511
0.367235869 0.075521871 0.061859872
0.404680490 0.074510001 0.064895734
0.443390280 0.074510001 0.068310998
0.485642046 0.074256971 0.062238999
0.525110364 0.071220584 0.056167006
0.569386363 0.070588000 0.052498195
0.619481385 0.070588000 0.047944002
0.672232687 0.069955580 0.041239593
0.717773974 0.066919960 0.032131962
0.754965007 0.061100993 0.025806287
0.797090173 0.058823999 0.014041752
0.838583112 0.057811871 0.004933870
0.872106016 0.054901998 0.007590008
0.908538818 0.054901998 0.001517999
0.940417528 0.050348002 0.000000000
0.969386637 0.045667328 0.000000000
0.993169010 0.042125002 0.000000000
0.999240994 0.036053006 0.000000000
1.000000000 0.032637846 0.002656833
1.000000000 0.031373002 0.003922000
1.000000000 0.027830794 0.003922000
1.000000000 0.015686000 0.003922000
0.091967002 0.106261998 0.080582000
0.107147388 0.106261998 0.077545613
0.138267159 0.103225611 0.076280773
0.167741999 0.099809997 0.074130230
0.194054097 0.094370387 0.071473613
0.208475873 0.099683382 0.071853064
0.236306325 0.097153708 0.072359003
0.266919672 0.099177673 0.074003711
0.298671812 0.099050999 0.072992004
0.328273535 0.093737915 0.067678899
0.361416876 0.099430382 0.070461512
0.398608506 0.098797999 0.067931615
0.436179638 0.097659647 0.068310998
0.477545708 0.096015356 0.062238999
0.528146744 0.098544970 0.056167006
0.567615151 0.097912386 0.050095003
0.614927173 0.096394584 0.041872393
0.666160524 0.094244197 0.034029387
0.711701155 0.091207966 0.032131959
0.757242262 0.090954997 0.023023639
0.794433832 0.087286741 0.016698392
0.832511127 0.086148381 0.006957875
0.866160512 0.085136265 0.001771000
0.905502439 0.082226381 0.001517999
0.937381148 0.082226381 0.000000000
0.969133258 0.079064071 0.000000000
0.995698690 0.075522028 0.001011999
0.999240994 0.069449395 0.006072000
1.000000000 0.068690389 0.008728832
1.000000000 0.066034235 0.004680802
0.998229027 0.063883781 0.001771221
0.993928015 0.058190778 0.003922000
0.098797999 0.122706994 0.075901225
0.113978386 0.122706994 0.079316616
0.133459777 0.120556772 0.076280773
0.163567394 0.118785545 0.070714839
0.190891534 0.115243547 0.067804992
0.211891100 0.117773548 0.074889004
0.230234325 0.116255321 0.066286996
0.264136672 0.114863999 0.066286996
0.297786206 0.116634771 0.069576219
0.328146994 0.113345772 0.069070220
0.361416876 0.118911766 0.065275125
0.398861229 0.116887771 0.066286996
0.436559170 0.116634771 0.064010002
0.476533800 0.115369998 0.057937998
0.524351418 0.120303348 0.051866006
0.574952543 0.120935768 0.045794003
0.612903178 0.119417965 0.042757999
0.661353528 0.117647186 0.031878866
0.709930003 0.117646798 0.022770448
0.749019265 0.115243547 0.020872865
0.790765405 0.113345809 0.011764973
0.829475284 0.111321993 0.006451873
0.866160750 0.111321993 0.000000000
0.899556935 0.110309862 0.000000000
0.934345305 0.109550767 0.000000000
0.964705706 0.109550767 0.000000000
0.993295074 0.106767997 0.000000000
0.999620438 0.100695647 0.002782993
1.000000000 0.097785771 0.004048059
1.000000000 0.096015006 0.005313226
0.998229027 0.092979163 0.001770991
0.992156982 0.089942768 0.006072226
0.108411998 0.142188162 0.069323160
0.119797543 0.142188162 0.072865158
0.141808942 0.138772771 0.075015612
0.161796167 0.137001991 0.075774841
0.183048546 0.137760997 0.066666543
0.208601937 0.139532000 0.072612159
0.237191796 0.139532000 0.070840999
0.261859864 0.135610312 0.065274999
0.299051166 0.135610312 0.064516097
0.329411834 0.135610312 0.069070153
0.361416876 0.140164167 0.066034161
0.400126398 0.141935334 0.062744997
0.439594805 0.138140321 0.061606646
0.479316920 0.138393283 0.055408128
0.523845375 0.143453151 0.048324004
0.571663439 0.145983309 0.044782002
0.619481206 0.143200353 0.034155678
0.657811522 0.141429573 0.034155674
0.708159208 0.144465193 0.019734059
0.748386860 0.143200353 0.013156001
0.787982166 0.141429409 0.009993747
0.824415267 0.138393283 0.002909872
0.865654945 0.138140321 0.000000000
0.898292005 0.138140321 0.000000000
0.928399503 0.136875153 0.000000000
0.960404992 0.136875153 0.002529999
0.988235056 0.135863155 0.001518000
0.998861432 0.129791170 0.000000000
1.000000000 0.127640486 0.000000000
1.000000000 0.125869393 0.002529999
1.000000000 0.121062554 0.001644617
0.994686961 0.117267154 0.006578161
0.114104547 0.163820103 0.067425996
0.121315770 0.163820103 0.066287450
0.140923768 0.160278097 0.069576226
0.164073542 0.156356543 0.072738551
0.183807552 0.156736106 0.077292554
0.205059946 0.162808105 0.068184935
0.239974856 0.165970877 0.069196679
0.272865683 0.164453000 0.070208549
0.301328540 0.160278544 0.069829099
0.331688583 0.160278544 0.066793479
0.363567263 0.162808225 0.066666998
0.400885493 0.166223809 0.063883744
0.442251623 0.167741999 0.060468100
0.481720090 0.168248057 0.057685453
0.524098337 0.171410218 0.048956588
0.570524931 0.174446344 0.045161452
0.614927173 0.174067095 0.037950620
0.660088122 0.169513077 0.022390548
0.705629408 0.172548681 0.022390537
0.748766780 0.173560634 0.012017539
0.790512443 0.172422081 0.005566196
0.829348683 0.171789676 0.002909872
0.859835923 0.168754071 0.000000000
0.896014988 0.168501094 0.000000000
0.926375270 0.166982815 0.000758999
0.954711854 0.164958641 0.002023990
0.982922018 0.164326102 0.006831001
0.998102427 0.158254102 0.000759007
1.000000000 0.157495096 0.000000000
1.000000000 0.156736091 0.002782982
1.000000000 0.154459044 0.006578070
1.000000000 0.145350635 0.003542452
0.117140934 0.188108861 0.073497996
0.132321328 0.188108861 0.064389609
0.145983770 0.188108861 0.071853064
0.163188159 0.185831696 0.076154158
0.180771932 0.184060484 0.074256942
0.211131930 0.187096864 0.068184935
0.237444311 0.188108861 0.069196679
0.266793221 0.186970219 0.068943709
0.295636088 0.184946090 0.067172937
0.328652978 0.187602937 0.066793479
0.370651662 0.187602937 0.066666998
0.405060172 0.192156851 0.060594745
0.442251623 0.194307297 0.053637002
0.481720090 0.192536056 0.048577067
0.521189213 0.198608831 0.048577067
0.575585306 0.201771006 0.035041206
0.620619893 0.204807132 0.028462876
0.659835100 0.205692872 0.021631593
0.702593029 0.205945849 0.013282930
0.748134136 0.211764812 0.007716931
0.787476480 0.207337052 0.002530196
0.823909104 0.202782869 0.000506065
0.856799543 0.202150464 0.000000000
0.890195966 0.199114829 0.000000000
0.924098313 0.201138571 0.004553996
0.953700006 0.200379550 0.004048009
0.980012953 0.197849751 0.001012001
0.998102427 0.194686875 0.000759007
1.000000000 0.193927869 0.000000000
1.000000000 0.190385893 0.000000000
1.000000000 0.185325876 0.001012001
1.000000000 0.178747803 0.000506065
0.127766997 0.217457637 0.069449998
0.145477712 0.214927316 0.070461616
0.158507317 0.217078090 0.067805000
0.175838158 0.218722478 0.072106160
0.194687098 0.217457086 0.069070451
0.220746636 0.211890936 0.065148681
0.243516952 0.212396994 0.064136676
0.272485614 0.215686411 0.063883707
0.302972853 0.217583954 0.062365901
0.338140488 0.222391129 0.064136669
0.375205725 0.225047320 0.056546357
0.415686220 0.227071583 0.054522615
0.453510284 0.231498986 0.047565002
0.494623393 0.231751665 0.040733971
0.536369264 0.235547155 0.029348681
0.587855577 0.241619319 0.026944878
0.636306226 0.243263632 0.015306877
0.675015748 0.244655311 0.010246749
0.717520654 0.244655311 0.004933644
0.760278404 0.245161325 0.003668673
0.798229039 0.245541051 0.001391678
0.834029257 0.239721820 0.000000000
0.869070351 0.238330156 0.000126512
0.904870570 0.240101531 0.002530322
0.933712900 0.237065345 0.000253034
0.965211570 0.238203645 0.004174673
0.989626706 0.235294253 0.002024258
0.997722983 0.228209868 0.000000000
1.000000000 0.227830321 0.000000000
1.000000000 0.226059556 0.000000000
1.000000000 0.221632034 0.000000000
1.000000000 0.217204317 0.000000000
0.139911413 0.244528979 0.060088586
0.156483054 0.243137300 0.064769328
0.168753996 0.244402468 0.072232708
0.180897996 0.247438535 0.065907545
0.201770931 0.249715239 0.062112842
0.227324873 0.243137181 0.061606776
0.254016608 0.243263409 0.061100710
0.276913673 0.239974394 0.059456002
0.309550792 0.247564971 0.056420196
0.346868992 0.255407989 0.057684809
0.383301735 0.258570522 0.052371837
0.421758235 0.263250947 0.042378269
0.462365299 0.266287327 0.034788370
0.505123079 0.269323051 0.027198303
0.549019516 0.272359103 0.016192604
0.596204579 0.276154399 0.012270910
0.646299601 0.280708194 0.010752714
0.686654091 0.280834705 0.003922000
0.729158998 0.280834705 0.001897739
0.766730011 0.284123689 0.000000000
0.803541958 0.282226443 0.000000000
0.836938620 0.279190570 0.000000000
0.872865498 0.276154220 0.000000000
0.910816073 0.276154608 0.001518196
0.940417528 0.276281118 0.003289420
0.971916556 0.271853417 0.000253036
0.997722745 0.270841330 0.002277292
0.999620438 0.264009953 0.000379552
0.998355269 0.259582400 0.000000000
1.000000000 0.261100650 0.000000000
1.000000000 0.257179201 0.000000000
1.000000000 0.253383696 0.000000000
0.152056009 0.271853179 0.050221097
0.164958701 0.271853179 0.054016579
0.178114757 0.273244858 0.062112901
0.191524193 0.275522023 0.066666834
0.203288749 0.278937191 0.053383995
0.228336796 0.277040035 0.056040835
0.257432103 0.277545780 0.055787805
0.286021322 0.277166098 0.054143291
0.313346088 0.274130285 0.051865999
0.352814496 0.286274284 0.048829608
0.388614833 0.290449053 0.044275776
0.427830428 0.293991208 0.035167914
0.467678398 0.298924625 0.023403266
0.510183156 0.302467018 0.009740938
0.555218220 0.306514740 0.005187006
0.600758791 0.309551001 0.003922000
0.645540476 0.311828107 0.003922000
0.689184010 0.314231306 0.004554414
0.731435895 0.314231306 0.004680899
0.767109513 0.319038212 0.001138643
0.801264703 0.319417953 0.000000000
0.836179376 0.317141175 0.000000000
0.869449973 0.313978285 0.000126512
0.907020867 0.310309917 0.000759096
0.938140273 0.309551001 0.001518192
0.968880236 0.306768000 0.002530328
0.999746978 0.301707983 0.000000000
1.000000000 0.298924655 0.000000001
0.998102248 0.294750124 0.000000001
0.997090161 0.291714221 0.000759096
1.000000000 0.292093992 0.000000001
1.000000000 0.286021203 0.000000001
0.164200023 0.308285981 0.047185473
0.170272008 0.308285981 0.044149086
0.185325488 0.308285981 0.045793794
0.205692321 0.308412492 0.047944501
0.227577522 0.309298009 0.047311980
0.236685917 0.315370023 0.047311980
0.261733323 0.313472182 0.044908177
0.290828466 0.312333524 0.041998729
0.322453707 0.313598692 0.039721984
0.358886510 0.319671452 0.039721977
0.392536610 0.325996488 0.030866601
0.432131976 0.327894002 0.019987514
0.473371625 0.329285383 0.008981870
0.513219535 0.332827061 0.000632548
0.555724263 0.341935426 0.003668930
0.600758791 0.345983803 0.003921999
0.644781351 0.347501993 0.003921999
0.686147630 0.347628474 0.004554412
0.722580492 0.347628474 0.007590025
0.762049615 0.350411117 0.002150512
0.799367487 0.349778771 0.000000000
0.836685359 0.347755015 0.000000000
0.875521958 0.347375453 0.000126512
0.905882001 0.341302663 0.003162903
0.936622083 0.339911044 0.001518195
0.968247652 0.337128043 0.000126516
0.996710598 0.332068026 0.000000000
0.999746978 0.332068026 0.000000003
1.000000000 0.331941485 0.000000005
0.998102248 0.328146517 0.001771219
0.997090161 0.322454035 0.002909875
1.000000000 0.316381991 0.000000004
0.176344007 0.344718724 0.029601261
0.182415992 0.347627848 0.026565615
0.192789540 0.347627848 0.023529228
0.209487736 0.348893017 0.022517422
0.230866536 0.350537747 0.020493584
0.255154908 0.351549745 0.017963262
0.274383307 0.352561742 0.020493584
0.302593410 0.354838610 0.019861003
0.333712846 0.356609523 0.018090032
0.367994845 0.356229991 0.015939256
0.398608625 0.359392881 0.010120261
0.438077509 0.363441139 0.007084131
0.479443640 0.366603732 0.003036130
0.518912077 0.371663600 0.000000000
0.558759928 0.378115118 0.000379546
0.601264715 0.382415920 0.003415934
0.646299601 0.386970371 0.002403808
0.688930988 0.389753729 0.001012129
0.725363851 0.389753729 0.001771033
0.764579237 0.386970371 0.002024000
0.798355579 0.385957986 0.000000000
0.830740154 0.382922113 0.000000000
0.864516497 0.381024867 0.000000000
0.903225899 0.380518794 0.000253034
0.929031909 0.374446630 0.001012129
0.959519148 0.371789932 0.000000000
0.989373863 0.367741793 0.001011999
0.999620438 0.365338624 0.005818998
1.000000000 0.360024959 0.008475832
0.998228788 0.359518886 0.003415672
0.995192647 0.355723858 0.002783120
0.994180977 0.349651873 0.005818999
0.186464250 0.385199487 0.011385011
0.192536250 0.388235092 0.014421135
0.206957281 0.389120489 0.009361234
0.222896904 0.390385658 0.007590008
0.242251530 0.393042505 0.006072296
0.266286910 0.393042505 0.006325325
0.292599320 0.393042505 0.008349066
0.317141116 0.394686788 0.008096456
0.347122252 0.398861229 0.007717004
0.379253507 0.397090018 0.005945774
0.411764979 0.395825386 0.002024001
0.444149524 0.400885493 0.000000000
0.485515624 0.405060232 0.000000000
0.524984121 0.410626233 0.000000000
0.564452887 0.413156211 0.000000000
0.604300797 0.418848693 0.000379548
0.645287395 0.420366496 0.001897744
0.687286437 0.424161971 0.000000000
0.722328007 0.424161971 0.000000000
0.761543393 0.423402876 0.000000000
0.797216713 0.416572005 0.000000000
0.827704012 0.414294749 0.000000000
0.858317792 0.412397504 0.000000000
0.895888925 0.412397504 0.000000000
0.928020000 0.411891490 0.000000000
0.953700006 0.405819148 0.000000000
0.983302057 0.402150303 0.000000000
0.998481989 0.399114698 0.003035997
0.997975767 0.395445853 0.004427581
0.999746978 0.391144753 0.009234730
0.998102248 0.389120758 0.003162613
0.996204972 0.383048743 0.005819260
0.196711004 0.440227926 0.002276998
0.203921631 0.439848155 0.003795002
0.216318637 0.441871941 0.003542000
0.235799804 0.443137109 0.000000000
0.257811189 0.445034921 0.000379548
0.280581564 0.443516910 0.003415935
0.306893945 0.442378283 0.005313323
0.337634087 0.444022834 0.005060067
0.367236167 0.446299553 0.002783357
0.398355335 0.446299553 0.002783356
0.428210258 0.443390131 0.003289127
0.462745249 0.445287913 0.002276998
0.498418897 0.447944283 0.000000000
0.538140357 0.454016298 0.000000000
0.578494847 0.455787271 0.000000000
0.617963374 0.459455907 0.001138644
0.654016435 0.461353272 0.000000000
0.692852378 0.460720867 0.000000000
0.726755559 0.460214913 0.000000000
0.763441026 0.461353272 0.000000000
0.800252974 0.455661029 0.000000000
0.832637250 0.449589282 0.001012128
0.862745047 0.449083269 0.001012132
0.895129800 0.445034981 0.000000000
0.930423677 0.445034981 0.001138644
0.955977023 0.443390578 0.001138644
0.980772018 0.437823862 0.000632580
0.997722983 0.434788078 0.000000000
0.998481810 0.431752086 0.000000000
0.997849226 0.429854512 0.002403628
1.000000000 0.425047666 0.006704646
1.000000000 0.418722630 0.003922000
0.208096042 0.511828005 0.007590032
0.217204347 0.507274091 0.001771000
0.229475036 0.506641269 0.000000000
0.244655162 0.510183275 0.000253032
0.266919583 0.512081087 0.000379548
0.294243962 0.506009102 0.003415935
0.321568340 0.502972722 0.003668968
0.353573412 0.503225744 0.002530324
0.389500171 0.505503058 0.000000000
0.425933003 0.505503058 0.000000003
0.451233745 0.502846241 0.005312999
0.483365029 0.503352284 0.007337000
0.520935893 0.504111469 0.005819034
0.560152054 0.501075089 0.000000000
0.602656782 0.507147074 0.000000000
0.642251790 0.510815859 0.002403804
0.677672327 0.511321902 0.002403808
0.709045053 0.508285701 0.000000000
0.745477915 0.505250037 0.000000000
0.779380381 0.507273674 0.000505999
0.814421475 0.503478825 0.000253032
0.849083006 0.496901035 0.000759096
0.879443049 0.496648043 0.003668968
0.903984785 0.484756291 0.000759096
0.938899279 0.481720090 0.002277288
0.969892263 0.480075717 0.004174968
0.986084998 0.477039993 0.003415936
0.998228967 0.474003613 0.000379552
0.999494016 0.470714867 0.000000000
1.000000000 0.468690991 0.001518185
1.000000000 0.467299432 0.003668968
1.000000000 0.458191037 0.003668968
0.211132422 0.536116004 0.004554423
0.220240027 0.548260748 0.001518035
0.240101129 0.541556001 0.000000000
0.256799400 0.542567968 0.001265161
0.273118079 0.548513830 0.003289416
0.303352326 0.542441845 0.003415935
0.330676705 0.543959498 0.001391678
0.361290097 0.545730531 0.002277292
0.394560188 0.548007786 0.002530320
0.425933003 0.548007786 0.000000000
0.456546754 0.548007786 0.000000001
0.487666249 0.545350969 0.001265006
0.523972034 0.543579996 0.002403650
0.563187659 0.540544212 0.003036384
0.599620342 0.537507832 0.000000000
0.634914339 0.541176617 0.002403804
0.671093941 0.544212639 0.002403808
0.705629110 0.544718444 0.000000001
0.739405155 0.541682780 0.000000006
0.775837898 0.538646460 0.005566003
0.809740782 0.538772821 0.004680738
0.843770087 0.534851372 0.002277288
0.876407385 0.530044377 0.000632584
0.906767428 0.523972392 0.000632584
0.935863137 0.521189213 0.002277288
0.969512641 0.518406212 0.005313317
0.994180560 0.513472736 0.006198579
0.995192587 0.510436416 0.000379552
0.994054437 0.504743814 0.000000000
0.996963918 0.497533202 0.000000000
1.000000000 0.494749993 0.000632584
1.000000000 0.497659385 0.000632584
0.218975186 0.570018589 0.001518196
0.228083417 0.579759538 0.000885613
0.245793566 0.583301783 0.004300999
0.267299324 0.580012739 0.002276996
0.283618152 0.584946454 0.001897744
0.311954647 0.578873992 0.003922000
0.337381303 0.582796037 0.001391678
0.363061398 0.582542658 0.000000000
0.393421799 0.583301783 0.001518196
0.423782200 0.583301783 0.000126516
0.458949953 0.585705578 0.000000000
0.491334438 0.581657052 0.000000000
0.525869489 0.579379797 0.000000000
0.563820064 0.577609003 0.001518196
0.600252807 0.574573159 0.000632584
0.636685550 0.576343775 0.002403804
0.670081973 0.576344192 0.002403808
0.705629110 0.576344013 0.000000000
0.740796804 0.573307931 0.000000002
0.776976526 0.575079203 0.000759009
0.811511517 0.570145547 0.003036004
0.843896449 0.567109585 0.001518196
0.875648499 0.561164021 0.000000000
0.903731823 0.557368755 0.000000000
0.938646376 0.553573489 0.000000000
0.969259739 0.550663948 0.002909868
0.996584058 0.545098066 0.005439809
0.998481810 0.542062163 0.003162811
0.998228848 0.536369622 0.002403804
0.996963978 0.532068372 0.004174569
1.000000000 0.527767181 0.003036004
1.000000000 0.532321393 0.000000000
0.228083193 0.603415370 0.000000000
0.235673383 0.615559757 0.000000000
0.250347763 0.616698205 0.001265002
0.271600157 0.617963374 0.004807003
0.291208357 0.620620191 0.000758999
0.318532735 0.616824687 0.004933740
0.344844997 0.617836833 0.001391678
0.369133413 0.620493650 0.000000000
0.396458179 0.618216395 0.000000000
0.428336412 0.618216395 0.000000000
0.461479723 0.619608045 0.000000000
0.495888650 0.618089855 0.000000000
0.528146327 0.614294350 0.001138644
0.563820064 0.614041388 0.001771160
0.600252807 0.611005783 0.003035997
0.635167360 0.609740615 0.002403804
0.674636185 0.611258388 0.002403808
0.707400143 0.608855188 0.000000000
0.742061973 0.606704414 0.000000000
0.775458694 0.606198728 0.000000000
0.809993684 0.606578350 0.000000000
0.842378259 0.599494219 0.001012128
0.872865438 0.593169153 0.001518192
0.902972877 0.591524422 0.001518192
0.935610354 0.583934307 0.000000000
0.967868447 0.580897927 0.000000000
0.994560063 0.575458348 0.002403808
0.999620438 0.572422445 0.002403808
1.000000000 0.565212190 0.003922000
0.998481810 0.562429130 0.002656768
0.999367416 0.560278356 0.005692611
1.000000000 0.562682152 0.001518192
0.238456562 0.635673523 0.000000000
0.244528562 0.648956537 0.000632576
0.256419748 0.652498364 0.000000000
0.274130136 0.651359677 0.000632576
0.294623524 0.654396117 0.000632576
0.320935935 0.654649138 0.006198584
0.346995324 0.654649138 0.002783001
0.373940408 0.654649138 0.000000000
0.400000185 0.654649138 0.000000000
0.436432987 0.654649138 0.000000000
0.467678577 0.653384149 0.000000000
0.500063181 0.651992440 0.000000000
0.534218967 0.650094688 0.000506068
0.564832091 0.649841666 0.003289424
0.600885391 0.646805942 0.005945586
0.634281754 0.644402325 0.004807233
0.670334995 0.642884135 0.003036384
0.712207139 0.642251551 0.000000001
0.742568016 0.642251551 0.000000001
0.774193704 0.639468908 0.000000001
0.805819273 0.637065530 0.000000000
0.838203669 0.635294378 0.001012129
0.868437886 0.626186013 0.003795489
0.900822341 0.624667943 0.003289424
0.934218884 0.617457509 0.002277288
0.964199662 0.609487891 0.000632577
0.989500046 0.606451631 0.000126512
0.998861432 0.603415251 0.000000000
1.000000000 0.596331358 0.002024256
0.998861372 0.590638936 0.002150783
0.996963620 0.590006530 0.000885608
1.000000000 0.590006530 0.003922000
0.253637016 0.675141990 0.000000000
0.259709001 0.681214809 0.003036384
0.270081997 0.685895264 0.001518193
0.286274195 0.687159956 0.001265160
0.306767583 0.687792540 0.003668965
0.321947962 0.690829039 0.003668965
0.343200356 0.691082001 0.001644644
0.369892418 0.691082001 0.000000000
0.399747223 0.691082001 0.000000000
0.430361003 0.691082001 0.000000000
0.463883877 0.685262978 0.000000000
0.497027248 0.683745027 0.000000000
0.532700658 0.683491945 0.000000000
0.570904136 0.683238924 0.000253032
0.604301274 0.680202544 0.000253032
0.635546982 0.679570019 0.000506004
0.667678595 0.679316998 0.001771227
0.703099489 0.678684413 0.003036390
0.742568016 0.675647974 0.000000003
0.778494716 0.672865391 0.000000003
0.810626447 0.667931974 0.000000002
0.841239929 0.663377881 0.001012129
0.871473551 0.659582496 0.003795491
0.898797929 0.650474072 0.000759100
0.931182861 0.646679342 0.002530319
0.960404932 0.642884314 0.003668967
0.983428001 0.639848113 0.003162907
0.998608410 0.636812449 0.000126520
1.000000000 0.633776128 0.000000000
1.000000000 0.626691818 0.000253032
0.999746978 0.620113730 0.000885608
1.000000000 0.617331028 0.003921997
0.271600008 0.736875057 0.000000000
0.280455381 0.737381160 0.000253031
0.288678169 0.741303146 0.001138643
0.301454872 0.741808951 0.000000000
0.320050716 0.739911258 0.001138643
0.342441320 0.738140702 0.001138643
0.362681687 0.736116409 0.001138643
0.387223065 0.734219074 0.000000000
0.416445196 0.733080745 0.000000000
0.446805984 0.733080745 0.000000000
0.480075866 0.738393724 0.000000000
0.513472259 0.732321739 0.000000000
0.545730293 0.728526473 0.000000000
0.579759419 0.725490093 0.000000000
0.613155901 0.727514327 0.000000000
0.653763235 0.724477947 0.004806995
0.684123516 0.722580552 0.002530007
0.714990318 0.721315742 0.001138643
0.750158370 0.720430076 0.000253035
0.786844075 0.717393696 0.002783357
0.819481373 0.712460339 0.000885617
0.850854039 0.707400501 0.002023998
0.883112192 0.704238057 0.006578167
0.915749609 0.697785795 0.003542453
0.938519955 0.688678026 0.000506069
0.968500972 0.686021745 0.003921633
0.992030025 0.682859063 0.005692649
0.998102427 0.672992170 0.000379552
1.000000000 0.669955909 0.000000000
0.998228788 0.665148735 0.000000000
0.998102248 0.658823490 0.000000000
1.000000000 0.655787408 0.001138643
0.278430998 0.770271719 0.000000000
0.285642147 0.770271719 0.005692737
0.300442785 0.776217461 0.000000000
0.307020843 0.776723564 0.000000000
0.321189165 0.774446309 0.000000000
0.346995741 0.774446666 0.000000000
0.372549057 0.771410406 0.000000000
0.397090435 0.770018756 0.001644708
0.422896832 0.767995000 0.001138645
0.449842006 0.767995000 0.000000001
0.481214613 0.770018995 0.001897740
0.516508222 0.769892752 0.000000000
0.549904883 0.764959097 0.002276998
0.581277788 0.760151446 0.003542029
0.614674151 0.761543155 0.001897740
0.647691369 0.761669636 0.001011999
0.687159717 0.758633673 0.004048004
0.716887712 0.755597889 0.000000000
0.750284910 0.754332721 0.000000002
0.788361967 0.755344868 0.000885617
0.820999742 0.750410676 0.002024260
0.851359725 0.744338691 0.000000000
0.883871078 0.740290999 0.004048004
0.917267919 0.734218657 0.002783163
0.941556275 0.729664743 0.005439708
