Assets/EldamarStudio/100 Retro LUTs Pack/LUTs/cube/Sherry LUT.cube
DOMAIN_MIN 0 0 0
DOMAIN_MAX 1 1 1
LUT_3D_SIZE 32
0.149020001 0.105881996 0.090195999
0.167236000 0.102846384 0.093232386
0.189753547 0.101961002 0.096268229
0.215307161 0.101961002 0.096774161
0.243770093 0.101581454 0.094497450
0.280202866 0.098545067 0.097533062
0.316634983 0.098039001 0.098039001
0.349778384 0.094750002 0.096394710
0.381657183 0.090195999 0.093358904
0.418089986 0.090195999 0.090322517
0.454522729 0.093105868 0.087286867
0.492979258 0.090070002 0.084250741
0.538140297 0.086274996 0.084629998
0.591777086 0.085768931 0.089436971
0.634281754 0.079696171 0.080328591
0.679190338 0.076027811 0.080834806
0.723213375 0.074510001 0.080834813
0.765718102 0.074510001 0.078431003
0.808223009 0.074509993 0.078431003
0.842378438 0.071726643 0.078431003
0.879569709 0.072485738 0.074636005
0.913978279 0.075521871 0.070588000
0.938646495 0.078557514 0.070335008
0.972042918 0.081593908 0.064262994
0.991777301 0.084630288 0.067298993
1.000000000 0.086274996 0.070588000
1.000000000 0.087792933 0.071094066
1.000000000 0.096900538 0.074130446
1.000000000 0.106008820 0.079822987
0.998228788 0.113345981 0.084124215
0.996963620 0.118532605 0.087160379
1.000000000 0.121569000 0.090195999
0.152055621 0.130170777 0.093232386
0.161164016 0.124098763 0.093232386
0.192283556 0.125363618 0.096268229
0.218849167 0.123718999 0.096774161
0.243390545 0.119797543 0.094497450
0.277166486 0.116761841 0.097533062
0.308539242 0.118785448 0.098039001
0.345604062 0.119291380 0.094750002
0.380139202 0.116002388 0.091840707
0.412018001 0.111448392 0.093358904
0.454269737 0.117267385 0.096141517
0.495003492 0.114358008 0.091334619
0.537761033 0.111701638 0.087286651
0.585958123 0.113346353 0.086907357
0.631246150 0.110056944 0.083364978
0.676154137 0.108791776 0.079063587
0.720176995 0.107906386 0.077798814
0.762049317 0.106641397 0.074762814
0.802151024 0.101834387 0.072359003
0.841872454 0.107400388 0.072359003
0.871979773 0.105123036 0.068564005
0.906894147 0.105882131 0.065528132
0.941302657 0.108791776 0.067678869
0.965970933 0.108918294 0.070334993
0.987981975 0.109677389 0.068816997
0.998355269 0.114737660 0.070588000
0.999493957 0.119671382 0.070082068
0.996963620 0.121189311 0.068058446
0.996963620 0.124983922 0.076407149
0.995192826 0.131561980 0.077545851
0.994813323 0.136748612 0.082479581
1.000000000 0.139784992 0.096267998
0.152941003 0.148007780 0.094117999
0.170651391 0.146236777 0.094117999
0.188361779 0.148766771 0.094117999
0.222264558 0.148007557 0.095888771
0.246552989 0.142694548 0.093359001
0.274636179 0.141429707 0.091081835
0.307653636 0.139152452 0.093737997
0.342947692 0.140543774 0.092093706
0.380898088 0.140543774 0.088804670
0.412650228 0.137254775 0.091840707
0.452498734 0.140670553 0.092726126
0.492979258 0.144718289 0.091714256
0.536496162 0.140164420 0.085768484
0.582036793 0.140923768 0.081720479
0.627577424 0.139785141 0.078684583
0.677419543 0.139152557 0.077798970
0.716887951 0.137634367 0.074762583
0.758127689 0.137001783 0.071726814
0.800632954 0.133965775 0.068690799
0.840101421 0.134724781 0.068437770
0.875774741 0.137001783 0.068437770
0.903605103 0.135230541 0.063883647
0.938013494 0.136875302 0.064389743
0.964326084 0.134851545 0.063377872
0.986211002 0.139152557 0.066286996
0.996078014 0.139152557 0.066286996
0.998355269 0.144465774 0.067805059
0.998608351 0.144465774 0.071347460
0.993927777 0.147121936 0.068184920
0.997469783 0.151928753 0.080834955
0.996457994 0.156229764 0.080961771
1.000000000 0.158000991 0.091587774
0.155470997 0.170778155 0.094117999
0.175458550 0.169513002 0.092852838
0.197975770 0.170019165 0.092852838
0.221758157 0.174826011 0.092852838
0.251739472 0.169133544 0.092852838
0.276913345 0.168248162 0.088551834
0.308791965 0.168247834 0.091334678
0.341682523 0.166856155 0.092346549
0.379633129 0.166097254 0.087792933
0.413029701 0.165591329 0.088804677
0.450980604 0.168500870 0.087665997
0.492979258 0.171537071 0.086907096
0.535863280 0.173434317 0.082732834
0.581530929 0.170525119 0.076913133
0.627071559 0.169513002 0.073877260
0.674889207 0.170778155 0.074510001
0.718659163 0.171790302 0.070461810
0.752055526 0.168753922 0.068057999
0.795066655 0.168121323 0.065654807
0.837571442 0.169386476 0.064136997
0.870714724 0.168121323 0.062871836
0.904111087 0.166097328 0.062871836
0.931941509 0.165844321 0.060467992
0.959265888 0.166224062 0.060847737
0.984566271 0.167489156 0.063630708
0.997343183 0.166982993 0.061480161
0.996331155 0.167489052 0.061986092
0.997090459 0.168248162 0.069576278
0.997217000 0.169639483 0.070461854
0.995698988 0.173181146 0.071727015
1.000000000 0.178367764 0.086907424
1.000000000 0.178747311 0.088804998
0.161922559 0.203415543 0.093738452
0.180139214 0.201517701 0.092220157
0.201517999 0.197722867 0.089816548
0.227071151 0.197216928 0.090195999
0.253636539 0.200632095 0.089437000
0.280961692 0.197596490 0.089437000
0.313725770 0.198861316 0.094117552
0.346236527 0.199873090 0.096900553
0.376976311 0.199493647 0.095382549
0.410373479 0.196458027 0.086274929
0.447438747 0.199240759 0.084124133
0.488804698 0.202276811 0.081973456
0.535483837 0.204554096 0.080076002
0.583554626 0.204554096 0.074256971
0.628969193 0.201644227 0.071220584
0.674889326 0.203794912 0.072232805
0.715875804 0.206451744 0.069196813
0.752435088 0.208222970 0.062365547
0.785831571 0.205186576 0.062365539
0.829222083 0.207337350 0.059203256
0.863757193 0.206198812 0.056546710
0.892726123 0.202909559 0.054143000
0.925996006 0.197090551 0.054395992
0.953573465 0.202656552 0.060467999
0.980897844 0.203795090 0.066539995
0.997469664 0.200379431 0.066034146
0.999746978 0.192915604 0.059329934
0.993674994 0.195951998 0.062365543
0.997469962 0.195952088 0.067298986
1.000000000 0.197343409 0.071600221
1.000000000 0.199999705 0.077040046
1.000000000 0.203036100 0.092220455
0.171030924 0.230739936 0.090702064
0.189246938 0.236811936 0.099810451
0.205312833 0.230613634 0.091840938
0.227071151 0.227577701 0.088045776
0.253636539 0.230992869 0.089437000
0.274888903 0.237064868 0.083365001
0.309803754 0.234029248 0.085895315
0.345730484 0.232005090 0.087792933
0.379633129 0.230233863 0.087033838
0.410373479 0.229854405 0.083238557
0.452498734 0.232637793 0.088678069
0.489942968 0.235673547 0.083111748
0.532447577 0.238709569 0.077798717
0.580518961 0.240986869 0.074256971
0.623023689 0.240986869 0.071220584
0.670841634 0.245287806 0.068184808
0.712839901 0.247817874 0.063124806
0.749904752 0.247691348 0.056546576
0.788867950 0.244654953 0.059329927
0.825047672 0.244401917 0.053763222
0.859203041 0.241112992 0.051992133
0.889057338 0.237570941 0.050474197
0.919924021 0.236558929 0.048323993
0.950284839 0.236558929 0.054396000
0.977862179 0.235294223 0.060467996
0.995445907 0.232764184 0.060974006
1.000000000 0.229221866 0.056420062
0.999746978 0.229348391 0.062365543
0.998987973 0.227071762 0.062744997
1.000000000 0.226312861 0.065528214
1.000000000 0.226818800 0.069449991
1.000000000 0.227324873 0.077040069
0.175079316 0.273244947 0.085136004
0.190764993 0.271726638 0.089184381
0.213282540 0.275648415 0.089690223
0.233396634 0.271853626 0.082479522
0.259835631 0.273244947 0.082226232
0.287539244 0.275015950 0.078304999
0.318911642 0.278557628 0.084883317
0.353700101 0.277166307 0.081341296
0.390006423 0.275774628 0.079443581
0.425679982 0.275774628 0.079949200
0.467678726 0.276154160 0.075521685
0.506135523 0.277166307 0.079569936
0.547121942 0.281973273 0.074762680
0.595193088 0.287539631 0.071220711
0.637697756 0.287539631 0.063630909
0.682605743 0.289942831 0.060594521
0.729538262 0.292852312 0.057558488
0.769639134 0.292219907 0.051106684
0.809107959 0.289183974 0.048450317
0.843264043 0.286400646 0.045667611
0.875901341 0.286400646 0.045287583
0.903225482 0.281593621 0.045919999
0.928905487 0.278431147 0.044528678
0.956862509 0.276027948 0.045793679
0.978115261 0.276027948 0.056420248
0.994939983 0.271853656 0.061606634
1.000000000 0.267678916 0.060973998
1.000000000 0.265654653 0.067045994
1.000000000 0.265528172 0.072865002
0.998228788 0.264263332 0.076407433
0.998355269 0.264263332 0.084630288
1.000000000 0.264263332 0.097280316
0.179759994 0.312207699 0.079064004
0.194940031 0.312460303 0.083744675
0.213282540 0.313725471 0.079190515
0.237571314 0.315496683 0.074889295
0.262618989 0.315496683 0.071853004
0.292978972 0.315496683 0.070082232
0.325869322 0.316382080 0.078810900
0.359266102 0.317773402 0.076407589
0.392663091 0.318532497 0.069576293
0.430360526 0.319418103 0.071726523
0.472738743 0.319418103 0.070967712
0.512839735 0.321062386 0.062744848
0.551549554 0.322201014 0.064642593
0.599367380 0.329791367 0.061859302
0.646046758 0.331182688 0.054143015
0.689310491 0.331941605 0.049842201
0.733333111 0.334977597 0.046805814
0.776217520 0.333839118 0.043769591
0.813662052 0.329791367 0.038709711
0.852498353 0.328399748 0.037065357
0.882353008 0.325616419 0.034535263
0.912713289 0.325616419 0.037571132
0.936116219 0.320809394 0.038456708
0.963440597 0.316255599 0.041492712
0.983933866 0.312207699 0.045667160
0.995192945 0.312207699 0.056420248
1.000000000 0.306641698 0.059962068
1.000000000 0.302466989 0.064895712
1.000000000 0.298798412 0.074256696
0.999873519 0.298798412 0.080328725
0.997722745 0.298798412 0.087286890
1.000000000 0.298798412 0.103226006
0.183554903 0.347881198 0.070714906
0.201771289 0.352434993 0.077546000
0.216824993 0.353193879 0.071347229
0.239089310 0.355724186 0.067299090
0.264516532 0.356103718 0.061986092
0.295256078 0.356483281 0.061986092
0.325110406 0.355724186 0.067551903
0.359266102 0.356483281 0.069575906
0.393422186 0.356483281 0.059708998
0.426818639 0.359519690 0.059708998
0.468943834 0.360405087 0.059582677
0.510183275 0.363187909 0.054016490
0.551549375 0.364705831 0.044908006
0.593801141 0.367995203 0.044908006
0.643390119 0.371536851 0.039848011
0.688551545 0.371410191 0.036179617
0.729538381 0.372169286 0.033143811
0.772043109 0.373940706 0.031372420
0.805819094 0.367995203 0.028589776
0.843769789 0.366730094 0.029854808
0.878304720 0.364832550 0.029475259
0.905123234 0.360531181 0.028463123
0.935863495 0.360404670 0.031246485
0.965717912 0.354965091 0.035420902
0.986970067 0.349652171 0.039974708
0.997469664 0.345604092 0.046552561
1.000000000 0.344592094 0.056167029
1.000000000 0.338520110 0.059962448
1.000000000 0.334725201 0.068690881
1.000000000 0.330677003 0.078811079
1.000000000 0.329158992 0.088045597
1.000000000 0.329158992 0.097153991
0.180518508 0.390385985 0.055534497
0.207842872 0.399494380 0.064642876
0.221758276 0.397596419 0.056420207
0.240101323 0.395698667 0.051613145
0.270588547 0.398608536 0.058950465
0.303984940 0.401644915 0.058950465
0.327134818 0.399494171 0.053889822
0.357115895 0.399873704 0.051865496
0.393422186 0.402024478 0.050600596
0.429855019 0.402024478 0.047564976
0.471980214 0.405060112 0.038836114
0.514484465 0.409993529 0.032258019
0.558000922 0.412523657 0.025932988
0.602909565 0.410500020 0.020619990
0.642377853 0.416572005 0.020619990
0.687159896 0.415306687 0.017963188
0.728020370 0.413915008 0.014927221
0.765971124 0.413409114 0.013156412
0.808476031 0.410373479 0.016192028
0.836685836 0.407210648 0.021758026
0.868437707 0.404301256 0.025679760
0.898545265 0.399241328 0.028463114
0.923719466 0.390765488 0.031246474
0.963187933 0.387729108 0.028210085
0.988488257 0.384566784 0.032384500
0.999873459 0.381404310 0.041112971
1.000000000 0.377988517 0.053130638
1.000000000 0.371916533 0.065275401
1.000000000 0.373814344 0.069070145
1.000000000 0.371157587 0.077798925
1.000000000 0.365338027 0.091461450
1.000000000 0.359519035 0.109297991
0.180391997 0.435799867 0.031625263
0.196078390 0.441999137 0.034914654
0.214800775 0.446805984 0.037571263
0.235547155 0.444275767 0.031245969
0.267172694 0.444023073 0.032637391
0.295509070 0.447058797 0.032637391
0.331435770 0.450095177 0.022517394
0.362808406 0.449462593 0.020619839
0.399241179 0.451233655 0.020367004
0.435673982 0.453383863 0.015180618
0.472106725 0.450474739 0.015054135
0.516635239 0.453510344 0.009993749
0.558886468 0.456419736 0.007084131
0.600632191 0.455407858 0.005060132
0.642757356 0.456166834 0.005060132
0.682226360 0.459835678 0.005060132
0.726755142 0.456293643 0.004048002
0.766729832 0.452878028 0.004301121
0.802403986 0.449841827 0.009614028
0.836559415 0.446806222 0.004300998
0.864136755 0.441872150 0.006072003
0.893485129 0.435800135 0.008096259
0.919797659 0.426945210 0.011132613
0.948134065 0.423908830 0.013662226
0.978494406 0.423149735 0.022011124
0.995445848 0.417963207 0.032131463
1.000000000 0.411384881 0.045287870
1.000000000 0.405312896 0.062239021
1.000000000 0.401897728 0.063757129
1.000000000 0.400885671 0.073624179
1.000000000 0.395951748 0.086021736
1.000000000 0.389879733 0.098166004
0.174319744 0.487413019 0.011385011
0.193548128 0.489437282 0.012397142
0.210752770 0.493358731 0.013282755
0.229727983 0.496394664 0.013282755
0.261606395 0.494876951 0.011764559
0.295509189 0.494623572 0.013409268
0.326375365 0.497659802 0.009361006
0.366097122 0.497406781 0.005439712
0.403288901 0.497786313 0.007717004
0.439721704 0.500822246 0.004175000
0.476154447 0.500063360 0.005945740
0.514611006 0.497027218 0.001897744
0.560151696 0.500063121 0.000000000
0.601138353 0.500948727 0.000253032
0.640101075 0.500948727 0.002024256
0.684250116 0.497280329 0.002024256
0.720683277 0.498798519 0.000506064
0.762302160 0.493105918 0.000632576
0.797090411 0.487286538 0.005313257
0.828463137 0.482226610 0.004301252
0.859962165 0.475395501 0.000126516
0.887413144 0.470208615 0.000000000
0.914737523 0.463251472 0.002150736
0.942061901 0.458317339 0.007084098
0.971410573 0.457558244 0.014927251
0.991777301 0.454775274 0.031245904
1.000000000 0.446299583 0.043263994
1.000000000 0.438709766 0.052371986
1.000000000 0.433269829 0.064769253
0.998228788 0.430234224 0.068311237
0.997975767 0.427197903 0.081846990
0.997975767 0.422264248 0.092093743
0.162934646 0.550031900 0.000000000
0.183048397 0.550031900 0.000000000
0.206704557 0.551043808 0.001138644
0.229727983 0.552941084 0.000000000
0.255913645 0.555218339 0.000000000
0.295382798 0.552181959 0.002277291
0.330676645 0.553067625 0.001391678
0.366476685 0.553953171 0.001644708
0.408222377 0.551675916 0.003922000
0.445034623 0.554332733 0.003922001
0.484882712 0.553320885 0.004554131
0.521062493 0.552435279 0.003795004
0.565084934 0.550537527 0.001138644
0.610373080 0.552814901 0.000885612
0.648576856 0.551043868 0.002150772
0.689943075 0.547375262 0.002783356
0.728272915 0.542062283 0.002403808
0.762302458 0.540164709 0.000000001
0.798734665 0.531056285 0.002530326
0.828462720 0.524731278 0.005060354
0.861100435 0.515623152 0.002024260
0.889437258 0.507526934 0.001012128
0.916635156 0.504111767 0.001771109
0.943959534 0.497027099 0.010878997
0.967868567 0.494370282 0.021505278
0.989879966 0.492725909 0.032764282
1.000000000 0.486147881 0.053004574
1.000000000 0.477040082 0.056166992
1.000000000 0.470588267 0.069449797
0.999367416 0.465148509 0.081593968
0.995445669 0.463883668 0.089437194
0.994939625 0.461353272 0.101581275
0.148260966 0.621631980 0.000000000
0.167489037 0.621631980 0.000253032
0.193042487 0.621885002 0.001897742
0.223909006 0.622644067 0.002656839
0.254901648 0.622264504 0.000000000
0.294370800 0.619228125 0.000000000
0.334092289 0.618469119 0.000253032
0.373814046 0.618469119 0.001391676
0.413789093 0.618469119 0.003668968
0.453257501 0.618469119 0.003668966
0.498038858 0.615812957 0.001265161
0.535736740 0.614295006 0.000000000
0.575205624 0.614295006 0.000885612
0.626059055 0.614295065 0.003922000
0.668563724 0.608223021 0.000885616
0.708665311 0.604554296 0.000000000
0.744339049 0.600000083 0.000000000
0.775205135 0.593295515 0.000000001
0.811637998 0.584187090 0.000000007
0.840227365 0.577356040 0.005566004
0.872738481 0.567995071 0.004048004
0.905882239 0.557875037 0.001012128
0.930171013 0.551676571 0.004174992
0.957368910 0.542568147 0.018975135
0.976091266 0.538013816 0.034408279
0.989879966 0.534724712 0.048703335
0.999746978 0.530929983 0.062112965
0.999746978 0.521821678 0.077292562
0.999494016 0.515370131 0.092219807
1.000000000 0.509551048 0.105881989
0.998735011 0.505123377 0.117267206
0.992662966 0.508159041 0.129411995
0.139152586 0.645919979 0.000000000
0.169513360 0.645919979 0.003036387
0.186590642 0.648070753 0.001138642
0.213788494 0.653004527 0.000632584
0.248576656 0.658697248 0.000000000
0.282226801 0.655660868 0.000000000
0.324225008 0.652625144 0.002530322
0.366097003 0.651866257 0.001644708
0.408728451 0.651866257 0.000632584
0.453257501 0.651866257 0.000632585
0.492725879 0.651866257 0.003542454
0.531435490 0.647185326 0.001265160
0.569512844 0.644654989 0.000000000
0.613915086 0.644654989 0.000885616
0.656419754 0.644654930 0.003922000
0.696520805 0.640986741 0.000885612
0.735989690 0.636432827 0.000000000
0.771030962 0.629728258 0.000000001
0.799494028 0.620619833 0.000000007
0.833143473 0.608728826 0.005566004
0.863377452 0.601644814 0.004048004
0.896015167 0.594307542 0.001012128
0.927134633 0.588108480 0.004174992
0.951423407 0.579000831 0.010247002
0.974067271 0.574446559 0.027324418
0.989879966 0.570018828 0.044908330
0.999493957 0.564579427 0.062871993
0.996710598 0.558254421 0.086400941
0.994054437 0.551802874 0.098924384
0.996963918 0.547501624 0.113472171
1.000000000 0.542061806 0.124478012
0.998735011 0.535483420 0.129411995
0.137254998 0.679822564 0.004806995
0.145983368 0.677419424 0.000632583
0.191397905 0.679569662 0.001518196
0.213409126 0.683870733 0.002529999
0.244149342 0.690322518 0.004047996
0.273497999 0.687286615 0.000000000
0.314484805 0.686654091 0.002530322
0.356989205 0.685262799 0.002277292
0.398734897 0.684503734 0.000000000
0.440986693 0.682859004 0.000000001
0.483111858 0.682859004 0.000506066
0.522580266 0.680835307 0.001518196
0.560531139 0.675142407 0.001138644
0.601771057 0.672612429 0.002150772
0.644275784 0.672612429 0.000885612
0.684376776 0.672612369 0.001518196
0.722327352 0.669576406 0.000000000
0.761543334 0.664389789 0.000000000
0.797723055 0.657052577 0.000000002
0.825806439 0.647564769 0.000759009
0.855407774 0.641113579 0.003036004
0.882226348 0.633523285 0.000000000
0.910309672 0.624667585 0.001644708
0.945983827 0.617836654 0.005440006
0.970271945 0.608728468 0.018342704
0.987476170 0.604047775 0.039215516
0.998102248 0.597469807 0.059456192
0.998861372 0.589500606 0.079949170
0.998228848 0.583428025 0.100821972
0.996963978 0.579127252 0.116508394
0.997343421 0.576090991 0.133206785
0.992789209 0.570018589 0.143832982
0.131182998 0.713219345 0.004807003
0.143326998 0.710183382 0.001771000
0.165591329 0.711448610 0.003035997
0.212144166 0.713219345 0.000505998
0.239215896 0.718405843 0.005186551
0.269955933 0.717646897 0.002530193
0.308412462 0.715623140 0.001012130
0.349399418 0.715623140 0.003795484
0.390386015 0.714864075 0.000759096
0.429095328 0.711827695 0.000000001
0.469955742 0.711701155 0.001518192
0.511954427 0.711195290 0.001518192
0.550284505 0.707020998 0.001518192
0.589627087 0.701454997 0.003922000
0.632131815 0.701454997 0.002150776
0.670714617 0.701454997 0.001518192
0.710183382 0.701454997 0.000000000
0.747248530 0.697786212 0.000000001
0.788867831 0.691714168 0.000000001
0.822011352 0.682858825 0.001518192
0.849335730 0.674509943 0.000000000
0.879696250 0.670462191 0.000000000
0.903478682 0.659329534 0.000000000
0.934598505 0.650474191 0.001644712
0.962681770 0.645161271 0.015306698
0.982795417 0.637444556 0.029095335
0.994560063 0.630866528 0.053384066
0.999620438 0.621758640 0.074636176
1.000000000 0.613788724 0.095508993
0.998481810 0.612523615 0.116508394
0.998481810 0.607716799 0.133839592
0.991271019 0.603415370 0.151423201
0.120303854 0.741682529 0.000000002
0.144086376 0.739911139 0.000000002
0.165338755 0.741808891 0.003036010
0.192283586 0.744212508 0.007210567
0.232131511 0.743453503 0.001138567
0.269070268 0.745730221 0.003415934
0.306135327 0.744338870 0.001391678
0.345603973 0.743580103 0.001012132
0.383681625 0.742821038 0.003162904
0.420113623 0.739784658 0.000126518
0.460721046 0.739025533 0.002277295
0.501581490 0.738393128 0.003289424
0.543074250 0.737381101 0.003289424
0.579254031 0.731562078 0.003289424
0.620620191 0.731182516 0.003289424
0.658317566 0.730550110 0.003922000
0.695635378 0.730550110 0.003036384
0.735104561 0.729917526 0.000000001
0.774573028 0.723845541 0.000000003
0.810626149 0.716887772 0.002150781
0.843896329 0.708412290 0.002024261
0.871726692 0.700316548 0.000000004
0.907653451 0.693865001 0.000126517
0.929411948 0.681214333 0.000632584
0.952941000 0.675268829 0.011132015
0.976217210 0.669576526 0.030992748
0.989879608 0.664516568 0.044149540
0.998861432 0.655787706 0.071094431
1.000000000 0.647311926 0.094370790
0.998228788 0.641492784 0.115623154
0.996078014 0.642251968 0.135104597
0.996078014 0.633143544 0.150285006
0.114231110 0.762935042 0.000000010
0.147628263 0.765970647 0.000000013
0.171410799 0.770651579 0.000000012
0.196458027 0.775205851 0.004301164
0.229095146 0.776849985 0.010246963
0.271599919 0.770778000 0.004174966
0.303478688 0.770524979 0.001391679
0.339531720 0.771916747 0.000000002
0.377482384 0.773181915 0.000253032
0.411006033 0.770145535 0.000126518
0.456166863 0.767109156 0.000000003
0.497153789 0.764326334 0.000253034
0.538014233 0.762682021 0.000253032
0.579254031 0.761922956 0.000253032
0.612650394 0.758886576 0.000253032
0.649209559 0.756103814 0.002656834
0.685641885 0.754839003 0.003921998
0.722959757 0.754206419 0.003036392
0.762428999 0.751170039 0.000000003
0.796331406 0.750664055 0.000000004
0.833776295 0.746109962 0.000253037
0.867172956 0.739785016 0.000000012
0.892473102 0.733333468 0.000126537
0.916761875 0.718153119 0.003162944
0.940797031 0.710056961 0.005945728
0.967868328 0.701454997 0.024161670
0.992915988 0.691841066 0.053257197
0.998987973 0.691841066 0.071473964
1.000000000 0.685769022 0.098418824
0.998228788 0.674130797 0.121695206
0.996078014 0.664010406 0.141176641
0.996078014 0.660468042 0.156357050
0.149905100 0.820366740 0.008349362
0.166603535 0.817837059 0.011132007
0.195699140 0.818722427 0.008981783
0.219481364 0.820999742 0.005819362
0.246805444 0.821758509 0.005819447
0.279696226 0.818089783 0.002150643
0.312081009 0.814548075 0.003668965
0.345730782 0.814295053 0.001138649
0.384060830 0.815433741 0.000000000
0.421505511 0.814421594 0.000000002
0.460973859 0.808601916 0.002783357
0.500442505 0.807589769 0.000759101
0.536875308 0.805312991 0.000000000
0.574193358 0.803415716 0.000000000
0.612650394 0.800379336 0.000000000
0.648450553 0.799746752 0.000000000
0.684882939 0.797090590 0.002656835
0.721315086 0.795193195 0.003289424
0.758633554 0.792156816 0.000253035
0.795319438 0.789121091 0.002783357
0.828715742 0.787223339 0.004680613
0.863377571 0.783048630 0.010626128
0.891714036 0.778494418 0.020240348
0.926628828 0.765970826 0.036558930
0.953194261 0.753067791 0.050980598
0.973814011 0.744592130 0.062112756
0.992662907 0.734851360 0.085642084
0.996457636 0.730297387 0.108412258
0.997216642 0.724984407 0.131942004
0.995445848 0.718912423 0.152055919
0.995066345 0.708539188 0.171284318
0.998861372 0.701707780 0.190259740
0.164706007 0.845034778 0.013662256
0.181783646 0.845793605 0.014800613
0.209361508 0.844908237 0.026818505
0.232890725 0.844908237 0.025047731
0.255534291 0.845287800 0.022138176
0.281340867 0.845287800 0.025173785
0.313598901 0.846047103 0.025300300
0.343959659 0.841366351 0.029981393
0.382163346 0.840860248 0.027704101
0.423908770 0.840860248 0.026565457
0.457684875 0.838835955 0.025679849
0.495129466 0.836811721 0.028463203
0.530423641 0.835673392 0.024288461
0.564326108 0.832637727 0.023529494
0.603795230 0.829601347 0.028463198
0.640860081 0.827071488 0.026565459
0.677292883 0.827071488 0.029601455
0.713092506 0.824415147 0.031752300
0.748260260 0.821378767 0.028716233
0.782795727 0.818343103 0.031246070
0.819228470 0.817204714 0.036179710
0.853636742 0.814168334 0.039215580
0.885894835 0.811005473 0.050853960
0.920556843 0.802403450 0.067299210
0.953953266 0.792156696 0.085515290
