Assets/EldamarStudio/100 Retro LUTs Pack/LUTs/cube/Sherry LUT.cube
LUT_3D_SIZE 8
DOMAIN_MIN 0.000000 0.000000 0.000000
DOMAIN_MAX 0.903226 0.903226 0.903226
0.149020001 0.105881996 0.090195999
0.243770093 0.101581454 0.094497450
0.381657183 0.090195999 0.093358904
0.538140297 0.086274996 0.084629998
0.723213375 0.074510001 0.080834813
0.879569709 0.072485738 0.074636005
0.991777301 0.084630288 0.067298993
1.000000000 0.106008820 0.079822987
0.161922559 0.203415543 0.093738452
0.253636539 0.200632095 0.089437000
0.376976311 0.199493647 0.095382549
0.535483837 0.204554096 0.080076002
0.715875804 0.206451744 0.069196813
0.863757193 0.206198812 0.056546710
0.980897844 0.203795090 0.066539995
0.997469962 0.195952088 0.067298986
0.183554903 0.347881198 0.070714906
0.264516532 0.356103718 0.061986092
0.393422186 0.356483281 0.059708998
0.551549375 0.364705831 0.044908006
0.729538381 0.372169286 0.033143811
0.878304720 0.364832550 0.029475259
0.986970067 0.349652171 0.039974708
1.000000000 0.334725201 0.068690881
0.162934646 0.550031900 0.000000000
0.255913645 0.555218339 0.000000000
0.408222377 0.551675916 0.003922000
0.565084934 0.550537527 0.001138644
0.728272915 0.542062283 0.002403808
0.861100435 0.515623152 0.002024260
0.967868567 0.494370282 0.021505278
1.000000000 0.470588267 0.069449797
0.131182998 0.713219345 0.004807003
0.239215896 0.718405843 0.005186551
0.390386015 0.714864075 0.000759096
0.550284505 0.707020998 0.001518192
0.710183382 0.701454997 0.000000000
0.849335730 0.674509943 0.000000000
0.962681770 0.645161271 0.015306698
1.000000000 0.613788724 0.095508993
0.164706007 0.845034778 0.013662256
0.255534291 0.845287800 0.022138176
0.382163346 0.840860248 0.027704101
0.530423641 0.835673392 0.024288461
0.677292883 0.827071488 0.029601455
0.819228470 0.817204714 0.036179710
0.953953266 0.792156696 0.085515290
0.996078014 0.758760512 0.152434871
0.221505567 0.921189308 0.131941557
0.291461259 0.916382015 0.153953105
0.382416278 0.919544578 0.164832562
0.508285642 0.914484620 0.166729912
0.630992889 0.909171462 0.164705664
0.766223907 0.901581287 0.170398563
0.898292303 0.896647573 0.173054546
0.997722745 0.878558159 0.207463428
0.327260762 0.991017997 0.291966766
0.367615104 0.992662728 0.309804261
0.438077092 0.991017997 0.318026781
0.522959828 0.993801355 0.310056955
0.625427186 0.988235295 0.312839925
0.745603979 0.982416034 0.312207520
0.856673002 0.977988839 0.317520529
0.962049186 0.971410692 0.339025766
0.157242462 0.105502546 0.181784093
0.250094980 0.097659551 0.184946090
0.385958552 0.092220448 0.192409635
0.536622286 0.057558812 0.191271096
0.721189022 0.002403808 0.180265993
0.874889016 0.000379548 0.173181087
0.988488257 0.033143736 0.167741805
0.999620438 0.082985505 0.172169358
0.172548980 0.193168640 0.187349990
0.250854075 0.199493632 0.177103087
0.374952674 0.189247534 0.188108996
0.530802846 0.188868091 0.179506898
0.704364359 0.183048740 0.170145094
0.858570576 0.179127350 0.170398355
0.973561287 0.181783795 0.165464804
0.998734832 0.181657076 0.167109102
0.151423007 0.342694730 0.166476637
0.252877653 0.352940768 0.171283633
0.393042535 0.349778742 0.181151107
0.548387289 0.355217934 0.166097194
0.725237012 0.359266549 0.166983113
0.867299080 0.345983535 0.161037549
0.974193275 0.341682196 0.163693905
0.999620438 0.330677092 0.173940808
0.111448362 0.536242664 0.138646185
0.231625542 0.541935384 0.138772994
0.386590719 0.539152086 0.133965984
0.554459333 0.538393021 0.130043998
0.714104891 0.529917717 0.131562188
0.852498353 0.508918643 0.151422918
0.963187635 0.487033725 0.162428841
0.998481810 0.466287285 0.167362377
0.083744459 0.694370389 0.107274093
0.208728626 0.698292375 0.103099279
0.373940229 0.698671818 0.109044731
0.543200254 0.696015120 0.111954190
0.702213943 0.692472696 0.114104986
0.837571025 0.668184638 0.117014542
0.954332650 0.636179626 0.167615190
1.000000000 0.611764789 0.200000003
0.154332802 0.831372559 0.176217377
0.248070642 0.833649755 0.178114831
0.379380107 0.829727769 0.179127082
0.521694958 0.825679839 0.177482471
0.671727121 0.815939426 0.181404188
0.815180421 0.808096051 0.180645272
0.943706453 0.781909823 0.195951834
0.998734832 0.752435207 0.236179873
0.216192082 0.906894267 0.212017670
0.284756541 0.908918560 0.233902365
0.382289380 0.910816252 0.234661654
0.502340198 0.905376196 0.234282017
0.630613446 0.905755758 0.239342362
0.760405183 0.895129383 0.239974439
0.893990874 0.888171971 0.249715090
0.993927538 0.869196653 0.267299056
0.340290815 0.991144776 0.345224649
0.383428216 0.993295252 0.349272519
0.443010926 0.990259111 0.349525511
0.529158890 0.987981856 0.353700191
0.627704144 0.985831499 0.348134190
0.743453443 0.983934045 0.360025227
0.854902029 0.970651388 0.355597645
0.972422540 0.969766200 0.369133323
0.174066991 0.094117999 0.336116195
0.255154639 0.092979454 0.339279115
0.387097210 0.076154098 0.333713204
0.542567849 0.036812268 0.350663841
0.725616574 0.000759096 0.351043284
0.877545834 0.002024260 0.339784920
0.988488257 0.019101987 0.325869381
0.995572209 0.122960135 0.327767134
0.163946912 0.191650644 0.326248735
0.250474453 0.184187084 0.327007800
0.382795751 0.178747997 0.333333641
0.538267195 0.166983008 0.335736752
0.715875924 0.142314732 0.336622566
0.860214889 0.138520092 0.325996190
0.970904708 0.168880180 0.318405926
0.997975826 0.200885355 0.319417775
0.142947793 0.340038180 0.329791188
0.231752455 0.344338745 0.341556191
0.385579020 0.343959183 0.338393271
0.553953171 0.348640084 0.338772833
0.723339498 0.346363008 0.338520229
0.860721052 0.341176540 0.328146666
0.970272005 0.340038180 0.329791188
1.000000000 0.346363187 0.333586156
0.000759096 0.538393021 0.328020185
0.174826100 0.540417373 0.333586305
0.374952555 0.540796936 0.326122731
0.550664246 0.538519919 0.318279624
0.712966442 0.522833765 0.328146458
0.839595079 0.505250216 0.331561804
0.955091715 0.490828663 0.332447648
1.000000000 0.478684455 0.335483730
0.006325007 0.696015179 0.310942292
0.180771470 0.694750011 0.314864010
0.366730094 0.698418975 0.321948171
0.532574534 0.690069556 0.320809543
0.696900964 0.687413037 0.314105183
0.835167587 0.661859870 0.319164962
0.944592178 0.637191594 0.343833119
0.998102248 0.619481444 0.356483191
0.202403545 0.825173736 0.355218202
0.271726906 0.826312244 0.359519273
0.396078557 0.826186121 0.362555265
0.531815350 0.820746243 0.357621729
0.671347558 0.816065967 0.361164093
0.813282728 0.802656412 0.356483281
0.934724927 0.782669008 0.355977237
0.997469962 0.755977154 0.376723588
0.261227071 0.900695860 0.358760357
0.317014545 0.905882239 0.374319911
0.403541893 0.907779992 0.373687476
0.517267287 0.900695860 0.379127294
0.641872287 0.900695860 0.379253387
0.764579535 0.893231928 0.380012721
0.892220140 0.885768414 0.382922173
0.997216642 0.868564129 0.396205097
0.388994336 0.986337900 0.430993080
0.416192114 0.982163250 0.445794165
0.471093893 0.983427763 0.450221241
0.548640072 0.988614738 0.451992363
0.641113400 0.981783569 0.449715346
0.741049886 0.976597011 0.445414335
0.849336028 0.970777869 0.446426183
0.962428868 0.966223776 0.456799299
0.185452357 0.080076002 0.526881635
0.268943906 0.075015552 0.533206701
0.404427201 0.045287456 0.534472108
0.548133910 0.000000000 0.533586264
0.731182516 0.000000000 0.536875069
0.869196475 0.000000000 0.515496552
0.981783628 0.023276336 0.494370550
1.000000000 0.178873941 0.488804430
0.142820999 0.177988797 0.519038618
0.248956457 0.173560724 0.525363743
0.388361722 0.162302107 0.530550182
0.551676273 0.142314643 0.527261257
0.718152940 0.117140733 0.521821380
0.851486623 0.131436095 0.497659862
0.968627572 0.182668909 0.487413198
0.997975767 0.253131092 0.482732177
0.056293726 0.341682196 0.536749184
0.198861554 0.336116254 0.528020263
0.372675568 0.333839297 0.543453753
0.562302530 0.329917997 0.536749184
0.729664385 0.332954168 0.530550241
0.856420040 0.349398971 0.505376279
0.964579463 0.377102852 0.510562718
0.999240994 0.407716751 0.513978541
0.006704646 0.537001908 0.541555941
0.141809091 0.541303277 0.543326855
0.359898835 0.537001848 0.540923655
0.547628284 0.534218550 0.532574296
0.699683547 0.525616467 0.529158890
0.830739975 0.522580266 0.518912017
0.941429257 0.520177007 0.515749633
0.997469962 0.518659055 0.507906616
0.019860985 0.694496989 0.512966454
0.198988020 0.700442731 0.521189272
0.377355874 0.700063050 0.521189272
0.546236277 0.690195799 0.523845613
0.694876552 0.685009181 0.514484644
0.820366800 0.669070542 0.521315277
0.928525925 0.654901683 0.527766883
1.000000000 0.645161390 0.528146684
0.293232083 0.822137833 0.537381530
0.349778652 0.824794292 0.536243081
0.441619426 0.826691926 0.537761092
0.553699911 0.816571712 0.533712804
0.681593955 0.812903225 0.536242902
0.810752869 0.804301083 0.531435788
0.920809627 0.784693182 0.525110543
0.994939864 0.768121481 0.544212461
0.354838550 0.902213991 0.529538631
0.391777366 0.907021046 0.535863638
0.456167191 0.905502737 0.529538393
0.550916970 0.901075363 0.532447934
0.653383791 0.895635724 0.531309247
0.774193406 0.892472804 0.532827437
0.889310598 0.885388911 0.533586264
0.986717284 0.872106493 0.530423760
0.445287794 0.982415795 0.560910702
0.469829351 0.983934045 0.566983104
0.516508460 0.983554840 0.578368247
0.584187329 0.980644941 0.570651472
0.666666508 0.981024504 0.568880200
0.756230175 0.974193633 0.567488968
0.860721111 0.970145822 0.566603243
0.964832127 0.967615783 0.565211952
0.181024805 0.071474001 0.691208184
0.263630927 0.054522451 0.691587746
0.386337906 0.026818810 0.691208184
0.537254632 0.000000000 0.693231761
0.714737177 0.001518192 0.697533429
0.864516258 0.000379548 0.682732224
0.971284091 0.009108185 0.641872287
1.000000000 0.169892386 0.626818597
0.140670449 0.170524731 0.685262620
0.242757559 0.164579093 0.688678145
0.375458390 0.153194457 0.688045263
0.536495626 0.133965895 0.685768247
0.701707900 0.108159281 0.686021626
0.853510380 0.103605635 0.671347678
0.963693917 0.171916455 0.636432588
0.997343183 0.249462321 0.617330790
0.013156286 0.326755196 0.695256054
0.186717451 0.323212832 0.692346692
0.359012991 0.322707087 0.695888400
0.534598172 0.320809513 0.693864763
0.711068988 0.323592275 0.692852259
0.851612687 0.332827181 0.666413724
0.954838395 0.367362291 0.647438109
1.000000000 0.408349097 0.636559188
0.020113915 0.509550691 0.694370449
0.189626724 0.513852179 0.695888460
0.359392464 0.511068940 0.688298821
0.538519919 0.514231741 0.687919140
0.695888340 0.514990628 0.683364928
0.823656201 0.522960067 0.669449687
0.932827115 0.533080220 0.653763592
0.998734832 0.551170111 0.654269695
0.057052530 0.684250236 0.681846976
0.232763916 0.690195799 0.697659969
0.394939989 0.685895085 0.689816296
0.549399078 0.684250176 0.680329144
0.686654031 0.681214154 0.677925408
0.808601975 0.677545965 0.676913619
0.913219512 0.671853423 0.671094060
0.995066166 0.674004018 0.667298973
0.313598990 0.820113957 0.679823101
0.365211904 0.824288607 0.678431571
0.459582746 0.819228292 0.677545726
0.575711548 0.809360743 0.676660419
0.687539160 0.805819154 0.681340873
0.807210743 0.801897228 0.675015986
0.915749490 0.786970377 0.675395668
0.996204793 0.777102828 0.680708647
0.396458000 0.902340174 0.653637111
0.434535027 0.901075304 0.660847485
0.505629241 0.902340174 0.666287243
0.586717308 0.899683654 0.666793406
0.678810954 0.896774054 0.671727121
0.784693182 0.887286246 0.660214901
0.888931096 0.885768354 0.663757384
0.984819710 0.872485995 0.667299211
0.504743993 0.979127169 0.683238387
0.531182647 0.977609158 0.682352781
0.570398271 0.980392039 0.690954924
0.624668121 0.978747547 0.688551545
0.691587508 0.974066794 0.683618009
0.775711775 0.974952698 0.683111966
0.869449615 0.967236161 0.683744609
0.972801983 0.960657775 0.686021328
0.178494737 0.060847741 0.809234738
0.248576805 0.050474446 0.805692315
0.367235839 0.036432642 0.807969511
0.509044647 0.000759096 0.811637819
0.663377643 0.000000000 0.807210445
0.813282728 0.001897740 0.807084441
0.961669862 0.002656739 0.796964169
0.998102248 0.151422858 0.759772539
0.154459000 0.161543101 0.804553747
0.230613604 0.155471355 0.806451440
0.355091900 0.154332906 0.804553926
0.503478706 0.139405191 0.804048061
0.652371824 0.128273278 0.807716548
0.813662291 0.119038627 0.801391721
0.952308476 0.147501469 0.784440458
1.000000000 0.229474992 0.754585505
0.107273720 0.309551090 0.811005473
0.212270990 0.315749288 0.809108138
0.345983446 0.317141086 0.811511815
0.503984988 0.315623075 0.808855355
0.655914307 0.317520529 0.804427564
0.809614241 0.322960049 0.803668678
0.948640049 0.344465286 0.790385783
1.000000000 0.397849262 0.765464842
0.126122624 0.483997375 0.804301083
0.233523354 0.491081268 0.793927968
0.376344174 0.494117647 0.804427624
0.518785834 0.499304026 0.798102736
0.660974026 0.503984928 0.800126255
0.804427624 0.505250156 0.797722995
0.926881671 0.513725400 0.779253721
1.000000000 0.537254751 0.767994940
0.216698006 0.645287812 0.802909553
0.290322721 0.654775679 0.796964169
0.412903041 0.656293690 0.800126314
0.543453515 0.657811821 0.801771164
0.675522208 0.661732912 0.791903913
0.794813335 0.661859870 0.792030573
0.912460446 0.666919410 0.782542765
0.994560421 0.680075884 0.776723266
0.330803216 0.803668499 0.803415477
0.375838071 0.803415418 0.800632536
0.463630557 0.806198597 0.801770985
0.567741811 0.801517725 0.795572519
0.684503615 0.793548763 0.797469735
0.791777432 0.791524470 0.791651070
0.890828788 0.789626718 0.787855983
0.982922018 0.788361609 0.786337674
0.398861527 0.893738270 0.776091158
0.436812460 0.898671687 0.767488837
0.502846062 0.895888507 0.774446368
0.590133011 0.894623756 0.779506743
0.687918961 0.890449286 0.782163262
0.787349939 0.885262549 0.783681452
0.884882987 0.884503484 0.777355969
0.978241324 0.876281023 0.786084771
0.512586772 0.976470828 0.769259691
0.545603693 0.976976573 0.772675693
0.579253852 0.975711703 0.781657100
0.644528627 0.973561049 0.782163262
0.716255307 0.970145702 0.789374053
0.793042481 0.966982901 0.790385842
0.876281023 0.965338528 0.786843717
0.959139705 0.967615843 0.792409897
0.168626994 0.066666998 0.912334025
0.239089087 0.061100706 0.910436690
0.348893106 0.051739287 0.908412576
0.481341004 0.027577639 0.911195636
0.621631920 0.005313092 0.902213693
0.759012997 0.014421276 0.901075542
0.906135261 0.052751541 0.898924291
0.995698571 0.136495769 0.892220318
0.163567454 0.157242090 0.904617071
0.225553527 0.154838845 0.902087271
0.342314869 0.153953448 0.902593195
0.476913363 0.150790736 0.902719617
0.614800811 0.148766384 0.901834428
0.760405183 0.160025343 0.897912741
0.903984964 0.178621113 0.898671746
0.998734832 0.218848422 0.894876719
0.150158077 0.306388468 0.898418784
0.222391084 0.308285713 0.902340293
0.347880989 0.309424281 0.900569022
0.476027757 0.314610928 0.901454806
0.622390985 0.319544196 0.901454806
0.758507431 0.334092438 0.896014988
0.900695860 0.352308661 0.899810135
0.998355269 0.380265713 0.890702069
0.224667832 0.473118275 0.899430633
0.290322483 0.480076194 0.901707649
0.391903728 0.484124064 0.898292243
0.503858268 0.489942908 0.892726004
0.634788096 0.493485093 0.894749820
0.764452815 0.501454890 0.892219901
0.895003021 0.510057271 0.887159944
0.996331334 0.521695077 0.883112133
0.298165560 0.624668121 0.888931096
0.347754270 0.628336668 0.892852485
0.440227568 0.633902550 0.892726183
0.547754288 0.644276083 0.891081810
0.657432377 0.648956358 0.886527240
0.773054779 0.649715483 0.888045251
0.890449047 0.651359975 0.888931096
0.990259230 0.663377881 0.880075753
0.377608985 0.767362416 0.888678014
0.416824996 0.771030903 0.894117594
0.482226431 0.773940563 0.891840518
0.576090991 0.772422612 0.894117475
0.679443479 0.779506445 0.888424754
0.785958290 0.779506445 0.887286305
0.890195847 0.781530261 0.886401296
0.979253650 0.785452008 0.882858753
0.412650257 0.883617997 0.880329013
0.448956281 0.879063845 0.882352829
0.508159578 0.884882987 0.880961537
0.596331298 0.886527240 0.884882987
0.688172042 0.885768592 0.883365214
0.789247215 0.880708516 0.882226765
0.879317284 0.874763250 0.877040029
0.960530877 0.879570007 0.876786947
0.522960186 0.977103055 0.868943870
0.542694509 0.973181486 0.874889493
0.581530750 0.969007015 0.878684342
0.647438049 0.970398426 0.877040029
0.722833633 0.968121588 0.875901580
0.807210207 0.965844274 0.875395417
0.882606268 0.963566959 0.884250581
0.962428749 0.966350615 0.893358529
0.173940659 0.081087835 0.991144776
0.232131705 0.078810550 0.987476408
0.332701027 0.075900987 0.987855852
0.453130990 0.073370978 0.991271317
0.587982416 0.079063803 0.984945834
0.721315563 0.103225797 0.982289612
0.852624714 0.145604089 0.979253650
0.980644941 0.200379774 0.979253650
0.171790004 0.165844262 0.988994122
0.232384831 0.161037549 0.985452235
0.327767193 0.165338099 0.985199153
0.455787629 0.165971085 0.985704780
0.584313512 0.175458372 0.986211240
0.717014432 0.193674728 0.983427763
0.846553206 0.221758530 0.976470530
0.974446356 0.257811487 0.979127049
0.194180787 0.307147175 0.984945893
0.253763169 0.306388468 0.984566629
0.342568219 0.313346088 0.982795715
0.467046261 0.318785369 0.987855673
0.595192909 0.326502293 0.984566450
0.722074449 0.342694342 0.978620887
0.853637159 0.363947034 0.978368223
0.980644941 0.392030358 0.979253650
0.283997267 0.473118275 0.970904648
0.323718816 0.475142539 0.975079238
0.399873525 0.479190737 0.979127049
0.504491270 0.483365059 0.983048439
0.615559757 0.488931090 0.976470590
0.733206749 0.498671561 0.974066794
0.850347698 0.511195660 0.971410632
0.974066794 0.525869429 0.973055005
0.366856337 0.615306914 0.970145822
0.401897639 0.624668181 0.974952519
0.476913333 0.627704084 0.972043037
0.557495296 0.634408534 0.973181784
0.649083018 0.639089227 0.970398426
0.750284612 0.645414352 0.974573314
0.858823597 0.646173418 0.969007015
0.967235684 0.657178998 0.964705646
0.429221869 0.745856822 0.971536756
0.455534518 0.745097756 0.975837946
0.510056973 0.751296818 0.971410692
0.594433725 0.758633673 0.970398426
0.684123933 0.766097724 0.971284032
0.779632866 0.773307800 0.966729879
0.869070470 0.776723266 0.964832425
0.960404932 0.777861714 0.964958966
0.467678368 0.854142845 0.956103563
0.500190020 0.860467851 0.965211689
0.545730650 0.857178986 0.964958966
0.618595839 0.863883555 0.966729939
0.697406709 0.867298901 0.962934911
0.791904032 0.868817091 0.961543202
0.879317284 0.876028061 0.961036921
0.964073360 0.874763250 0.959771752
0.540164769 0.968880653 0.957115591
0.564579606 0.963566959 0.960657477
0.603541970 0.960404873 0.963061213
0.661986232 0.961036921 0.959898591
0.730803192 0.959266126 0.958127797
0.811005473 0.961796045 0.959771752
0.888298690 0.958001196 0.957115591
0.958380759 0.958380818 0.953067780
