Assets/EldamarStudio/100 Retro LUTs Pack/LUTs/cube/Sherry LUT.cube
LUT_3D_SIZE 5
DOMAIN_MIN 0.000000 0.000000 0.000000
DOMAIN_MAX 0.903226 0.903226 0.903226
0.149020001 0.105881996 0.090195999
0.349778384 0.094750002 0.096394710
0.634281754 0.079696171 0.080328591
0.913978279 0.075521871 0.070588000
1.000000000 0.106008820 0.079822987
0.179759994 0.312207699 0.079064004
0.359266102 0.317773402 0.076407589
0.646046758 0.331182688 0.054143015
0.912713289 0.325616419 0.037571132
1.000000000 0.298798412 0.074256696
0.139152586 0.645919979 0.000000000
0.366097003 0.651866257 0.001644708
0.656419754 0.644654930 0.003922000
0.896015167 0.594307542 0.001012128
0.994054437 0.551802874 0.098924384
0.168753996 0.855154991 0.027830247
0.342947274 0.862618744 0.066413403
0.592663109 0.851865828 0.069070399
0.837445021 0.838457108 0.082732253
0.997090161 0.788109124 0.168627098
0.327260762 0.991017997 0.291966766
0.412776768 0.993295252 0.313219488
0.573308408 0.993042350 0.314104944
0.770145416 0.980897963 0.311448634
0.962049186 0.971410692 0.339025766
0.172548994 0.096394710 0.295888692
0.351423115 0.085262299 0.294244409
0.635926485 0.004807305 0.305376410
0.915243268 0.000000000 0.287666142
0.997090101 0.105249494 0.289310545
0.158128008 0.306641400 0.294876397
0.349146426 0.306008995 0.293611407
0.647058904 0.307653695 0.290322423
0.898924410 0.300442547 0.287666142
1.000000000 0.307653695 0.296900570
0.000000000 0.636432707 0.270967692
0.332447708 0.638456702 0.274635971
0.650854111 0.632257819 0.278937101
0.880961537 0.588488400 0.294876993
0.998355269 0.553826332 0.309297979
0.196078375 0.846932173 0.309171557
0.358886421 0.850221157 0.324351400
0.592030287 0.843011141 0.318153262
0.830233872 0.829980671 0.318785548
0.996204793 0.788109124 0.347628266
0.377103060 0.986084878 0.405692697
0.449588686 0.987476230 0.423908770
0.587728977 0.985452294 0.427324265
0.771663547 0.976344109 0.422137946
0.966476977 0.967488945 0.429980695
0.181657001 0.074510001 0.611385226
0.359266132 0.047944304 0.615306377
0.633649349 0.000000000 0.615306377
0.892473280 0.003289416 0.586590350
0.997343183 0.163188025 0.542567849
0.041366309 0.287033409 0.614674211
0.323972106 0.279190421 0.621884823
0.641745687 0.269702673 0.623782814
0.879696548 0.295888692 0.579253435
0.998987913 0.367235959 0.569512963
0.000632584 0.620493412 0.623023391
0.313599110 0.622770548 0.619481504
0.621758401 0.617203951 0.611258447
0.845920205 0.606071830 0.605439842
0.999367416 0.607463419 0.598229289
0.310436547 0.832511127 0.586463988
0.434788227 0.839089513 0.606704712
0.619481266 0.829980731 0.611638010
0.824414849 0.822770119 0.593928099
0.996837378 0.796963811 0.608728409
0.472865224 0.975964367 0.617836595
0.527261078 0.983554482 0.629601419
0.632131457 0.977988660 0.625047684
0.791777313 0.970778286 0.621505558
0.968121409 0.964326441 0.625806272
0.176470995 0.059835870 0.836559117
0.329791099 0.044781875 0.837571263
0.574320078 0.000000000 0.833649278
0.836559117 0.003922000 0.838457108
0.998355329 0.150916576 0.796711147
0.128779411 0.267805278 0.839341998
0.315117002 0.276913285 0.841113150
0.572042942 0.276280701 0.838456929
0.840733826 0.287792385 0.831245720
0.997469962 0.360404789 0.793042302
0.213915259 0.567488968 0.830613673
0.379633099 0.581530690 0.829601407
0.608349085 0.592663109 0.833522975
0.831245720 0.591777384 0.823023260
0.994560122 0.613029718 0.800252855
0.355091989 0.819860995 0.826692104
0.454016685 0.823402703 0.821758449
0.632258236 0.819481492 0.822137713
0.813030124 0.818849146 0.815939248
0.980644941 0.814927161 0.815939248
0.515369952 0.977988839 0.793042302
0.567868590 0.980771899 0.810499430
0.680328965 0.971789896 0.809993863
0.817583978 0.964958966 0.812397122
0.960657835 0.964579642 0.816951156
0.173940659 0.081087835 0.991144776
0.304617584 0.074636146 0.988108814
0.514484584 0.073370978 0.982542515
0.753194451 0.113345802 0.980265498
0.980644941 0.200379774 0.979253650
0.189373836 0.268437684 0.987222791
0.308918685 0.275648504 0.984566808
0.522707105 0.284756273 0.981277347
0.751423180 0.312333673 0.982669234
0.981657088 0.360657692 0.974446654
0.349272639 0.557115853 0.970018983
0.425679803 0.564326227 0.977356255
0.582542360 0.569513261 0.974699378
0.774066865 0.578621268 0.975331962
0.975458622 0.596331656 0.972296059
0.442630976 0.771157265 0.969260097
0.505502939 0.777356267 0.964579403
0.645034969 0.787476540 0.968501091
0.801897287 0.797343135 0.961669803
0.961669981 0.806451559 0.966223776
0.540164769 0.968880653 0.957115591
0.591903806 0.960657895 0.963566959
0.699683726 0.962302148 0.958380818
0.831245959 0.961290240 0.960025072
0.958380759 0.958380818 0.953067780
