Assets/EldamarStudio/100 Retro LUTs Pack/LUTs/cube/Shirley LUT.cube
LUT_3D_SIZE 8
DOMAIN_MIN 0.000000 0.000000 0.000000
DOMAIN_MAX 0.903226 0.903226 0.903226
0.164706007 0.117647000 0.125489995
0.165085450 0.118026547 0.125869542
0.181151092 0.123086996 0.132574096
0.191650644 0.134471640 0.135609999
0.209993988 0.152055994 0.149652198
0.258443981 0.172422469 0.166603252
0.340417564 0.200632572 0.184313998
0.502593458 0.228842661 0.217077985
0.171030998 0.134092003 0.136495993
0.169386089 0.134471536 0.137254998
0.177609444 0.145477548 0.137634441
0.190512002 0.150537908 0.145477548
0.219481081 0.164579093 0.157622010
0.263630539 0.186211258 0.172042921
0.352561533 0.213535547 0.193548098
0.508412302 0.248956352 0.225679994
0.162302002 0.163820192 0.153700098
0.165085465 0.168121547 0.156103909
0.181151092 0.172422081 0.152055994
0.197216645 0.188488558 0.165844455
0.223276183 0.203795090 0.166983098
0.284250379 0.219355091 0.189626992
0.382542670 0.251486093 0.209107995
0.547501564 0.288171977 0.244908139
0.162429005 0.222011641 0.170398638
0.160784006 0.223655641 0.170398638
0.178747892 0.231498733 0.179886445
0.208476007 0.243263632 0.187729359
0.247058630 0.260467827 0.199873194
0.314231724 0.280455381 0.210879087
0.427956820 0.311195642 0.239974633
0.602276862 0.356862456 0.278051794
0.161670014 0.303858191 0.210878998
0.168121547 0.308159620 0.217077896
0.186464190 0.316508174 0.217077896
0.230233982 0.327387571 0.225300550
0.290575355 0.344592005 0.235041186
0.380644917 0.370398194 0.258570194
0.511701643 0.403162569 0.283491284
0.674889266 0.455914199 0.328273207
0.203668475 0.440480739 0.262618989
0.219102189 0.442757905 0.266540289
0.259329706 0.443137378 0.275775015
0.316761374 0.458064467 0.288172007
0.392283380 0.473371029 0.302593619
0.486907184 0.495129704 0.323086709
0.611006021 0.525490463 0.361543477
0.746363223 0.579380333 0.423908502
0.366476536 0.608349562 0.371410251
0.381151289 0.607084274 0.373181552
0.418848813 0.617710352 0.381657451
0.475648552 0.626312256 0.394813210
0.543074012 0.635041475 0.414800644
0.622644007 0.645540833 0.439848095
0.707653522 0.671726584 0.479569554
0.808981538 0.707779527 0.541682065
0.598355353 0.780897915 0.564199388
0.608095646 0.793675065 0.566982985
0.630866408 0.794054627 0.578621209
0.663251221 0.801644206 0.594054222
0.707273722 0.808601916 0.605060101
0.766856313 0.819481373 0.634535074
0.823529065 0.835167468 0.661100864
0.888171554 0.850221395 0.700189590
0.164706007 0.124730997 0.129791453
0.168626994 0.121569000 0.130171001
0.185072899 0.126249090 0.138013899
0.189373642 0.142314643 0.142314643
0.216318801 0.159139812 0.160278440
0.264010191 0.179127261 0.180771545
0.346616268 0.204554006 0.201264992
0.509930551 0.234282270 0.231878370
0.167867988 0.133712545 0.138014004
0.175711900 0.138014004 0.141555548
0.177609444 0.143453181 0.146995544
0.190512002 0.158381015 0.152055904
0.219860643 0.171283722 0.169386089
0.263503999 0.196331546 0.183807746
0.359392822 0.215433285 0.202909574
0.524351418 0.247944236 0.236179829
0.159139991 0.167362556 0.161922544
0.165085465 0.173687547 0.161922649
0.174446538 0.179506987 0.159139991
0.194434002 0.185705200 0.165338084
0.223276377 0.202529818 0.177861974
0.282226503 0.222137630 0.192283452
0.381783485 0.249462351 0.217330828
0.552561402 0.284630120 0.256293505
0.160784006 0.219734639 0.186590999
0.167108998 0.223276287 0.181784004
0.175964534 0.228336528 0.185325637
0.198987991 0.241240099 0.192409649
0.249083102 0.257685095 0.203668207
0.319418222 0.282858878 0.219734445
0.438962579 0.316002429 0.246679187
0.612270534 0.360278368 0.289437085
0.159645662 0.303858191 0.212397099
0.163440749 0.311701179 0.215559900
0.184820086 0.315623075 0.221252650
0.230234087 0.325869381 0.233902544
0.289310694 0.342694640 0.247565001
0.379759848 0.367236078 0.264389515
0.515876114 0.404680640 0.286906809
0.675774932 0.459456354 0.344212472
0.205313012 0.436938643 0.279949725
0.218216285 0.440733641 0.277925462
0.260468066 0.445034802 0.284756720
0.312840194 0.454016387 0.292093366
0.396204919 0.470208913 0.310057074
0.489310354 0.487666249 0.331182659
0.608854771 0.527767181 0.362175524
0.738646269 0.583175302 0.428715646
0.362555534 0.605060101 0.376976550
0.377482831 0.608729005 0.377988607
0.410372823 0.611005783 0.386464566
0.468437821 0.620113850 0.397849202
0.538013816 0.636559248 0.416192353
0.622138023 0.649462342 0.447311640
0.715116978 0.675015569 0.485894859
0.808475614 0.713851631 0.553826630
0.588741124 0.787982166 0.558127701
0.603162289 0.787602603 0.568880439
0.625173628 0.794054627 0.579253495
0.657431841 0.800379395 0.591271222
0.706767559 0.807336807 0.607463419
0.769259930 0.817457616 0.636053264
0.824541450 0.833269596 0.666034341
0.886780620 0.850347579 0.701454341
0.167868093 0.118406095 0.146615997
0.165464908 0.122327901 0.147375092
0.177229896 0.127767086 0.154459000
0.190132543 0.146236643 0.161922649
0.214674100 0.162302196 0.173181370
0.263251096 0.183048636 0.192789093
0.352182001 0.206198707 0.220239997
0.514610589 0.230107829 0.252371997
0.168627083 0.134851098 0.153320551
0.176470995 0.142314538 0.160784021
0.180771545 0.146616101 0.159519449
0.194434002 0.158381000 0.170524731
0.222137734 0.171663284 0.186970353
0.267172813 0.198355287 0.197975725
0.368121296 0.223782554 0.223909095
0.533586383 0.246932283 0.256926090
0.163946912 0.166983098 0.161416993
0.163947001 0.175205544 0.171283633
0.178747892 0.180265889 0.179506987
0.194813550 0.193168730 0.184566632
0.224794373 0.206071988 0.195066288
0.285388738 0.231246084 0.218595982
0.387982428 0.250601083 0.241239890
0.561163485 0.287792742 0.276786804
0.158507004 0.226438984 0.197090641
0.167109102 0.227198079 0.198229089
0.179127350 0.234661639 0.205312997
0.202529728 0.244781747 0.209994003
0.249842003 0.261226922 0.227703825
0.321695149 0.280708551 0.241619527
0.442125261 0.317520559 0.268564194
0.616951466 0.357748359 0.311195612
0.160784006 0.310057074 0.232764095
0.159013197 0.310942262 0.236179635
0.187982187 0.315622985 0.238962993
0.230233982 0.325743258 0.247944638
0.292093188 0.344592005 0.264895797
0.384440005 0.368753970 0.281214297
0.524857521 0.407843262 0.314737380
0.681467056 0.460847467 0.367488921
0.212397113 0.435294390 0.297660083
0.219101980 0.439974636 0.293738186
0.260088801 0.448197216 0.308665186
0.319165260 0.456420243 0.316761553
0.397722900 0.473371029 0.328779280
0.486907184 0.488930911 0.345983446
0.608475566 0.525616705 0.388614744
0.746109903 0.582416177 0.447817892
0.360278428 0.605060101 0.395698756
0.375585139 0.607084274 0.395699114
0.415939540 0.614674330 0.409234554
0.471220791 0.622390866 0.419987261
0.539785028 0.635673642 0.443643361
0.626565278 0.652245402 0.472106129
0.712460518 0.678684294 0.507020772
0.813282907 0.716128886 0.575331807
0.594560444 0.788488507 0.579506636
0.602656484 0.786970615 0.578494430
0.625932753 0.793548346 0.587982476
0.658570170 0.798734605 0.601264834
0.709930420 0.807842851 0.618089557
0.762934804 0.819987416 0.639595151
0.824541509 0.834787786 0.676027775
0.888171613 0.854775369 0.707653284
0.167488649 0.121569000 0.170904279
0.170904279 0.123845994 0.173181280
0.182795897 0.134092093 0.177862093
0.189373642 0.150158361 0.184946001
0.214800999 0.168626994 0.202656552
0.266413987 0.186084732 0.221378729
0.358886898 0.202909291 0.245540634
0.532447994 0.222137630 0.286907017
0.174193710 0.138014004 0.172422186
0.180898353 0.139911547 0.183175460
0.174067080 0.147375092 0.181404442
0.190511987 0.162681639 0.197090551
0.220619738 0.176723644 0.207716897
0.275395542 0.196331546 0.220619738
0.377609015 0.220240191 0.254142940
0.540797055 0.244402170 0.300569147
0.165211558 0.161416993 0.198229089
0.170145079 0.169259995 0.195066288
0.171663180 0.186590999 0.201011643
0.193295360 0.193168744 0.211258546
0.229980737 0.209614336 0.224541634
0.287665725 0.230360478 0.240481094
0.399746954 0.253130794 0.275395453
0.569133520 0.282352924 0.316002727
0.154586002 0.227577642 0.221378639
0.158886552 0.231878176 0.225680098
0.177229896 0.238963082 0.236685902
0.201770633 0.252245277 0.240986645
0.250094742 0.264389843 0.250601083
0.331815273 0.288298368 0.276533872
0.457684845 0.314484328 0.304996639
0.629980922 0.355850607 0.346489429
0.160784006 0.311701179 0.271347195
0.164958641 0.316382080 0.267805159
0.191650733 0.325489819 0.271853179
0.236938640 0.335989982 0.281973392
0.303984731 0.346110195 0.288930982
0.397469759 0.371916384 0.319544286
0.529285133 0.411385030 0.354332745
0.687286794 0.460847378 0.406451792
0.206198618 0.445920110 0.327767015
0.224541381 0.447185397 0.332953990
0.264136612 0.450600833 0.333586276
0.321821719 0.460341454 0.345604032
0.401771098 0.475268662 0.362175733
0.496774465 0.496015102 0.387096822
0.616318703 0.528779089 0.418722481
0.747248292 0.584313691 0.485768437
0.368248165 0.609487951 0.434028894
0.383175433 0.613282859 0.436179578
0.418216527 0.618090034 0.440607250
0.476786882 0.625173926 0.453763545
0.542947531 0.637950659 0.470588088
0.628842592 0.654522359 0.501201868
0.716635227 0.678431213 0.533333242
0.816065669 0.721189320 0.595066249
0.597469747 0.790006399 0.597849369
0.601138115 0.785831988 0.602024138
0.620746255 0.795319438 0.609487832
0.656672776 0.800379395 0.624035239
0.705249846 0.807336807 0.639974594
0.763567209 0.817457616 0.653763235
0.825047255 0.834787905 0.690575540
0.890828371 0.851486564 0.720935583
0.171663374 0.123972192 0.199747190
0.174067184 0.129411995 0.203668192
0.181151092 0.136495903 0.210752890
0.191777453 0.151676446 0.219734639
0.216318816 0.165338188 0.236558989
0.272865415 0.189753190 0.260088384
0.366223663 0.210879192 0.287413269
0.544085979 0.227324471 0.334598005
0.173687637 0.144591838 0.209487736
0.175079003 0.141429543 0.209107995
0.184313998 0.155597642 0.218595996
0.190891638 0.166982904 0.227577642
0.223023549 0.178747803 0.246426642
0.276786804 0.204174548 0.261226892
0.387729079 0.220240191 0.296015084
0.555724204 0.245667249 0.341302872
0.180392191 0.174066991 0.238077179
0.178874001 0.176723629 0.233396366
0.182669088 0.184187099 0.238077179
0.196331635 0.197090536 0.246426433
0.225553274 0.213156089 0.260847300
0.301834345 0.229980931 0.278811067
0.409234524 0.257811457 0.310057074
0.589626729 0.278431237 0.364325970
0.165211648 0.213156193 0.264389634
0.166223988 0.218975544 0.268691003
0.184187189 0.238583535 0.273750603
0.205692634 0.254142642 0.277672529
0.256673187 0.269829601 0.293737978
0.341935575 0.291461170 0.314484566
0.465907812 0.315622985 0.348007619
0.637318075 0.352308422 0.397596151
0.152056009 0.315623194 0.310183376
0.165085360 0.313219368 0.309930533
0.186338082 0.329791218 0.321189106
0.240354285 0.342694670 0.331309170
0.312334001 0.357874572 0.342188179
0.408349156 0.381404191 0.363693923
0.543832779 0.409361064 0.399873376
0.697406769 0.456293344 0.453384161
0.215939179 0.442884028 0.381024927
0.223276541 0.449841917 0.379380107
0.262365699 0.457938254 0.380012900
0.324224889 0.467805088 0.397723109
0.403668463 0.481087923 0.410246640
0.501960993 0.500568986 0.433269918
0.630866706 0.537128448 0.475394994
0.756230175 0.584313869 0.524984121
0.367362350 0.612270594 0.475142449
0.381277829 0.616318643 0.477925092
0.414421350 0.620872617 0.486021429
0.471220911 0.628209949 0.495256156
0.546236575 0.644275784 0.516508639
0.629601598 0.658064425 0.540543795
0.722580791 0.681973577 0.571283996
0.824667931 0.723466456 0.626691818
0.568500578 0.792915940 0.624541521
0.588741243 0.789879858 0.626565516
0.606324911 0.795698762 0.635040939
0.648829639 0.802403390 0.646426618
0.703099132 0.809867144 0.660088658
0.756862760 0.823402882 0.678305030
0.822643757 0.837571144 0.708285689
0.892472744 0.859455705 0.743200421
0.174446732 0.129411995 0.258443981
0.182036802 0.133712545 0.262365460
0.190259263 0.141176000 0.270208985
0.197090641 0.153953359 0.279190630
0.222390980 0.175584987 0.296647459
0.275774747 0.194054261 0.315116704
0.380139440 0.213915288 0.340417266
0.567868590 0.228083566 0.399240881
0.183175266 0.143959358 0.263503999
0.177356005 0.146616012 0.260468006
0.192157000 0.152055815 0.276913732
0.203795195 0.167742014 0.290575266
0.225300640 0.184566543 0.296647370
0.294750005 0.204554006 0.324857444
0.406451821 0.221758097 0.360151768
0.586717069 0.247058526 0.408728361
0.172422469 0.185452253 0.294497192
0.181024984 0.181024805 0.295762420
0.196837097 0.190132841 0.296774209
0.209614441 0.201391280 0.306894481
0.240354374 0.216698363 0.319038630
0.309424609 0.236306250 0.345351070
0.425047278 0.259835720 0.373434484
0.609867215 0.285009563 0.426691860
0.179127350 0.226185739 0.323466003
0.190132543 0.227577448 0.326122731
0.204554096 0.239721984 0.331562012
0.230233997 0.254269540 0.340544105
0.269829303 0.276154429 0.359013021
0.354332477 0.297026992 0.373940736
0.491081625 0.319544286 0.409108102
0.667678654 0.361037463 0.465781540
0.152308747 0.301075459 0.371410728
0.168500885 0.298798472 0.376597196
0.204047754 0.309803724 0.381151170
0.262618631 0.336116374 0.391018182
0.326375574 0.362175733 0.403542101
0.423655897 0.379759371 0.427830905
0.560151696 0.412650466 0.462998122
0.708665073 0.459582448 0.514231324
0.205312714 0.450094461 0.438709468
0.224035531 0.450853556 0.444275737
0.268564105 0.460721135 0.448956102
0.325743020 0.473750472 0.465781450
0.416698635 0.487033278 0.477545470
0.520303428 0.512839973 0.497027427
0.639595270 0.539405286 0.533459961
0.763440609 0.583301485 0.576470375
0.378368139 0.622011304 0.535483837
0.390891850 0.618848801 0.540417135
0.423023641 0.625173926 0.550790787
0.477039933 0.630992770 0.559645653
0.545098007 0.650980055 0.570777595
0.632131279 0.664769232 0.591018498
0.727387547 0.691334605 0.623529077
0.834535062 0.729285002 0.674003839
0.585325301 0.794054627 0.678051829
0.589753091 0.794560134 0.669070184
0.611638308 0.793548346 0.677545905
0.640480399 0.805059731 0.680961609
0.684376836 0.812523961 0.693484962
0.750031471 0.823402882 0.714863837
0.822264194 0.843643427 0.742188454
0.892472982 0.862618327 0.775078714
0.192789003 0.133332998 0.358380854
0.202656746 0.133712545 0.355850518
0.212903276 0.144338906 0.367109269
0.234408617 0.155724362 0.377482623
0.266793370 0.171663374 0.395951569
0.326881558 0.193295255 0.420999259
0.443263859 0.206831291 0.451486558
0.591903806 0.233396664 0.493611544
0.199240819 0.150917247 0.375332028
0.201391578 0.149779007 0.372802019
0.216698349 0.156483263 0.378241599
0.237570822 0.167488843 0.387729198
0.276913166 0.181404352 0.405313194
0.343326658 0.208476007 0.429854304
0.463883370 0.225300536 0.465022057
0.614927053 0.248323694 0.501707792
0.200759098 0.176217571 0.387855768
0.214294538 0.186211452 0.399493843
0.223908991 0.185705289 0.393548548
0.249588996 0.199493736 0.403668582
0.293232292 0.218722373 0.427197844
0.362681866 0.239342347 0.453383893
0.488551795 0.261606365 0.477925241
0.632890701 0.294749916 0.513093054
0.220872998 0.235420629 0.436812282
0.222643927 0.233775914 0.428842485
0.243010819 0.241239890 0.433902711
0.280961275 0.256672919 0.451359928
0.333712906 0.277672350 0.470208824
0.407463640 0.303858399 0.486653864
0.542441487 0.329664558 0.514863849
0.684629858 0.370145351 0.549651980
0.224415272 0.299177915 0.486780554
0.237824187 0.307020903 0.486907065
0.268437624 0.320303470 0.485894948
0.317140818 0.338646561 0.497659564
0.382416159 0.363314360 0.507020772
0.470082462 0.393801272 0.534345448
0.596963763 0.425806582 0.558001339
0.723845780 0.466793180 0.590259552
0.222643450 0.439342201 0.551802516
0.240733653 0.439721733 0.555471003
0.280835181 0.443010747 0.554838657
0.346869081 0.448956102 0.560151875
0.460720718 0.481846720 0.575838208
0.539911747 0.520303905 0.586590946
0.656672776 0.551170170 0.613156319
0.778873861 0.592283368 0.647817969
0.401391804 0.629222095 0.633143544
0.411131829 0.623149872 0.614801109
0.436305851 0.634155869 0.632384658
0.490828484 0.643137217 0.638077259
0.555344760 0.662365556 0.653763235
0.643516719 0.681087792 0.676407218
0.742314517 0.703099549 0.695256531
0.840101361 0.733712792 0.729411721
0.591018200 0.795066357 0.732827246
0.597469866 0.796710730 0.734851301
0.608855426 0.802276909 0.731436014
0.644402206 0.810373127 0.739152372
0.693864524 0.820240140 0.753573358
0.749652028 0.833523095 0.766097069
0.825553000 0.846932411 0.787602901
0.897279739 0.872106135 0.813915074
0.280202448 0.113599181 0.536875248
0.285768479 0.112586737 0.542694569
0.304743707 0.118152939 0.551296592
0.333206743 0.127893865 0.558633447
0.391144931 0.143832833 0.575205624
0.462998211 0.170904487 0.606325269
0.562807858 0.208096460 0.630107403
0.713472307 0.242124796 0.659582555
0.292852581 0.122580729 0.559519172
0.288804770 0.132700995 0.557115436
0.309804022 0.131562263 0.553826690
0.353447139 0.144338921 0.573940337
0.407463402 0.160531163 0.592662811
0.480581641 0.187096670 0.609740436
0.575585008 0.229854539 0.637318313
0.726754963 0.266919494 0.667172849
0.298038840 0.164832011 0.564958572
0.306514740 0.167994827 0.566603422
0.323718935 0.171663389 0.573054850
0.359898657 0.182036817 0.587729216
0.419734418 0.202024162 0.599999785
0.496900558 0.236053109 0.627450764
0.593042254 0.276407182 0.648576617
0.731435657 0.316002637 0.680708528
0.301454782 0.229348451 0.600126565
0.321062386 0.227703825 0.602150559
0.350284576 0.236306250 0.609867215
0.389373600 0.249588847 0.618848741
0.444781512 0.274889290 0.634029150
0.525363505 0.304996729 0.652498424
0.624667823 0.354585558 0.680455208
0.761796117 0.398481786 0.702719569
0.336369157 0.308918536 0.647438228
0.346742123 0.314863980 0.650600910
0.369513035 0.327008128 0.644655228
0.415559769 0.339911401 0.655660868
0.484629989 0.362428367 0.666666746
0.566730201 0.406072170 0.685894966
0.661100686 0.454648852 0.705502808
0.783048630 0.495508969 0.725363612
0.337507665 0.426438928 0.702340186
0.354585677 0.428589702 0.703731418
0.401138604 0.437444478 0.698797941
0.465022177 0.462112695 0.701960564
0.533206761 0.492599815 0.708412230
0.611890972 0.525869429 0.724857450
0.700695455 0.574193537 0.742188632
0.811638117 0.613282681 0.756356537
0.451106906 0.638962328 0.763567030
0.462998360 0.635926545 0.758127451
0.489184201 0.635167420 0.764452875
0.532068372 0.641872168 0.766097069
0.589879453 0.647817910 0.775332034
0.690828562 0.677166224 0.782289803
0.764326274 0.717520416 0.786590815
0.863124609 0.749146163 0.813662231
0.612523556 0.816445231 0.808602214
0.614294648 0.814674139 0.813156366
0.625173628 0.814421475 0.811638296
0.664389551 0.818975627 0.820113957
0.704490840 0.825806439 0.826818585
0.760404348 0.838330269 0.836559355
0.822011471 0.860720634 0.857179046
0.902466595 0.881720543 0.869955540
