Assets/EldamarStudio/100 Retro LUTs Pack/LUTs/cube/Shirley LUT.cube
LUT_3D_SIZE 5
DOMAIN_MIN 0.000000 0.000000 0.000000
DOMAIN_MAX 0.903226 0.903226 0.903226
0.164706007 0.117647000 0.125489995
0.175837994 0.123845711 0.133332998
0.200000003 0.143832996 0.141176000
0.276660264 0.178494990 0.169639125
0.502593458 0.228842661 0.217077985
0.163061291 0.156230003 0.141555697
0.178115278 0.166350290 0.146742716
0.208855286 0.187349692 0.164072990
0.297912717 0.217078000 0.188614860
0.543453455 0.272738814 0.241365969
0.166729569 0.260214984 0.204047978
0.179127410 0.272738814 0.196837410
0.239341989 0.292346358 0.205945417
0.375205517 0.327008396 0.237697542
0.640606999 0.402277052 0.297659546
0.222897127 0.477925390 0.274762988
0.279822946 0.485135943 0.293991148
0.386844069 0.502087116 0.317267418
0.549652219 0.538646400 0.351423264
0.761037290 0.608981669 0.453763485
0.598355353 0.780897915 0.564199388
0.625553548 0.793042481 0.572801769
0.684376717 0.805818558 0.596204996
0.782289743 0.823782325 0.639342427
0.888171554 0.850221395 0.700189590
0.170904279 0.119924292 0.147375286
0.174193695 0.127767280 0.148387000
0.199367419 0.152308583 0.160151586
0.278937548 0.188614711 0.198102266
0.511827707 0.229854539 0.243010670
0.166982710 0.157874703 0.156863004
0.169639707 0.165085703 0.167362422
0.202024013 0.189626575 0.180771694
0.300569117 0.223909110 0.211511850
0.549778402 0.272359699 0.266160816
0.153573588 0.264516085 0.204301119
0.178747714 0.267425805 0.220366985
0.237697691 0.291334659 0.227830708
0.376597106 0.328020275 0.256040275
0.647564888 0.404553920 0.331688792
0.235926539 0.475268692 0.304237843
0.279822946 0.485388815 0.317267239
0.390385956 0.502087116 0.336875409
0.546616077 0.534472108 0.374572963
0.760531068 0.613282800 0.470840931
0.595319092 0.789500475 0.569386423
0.619101405 0.794054627 0.578874290
0.686021268 0.803162396 0.607590318
0.779126883 0.824794412 0.646173298
0.888171554 0.853510380 0.704364240
0.171283990 0.121569000 0.186337575
0.174826294 0.131056279 0.192536280
0.202024415 0.156230420 0.209234834
0.286906689 0.187602997 0.238076985
0.539911151 0.224920988 0.310056806
0.166982710 0.165085286 0.208601981
0.175837994 0.171916410 0.208222717
0.205566302 0.190891996 0.224920988
0.309803694 0.224920988 0.258317411
0.569386125 0.266160399 0.328779072
0.149020001 0.270082384 0.258317381
0.171916410 0.276280671 0.266792983
0.241998821 0.300821960 0.281214803
0.393548131 0.333586216 0.320809662
0.663504422 0.397722811 0.389879793
0.233016819 0.484376967 0.374320239
0.274256796 0.489310414 0.376470536
0.390385777 0.504364252 0.398735106
0.557747960 0.539025843 0.435673654
0.765971065 0.620493174 0.525996149
0.580392063 0.786211610 0.603921115
0.606451571 0.791777313 0.619228303
0.675774992 0.805818617 0.636559010
0.776091158 0.825426579 0.673244715
0.894876420 0.856799543 0.732827365
0.180518985 0.130423859 0.278684258
0.184693128 0.141176000 0.287159830
0.216824695 0.160784006 0.306514680
0.310183227 0.197090134 0.342441112
0.572675407 0.227830529 0.417457074
0.184060872 0.169259995 0.298545122
0.197849542 0.178494558 0.307400256
0.223655820 0.196458116 0.328020543
0.332700700 0.230486691 0.365591407
0.606325030 0.273371577 0.441366106
0.190259412 0.249462113 0.365970969
0.205692276 0.272738814 0.377482653
0.278051645 0.304111362 0.391903818
0.418848634 0.338772655 0.420746684
0.682099879 0.399746776 0.499556959
0.239721507 0.491587371 0.473118216
0.290575385 0.492599815 0.484124243
0.403162241 0.521062553 0.513852119
0.580012381 0.557368517 0.545604289
0.782669008 0.620493412 0.618216038
0.586843669 0.797343433 0.691207767
0.607590139 0.798861325 0.692473054
0.663757324 0.806451142 0.702593029
0.766982734 0.829727888 0.734598219
0.891460776 0.863377392 0.781403720
0.280202448 0.113599181 0.536875248
0.296647757 0.114864022 0.548260689
0.358760417 0.133839443 0.565464556
0.482226551 0.182036877 0.617204428
0.713472307 0.242124796 0.659582555
0.291713864 0.156736031 0.557368517
0.314610869 0.157748148 0.567741871
0.385325670 0.179379866 0.588108480
0.509044945 0.228209987 0.623402834
0.724857450 0.300063342 0.673624158
0.318785191 0.268817216 0.623023391
0.349272460 0.269070119 0.619987249
0.433396399 0.298165798 0.636053205
0.567488790 0.361543357 0.674003839
0.768121421 0.439089179 0.715875506
0.333206713 0.467931628 0.722580910
0.381151140 0.475395381 0.721568823
0.514737308 0.513598800 0.722580492
0.650348067 0.573181391 0.740290761
0.825300574 0.646932065 0.767994702
0.612523556 0.816445231 0.808602214
0.625679970 0.809867382 0.812903285
0.681087911 0.820872962 0.826818585
0.778367996 0.844402492 0.843137622
0.902466595 0.881720543 0.869955540
