Assets/EldamarStudio/100 Retro LUTs Pack/LUTs/cube/Shirley LUT.cube
DOMAIN_MIN 0 0 0
DOMAIN_MAX 1 1 1
LUT_3D_SIZE 32
0.164706007 0.117647000 0.125489995
0.164706007 0.117647000 0.125489995
0.164706007 0.117647000 0.125489995
0.164706007 0.117647000 0.125489995
0.165085450 0.118026547 0.125869542
0.168121055 0.121062934 0.128905937
0.171157315 0.124098673 0.131941676
0.175837994 0.123845711 0.133332998
0.181151092 0.123086996 0.132574096
0.184187487 0.129158989 0.129538476
0.184313998 0.129411995 0.129411995
0.186337739 0.131435737 0.131435737
0.191650644 0.134471640 0.135609999
0.200000003 0.137760997 0.141176000
0.200000003 0.143832996 0.141176000
0.202403814 0.147501811 0.143579811
0.209993988 0.152055994 0.149652198
0.222770557 0.158760414 0.158760414
0.237950981 0.167868033 0.167868033
0.244782001 0.168626994 0.165844351
0.258443981 0.172422469 0.166603252
0.276660264 0.178494990 0.169639125
0.294876963 0.184693471 0.172928497
0.313093007 0.193801105 0.182036906
0.340417564 0.200632572 0.184313998
0.374952614 0.208096310 0.189879984
0.414927125 0.216697991 0.201518074
0.457431853 0.222769991 0.210626453
0.502593458 0.228842661 0.217077985
0.553447306 0.238456964 0.230233938
0.609867156 0.248829991 0.245793596
0.670588017 0.254902005 0.254902005
0.167741612 0.123718992 0.119417995
0.167741612 0.120683387 0.128526390
0.167741612 0.120683387 0.124225385
0.170271933 0.120683387 0.122454390
0.174193844 0.120683387 0.123592839
0.177229449 0.121062934 0.131941557
0.177735388 0.121569000 0.132447615
0.175331995 0.127387673 0.131688714
0.175079092 0.129917711 0.130297378
0.178115487 0.129158989 0.129538476
0.186970130 0.132321119 0.132321119
0.189373881 0.134471878 0.134471878
0.193548396 0.138646394 0.138646394
0.200253040 0.143580034 0.144465432
0.203036398 0.146869391 0.147248775
0.205439597 0.150537595 0.147248775
0.211511806 0.153573811 0.151170388
0.222137973 0.158127993 0.158127993
0.234914586 0.164832443 0.164832428
0.250094980 0.176723391 0.165591389
0.262618750 0.177735388 0.168500990
0.279696375 0.181530610 0.172675520
0.297912598 0.187729120 0.175964862
0.316129386 0.196837500 0.185072526
0.345730662 0.201391682 0.191903621
0.379633307 0.209487975 0.196204960
0.417457461 0.219228327 0.204048395
0.457431853 0.222769991 0.210626453
0.505249560 0.231498823 0.225047812
0.558254123 0.236179829 0.234029144
0.615053713 0.247185573 0.249335587
0.673624396 0.264010400 0.267046005
0.168626994 0.123339772 0.124098770
0.164325997 0.122454390 0.118152842
0.166476771 0.128020227 0.127261221
0.167741612 0.124225393 0.124984384
0.172548994 0.121948451 0.125490457
0.175585061 0.123719223 0.127514064
0.178241774 0.125870004 0.131182775
0.176597059 0.127514288 0.131182775
0.173308089 0.132574096 0.129411995
0.176344484 0.129538476 0.129411995
0.185199127 0.136622116 0.136622116
0.188235000 0.137633994 0.137633994
0.192283228 0.141682506 0.141682506
0.197849229 0.147501737 0.146995738
0.198987871 0.150537640 0.146236643
0.210626200 0.151423201 0.151170224
0.216698200 0.154459193 0.152688414
0.225806564 0.158760414 0.157495424
0.236432791 0.166350245 0.162049234
0.247058585 0.173687786 0.162555233
0.260341704 0.182036772 0.164452970
0.277293146 0.185578644 0.172295988
0.296774238 0.192662507 0.178874210
0.317014813 0.197722912 0.185958102
0.346616268 0.206578285 0.190638781
0.380012631 0.209614307 0.196710765
0.417204410 0.219987288 0.204301298
0.459962189 0.229601309 0.215306997
0.507400334 0.233649597 0.222897038
0.561290264 0.244528741 0.234535426
0.618089914 0.250474602 0.246299744
0.674510002 0.266667008 0.266286999
0.169892162 0.125363842 0.131941989
0.162555009 0.124099001 0.119797543
0.164199620 0.129285395 0.121441931
0.165970847 0.133332998 0.129285157
0.169386089 0.124984384 0.131182984
0.173308104 0.126249224 0.127261221
0.173814148 0.131815150 0.129285157
0.176091447 0.134851441 0.131941989
0.175332159 0.137128159 0.132700890
0.178874478 0.134598479 0.133206829
0.183934286 0.139405295 0.138140127
0.188235000 0.143706322 0.142441168
0.190512002 0.144844681 0.142441168
0.197090060 0.150537878 0.148260832
0.201138318 0.153573751 0.148260579
0.208095789 0.155470997 0.151170164
0.218975022 0.158254027 0.154459193
0.229348391 0.161290422 0.158127993
0.239721820 0.169133216 0.161796212
0.248829812 0.176723704 0.163314000
0.259835303 0.181530833 0.166476905
0.277039975 0.187602833 0.170525163
0.298671842 0.196457505 0.181783646
0.318785906 0.201770902 0.186717004
0.347881109 0.208096132 0.191777125
0.382542640 0.215686306 0.197469980
0.416951180 0.219734058 0.204048052
0.460974306 0.233396441 0.217710435
0.507906377 0.243010834 0.224920988
0.560531139 0.248829961 0.234029040
0.620873034 0.260088623 0.244908422
0.677039981 0.269197017 0.262744993
0.171030998 0.134092003 0.136495993
0.164958715 0.131056383 0.126249447
0.165464550 0.134092450 0.126249462
0.168247551 0.137128383 0.131182984
0.169386089 0.134471536 0.137254998
0.175458863 0.131435931 0.131182998
0.174699679 0.137760773 0.132700682
0.174193710 0.142820716 0.134598166
0.177609444 0.145477548 0.137634441
0.183681443 0.145477548 0.140670061
0.184313998 0.145857006 0.141176000
0.186337739 0.147881269 0.143200263
0.190512002 0.150537908 0.145477548
0.196331039 0.153573513 0.145730510
0.208096281 0.156609878 0.151675999
0.213788748 0.160784304 0.155344814
0.219481081 0.164579093 0.157622010
0.226691559 0.170398131 0.158127993
0.241871983 0.173434526 0.164200008
0.251865894 0.181277812 0.167868197
0.263630539 0.186211258 0.172042921
0.279316694 0.191018090 0.178494990
0.306514531 0.197090089 0.184566990
0.325237274 0.205945462 0.187855646
0.352561533 0.213535547 0.193548098
0.386084318 0.219228074 0.200632215
0.423402637 0.226185620 0.209740520
0.462871760 0.235293999 0.218848899
0.508412302 0.248956352 0.225679994
0.559265852 0.259582520 0.234914511
0.615179777 0.266919613 0.248323590
0.681973457 0.276028007 0.263503999
0.158886999 0.140164003 0.130423993
0.174067378 0.137128383 0.133459613
0.172296092 0.138393223 0.131815061
0.169512942 0.141935229 0.131562218
0.166350499 0.143579930 0.131182998
0.175458863 0.143579930 0.137254998
0.179000676 0.145604312 0.138772681
0.177735716 0.146363154 0.136875004
0.177229896 0.145857096 0.134598151
0.180645049 0.148513943 0.137634456
0.183807924 0.151423067 0.140670061
0.186337739 0.153953269 0.143200263
0.190512002 0.155851007 0.146236643
0.196331039 0.156609908 0.148766905
0.199367419 0.159645528 0.151802525
0.208728880 0.169892669 0.155344814
0.219861135 0.174446866 0.159898996
0.232258275 0.176723853 0.163694009
0.241871983 0.182542890 0.164200023
0.254269719 0.185578570 0.170272008
0.269702911 0.187729061 0.172042936
0.285895079 0.192283258 0.176091179
0.303478897 0.203162864 0.184566990
0.327766925 0.209234878 0.190639004
0.355597615 0.220366940 0.198482230
0.390132546 0.227324605 0.205692858
0.429601133 0.232384861 0.212776884
0.471979380 0.244402379 0.221884504
0.522074461 0.253510743 0.230992883
0.574446201 0.265401870 0.239595205
0.627324045 0.276533902 0.251865923
0.678937018 0.288172007 0.269576013
0.161923006 0.148766324 0.131941676
0.166982740 0.150790706 0.134977937
0.171410352 0.149905324 0.135863319
0.171283841 0.152561486 0.137128159
0.169765994 0.155218005 0.137001678
0.172422603 0.155218005 0.138772681
0.176470995 0.157748327 0.142315000
0.177862316 0.159140006 0.143706322
0.177988991 0.157748327 0.141682416
0.182795838 0.159013495 0.144718811
0.180771545 0.159519449 0.147754446
0.187855929 0.164579317 0.150790587
0.194180965 0.166982993 0.153826684
0.201644644 0.167742029 0.156609684
0.206957743 0.175332218 0.157368585
0.214800507 0.178367838 0.162807986
0.222391054 0.184060678 0.162934870
0.234535396 0.184693262 0.164706007
0.247438058 0.188868016 0.164706022
0.261859417 0.197217286 0.172802329
0.275901407 0.202150643 0.178874314
0.293484986 0.204427510 0.181151181
0.310562670 0.211764663 0.187349692
0.334851325 0.217836678 0.198229328
0.365970582 0.226185963 0.202024028
0.402150273 0.235293984 0.213409334
0.443769485 0.240480751 0.221884996
0.488298476 0.250600994 0.224920854
0.533712387 0.260088831 0.236558825
0.587096751 0.270967960 0.247438416
0.640860140 0.285768598 0.261733294
0.691081285 0.302846313 0.283238322
0.163061291 0.156230003 0.141555697
0.167741612 0.160910681 0.136369392
0.165338010 0.163440987 0.140543997
0.166603178 0.160910994 0.144339159
0.169259995 0.162808165 0.145856872
0.169259995 0.164072990 0.139531717
0.173434600 0.168248028 0.146995321
0.178115278 0.166350290 0.146742716
0.178115278 0.167868480 0.149019614
0.182416275 0.169639707 0.153826773
0.183048844 0.171283990 0.155218124
0.188108534 0.173687696 0.158254266
0.194939926 0.178621054 0.159013361
0.202783287 0.179632992 0.161290005
0.208855286 0.187349692 0.164072990
0.215686187 0.191650897 0.163946718
0.227830186 0.193168700 0.166982710
0.234914854 0.194433689 0.165970996
0.248070762 0.198481962 0.167995006
0.264895380 0.203795359 0.176344365
0.281720430 0.211005986 0.183554992
0.297912717 0.217078000 0.188614860
0.316508174 0.221125677 0.191650510
0.342314810 0.230233699 0.199241102
0.375078976 0.236938268 0.209487706
0.409867018 0.247438326 0.211131990
0.451865822 0.254016399 0.224035367
0.496268302 0.261986136 0.227450997
0.543453455 0.272738814 0.241365969
0.594307005 0.285262644 0.248576701
0.648956418 0.296521306 0.264263481
0.701327980 0.314737707 0.288551718
0.162302002 0.163820192 0.153700098
0.166855991 0.167615086 0.143074095
0.165843993 0.172295764 0.143073991
0.162808076 0.173054993 0.146616071
0.165085465 0.168121547 0.156103909
0.164706007 0.171157256 0.144339070
0.168247998 0.175205633 0.148134097
0.175837994 0.177735776 0.154332712
0.181151092 0.172422081 0.152055994
0.181151092 0.178494871 0.161163613
0.184819862 0.182416126 0.163061097
0.189626828 0.184693158 0.162808269
0.197216645 0.188488558 0.165844455
0.200506002 0.191524163 0.162808061
0.206578001 0.197090089 0.167361990
0.214167997 0.200758904 0.168500900
0.223276183 0.203795090 0.166983098
0.239089131 0.203795090 0.168248087
0.248577088 0.209614098 0.174320102
0.266793221 0.214421451 0.183175251
0.284250379 0.219355091 0.189626992
0.303225994 0.225427091 0.194687054
0.321695000 0.231499091 0.197722673
0.348387033 0.242378101 0.200758904
0.382542670 0.251486093 0.209107995
0.418975413 0.258823216 0.217963085
0.456926167 0.270461977 0.219987080
0.499683827 0.276786983 0.229348436
0.547501564 0.288171977 0.244908139
0.600379407 0.302087158 0.258064300
0.652751148 0.317773700 0.262745112
0.707400024 0.326882094 0.287033916
0.168374002 0.175964981 0.156736493
0.168374002 0.172928587 0.150664508
0.168626994 0.176723495 0.150790721
0.168374002 0.180139005 0.150158003
0.168121070 0.180265561 0.146995530
0.165085465 0.183301955 0.159139529
0.164706007 0.183807984 0.157495320
0.171536982 0.187349990 0.160025492
0.181151092 0.190638870 0.164200008
0.184187487 0.187602490 0.164200008
0.190006480 0.193674520 0.170398489
0.191903993 0.195572019 0.168121502
0.194560483 0.197975814 0.166983008
0.200506002 0.203668952 0.171916440
0.206578001 0.206704572 0.168880060
0.217456996 0.209867314 0.173434600
0.227830186 0.214421496 0.176091477
0.239089146 0.218975499 0.177356482
0.257305950 0.218975514 0.183428496
0.277925849 0.227577850 0.192283139
0.295256197 0.234535500 0.197596252
0.312586665 0.240607500 0.200759128
0.333838999 0.246679485 0.203795448
0.358127832 0.252751499 0.206831068
0.391651064 0.263630509 0.212143987
0.428083807 0.272738457 0.219860658
0.466034561 0.279569596 0.229095474
0.511574924 0.288677961 0.241239473
0.559645593 0.300315976 0.253257632
0.613535523 0.314231157 0.269196928
0.667551994 0.330297172 0.283238471
0.713471949 0.348134488 0.290069520
0.159898877 0.191018134 0.159772128
0.168626994 0.190891609 0.162429005
0.166476771 0.190006003 0.154206231
0.163187876 0.192029998 0.155470997
0.160278335 0.192409545 0.156356543
0.162302077 0.195445940 0.155850887
0.169386446 0.195951998 0.165464550
0.173813999 0.195951998 0.167235836
0.181151092 0.199494004 0.169765905
0.184187487 0.202909380 0.167615131
0.187223136 0.205692738 0.170524999
0.193295121 0.211764738 0.176596999
0.198481768 0.213535741 0.175205648
0.206324995 0.215812951 0.175205827
0.212396994 0.218848586 0.172169447
0.218468994 0.224288613 0.176343858
0.234155178 0.227830678 0.183934316
0.249462157 0.232510984 0.188741416
0.263124973 0.237065002 0.192536131
0.278558373 0.239848360 0.195825487
0.297659993 0.246805996 0.200885609
0.316887885 0.253890127 0.203921735
0.340416998 0.261733353 0.207084119
0.370271802 0.265021980 0.212903097
0.401391268 0.273371279 0.215939283
0.438583106 0.283491522 0.224161848
0.478052080 0.292599648 0.234788060
0.523592412 0.306514412 0.244528860
0.569133461 0.312966645 0.254016668
0.622770369 0.326375455 0.271221161
0.674256802 0.342441201 0.288804859
0.713724971 0.360657990 0.298924863
0.160910994 0.204174519 0.162808269
0.157874614 0.206198245 0.163820401
0.162428766 0.208222508 0.170398742
0.161922842 0.206957340 0.161290348
0.158507288 0.206577793 0.163946822
0.158254325 0.209614187 0.167489186
0.168374315 0.212143987 0.172549188
0.174193710 0.212143987 0.173434511
0.179127157 0.212903082 0.175332159
0.182163224 0.217710242 0.174825758
0.189247385 0.222896859 0.175584853
0.196331516 0.223908991 0.178621262
0.202403516 0.227703989 0.181277618
0.210879266 0.228209987 0.179000735
0.220493242 0.233016834 0.181277573
0.226565242 0.238456339 0.185451984
0.235673234 0.243010938 0.190006182
0.254142553 0.246679246 0.196837574
0.267678708 0.252751261 0.199873552
0.284630358 0.258064359 0.202909350
0.303605735 0.261100739 0.205945730
0.323972255 0.268058389 0.208981872
0.348639727 0.277040243 0.212270498
0.380897820 0.281973600 0.220240250
0.413535774 0.291587532 0.230107278
0.452498138 0.300695896 0.233143672
0.493738115 0.309804171 0.243896320
0.537760675 0.321947783 0.256040692
0.585325420 0.335230649 0.265148550
0.632637262 0.346616149 0.276028126
0.686906874 0.361796081 0.296521574
0.727893233 0.378874242 0.312081248
0.162429005 0.222011641 0.170398638
0.156736255 0.223908901 0.170398638
0.156230137 0.224667758 0.173434779
0.158127844 0.226312459 0.178368464
0.160784006 0.223655641 0.170398638
0.158507302 0.225932926 0.177229926
0.166982993 0.227830321 0.180392355
0.174193710 0.229221642 0.182163358
0.178747892 0.231498733 0.179886445
0.182542518 0.235294133 0.183681160
0.187982231 0.238962635 0.183807641
0.198229253 0.242125288 0.184693262
0.208476007 0.243263632 0.187729359
0.215054005 0.243769631 0.185452059
0.227197990 0.249841630 0.191524282
0.236811981 0.255913645 0.196457639
0.247058630 0.260467827 0.199873194
0.259835184 0.263504237 0.202277005
0.275015622 0.269070268 0.204807326
0.295256376 0.277419269 0.211258635
0.314231724 0.280455381 0.210879087
0.337508112 0.285515517 0.217963472
0.362175614 0.294497371 0.221378639
0.394560188 0.300569624 0.227450907
0.427956820 0.311195642 0.239974633
0.468058228 0.321948290 0.250221312
0.513092756 0.332068592 0.253763646
0.555597484 0.342441171 0.267046422
0.602276862 0.356862456 0.278051794
0.651991963 0.372042805 0.291207761
0.699683428 0.388108820 0.307780147
0.748007298 0.403542280 0.329538643
0.157621965 0.248071000 0.185831994
0.156357005 0.248071000 0.184819996
0.158507228 0.246426299 0.184566960
0.161543041 0.244655073 0.185579032
0.160784006 0.244908035 0.184313998
0.160784006 0.244908035 0.184313998
0.168627352 0.245161071 0.183048710
0.174699709 0.245667070 0.181657031
0.178241894 0.246932089 0.182922050
0.187349513 0.256040514 0.192030445
0.188488036 0.256673038 0.192916036
0.196837515 0.258697301 0.193168998
0.208475992 0.261733383 0.193801418
0.221125990 0.265022039 0.196837023
0.233269989 0.271094024 0.202909797
0.245667025 0.276913077 0.206325203
0.259582251 0.281467199 0.208349004
0.274762571 0.284756571 0.209108040
0.289943010 0.287792981 0.209108055
0.313725680 0.298672050 0.219734043
0.334725022 0.303732038 0.221505031
0.355471134 0.306514949 0.220999151
0.383301467 0.315622568 0.235926509
0.414041817 0.321821839 0.236305997
0.446932286 0.332448035 0.246932313
0.486780316 0.343453646 0.259582639
0.534345150 0.353320956 0.268438041
0.576849878 0.368500590 0.274510026
0.621758461 0.383427888 0.286147982
0.670588136 0.398861200 0.301833987
0.719670773 0.415686190 0.322959751
0.765211999 0.433903009 0.350284964
0.166729569 0.260214984 0.204047978
0.151549965 0.260214984 0.191903979
0.152435228 0.262365758 0.188741222
0.160531163 0.262871832 0.192662910
0.169512853 0.263251275 0.198861867
0.160784006 0.266160399 0.184313998
0.170904636 0.268690705 0.194434002
0.179127410 0.272738814 0.196837410
0.182289898 0.275268734 0.196078315
0.181277514 0.274256468 0.195066065
0.190385878 0.277545840 0.201265320
0.201644674 0.279949665 0.204048157
0.212776989 0.282985747 0.204174638
0.221125990 0.286274403 0.202909797
0.239341989 0.292346358 0.205945417
0.253889769 0.296015203 0.207210585
0.269955784 0.299683630 0.210878998
0.286907256 0.303351969 0.216318563
0.302087009 0.309044540 0.224288419
0.328399360 0.314864278 0.229854405
0.353194028 0.322201401 0.237191409
0.375205517 0.327008396 0.237697542
0.398481876 0.333839327 0.238962889
0.437950343 0.342947721 0.248070508
0.473244548 0.353700399 0.253004551
0.511827707 0.365844369 0.263757378
0.555597544 0.377355963 0.274763048
0.598102212 0.389752924 0.283618391
0.640606999 0.402277052 0.297659546
0.687286258 0.418595761 0.313978404
0.732953608 0.438835949 0.335736781
0.771283984 0.464262962 0.365464568
0.166223809 0.279569775 0.207843006
0.163061380 0.284376770 0.202909812
0.154332995 0.282226533 0.201518029
0.157874808 0.283491790 0.201517969
0.167362452 0.283491790 0.207210898
0.162302077 0.284503669 0.194054261
0.175711632 0.287539303 0.201644808
0.179633275 0.292219996 0.207210809
0.183428183 0.296774000 0.207210809
0.185325503 0.295382291 0.205819115
0.193927869 0.298165649 0.206704736
0.207084239 0.301201522 0.212776989
0.222264647 0.304237843 0.215053797
0.232890829 0.307273805 0.213535994
0.248956576 0.311195582 0.214421377
0.264768779 0.317267597 0.219860792
0.279949158 0.318785787 0.222896785
0.297912747 0.323466182 0.229601368
0.316634864 0.334851414 0.238709763
0.338140160 0.338519692 0.242630988
0.365464509 0.344591975 0.244907990
0.393295377 0.351676136 0.249968261
0.420620054 0.359139770 0.251613259
0.455534548 0.365970880 0.260720909
0.490448892 0.377355993 0.269829094
0.529538035 0.389500320 0.277419627
0.572042942 0.401644588 0.288045704
0.614547610 0.413788587 0.297153622
0.659456134 0.428336442 0.311574936
0.700189650 0.442251951 0.326754957
0.745983303 0.462492138 0.348766565
0.786970019 0.489816576 0.380644798
0.161670014 0.303858191 0.210878998
0.161670014 0.308412373 0.215433568
0.164958805 0.306514949 0.209108219
0.162681967 0.307274193 0.213408992
0.168121547 0.308159620 0.217077896
0.167362437 0.309297979 0.211764693
0.174446449 0.310309857 0.209234640
0.187223479 0.311954170 0.216318801
0.186464190 0.316508174 0.217077896
0.192536190 0.316508174 0.217836991
0.201518074 0.320935875 0.217836991
0.216192245 0.325490296 0.220367193
0.230233982 0.327387571 0.225300550
0.245034829 0.329791397 0.225933030
0.260215223 0.331562608 0.227198184
0.273877561 0.338519961 0.230486989
0.290575355 0.344592005 0.235041186
0.307653129 0.345857143 0.241113186
0.329790980 0.358381182 0.249335960
0.352561563 0.363947034 0.254395843
0.380644917 0.370398194 0.258570194
0.411005437 0.376470447 0.261606336
0.444655478 0.385199368 0.268184990
0.475268900 0.394054383 0.275901288
0.511701643 0.403162569 0.283491284
0.546489358 0.415306538 0.291207999
0.587729096 0.427451193 0.301707923
0.628209829 0.439595193 0.313851923
0.674889266 0.455914199 0.328273207
0.716888249 0.469576359 0.346489549
0.755471349 0.487413138 0.365211934
0.799114406 0.514104962 0.397343397
0.160025567 0.331182539 0.218848556
0.159392983 0.334218949 0.229095757
0.162681818 0.330803543 0.225300595
0.171789736 0.330423981 0.221378550
0.174826026 0.335357547 0.225932568
0.177862346 0.337887198 0.230993286
0.181530669 0.339025527 0.226945236
0.187855691 0.339025527 0.223149851
0.196837559 0.340290695 0.226818085
0.202909559 0.340290695 0.229854479
0.212523863 0.344212145 0.229980990
0.227704123 0.350284487 0.232005253
0.243010551 0.355344981 0.235673919
0.255660623 0.355850965 0.238709599
0.271220565 0.356609970 0.241745979
0.287160128 0.361922741 0.244781762
0.301708102 0.369512707 0.247817755
0.319924086 0.375584692 0.251486540
0.344212174 0.381657481 0.257558554
0.368500859 0.387729555 0.262365580
0.399114281 0.395066381 0.269070148
0.431625396 0.403794795 0.274889141
0.468184620 0.409994006 0.283870995
0.497533053 0.421631992 0.289942980
0.532700777 0.431499273 0.297279954
0.572043061 0.443264097 0.305249542
0.607969165 0.455408126 0.312333703
0.644275367 0.467552125 0.330297470
0.689436734 0.485009611 0.347754776
0.732068121 0.500316501 0.367109716
0.770651579 0.514737487 0.389500529
0.807084382 0.539025545 0.416824967
0.175205976 0.358507007 0.234028995
0.172169596 0.361543417 0.237065375
0.167236030 0.358128011 0.234409019
0.171284154 0.358380854 0.234155789
0.183934435 0.365717620 0.241112992
0.186970055 0.362681985 0.235040992
0.192536056 0.365211695 0.237571388
0.199999735 0.366350025 0.236306280
0.209108129 0.367868215 0.236052990
0.218089998 0.373687983 0.241998523
0.229981005 0.370778114 0.242125034
0.245920539 0.374572992 0.244149297
0.260721326 0.380645066 0.248324037
0.270841062 0.386211038 0.253890038
0.289057791 0.392283022 0.256926417
0.314231753 0.393042058 0.259962201
0.334219187 0.396837384 0.262998194
0.350284934 0.402909935 0.266667008
0.368501008 0.408981949 0.272738993
0.392789692 0.415054023 0.273245007
0.424667954 0.421126008 0.279443741
0.457811415 0.428463131 0.286274850
0.486401439 0.437318474 0.289943010
0.525869906 0.446426123 0.296014994
0.559772313 0.455787361 0.306641012
0.597849309 0.469070375 0.319670677
0.638330042 0.485768944 0.333586127
0.671726346 0.497912973 0.345730901
0.710689425 0.515369952 0.369006962
0.749146283 0.531815231 0.392536402
0.785831928 0.547627985 0.416571975
0.822264016 0.566350043 0.441113025
0.190385655 0.402530104 0.251992702
0.190132618 0.402783126 0.252245754
0.191397786 0.401517957 0.253131360
0.191018552 0.399873555 0.252119213
0.199367821 0.404807091 0.257431895
0.207210422 0.404174656 0.258570731
0.212776363 0.406198412 0.255028397
0.222137779 0.405945450 0.257558733
0.232384622 0.406325102 0.259076715
0.241492495 0.412397385 0.265148729
0.261859387 0.412523896 0.259835720
0.271979630 0.415559739 0.263883710
0.287919015 0.420493364 0.267678738
0.302466393 0.424668044 0.271853030
0.318152815 0.428209752 0.274889439
0.338772774 0.434281737 0.277925819
0.362302214 0.435040742 0.283997506
0.382542551 0.437950611 0.289563596
0.407210410 0.441872358 0.293485403
0.425427109 0.450727761 0.299557358
0.453510851 0.456799746 0.301454604
0.488172084 0.463883877 0.309803903
0.521062553 0.473118722 0.318279743
0.555218637 0.484883189 0.324351728
0.590133011 0.491714090 0.334977746
0.622138023 0.503099382 0.347121716
0.657558799 0.519418418 0.360910445
0.690955102 0.533839703 0.375331908
0.724351466 0.548639834 0.395445794
0.765338361 0.564958572 0.416065753
0.803795218 0.582795620 0.439215958
0.840227723 0.604807079 0.465401739
0.203668475 0.440480739 0.262618989
0.215053469 0.442378461 0.275901705
0.217204243 0.440227687 0.272106737
0.216445476 0.439721644 0.265781581
0.219102189 0.442757905 0.266540289
0.231245786 0.444275707 0.275648654
0.239721462 0.444908142 0.277419418
0.247438163 0.444655180 0.272738755
0.259329706 0.443137378 0.275775015
0.269575983 0.448070735 0.281847000
0.288424581 0.452118725 0.283870965
0.305375963 0.454269469 0.282099992
0.316761374 0.458064467 0.288172007
0.334218532 0.460594743 0.291966766
0.351043612 0.465275019 0.295003146
0.371030986 0.468817174 0.298039049
0.392283380 0.473371029 0.302593619
0.413535774 0.475648046 0.311954439
0.438330233 0.481214434 0.318785697
0.461100429 0.486021310 0.315117002
0.486907184 0.495129704 0.323086709
0.515243709 0.500189841 0.328146607
0.547754228 0.507527173 0.339405715
0.577608943 0.517899990 0.349019736
0.611006021 0.525490463 0.361543477
