Assets/EldamarStudio/100 Retro LUTs Pack/LUTs/cube/Stephanie LUT.cube
LUT_3D_SIZE 5
DOMAIN_MIN 0.000000 0.000000 0.000000
DOMAIN_MAX 0.903226 0.903226 0.903226
0.129411995 0.129411995 0.129411995
0.249082983 0.145098001 0.145098001
0.417836398 0.167361990 0.160151586
0.671853125 0.202023998 0.194180995
0.901074946 0.261606663 0.252498806
0.174193710 0.260214984 0.170271710
0.274256676 0.268058419 0.174193695
0.460721105 0.285389125 0.191523999
0.690196157 0.308665574 0.212523982
0.909930468 0.349525690 0.271726847
0.271979988 0.490955412 0.215053573
0.368500680 0.507400393 0.228842825
0.541429758 0.515243828 0.244528994
0.726755142 0.511954427 0.273624152
0.923339665 0.536242783 0.342820793
0.386464238 0.722833335 0.323718995
0.461606413 0.735863090 0.343326986
0.590765536 0.734598100 0.359392703
0.761037230 0.733586252 0.377735376
0.945856929 0.742820978 0.457558692
0.596584618 0.929790795 0.552055657
0.633775890 0.940923631 0.576596916
0.714737356 0.936875343 0.584060371
0.832637608 0.933965445 0.606578112
0.966350615 0.933585942 0.651612759
0.139531717 0.131688714 0.215685993
0.241871983 0.148387000 0.223908693
0.421758413 0.176850110 0.240607411
0.664389849 0.206578001 0.267805547
0.890701711 0.262618542 0.311954528
0.185325697 0.253004402 0.242884681
0.269702703 0.262491673 0.242884696
0.454775542 0.283744395 0.264136821
0.676407158 0.308285713 0.290575713
0.894244015 0.353447109 0.332447857
0.256546706 0.479822993 0.282732278
0.345477253 0.493991107 0.288298428
0.522454023 0.500189424 0.304364264
0.711701572 0.501454830 0.332447678
0.909930468 0.530044079 0.386211276
0.391018242 0.711321950 0.373434395
0.447565138 0.722454011 0.381530702
0.585831523 0.721441686 0.401518017
0.753826797 0.720176697 0.418849111
0.926628768 0.737254679 0.482099831
0.590638757 0.923845649 0.571157575
0.626059651 0.929411709 0.587096870
0.703605235 0.929791212 0.596837342
0.825553358 0.926501811 0.618469357
0.963440716 0.931055963 0.664009929
0.152308583 0.151675999 0.357115805
0.245541111 0.157495007 0.360277981
0.425047785 0.175838411 0.383174986
0.658823550 0.197090134 0.413282812
0.881467640 0.253763795 0.444022536
0.181024581 0.254016280 0.382542789
0.278178275 0.260214984 0.392663091
0.460974395 0.274256706 0.406704813
0.668564558 0.295888692 0.424920976
0.886654198 0.347248554 0.461100638
0.246426418 0.469449818 0.424288392
0.336369693 0.480582207 0.439089119
0.515876412 0.488425374 0.449209362
0.700316250 0.497280240 0.457684994
0.895129383 0.531688511 0.500316381
0.389374137 0.702972829 0.501960933
0.453004420 0.714990139 0.509044707
0.584187150 0.712334096 0.513598680
0.747375250 0.719924271 0.529664814
0.923339784 0.739278674 0.582795620
0.572928786 0.919291794 0.629095614
0.610499501 0.923592508 0.647059083
0.687160194 0.923212767 0.648703635
0.817963362 0.925490081 0.669702768
0.960531175 0.935737014 0.705123603
0.162808001 0.154964998 0.554332376
0.270335704 0.159772143 0.567995131
0.450853944 0.170904279 0.582036674
0.662112415 0.195066139 0.603289127
0.886653781 0.254522800 0.615686297
0.179000586 0.248450413 0.587855816
0.281720400 0.259582579 0.594054461
0.467172533 0.270968109 0.597975731
0.682985544 0.291587412 0.606198847
0.890322506 0.349904984 0.627198040
0.243136987 0.463503987 0.622137725
0.329411566 0.475648522 0.630613267
0.509044528 0.479570091 0.630360663
0.707779706 0.498924404 0.631372571
0.898798108 0.531941533 0.655534565
0.391398132 0.710056961 0.652245104
0.451106995 0.713978291 0.668817282
0.579000711 0.715623140 0.672486126
0.741429269 0.717014432 0.676786959
0.923971772 0.732321441 0.706767797
0.577482641 0.918026805 0.749146104
0.611384928 0.923213243 0.748766601
0.680329084 0.923212767 0.753320754
0.804047883 0.925869823 0.758254051
0.954838634 0.932447612 0.782415926
0.180391997 0.154332995 0.817457438
0.286147863 0.154206172 0.812903166
0.478684634 0.158886582 0.813535750
0.693485141 0.184060693 0.822770417
0.922074676 0.252498806 0.835799932
0.154459313 0.250727713 0.812903166
0.278810859 0.250727713 0.820113599
0.475395381 0.261479855 0.820113778
0.697153807 0.288298428 0.827577531
0.922706962 0.342061967 0.839342296
0.122327566 0.447184980 0.829854190
0.274509996 0.450095117 0.833522856
0.492346585 0.463630527 0.835673630
0.713092685 0.485515535 0.841619313
0.927260995 0.521189332 0.849462211
0.352435261 0.708791971 0.855028450
0.411005527 0.711448371 0.854395926
0.542061806 0.704870284 0.858317435
0.726122558 0.702593267 0.863503873
0.931815326 0.732701123 0.868184745
0.555850804 0.928525925 0.878684640
0.591903806 0.930170715 0.889057696
0.676913321 0.925869584 0.892599344
0.803035796 0.926881671 0.897153616
0.948007762 0.931055963 0.915496767
