Assets/EldamarStudio/100 Retro LUTs Pack/LUTs/cube/Stephanie LUT.cube
LUT_3D_SIZE 8
DOMAIN_MIN 0.000000 0.000000 0.000000
DOMAIN_MAX 0.903226 0.903226 0.903226
0.129411995 0.129411995 0.129411995
0.190132543 0.133712545 0.133712545
0.267299175 0.145098001 0.146615997
0.365970999 0.158001363 0.154079646
0.484882981 0.171663374 0.170145184
0.634408474 0.195951998 0.196205005
0.766223848 0.222517282 0.213029996
0.901074946 0.261606663 0.252498806
0.156863004 0.190512091 0.145098001
0.205819458 0.190891549 0.153320551
0.275142193 0.201897547 0.160784006
0.367109627 0.203415647 0.162681639
0.486780703 0.217963085 0.177230000
0.621631742 0.235547349 0.192916006
0.753700256 0.257811546 0.215053737
0.884376884 0.281088263 0.247564688
0.181784093 0.282985181 0.175584987
0.230487093 0.285262108 0.169765636
0.299304217 0.293106109 0.177988991
0.405439615 0.298165739 0.186970353
0.526502192 0.318153083 0.198355287
0.655787468 0.326375842 0.217837080
0.777988315 0.346363008 0.241365999
0.905376375 0.373307824 0.275268734
0.230993271 0.410499930 0.200632289
0.265401363 0.416065902 0.208096445
0.348007828 0.422390819 0.209993988
0.451866269 0.429474920 0.217457637
0.559392869 0.439468265 0.224035174
0.666034043 0.441872299 0.244275987
0.781404197 0.446805894 0.265148640
0.897659421 0.463124454 0.302213788
0.289310992 0.554838598 0.227198184
0.327261537 0.566223741 0.242631435
0.393421978 0.568121374 0.243769795
0.485388815 0.568121374 0.253004193
0.597090185 0.570525169 0.269703001
0.703352749 0.566603184 0.282352746
0.807210445 0.569006979 0.309424460
0.920050442 0.582542539 0.350284457
0.380391985 0.713724971 0.317647010
0.407843202 0.718279481 0.318785548
0.463124484 0.717140973 0.330676973
0.543959320 0.709298015 0.332827479
0.638836384 0.709298015 0.344338924
0.734724700 0.709297955 0.358507246
0.839088798 0.703352749 0.386464298
0.942567647 0.714484394 0.441619456
0.458444268 0.808728278 0.396964282
0.480581820 0.816571832 0.407590091
0.528273344 0.816571832 0.416571856
0.588488281 0.818216562 0.423782289
0.662871778 0.811764657 0.434534997
0.750790238 0.808096230 0.445288032
0.845287800 0.811005533 0.464895844
0.935736537 0.810499728 0.512460709
0.596584618 0.929790795 0.552055657
0.622391105 0.938140512 0.570778072
0.647185028 0.939405680 0.580897927
0.691081643 0.939026177 0.583301365
0.748007655 0.936242759 0.588741601
0.812144399 0.935483694 0.602276981
0.888298750 0.934977651 0.620746613
0.966350615 0.933585942 0.651612759
0.133712545 0.133332998 0.174825996
0.189753085 0.137634456 0.177988991
0.263757437 0.154079556 0.182669088
0.359646082 0.167362556 0.192789197
0.480202377 0.184693456 0.204553992
0.625047266 0.206198812 0.229728192
0.750916839 0.223023251 0.243390247
0.882858574 0.254522651 0.268311232
0.161543012 0.186970547 0.178368449
0.198355094 0.194433987 0.185831994
0.268817067 0.195951998 0.187350005
0.366730005 0.211258650 0.199114189
0.475901544 0.221884996 0.209361210
0.604427576 0.237444997 0.229348540
0.733333528 0.255787730 0.240480796
0.861353755 0.279443264 0.268564552
0.192536458 0.274257004 0.195192993
0.227703735 0.282100111 0.200632185
0.298545092 0.286780208 0.208475992
0.394054264 0.297786176 0.222264439
0.512713611 0.313851833 0.233143628
0.636179447 0.323592454 0.242504537
0.759898722 0.339658558 0.261353731
0.891840696 0.363946617 0.290955096
0.232637182 0.397216827 0.220114186
0.268690974 0.402782798 0.227957189
0.333586276 0.406704843 0.228336632
0.432510912 0.411005437 0.240481079
0.541429222 0.420113921 0.252245367
0.650348127 0.428083628 0.266666830
0.768500805 0.436685830 0.287413180
0.883112073 0.457052618 0.314610869
0.282859176 0.533586383 0.262745082
0.317773700 0.542188406 0.264136910
0.385578990 0.548892736 0.261353552
0.474130303 0.554458916 0.276660204
0.578621030 0.554838419 0.280961633
0.687665761 0.553953409 0.296141893
0.793042362 0.557494998 0.321062386
0.905123413 0.572802126 0.368500829
0.369260013 0.696015179 0.328020543
0.393801332 0.694750011 0.332574517
0.454901904 0.698544979 0.335357308
0.527007937 0.699051261 0.343833208
0.628842592 0.700189769 0.357621521
0.725616515 0.698292077 0.368500829
0.824415267 0.696141779 0.387856007
0.925742984 0.709297717 0.447691441
0.438203841 0.791903973 0.395951807
0.469070226 0.797849298 0.409993559
0.506009042 0.800379574 0.413156033
0.575458646 0.801264942 0.422770381
0.654269278 0.801644266 0.437697470
0.740417242 0.801391780 0.448956311
0.836558819 0.805945814 0.472991854
0.924604654 0.813662231 0.506388307
0.589121044 0.923592508 0.545098126
0.616824806 0.934092343 0.570651591
0.638203621 0.934851229 0.574826241
0.685768664 0.927893639 0.584439933
0.738772571 0.931056261 0.592662811
0.809361339 0.930676520 0.604933739
0.881214738 0.927893639 0.618975639
0.961543381 0.932067990 0.647058785
0.139532089 0.130929992 0.220999092
0.178368449 0.141176105 0.227703646
0.256293088 0.154459000 0.242125094
0.363187641 0.169006541 0.252372086
0.491208196 0.181910187 0.266413987
0.622390747 0.196457744 0.279949099
0.756989181 0.227324471 0.298671991
0.885388911 0.260847569 0.328905672
0.158760443 0.193295449 0.231625542
0.199493647 0.190512106 0.237065539
0.271980017 0.198734641 0.248070657
0.373434514 0.210120097 0.255154639
0.482985646 0.222264439 0.267678738
0.613156199 0.238330185 0.282226086
0.735990047 0.257432014 0.298039466
0.870967805 0.285515428 0.325616539
0.191397905 0.274257004 0.261859983
0.229728088 0.280582011 0.264516562
0.299304217 0.286021203 0.267173111
0.399999827 0.297406644 0.276280642
0.516382098 0.309551001 0.290829003
0.643010736 0.322960109 0.304490745
0.762302279 0.340164244 0.318279177
0.890448749 0.369386375 0.345856816
0.223276287 0.395698816 0.278811097
0.258823633 0.400126338 0.284756631
0.333206713 0.409993708 0.292979211
0.433396906 0.413029820 0.293611377
0.541556001 0.419734478 0.310942262
0.651992321 0.429601520 0.322707176
0.766097486 0.441365987 0.338772625
0.886653721 0.462491810 0.366730005
0.275016069 0.530423403 0.307147175
0.312586963 0.541556060 0.312080741
0.385705262 0.545477390 0.324478298
0.470209092 0.546995163 0.323212922
0.575205266 0.553320408 0.333080173
0.683744729 0.553194404 0.348640174
0.790765405 0.558760345 0.376850188
0.900062919 0.576976538 0.413282722
0.374319732 0.690828681 0.381025016
0.397849351 0.690448999 0.384440452
0.456419826 0.689563453 0.386084586
0.529791296 0.693105757 0.396963745
0.625047565 0.691587746 0.399620384
0.722200871 0.689563513 0.414800733
0.824035585 0.689943016 0.435926735
0.920050502 0.706641495 0.478557885
0.439468265 0.789247334 0.431499392
0.468184710 0.796710849 0.444908082
0.513219416 0.793801367 0.451992601
0.572043002 0.795698881 0.460215122
0.649335742 0.800885379 0.468184471
0.740038037 0.798482120 0.482732743
0.831372440 0.806325257 0.503478467
0.931562304 0.813029706 0.543073833
0.588108718 0.919291615 0.577482760
0.601897597 0.924731076 0.586969972
0.626565695 0.929158688 0.588614702
0.677672327 0.927134633 0.598608136
0.734598279 0.927134633 0.606198609
0.803035855 0.921947777 0.615433514
0.876407146 0.927513957 0.635926545
0.960910618 0.931815028 0.667299390
0.149020001 0.139532000 0.309297651
0.188994184 0.146616101 0.309551001
0.259835541 0.158381000 0.319671094
0.367109627 0.169765636 0.334598273
0.501454949 0.185452357 0.358127981
0.633776188 0.194813356 0.365211964
0.760530889 0.217457339 0.379379988
0.889563620 0.261985809 0.404174477
0.164199650 0.187349901 0.316255540
0.206198916 0.194434002 0.319417745
0.269576192 0.201517999 0.322074294
0.371789724 0.209740549 0.337381631
0.490828753 0.221125990 0.353447199
0.617457449 0.231625631 0.357621700
0.750663996 0.251992434 0.375585079
0.875775099 0.283111840 0.395825207
0.194939554 0.275901109 0.339279085
0.225047082 0.278557658 0.342061728
0.306515098 0.290069789 0.360151619
0.407083839 0.297406644 0.359646082
0.522707164 0.305629283 0.370651275
0.647438228 0.320556283 0.372928381
0.769133508 0.340543807 0.393295288
0.888551533 0.376091182 0.423023462
0.229221627 0.401391625 0.368880272
0.265275538 0.399367273 0.371663690
0.330550194 0.412017286 0.375964284
0.436179549 0.417077929 0.380645305
0.542062163 0.421379089 0.387349635
0.658064365 0.429222286 0.393928289
0.770777822 0.446805894 0.412650287
0.889816761 0.465654463 0.440986454
0.270335197 0.533586383 0.392283648
0.307147264 0.545477271 0.401265055
0.383302093 0.551802337 0.407590210
0.475268841 0.552940726 0.406704396
0.580265820 0.552940726 0.412903279
0.685895205 0.556103587 0.427071184
0.788361669 0.566603184 0.451612711
0.903225780 0.586084664 0.482732475
0.376723737 0.686780393 0.457431734
0.406072110 0.690575361 0.458570272
0.458190918 0.693990707 0.461859614
0.536116302 0.694370329 0.469323277
0.624288619 0.692852259 0.474889398
0.724604726 0.695635736 0.483870834
0.816951215 0.694370389 0.499810278
0.920809627 0.710309684 0.544085801
0.446679294 0.790765285 0.502214015
0.477166355 0.799494088 0.508539081
0.514737308 0.798228800 0.510436654
0.574446261 0.800885260 0.517900288
0.655914068 0.797723234 0.529158652
0.742062092 0.801644385 0.538899362
0.836179554 0.807083964 0.558886647
0.927134335 0.812650263 0.584946454
0.581656992 0.919418156 0.612270594
0.597216785 0.922454059 0.621631861
0.632763743 0.927767098 0.634155691
0.674383461 0.927387595 0.631372631
0.728273213 0.925996006 0.635673821
0.800632477 0.925490081 0.653130710
0.880455732 0.927766979 0.669070005
0.959519088 0.933839023 0.694370568
0.155976996 0.154459193 0.404933572
0.197975546 0.150917351 0.404680550
0.273624212 0.160784006 0.412144393
0.377988636 0.169765636 0.426438898
0.501454949 0.177988797 0.446552992
0.632511199 0.193674803 0.471473664
0.759392560 0.215559706 0.479696184
0.888298392 0.260341823 0.497280359
0.167109102 0.197596103 0.411385208
0.206451744 0.199620560 0.414294362
0.285262167 0.203036100 0.424161732
0.383554816 0.206957906 0.430866390
0.492979020 0.216445193 0.443769753
0.619987071 0.228842467 0.458317369
0.750537276 0.248829842 0.474256933
0.881720245 0.283111840 0.484629959
0.189626902 0.279949188 0.440354288
0.230107635 0.282479465 0.452878177
0.308791906 0.288425028 0.452119082
0.408601910 0.292347014 0.457178831
0.530550301 0.302467078 0.467805296
0.649589121 0.317394108 0.474763215
0.767868340 0.339279115 0.484250188
0.891966999 0.375964671 0.509171307
0.224541634 0.401771277 0.465022266
0.264137000 0.403794855 0.473497689
0.334472179 0.406451285 0.472612053
0.440227479 0.409993708 0.473371029
0.547501385 0.418216288 0.480455816
0.655661166 0.429854244 0.489816636
0.769006908 0.447185457 0.506008983
0.887666225 0.471347243 0.523592830
0.277545989 0.535231173 0.492093176
0.314737529 0.548640192 0.504996836
0.385578990 0.551802218 0.506262004
0.476407200 0.551802158 0.503225982
0.586211145 0.554838598 0.511701167
0.679443240 0.558760166 0.519923747
0.785958350 0.565844417 0.531941712
0.901834369 0.586211205 0.557115853
0.390512198 0.685262263 0.543832958
0.416318983 0.686654091 0.548260629
0.464769095 0.690069735 0.546869040
0.539278984 0.690069556 0.552940905
0.622391164 0.688045263 0.554458916
0.718279541 0.693990946 0.562808394
0.817710161 0.697533011 0.581024885
0.922833800 0.709930360 0.609108150
0.460847467 0.793928087 0.573561192
0.485136092 0.798608482 0.590133190
0.522833526 0.801771283 0.585452318
0.574320018 0.800505817 0.585578799
0.651992381 0.806451559 0.598608315
0.741429508 0.803542018 0.602403462
0.838456571 0.810879409 0.617963195
0.930929542 0.819987416 0.642884135
0.567235947 0.923212945 0.659329832
0.588741004 0.926628590 0.670588195
0.616318643 0.929411411 0.676786721
0.665401399 0.927893400 0.676154315
0.723718941 0.928019941 0.680455804
0.795572102 0.929158747 0.694117427
0.877166271 0.927513838 0.705629110
0.961163759 0.932194591 0.726881802
0.162808269 0.152941003 0.520936012
0.209740549 0.158380806 0.526249290
0.288298488 0.160025105 0.530550241
0.390385628 0.165844351 0.542314708
0.507147610 0.174573258 0.556103468
0.630739987 0.190006256 0.569892764
0.755977511 0.210879296 0.579126954
0.883364856 0.254522562 0.589120626
0.170524731 0.192536354 0.516761482
0.211258739 0.194307089 0.520177305
0.289943188 0.200379357 0.531815290
0.387349755 0.200632289 0.539152145
0.496521384 0.208855450 0.550664246
0.624667704 0.223402798 0.561543286
0.753700197 0.243643284 0.570398271
0.878178537 0.278431445 0.583681226
0.179000631 0.274762750 0.556483090
0.223276272 0.277419180 0.552814543
0.301960737 0.279316843 0.557115793
0.410120040 0.289943218 0.562049210
0.526755095 0.296521336 0.564705551
0.644275725 0.309044838 0.578874409
0.766097307 0.334851563 0.584060729
0.888045549 0.369639188 0.601897478
0.215559900 0.394687265 0.565970898
0.251865834 0.396205097 0.577988446
0.324604541 0.395825624 0.575079143
0.430613369 0.401644379 0.576976478
0.544718683 0.412776470 0.584187329
0.660974264 0.420999616 0.588614702
0.767235875 0.442504555 0.597723067
0.887792349 0.467805207 0.610373318
0.271853387 0.533333182 0.598608196
0.314863980 0.532953858 0.601391435
0.381530285 0.536115885 0.600759149
0.466919482 0.537381411 0.602782905
0.573940635 0.542062163 0.609866977
0.680076182 0.553826571 0.610752881
0.786843538 0.563693762 0.622517526
0.899556994 0.589500070 0.643263578
0.376217484 0.683744729 0.630993009
0.405060083 0.686021566 0.638709486
0.462492079 0.684376836 0.642504513
0.529411733 0.684503615 0.642125249
0.612396896 0.680835009 0.636559248
0.713092983 0.681594014 0.644402206
0.812523723 0.689943016 0.658950031
0.918406010 0.701960564 0.680455625
0.461226821 0.787476540 0.649589002
0.479696751 0.787729263 0.655154824
0.515496314 0.797216773 0.663124979
0.572549164 0.796457887 0.667046130
0.647691429 0.798861504 0.670208931
0.734977722 0.804680288 0.676154256
0.834408581 0.808981717 0.687666059
0.935483634 0.816318631 0.712586522
0.579000711 0.915243626 0.734218538
0.588108540 0.924098432 0.735104501
0.614168048 0.921188831 0.734092474
0.653763473 0.922706902 0.733965755
0.706514716 0.923086464 0.729032099
0.785578668 0.926628709 0.742314756
0.868184626 0.929411292 0.754838824
0.957368731 0.933712780 0.771283746
0.174193710 0.157495007 0.664263308
0.221884996 0.156863004 0.664009809
0.301707804 0.159266204 0.666666627
0.403541982 0.162428722 0.670967877
0.520177186 0.169512808 0.676786780
0.638330042 0.178368255 0.678431571
0.770145237 0.200632572 0.697279990
0.887666225 0.252498806 0.694623709
0.170778185 0.190765545 0.664389551
0.216951549 0.195951790 0.652625263
0.298924834 0.196457848 0.662618518
0.402403623 0.199114189 0.665401936
0.516129076 0.205439910 0.674003899
0.637444913 0.221884802 0.681214511
0.762555242 0.237444997 0.686148047
0.873497844 0.276280820 0.690195978
0.167235717 0.275268883 0.673877418
0.215686291 0.273624271 0.674003780
0.302593380 0.279063791 0.676786721
0.411385179 0.280961454 0.682605922
0.531309187 0.289943218 0.690196037
0.655408025 0.303225815 0.698418736
0.778494716 0.323466361 0.705755770
0.890448749 0.369386345 0.705376208
0.180391997 0.384566277 0.686147988
0.222644180 0.385325372 0.682732463
0.314484745 0.388108730 0.688298583
0.421505272 0.393548608 0.694623530
0.543074131 0.403415352 0.699304104
0.665022194 0.415939301 0.701834261
0.782542527 0.429980993 0.709171176
0.888298631 0.462365597 0.711448431
0.250095189 0.526502192 0.701075315
0.279696256 0.527261138 0.704364359
0.354965270 0.530423582 0.709550619
0.444781661 0.530170739 0.708286166
0.561796308 0.533586442 0.712966323
0.682606161 0.541049898 0.716635048
0.797596276 0.559519291 0.720177174
0.896900594 0.580139101 0.727514088
0.354079753 0.675901771 0.734471798
0.385325730 0.679443240 0.735863566
0.433522999 0.677925348 0.734724879
0.507906258 0.679063678 0.741176367
0.600632429 0.676533818 0.736749053
0.701960504 0.679063678 0.741555810
0.814168453 0.689184010 0.751423001
0.914737821 0.704743743 0.758380711
0.445667595 0.793674827 0.751549542
0.463883370 0.794307292 0.744718552
0.506135046 0.798355520 0.750537276
0.567236006 0.796964288 0.757874966
0.634535372 0.799241006 0.761543334
0.729158938 0.799241006 0.759645998
0.837444842 0.803162515 0.769513249
0.925742805 0.812270761 0.782416523
0.567109585 0.912839949 0.795698583
0.579759777 0.916634917 0.795698881
0.606451571 0.914863706 0.800252855
0.655787647 0.920556426 0.803668439
0.712081075 0.920683086 0.808349192
0.781151235 0.921947777 0.812144041
0.863503993 0.928146541 0.822264314
0.957874835 0.930170357 0.842631459
0.180391997 0.154332995 0.817457438
0.223529384 0.150664300 0.812523365
0.310689360 0.156230107 0.812902868
0.420746475 0.154079646 0.814800620
0.542061985 0.163819999 0.821378767
0.661606729 0.180012643 0.826565623
0.793674827 0.209107995 0.831119657
0.922074676 0.252498806 0.835799932
0.165338174 0.192409828 0.808222294
0.211005718 0.192409828 0.805565953
0.305376351 0.190512091 0.810119927
0.417710483 0.195698842 0.809740782
0.534724832 0.203162715 0.816318810
0.660594285 0.216698542 0.818216324
0.787096977 0.237444997 0.815939188
0.917393863 0.278431535 0.832005203
0.146362931 0.271473825 0.816698015
0.203288823 0.274889559 0.820620060
0.306135237 0.274762958 0.824667931
0.420493454 0.278178096 0.820872664
0.538899302 0.293105900 0.821631789
0.670082450 0.305249840 0.829348564
0.794813216 0.331436098 0.834914625
0.920176923 0.364326179 0.842378438
0.111701548 0.373687297 0.817457378
0.188614756 0.382036656 0.825427055
0.295256287 0.386337698 0.826818168
0.415686250 0.391397834 0.828715801
0.546236515 0.401897281 0.827703953
0.672232568 0.411258340 0.831246138
0.796078086 0.432511002 0.832257986
0.923086703 0.459203094 0.838962615
0.178747579 0.517520547 0.834408641
0.226818413 0.525110543 0.834661663
0.310816139 0.519291461 0.835294068
0.424161822 0.521568596 0.835546970
0.552561581 0.526249170 0.840733469
0.674256921 0.537128389 0.846173644
0.805439293 0.551676393 0.845161200
0.930297136 0.573181331 0.859708786
0.326628745 0.673877478 0.853257537
0.350537926 0.676660419 0.858191073
0.402403623 0.675521910 0.852371693
0.479316652 0.670461714 0.855913877
0.574952424 0.663377762 0.852751315
0.692725837 0.669955432 0.859202623
0.819354832 0.682352901 0.864769220
0.935104489 0.700063229 0.866919816
0.434788287 0.806831300 0.874383271
0.454775751 0.809361100 0.869576454
0.489437014 0.810120463 0.865275025
0.553194344 0.806198418 0.868817449
0.633649766 0.806704462 0.871726990
0.722833633 0.801518261 0.869070351
0.822643757 0.807716548 0.871853054
0.936116397 0.818216562 0.880581856
0.555850804 0.928525925 0.878684640
0.577608824 0.929411352 0.890955269
0.602023840 0.932447612 0.892346680
0.646173418 0.928905845 0.885262430
0.703099191 0.927260756 0.890828431
0.782795787 0.927134633 0.896394551
0.860847712 0.927260756 0.902466595
0.948007762 0.931055963 0.915496767
