Assets/EldamarStudio/100 Retro LUTs Pack/LUTs/cube/Stephen LUT.cube
LUT_3D_SIZE 5
DOMAIN_MIN 0.000000 0.000000 0.000000
DOMAIN_MAX 0.903226 0.903226 0.903226
0.168626994 0.133332998 0.137254998
0.260214984 0.145098001 0.149020001
0.441366404 0.138520002 0.149020001
0.662998259 0.152941003 0.157874867
0.846046805 0.192283139 0.190891832
0.200000003 0.217710406 0.151296720
0.258570701 0.224920988 0.148387000
0.441366404 0.243896395 0.150664285
0.656167150 0.262871832 0.160531282
0.844781637 0.287412703 0.200758994
0.221631572 0.423782796 0.149652421
0.294876814 0.419228405 0.149019584
0.451866210 0.425047815 0.155598000
0.645414293 0.443643272 0.166730002
0.833649397 0.459076792 0.223023400
0.275648147 0.629728258 0.202150255
0.327893555 0.631372392 0.199114129
0.472485930 0.629348516 0.212650254
0.643390298 0.631625235 0.225679979
0.832763970 0.643390238 0.271473825
0.397849470 0.831878603 0.328399777
0.442631483 0.830866516 0.334092319
0.542820811 0.839721620 0.341555774
0.694876969 0.846932471 0.351549685
0.856672764 0.859329581 0.370145828
0.193801284 0.149020001 0.227197692
0.260847390 0.146742716 0.215433702
0.426692098 0.152941003 0.233396411
0.638203859 0.182795867 0.263503850
0.830360770 0.249209553 0.297912538
0.203922004 0.223276705 0.216065690
0.272991687 0.230486691 0.228209987
0.425047398 0.244528979 0.239974827
0.629348516 0.276913255 0.261227101
0.827450871 0.325363696 0.303478807
0.236306295 0.416571379 0.245161399
0.300443113 0.413282394 0.247185394
0.445287377 0.422138095 0.254016697
0.638203800 0.444022804 0.277292967
0.828463197 0.474130392 0.326375812
0.310562849 0.627071381 0.299810529
0.358380407 0.621885002 0.302593529
0.484883070 0.625426710 0.310942262
0.645667493 0.628716111 0.313219398
0.821884811 0.648703277 0.354079694
0.434661657 0.834534764 0.403035790
0.466919780 0.836052895 0.400885373
0.565717757 0.838456631 0.406830966
0.703984916 0.845287859 0.413282812
0.864642560 0.853763282 0.425173819
0.215053573 0.149020001 0.421758413
0.302720010 0.150031701 0.410626411
0.452498794 0.158886582 0.405439824
0.645414412 0.196837261 0.412649989
0.819228351 0.295003235 0.435420811
0.233396828 0.256293416 0.398229212
0.306641400 0.255028397 0.395952106
0.445287824 0.260594696 0.394939810
0.631625414 0.297912538 0.414294541
0.813156128 0.375964403 0.453130811
0.263504386 0.420493394 0.390385389
0.321694970 0.426692069 0.399873495
0.479949772 0.452498794 0.421125859
0.630613148 0.468564272 0.434535235
0.798987746 0.508791804 0.468184829
0.360657722 0.617963254 0.438836366
0.415559947 0.616951287 0.447311848
0.512713373 0.623782277 0.452877939
0.647944391 0.624414861 0.457684994
0.813788533 0.654901683 0.490828663
0.468058169 0.830486953 0.508032560
0.501454592 0.828968883 0.513219595
0.587222934 0.835167348 0.514611244
0.710942388 0.842378438 0.514864147
0.858570337 0.852877557 0.515749454
0.266792983 0.183428124 0.599241138
0.345603675 0.189626589 0.607463658
0.479949385 0.205439419 0.598355293
0.653257251 0.240354121 0.593422115
0.820619643 0.313725680 0.594054282
0.308032990 0.298924834 0.601897538
0.358001113 0.307400405 0.594307423
0.488424957 0.317520261 0.594054163
0.655787289 0.332827419 0.589500129
0.812396944 0.392789334 0.592030585
0.349904984 0.468564123 0.576217234
0.403162539 0.470841408 0.576723874
0.515623093 0.482606202 0.581910372
0.646046996 0.489816397 0.583554566
0.805313051 0.524098635 0.598228872
0.403162122 0.630613148 0.572802007
0.445034713 0.629980683 0.582543015
0.539405227 0.627703965 0.582542956
0.670841277 0.647311985 0.600252986
0.820999324 0.664642990 0.612397134
0.481214643 0.833902478 0.629980981
0.513599157 0.828715563 0.629474998
0.591777265 0.836179435 0.634661555
0.709424198 0.839721620 0.634661913
0.859076262 0.850221395 0.637064993
0.363693774 0.289183795 0.788614810
0.419987351 0.293105781 0.791018307
0.533586025 0.316634774 0.783427775
0.690575778 0.340796798 0.778621078
0.851486623 0.385957956 0.774319768
0.406830966 0.387855798 0.781151056
0.441492647 0.395066231 0.782415926
0.551929235 0.404554129 0.780771375
0.695129633 0.420113862 0.775585175
0.849082708 0.444781810 0.772295773
0.472738564 0.551296353 0.772928596
0.508791804 0.550284445 0.773054957
0.590512455 0.555850804 0.774319768
0.709171534 0.552561343 0.770651460
0.850853980 0.557115793 0.770398438
0.493864834 0.690828502 0.774319768
0.523971975 0.690449059 0.771030843
0.595572412 0.684629798 0.773687184
0.706767797 0.682985127 0.768753767
0.857431591 0.685642004 0.772675455
0.494117975 0.846299767 0.784819603
0.522960007 0.851486564 0.788741589
0.595572412 0.846299589 0.782162964
0.716255128 0.850221455 0.784440100
0.880328596 0.863250911 0.791271627
