Assets/EldamarStudio/100 Retro LUTs Pack/LUTs/cube/Stephen LUT.cube
LUT_3D_SIZE 8
DOMAIN_MIN 0.000000 0.000000 0.000000
DOMAIN_MAX 0.903226 0.903226 0.903226
0.168626994 0.133332998 0.137254998
0.213283002 0.137634456 0.145477548
0.282985181 0.145098001 0.149020001
0.381150931 0.139532000 0.146236643
0.506009161 0.140290990 0.148133993
0.634661436 0.148892999 0.154838741
0.741429269 0.163061291 0.165337995
0.846046805 0.192283139 0.190891832
0.192157000 0.178368449 0.134092003
0.213283002 0.170524538 0.145477548
0.280202538 0.177988991 0.148640454
0.384693205 0.183428183 0.152561545
0.506894171 0.186084539 0.151423201
0.628083587 0.196710810 0.153320551
0.749525726 0.214421555 0.169259995
0.854143202 0.230866343 0.191397518
0.200759098 0.238204092 0.149778903
0.222264439 0.246046990 0.151423007
0.282099992 0.248450100 0.152941003
0.381150842 0.258570373 0.149399459
0.500696063 0.271853179 0.147375092
0.628083646 0.287159830 0.158760265
0.742820978 0.297912896 0.181151286
0.845034778 0.311195105 0.204047829
0.206199005 0.359266639 0.150158361
0.244655102 0.358127981 0.149778903
0.305629104 0.362808198 0.153700098
0.393422008 0.367109627 0.146236643
0.503858149 0.379253477 0.153320551
0.622138023 0.391777277 0.164706007
0.738646626 0.398481637 0.182163358
0.839342117 0.406324923 0.214042008
0.234408990 0.487286180 0.159898996
0.257938206 0.485768288 0.155977190
0.323719203 0.487286180 0.162302196
0.403035820 0.489310563 0.160151631
0.510183334 0.492093146 0.159899011
0.613535643 0.499051183 0.175078928
0.731182456 0.503732085 0.202909291
0.833016992 0.514357984 0.236179829
0.258443981 0.599367440 0.185958251
0.285262287 0.598228753 0.186843738
0.338013709 0.598228812 0.183933988
0.424414724 0.601264715 0.193927735
0.516002655 0.601012170 0.201138273
0.619102001 0.605312765 0.209487736
0.724351525 0.607716501 0.226565734
0.830486953 0.614547729 0.258823812
0.325743258 0.708412528 0.265274972
0.343453526 0.712713540 0.259455830
0.390132993 0.712207258 0.259203196
0.459076554 0.714611292 0.267425627
0.540670216 0.711448371 0.274763286
0.636938751 0.714611292 0.276660502
0.730929792 0.715243280 0.287160277
0.834788024 0.727387667 0.301327974
0.397849470 0.831878603 0.328399777
0.417330623 0.833902776 0.333079875
0.453004777 0.831878603 0.336875379
0.511827588 0.837318122 0.336116284
0.584946334 0.840860248 0.346742630
0.669576585 0.843643606 0.348766714
0.765211880 0.849462450 0.359012812
0.856672764 0.859329581 0.370145828
0.184693456 0.149020001 0.170904085
0.209740549 0.141935095 0.167362556
0.278684556 0.152941003 0.179506987
0.368627638 0.149778903 0.183807552
0.489310533 0.149399459 0.190512091
0.624920905 0.157874554 0.205819458
0.739026010 0.178620994 0.219860822
0.846299887 0.218216538 0.237318367
0.200759009 0.166603550 0.170145094
0.217204079 0.177988991 0.174067006
0.276280671 0.179127440 0.179506987
0.379000545 0.186211541 0.186211556
0.497533202 0.195192903 0.195319116
0.619481564 0.204554290 0.204680815
0.735863566 0.222517103 0.214800999
0.835800052 0.248576522 0.238456815
0.211764902 0.240986645 0.182669088
0.230107531 0.240986630 0.185452551
0.287286550 0.242125183 0.188614547
0.372928292 0.254269540 0.185831994
0.497153729 0.275395572 0.193548188
0.620620191 0.288804561 0.205313101
0.736875296 0.303225905 0.225173831
0.841113091 0.327514082 0.250727177
0.216318995 0.358887076 0.192915902
0.245034635 0.352181822 0.186211556
0.304490656 0.359266549 0.186084643
0.393422008 0.360784620 0.185705096
0.499557644 0.375711650 0.196710989
0.610373378 0.389120728 0.204554290
0.728399634 0.396458089 0.227197886
0.823908925 0.411132455 0.252877891
0.242504641 0.481846988 0.206072092
0.265022099 0.485388845 0.199493736
0.324478090 0.479822755 0.200885639
0.406324834 0.488551646 0.208855435
0.505755723 0.488172203 0.204047933
0.617077827 0.494370461 0.223655835
0.725363553 0.504744112 0.246047005
0.829222143 0.516002595 0.277419180
0.265528262 0.602403462 0.232890531
0.294244319 0.598608434 0.231878281
0.347501755 0.595698833 0.229854628
0.423529655 0.601264775 0.236179635
0.519164741 0.602530003 0.244022638
0.618595958 0.601391673 0.245540529
0.717773318 0.609234750 0.263883382
0.829221964 0.620872796 0.302087069
0.337634265 0.712586999 0.288172245
0.359519094 0.712207556 0.294876724
0.400632530 0.714231730 0.293738097
0.464516342 0.712460637 0.296774179
0.545730531 0.713725507 0.301581115
0.632258117 0.712713540 0.301581115
0.722833693 0.712333977 0.313219577
0.823402762 0.721188962 0.328272909
0.420366913 0.831878603 0.360910326
0.429727793 0.837950468 0.361543536
0.460468054 0.833143771 0.360657811
0.518152833 0.836812019 0.364832312
0.592915595 0.841239810 0.367995143
0.674256623 0.844402552 0.380138814
0.768374383 0.850221395 0.384060800
0.864263058 0.857305408 0.390638649
0.195319101 0.149020001 0.249209195
0.222264439 0.148640454 0.240986645
0.282859087 0.149020001 0.238204092
0.371789724 0.150158361 0.246426553
0.488931090 0.152055994 0.259329468
0.608855188 0.175458372 0.277419209
0.722454250 0.217710093 0.297786385
0.827830791 0.265401751 0.323212922
0.205439895 0.182289541 0.233523101
0.233649895 0.186211541 0.229980737
0.288425028 0.183807641 0.237444997
0.378494382 0.186970457 0.253510445
0.489690095 0.199873284 0.265655071
0.602150559 0.221378639 0.278557837
0.718152940 0.251865625 0.296521336
0.822517395 0.286021382 0.319164932
0.205440000 0.244529098 0.235800087
0.234788448 0.245288000 0.240607187
0.304111212 0.257811248 0.256293088
0.378873736 0.259329289 0.251486182
0.485009283 0.278937101 0.266413987
0.603289008 0.298924804 0.288298458
0.721694946 0.322833389 0.305502892
0.823655963 0.356483161 0.328273088
0.226944730 0.360531271 0.254269540
0.254395723 0.354965180 0.262239456
0.314737439 0.359645993 0.260974199
0.395825207 0.357621640 0.264516532
0.493611366 0.372928262 0.269070417
0.601264715 0.390132904 0.289184093
0.718152821 0.407337010 0.312586904
0.819607735 0.426438838 0.333965927
0.263377964 0.479443192 0.281973273
0.279696196 0.477040082 0.279696196
0.339405179 0.481847197 0.280455291
0.406578183 0.478684306 0.278431624
0.499051362 0.485768378 0.280455291
0.608981490 0.492346734 0.298924744
0.716382086 0.508665204 0.320556313
0.815053523 0.521695018 0.349778622
0.307273716 0.594687104 0.313472092
0.318785250 0.598608315 0.309044629
0.369006991 0.593548715 0.309424162
0.443137437 0.596205056 0.313725442
0.523845673 0.596205056 0.314105004
0.613029718 0.598608375 0.319038808
0.718152761 0.609614253 0.340796798
0.821125865 0.623908699 0.368500918
0.369639367 0.708412528 0.353320390
0.383807391 0.704743981 0.357115567
0.424668103 0.706009150 0.363441110
0.483491302 0.709550917 0.364579439
0.553953350 0.709044993 0.363314182
0.637697756 0.706388712 0.364579529
0.721568406 0.708412528 0.370019108
0.820746362 0.718785465 0.380645066
0.442251801 0.837318122 0.424288332
0.456040680 0.834534883 0.412017763
0.482606083 0.834534764 0.415306777
0.534471869 0.833902657 0.418975353
0.605439663 0.839721620 0.422517240
0.680455446 0.844275713 0.427197874
0.769006848 0.849462450 0.433902621
0.865401685 0.851486564 0.439848006
0.211765006 0.146236643 0.361543626
0.248576999 0.142314643 0.353320360
0.315876096 0.145857096 0.347374886
0.388994634 0.149020001 0.347501636
0.494876534 0.155597553 0.352688074
0.613282740 0.177355826 0.362808377
0.723592639 0.224288628 0.380012572
0.818595767 0.295509011 0.403162628
0.212017536 0.194054544 0.347881198
0.240986645 0.194813460 0.332068264
0.309171557 0.189247444 0.338393301
0.392156631 0.189247534 0.341176629
0.491967291 0.202277005 0.353826612
0.608096302 0.227198184 0.362808198
0.714611292 0.269196540 0.384819865
0.817963302 0.323845834 0.410752892
0.225932896 0.269955635 0.339279085
0.251992553 0.266414106 0.341302723
0.314231187 0.270335197 0.340417564
0.386211187 0.268691063 0.340038091
0.490449220 0.284377098 0.351802379
0.598608375 0.309803724 0.367362291
0.713093281 0.348513544 0.395698965
0.808728337 0.391271323 0.419481426
0.235927001 0.362049282 0.341302603
0.261353642 0.363187641 0.340797007
0.326502442 0.367868543 0.346363008
0.416445643 0.388994634 0.363187641
0.503099144 0.394940078 0.367489070
0.601264715 0.407084018 0.381657273
0.705123544 0.427704304 0.399114341
0.801518142 0.454649091 0.422264278
0.274889171 0.483870745 0.364326179
0.298419058 0.482732385 0.359898806
0.354458839 0.483491212 0.369386435
0.427830279 0.489310563 0.372928262
0.507653356 0.485768378 0.372043163
0.605692267 0.498671949 0.386084467
0.706641614 0.510942459 0.403921545
0.808222473 0.540164351 0.432763815
0.335610509 0.590385854 0.388994545
0.358380735 0.591903687 0.394307733
0.395951718 0.592789590 0.396837443
0.459835440 0.592662811 0.399999648
0.528905630 0.593928158 0.400885612
0.612776458 0.598608375 0.405060261
0.708539009 0.606830835 0.417836934
0.816191971 0.631498933 0.449462533
0.408601940 0.700062931 0.436685652
0.423023373 0.701454818 0.440354198
0.452751249 0.701201499 0.435420454
0.501075625 0.706768274 0.441113293
0.569259822 0.701201558 0.439468563
0.640227735 0.707527101 0.442378432
0.722454250 0.705629647 0.444402277
0.817963362 0.720176995 0.452877790
0.469323188 0.833016932 0.476786613
0.473750651 0.827956915 0.475774825
0.507653117 0.833523214 0.481214285
0.553447068 0.833016932 0.484123975
0.612270772 0.838836312 0.490828604
0.687665939 0.842378438 0.488298774
0.773054659 0.845920324 0.491967261
0.865781248 0.851865709 0.500442445
0.230486989 0.156863004 0.471600175
0.268817186 0.154459193 0.470082372
0.333080173 0.155218095 0.469323277
0.419228166 0.158760354 0.466666728
0.514104962 0.169260189 0.464642584
0.618089437 0.183301985 0.464263141
0.726502180 0.234155372 0.476534098
0.823276579 0.302213967 0.482732385
0.238204002 0.203288749 0.462871552
0.276280731 0.204554200 0.459076345
0.331056416 0.209234998 0.461859852
0.415686518 0.212776631 0.465528190
0.511575043 0.218216345 0.467172980
0.610373378 0.234661728 0.458317369
0.715370238 0.274130195 0.463757396
0.812902987 0.327261358 0.482099831
0.253890097 0.285895288 0.452878177
0.288045675 0.287918925 0.448576719
0.344086111 0.289816290 0.447312087
0.415686518 0.296141893 0.448956281
0.504617274 0.298418969 0.451359987
0.603289008 0.316887915 0.455155194
0.711575091 0.350158274 0.474763095
0.811132073 0.399494171 0.497912616
0.273118556 0.387097090 0.446932524
0.295762509 0.382289469 0.449335754
0.354965061 0.386211187 0.449335843
0.429728031 0.397976071 0.451992184
0.508538961 0.403921723 0.454901844
0.605692267 0.414041638 0.462239265
0.702593267 0.444655567 0.479443312
0.795572162 0.472991645 0.500063121
0.300189972 0.482732356 0.456799179
0.316382170 0.485009193 0.447311997
0.368121356 0.485768378 0.452878177
0.444655627 0.497153819 0.459962189
0.534345210 0.518659174 0.475522190
0.612776637 0.513219357 0.480455160
0.698418796 0.530550480 0.492979199
0.803035915 0.555597663 0.516002536
0.355850697 0.596205175 0.469323158
0.370524973 0.591144919 0.465781122
0.411005706 0.594307721 0.471979856
0.476027668 0.596205115 0.479569972
0.544971406 0.598608434 0.486147940
0.622517467 0.603288949 0.485262722
0.711069047 0.615053594 0.506008863
0.811637998 0.637950361 0.528146684
0.428589284 0.703605354 0.500821948
0.444275796 0.701707602 0.502593517
0.477799088 0.699683309 0.504491210
0.525363922 0.700062931 0.511321843
0.584566653 0.702846289 0.513346076
0.650474429 0.706009209 0.515749454
0.726249158 0.706009209 0.516381860
0.819860876 0.729791045 0.530423880
0.479822993 0.834534764 0.549651802
0.490828812 0.823782384 0.543959200
0.514864087 0.829095423 0.542947292
0.557495296 0.832637370 0.542062163
0.614421368 0.833396375 0.546489537
0.691967070 0.838836312 0.547754347
0.772801995 0.846299767 0.550158143
0.864769161 0.850221395 0.555850983
0.256672740 0.174319729 0.577988744
0.288045555 0.178621188 0.583933949
0.355471432 0.179759726 0.582668841
0.432131737 0.189247355 0.575584769
0.529664457 0.203288928 0.571284175
0.626944959 0.221125722 0.570145726
0.722200811 0.244275987 0.562175751
0.822390795 0.311954677 0.568753898
0.278557926 0.224414825 0.575964451
0.300948799 0.228462830 0.579000473
0.354965091 0.234282091 0.580518484
0.437191397 0.237697542 0.575584888
0.524478137 0.248956278 0.566856623
0.624541283 0.265528291 0.561796308
0.716508508 0.277545929 0.555597425
0.810119927 0.334724724 0.565211892
0.310310096 0.316128820 0.575837970
0.325237125 0.323972046 0.566856563
0.372169167 0.319544494 0.558886766
0.445035011 0.325489938 0.564579606
0.530929863 0.334851414 0.564326286
0.621378958 0.341429472 0.562175751
0.715496302 0.359898746 0.562302411
0.806830943 0.403668731 0.570777774
0.323845625 0.412397027 0.555217862
0.346615821 0.412776470 0.548386991
0.395572364 0.419481635 0.553573608
0.456673354 0.423908889 0.556356490
0.531182528 0.426059455 0.555850863
0.611132503 0.431625396 0.553953171
0.697026908 0.443769932 0.553447068
0.801897705 0.473750591 0.575332105
0.350537747 0.510436416 0.554458737
0.368880242 0.512460291 0.551549375
0.416065991 0.510056973 0.561543643
0.478684187 0.517899990 0.555976808
0.548133731 0.524098694 0.556230426
0.620999753 0.521695375 0.558760285
0.700948536 0.538266957 0.565844297
0.804048181 0.561416745 0.585199058
0.377861708 0.601264775 0.550537765
0.393169165 0.593169212 0.557874620
0.434914559 0.598608434 0.559519351
0.493611395 0.600632608 0.560784459
0.564579666 0.608981311 0.571663558
0.642504513 0.623023510 0.577988803
0.715875983 0.627324462 0.576723516
0.815939248 0.642125428 0.591650963
0.434534818 0.703352451 0.565971196
0.453384042 0.703605354 0.576344013
0.487665832 0.699683368 0.576723516
0.534851551 0.702466726 0.578747749
0.587856054 0.700821996 0.579886019
0.656546235 0.706388772 0.586084783
0.728146970 0.707020760 0.584566593
0.827071667 0.727767169 0.596584380
0.482226461 0.836938798 0.611764789
0.494877011 0.828715682 0.608222663
0.518912077 0.829474688 0.613282561
0.563946664 0.833775878 0.613788784
0.619860888 0.835293889 0.613029718
0.687918901 0.837697685 0.613409519
0.768500805 0.844655156 0.615433395
0.861606658 0.850980282 0.620872796
0.298671991 0.217583984 0.678684235
0.325363725 0.219228283 0.678684235
0.380771577 0.225427181 0.677799106
0.454016328 0.240480706 0.675395250
0.545350850 0.256040484 0.670841277
0.637065172 0.272106439 0.671220779
0.731941521 0.296647549 0.667552292
0.818722606 0.321442097 0.654901862
0.316002548 0.260467827 0.673750758
0.337760806 0.269829571 0.672612011
0.385325611 0.272232831 0.668564081
0.457685053 0.284377098 0.671979606
0.542062163 0.292599618 0.666034162
0.633649647 0.305882245 0.664515972
0.722833693 0.323972017 0.653257549
0.811384857 0.337254912 0.651866198
0.351802379 0.354712278 0.664389551
0.368880481 0.359519094 0.666919708
0.408981442 0.363441110 0.662998259
0.477545649 0.368500739 0.665654778
0.556356788 0.375964552 0.663757026
0.638077021 0.384693384 0.660721004
0.722327411 0.394686997 0.655787289
0.811258793 0.408855349 0.653130829
0.386843562 0.453004628 0.660341561
0.408855289 0.456293643 0.653889835
0.447185278 0.459329724 0.657811582
0.495509177 0.460214913 0.651359916
0.562808037 0.464136928 0.654269278
0.634661674 0.467299044 0.649968505
0.712966561 0.469196558 0.646299601
0.798608243 0.480961472 0.648703516
0.410499454 0.536749005 0.641619086
0.432131618 0.540670216 0.655534565
0.470967799 0.544465244 0.650980473
0.520177245 0.550031364 0.646299541
0.580645263 0.548513234 0.646426260
0.648070991 0.551296592 0.649209559
0.717900038 0.550917029 0.649589002
0.805186689 0.559392869 0.652245641
0.443390280 0.622770250 0.650474548
0.460215032 0.630739987 0.656673074
0.491587639 0.630740106 0.655534387
0.534092367 0.627703965 0.652372003
0.592789650 0.630740166 0.656293690
0.656040251 0.632005036 0.655281246
0.725869715 0.630360723 0.651233256
0.819228470 0.644402087 0.667552173
0.452245563 0.702846289 0.646299541
0.468943536 0.703225851 0.646046996
0.497659892 0.705882251 0.655155241
0.539152265 0.705629647 0.651866257
0.593295276 0.706009030 0.649462223
0.660973728 0.710309744 0.655407786
0.746616244 0.723086238 0.671473861
0.843390346 0.731688797 0.678937733
0.489563823 0.833523214 0.688678086
0.497659862 0.830613315 0.680708349
0.521568537 0.831878603 0.687159896
0.561922967 0.834534764 0.688930809
0.619481325 0.838203549 0.687919199
0.691081583 0.840354502 0.690575421
0.771283805 0.843643606 0.689184129
0.868817091 0.847312033 0.696773767
0.363693774 0.289183795 0.788614810
0.383048356 0.284250349 0.785325646
0.435420722 0.296394736 0.791271627
0.497027308 0.308412254 0.786211014
0.578494728 0.322074592 0.781910121
0.667046368 0.337507963 0.778367758
0.758507192 0.359012812 0.783427954
0.851486623 0.385957956 0.774319768
0.375205338 0.323086530 0.786464334
0.394813359 0.324478209 0.780771792
0.433649510 0.331941634 0.782669067
0.500569165 0.342567831 0.785198987
0.579759538 0.353194147 0.782668948
0.665907681 0.367236078 0.777735412
0.754964769 0.383681357 0.772043049
0.847058892 0.397090644 0.769259870
0.415938973 0.407590002 0.774319768
0.428083807 0.413662374 0.785705507
0.465022027 0.417836815 0.776849806
0.522580504 0.420240521 0.779759347
0.594307482 0.427198023 0.779633164
0.674889207 0.435547262 0.774825990
0.760657847 0.446173429 0.772042930
0.848070860 0.458190978 0.774066925
0.452498645 0.499177814 0.772801995
0.468311459 0.500569224 0.773181379
0.499051183 0.505249858 0.775205433
0.550284624 0.506767809 0.774319768
0.609993637 0.505629420 0.775205791
0.676913321 0.509171307 0.768121302
0.755597711 0.512713611 0.761290312
0.843263745 0.517773271 0.765338421
0.475015998 0.583807468 0.767868400
0.495382994 0.586843550 0.774193347
0.521441877 0.590765178 0.773560822
0.566097498 0.590512574 0.773687541
0.618975341 0.588108957 0.767235935
0.688045442 0.587602556 0.769006789
0.759266257 0.584946275 0.768247843
0.842251658 0.587223053 0.766856551
0.496900976 0.667046368 0.775837719
0.506135225 0.669070482 0.776723564
0.531056345 0.668690741 0.775078833
0.574193716 0.667299092 0.775458634
0.625932992 0.665528119 0.773940444
0.686780751 0.663756967 0.767994702
0.765085220 0.660847366 0.768374503
0.852624774 0.662365615 0.770398438
0.490322828 0.748134255 0.770018876
0.499936551 0.747880816 0.768247843
0.528400004 0.747627795 0.774699330
0.565591633 0.747121751 0.774446547
0.623402774 0.745856941 0.776597023
0.691207945 0.745730519 0.774572909
0.769007027 0.746489525 0.776597023
0.862238884 0.749399066 0.780518472
0.494117975 0.846299767 0.784819603
0.502593398 0.851992428 0.778494596
0.529791176 0.848956525 0.788741589
0.570524812 0.848956585 0.786337793
0.626059175 0.849082828 0.787855625
0.695002973 0.851486564 0.783680975
0.772928417 0.852498174 0.782542348
0.880328596 0.863250911 0.791271627
