Assets/EldamarStudio/100 Retro LUTs Pack/LUTs/cube/Stephanie LUT.cube
DOMAIN_MIN 0 0 0
DOMAIN_MAX 1 1 1
LUT_3D_SIZE 32
0.129411995 0.129411995 0.129411995
0.138519615 0.135483995 0.129411995
0.154079556 0.132954001 0.131562218
0.172296003 0.130676836 0.133332998
0.190132543 0.133712545 0.133712545
0.205312937 0.136748940 0.136748940
0.228083640 0.142315000 0.142315000
0.249082983 0.145098001 0.145098001
0.267299175 0.145098001 0.146615997
0.285515994 0.145098001 0.152687997
0.315369993 0.150916994 0.150031880
0.341682494 0.154965267 0.151043743
0.365970999 0.158001363 0.154079646
0.390512019 0.161290005 0.157115966
0.417836398 0.167361990 0.160151586
0.449968398 0.168626994 0.165591002
0.484882981 0.171663374 0.170145184
0.523212671 0.178368405 0.175711557
0.568753958 0.187476039 0.190891981
0.597596347 0.191018358 0.197723001
0.634408474 0.195951998 0.196205005
0.671853125 0.202023998 0.194180995
0.699430466 0.208095998 0.200126514
0.732826948 0.214167997 0.203162909
0.766223848 0.222517282 0.213029996
0.801012278 0.230233982 0.220999315
0.836939037 0.237317994 0.225553125
0.870335400 0.249461979 0.237697884
0.901074946 0.261606663 0.252498806
0.934977353 0.271979749 0.265907943
0.969639182 0.281973213 0.278051972
1.000000000 0.294117987 0.290196002
0.135483995 0.141555995 0.126375601
0.141556010 0.141555995 0.135483995
0.157115385 0.145477772 0.133333221
0.174066767 0.144592389 0.135862991
0.190891549 0.146236777 0.139025539
0.211384922 0.151929334 0.136748940
0.226565316 0.149905071 0.139784679
0.249336019 0.152814716 0.146995306
0.268058300 0.154206395 0.149652004
0.279443204 0.154206395 0.146615997
0.312207818 0.160025388 0.155597880
0.340670645 0.164073125 0.157115743
0.367109627 0.168247893 0.160151646
0.394054413 0.173181728 0.163441002
0.426944792 0.176470384 0.169259965
0.451865971 0.175332189 0.165085390
0.484882981 0.179253578 0.168627381
0.520682693 0.187476188 0.175078973
0.556609988 0.196584433 0.187855586
0.596584380 0.200126752 0.186337978
0.628715694 0.203162655 0.191651002
0.664768994 0.208095998 0.195193127
0.696394861 0.214421004 0.203289390
0.729791284 0.226312771 0.209234908
0.767741621 0.227830768 0.212270707
0.801264942 0.234661698 0.220746264
0.833902657 0.242884070 0.227577388
0.867299020 0.252498388 0.234661490
0.900695384 0.261986226 0.246805578
0.933206558 0.275522172 0.254522413
0.965717912 0.288931161 0.268184781
0.993928015 0.303225607 0.293232381
0.141555995 0.158000991 0.127640769
0.151929006 0.155850783 0.136748612
0.155850768 0.158000991 0.143706769
0.176596761 0.159772217 0.140670374
0.193674549 0.159392774 0.143706322
0.207842931 0.160152003 0.144212708
0.230487093 0.160784453 0.139784679
0.247311756 0.162681773 0.144465417
0.269070417 0.165464997 0.150790781
0.282353103 0.165464997 0.147501782
0.312586844 0.171283990 0.153826877
0.339911729 0.173308000 0.158886746
0.367109627 0.176217407 0.163060993
0.394180983 0.180771992 0.166603267
0.421884596 0.181910351 0.166982993
0.456672817 0.186590806 0.169892237
0.483997613 0.188108996 0.171410426
0.519797266 0.196584344 0.176849991
0.556230187 0.205692753 0.182922006
0.588741422 0.211385354 0.189753354
0.622517467 0.212523997 0.186717257
0.657684863 0.217330903 0.194054484
0.693358719 0.224415019 0.204048485
0.726755142 0.230487034 0.208096236
0.764706016 0.239975005 0.218342707
0.798608422 0.241366312 0.222770333
0.828716040 0.248956069 0.231119707
0.862112403 0.258064419 0.238835990
0.901960552 0.265022069 0.243769750
0.930044174 0.279443622 0.255913734
0.962302566 0.294117957 0.268943548
0.992156982 0.308032781 0.300569236
0.148893163 0.174952149 0.134471998
0.158507168 0.173181385 0.138519615
0.166729942 0.173181385 0.144212380
0.177356318 0.174952149 0.150284827
0.199746773 0.175331697 0.146868989
0.208854929 0.174067110 0.147248775
0.229348481 0.173561171 0.149019688
0.251612991 0.176850170 0.148260251
0.269829184 0.181404158 0.152814835
0.288046002 0.181404158 0.152814835
0.315369993 0.183428004 0.156103849
0.341682494 0.186717153 0.158886746
0.367109627 0.187855795 0.161922649
0.394687057 0.190892115 0.167362154
0.420999318 0.191903993 0.165338427
0.451106757 0.196710989 0.169639513
0.488298386 0.200252995 0.171916351
0.519924104 0.206324995 0.181024566
0.558760166 0.214800820 0.182922006
0.588614762 0.221126169 0.188741356
0.620240271 0.224667996 0.191524431
0.652625084 0.226691991 0.192536294
0.691460967 0.235420823 0.204048485
0.723719120 0.239595100 0.207084104
0.759139657 0.245920449 0.215686157
0.791777611 0.252245456 0.223782018
0.820619941 0.255281210 0.230866805
0.854775250 0.262871593 0.240733698
0.894876540 0.273118317 0.247058675
0.928020239 0.282479227 0.254142970
0.956736445 0.299810410 0.268058181
0.990891814 0.312334001 0.299557179
0.156863004 0.190512091 0.145098001
0.163693994 0.190891549 0.143200159
0.171157777 0.190132543 0.143706322
0.185326159 0.191271096 0.148387000
0.205819458 0.190891549 0.153320551
0.214927062 0.193927944 0.147248551
0.234155327 0.194813550 0.153826773
0.254648715 0.197343543 0.158127829
0.275142193 0.201897547 0.160784006
0.293358982 0.201897547 0.160784006
0.317773551 0.199367225 0.161163554
0.341682494 0.200758815 0.161543012
0.367109627 0.203415647 0.162681639
0.394180983 0.206452042 0.165718049
0.424288720 0.209487677 0.165844560
0.454143226 0.214547545 0.171916798
0.486780703 0.217963085 0.177230000
0.524478137 0.219228074 0.178368405
0.560911000 0.225300103 0.187476039
0.589373827 0.230993167 0.191397816
0.621631742 0.235547349 0.192916006
0.654901803 0.239215538 0.195952132
0.691081524 0.245287538 0.204681009
0.721442282 0.251359552 0.207463652
0.753700256 0.257811546 0.215053737
0.784060717 0.262112856 0.222137868
0.809614539 0.265528053 0.225932583
0.846046507 0.268564433 0.238077343
0.884376884 0.281088263 0.247564688
0.916761577 0.293105751 0.256293178
0.946489573 0.303605109 0.267299086
0.985957980 0.318785548 0.285515904
0.156863004 0.208728880 0.145098001
0.169007003 0.211764485 0.151170000
0.173687771 0.207842931 0.149272710
0.185326159 0.209108099 0.152308777
0.205819458 0.215180308 0.159392551
0.220999062 0.212143928 0.156356931
0.240227312 0.215180308 0.162934601
0.258190691 0.216065928 0.162175775
0.275142193 0.217077926 0.158127844
0.293358982 0.217077926 0.160784006
0.320303887 0.217077926 0.163693875
0.343074173 0.220619857 0.166223675
0.367109627 0.223908931 0.168753639
0.394180983 0.224668026 0.171790034
0.418468982 0.227704406 0.174826413
0.458190680 0.230740070 0.174952924
0.493611634 0.234282121 0.179506987
0.526755512 0.237444863 0.183934420
0.554839015 0.243516877 0.187476054
0.585705042 0.246805519 0.193801001
0.623149514 0.252245516 0.197469801
0.659076333 0.256799728 0.202024132
0.688045919 0.260467917 0.210753009
0.718405902 0.266539961 0.210753009
0.748766601 0.274889231 0.218089640
0.781024635 0.279317021 0.227197722
0.812397242 0.280834943 0.234787926
0.843010902 0.286780447 0.241112947
0.876786709 0.292472988 0.250600904
0.907653213 0.303605020 0.257937908
0.935863256 0.315243214 0.266286969
0.967742026 0.327893943 0.279443115
0.166982993 0.234535322 0.160277992
0.174067006 0.235041261 0.163820311
0.186211005 0.235926643 0.163440540
0.195445836 0.234408483 0.161669672
0.213409215 0.239468545 0.165464550
0.228589386 0.236432701 0.162428945
0.248829633 0.240986645 0.166982993
0.268437713 0.242378324 0.167868331
0.287539721 0.242378324 0.164200097
0.311069280 0.242378324 0.170778155
0.330423862 0.242378324 0.176344186
0.357748240 0.244402573 0.175332054
0.383428276 0.251107007 0.178494319
0.412650347 0.255534351 0.182668999
0.443769634 0.258570731 0.183428094
0.475268453 0.261606514 0.186464489
0.512839854 0.264642507 0.186590999
0.545604289 0.268311322 0.190006420
0.574826062 0.274383307 0.193042055
0.609993696 0.280202270 0.201391339
0.644149125 0.279443383 0.201771066
0.680328786 0.283618301 0.205566183
0.707780004 0.288172126 0.214547664
0.738140643 0.291840315 0.219354674
0.766223907 0.297912329 0.223909244
0.800505996 0.305376351 0.234155625
0.835673451 0.308665633 0.244402379
0.866034150 0.314737648 0.252498627
0.899051070 0.320809633 0.261226833
0.932447433 0.330423594 0.275648385
0.960404515 0.345224231 0.285641998
0.987476349 0.362302303 0.296141326
0.174193710 0.260214984 0.170271710
0.183554694 0.255281717 0.165085405
0.187349722 0.261859715 0.175331920
0.205818877 0.260594547 0.169765532
0.221378699 0.262112260 0.169386089
0.232763931 0.259076625 0.170145646
0.254649013 0.263630718 0.171410710
0.274256676 0.268058419 0.174193695
0.294750392 0.268058419 0.170398608
0.322074801 0.268058419 0.177735761
0.343959689 0.269702703 0.183934271
0.368247956 0.270082265 0.183934450
0.395572335 0.273118615 0.183175072
0.425933063 0.280961424 0.188740999
0.460721105 0.285389125 0.191523999
0.490828514 0.290069610 0.192283094
0.524224937 0.293105215 0.195319474
0.556989431 0.296774119 0.196710989
0.587349832 0.302846432 0.200758755
0.621631742 0.303984702 0.206072077
0.654775500 0.307653457 0.212523729
0.690196157 0.308665574 0.212523982
0.718785524 0.315243483 0.220872685
0.747628093 0.318279505 0.226944700
0.779000580 0.321947724 0.233016849
0.809108257 0.329411358 0.239089265
0.846552730 0.335736990 0.250221342
0.876913130 0.341808975 0.259329706
0.909930468 0.349525690 0.271726847
0.948260546 0.354206353 0.289436668
0.976343751 0.368121386 0.303225875
0.998355269 0.388614684 0.310815722
0.181784093 0.282985181 0.175584987
0.190132990 0.276913404 0.164200097
0.195193008 0.280582100 0.166730002
0.203542158 0.287918955 0.177355930
0.230487093 0.285262108 0.169765636
0.238836184 0.282605916 0.175458863
0.257052660 0.285641998 0.177229896
0.278811097 0.290069729 0.177229896
0.299304217 0.293106109 0.177988991
0.326628625 0.293106109 0.181024611
0.353320748 0.296774328 0.187728986
0.377356350 0.298545092 0.187729254
0.405439615 0.298165739 0.186970353
0.432764024 0.301455081 0.189752996
0.467678696 0.307527095 0.194812998
0.497659802 0.313599080 0.198355094
0.526502192 0.318153083 0.198355287
0.560531139 0.319923699 0.203289077
0.591145039 0.325616926 0.209614098
0.624288440 0.326375812 0.214421451
0.655787468 0.326375842 0.217837080
0.684882998 0.329159051 0.223149985
0.718152881 0.338140160 0.229095504
0.746109903 0.341809005 0.234535098
0.777988315 0.346363008 0.241365999
0.810625911 0.351422846 0.248197079
0.843517065 0.360025197 0.254269093
0.873877108 0.366097182 0.263124436
0.905376375 0.373307824 0.275268734
0.944086254 0.381151289 0.295002937
0.980898380 0.387097090 0.315369695
0.996078014 0.405313104 0.318406105
0.203036487 0.301201999 0.187729001
0.200000107 0.304237604 0.178621382
0.204048008 0.306767821 0.169386730
0.213662177 0.310183346 0.167742014
0.230487108 0.312586516 0.172802031
0.254775852 0.312586516 0.175838426
0.268184960 0.312460035 0.179000676
0.285768718 0.314357728 0.180265516
0.308412611 0.317394137 0.181024626
0.335737020 0.320430517 0.184061006
0.368880361 0.326249540 0.192915618
0.391777486 0.330170751 0.193801254
0.414927483 0.330803156 0.193042353
0.444908023 0.328779519 0.195824996
0.472232401 0.334851503 0.195824996
0.502340078 0.340923488 0.203288808
0.531056166 0.345477700 0.205945686
0.560531139 0.347248912 0.206325471
0.596964002 0.344212502 0.218469501
0.630360365 0.352688372 0.227577835
0.661859453 0.355598003 0.230740488
0.690195978 0.355724514 0.232005343
0.715116501 0.356356978 0.235167503
0.745477378 0.362428963 0.238203898
0.777988315 0.370651782 0.245920181
0.809993327 0.378115445 0.254901648
0.840480685 0.384313971 0.263377488
0.870841384 0.390385956 0.269449502
0.898545265 0.393801123 0.275647998
0.934977829 0.402403414 0.290954679
0.972169459 0.414168477 0.309677213
0.996078014 0.426565498 0.321442485
0.206831127 0.333965868 0.188235000
0.212523609 0.331182480 0.182036504
0.218089759 0.336369425 0.181530893
0.227450877 0.341429740 0.179253876
0.240227550 0.346110046 0.182036877
0.251865983 0.348639727 0.187602922
0.278684437 0.346110046 0.188108996
0.300948679 0.345730603 0.190765157
0.324731082 0.347501665 0.193548188
0.347754508 0.350537479 0.198735356
0.366350770 0.353573889 0.198861867
0.399747133 0.357621610 0.201897740
0.425806642 0.360657513 0.200885877
0.454395920 0.361163855 0.202150702
0.484377146 0.359265983 0.204806879
0.509297729 0.362934798 0.207210690
0.535610378 0.368500859 0.212270677
0.562808394 0.372928560 0.213915110
0.596964002 0.374446750 0.221505135
0.627830744 0.379759729 0.228083834
0.657305598 0.383048862 0.233270258
0.687666118 0.383048862 0.234282121
0.717773378 0.383048862 0.235420510
0.745350838 0.383554876 0.238456905
0.773434281 0.387349576 0.248323992
0.802782655 0.392409801 0.255281538
0.831625283 0.397975981 0.261353791
0.861985981 0.408854991 0.269829005
0.889689922 0.409613997 0.278557837
0.924098730 0.419481039 0.297280014
0.962808549 0.431878597 0.316381872
0.993168890 0.441998869 0.324478120
0.213915259 0.365338504 0.192283005
0.224035248 0.364326358 0.184187263
0.232258022 0.369765520 0.192663029
0.238836095 0.372043133 0.194434255
0.250221074 0.375079244 0.194434255
0.267552197 0.376470566 0.197217256
0.285768330 0.380518556 0.202277258
0.308159411 0.379127234 0.198988259
0.334345341 0.379886329 0.200885415
0.358127743 0.382922262 0.205692708
0.378494740 0.381910115 0.205945745
0.404807508 0.386970222 0.207969993
0.434788257 0.388867497 0.209108353
0.461227030 0.391018271 0.210246772
0.489816546 0.391524345 0.213282838
0.515370190 0.397343040 0.212270543
0.542694211 0.398861229 0.215306923
0.568627477 0.402656227 0.218975246
0.599241257 0.404300958 0.225047261
0.625806510 0.408096254 0.229095712
0.654269516 0.406578243 0.235167995
0.681593895 0.406325251 0.238330126
0.713092744 0.406578243 0.239721507
0.746109903 0.410373241 0.246552899
0.775458515 0.414674222 0.252371967
0.799999893 0.417710185 0.263124645
0.827071309 0.420240492 0.268438041
0.858949840 0.426312506 0.277546048
0.890701771 0.433902264 0.286653817
0.919797301 0.437444687 0.295762181
0.954965293 0.450094879 0.318026572
0.986084700 0.459203005 0.327514261
0.230993271 0.410499930 0.200632289
0.238583282 0.410499930 0.194940031
0.250853747 0.414674133 0.198482126
0.260847777 0.418722063 0.208475992
0.265401363 0.416065902 0.208096445
0.287412852 0.416065902 0.207337350
0.306641281 0.418848932 0.210120350
0.328273028 0.421631932 0.213029996
0.348007828 0.422390819 0.209993988
0.374952793 0.425427109 0.213409156
0.397596508 0.424921036 0.212396994
0.421505511 0.425679922 0.213282615
0.451866269 0.429474920 0.217457637
0.476660281 0.429221898 0.220493242
0.504870057 0.430487037 0.223529413
0.533206880 0.436053127 0.225173831
0.559392869 0.439468265 0.224035174
0.588487864 0.439468265 0.225806564
0.615306973 0.439468265 0.230360642
0.639848292 0.441112995 0.235926703
0.666034043 0.441872299 0.244275987
0.691334426 0.437824279 0.249336123
0.718405783 0.437824279 0.252371758
0.751802444 0.441872269 0.259455889
0.781404197 0.446805894 0.265148640
0.811005652 0.451486319 0.273750633
0.833776116 0.455028623 0.282352984
0.866540074 0.456293613 0.290828794
0.897659421 0.463124454 0.302213788
0.932700634 0.473877043 0.315875828
0.959519267 0.480835229 0.328526229
0.986084640 0.489942908 0.344212651
0.259835988 0.475775033 0.212017968
0.259835988 0.476028025 0.212271005
0.270841241 0.477925241 0.214674264
0.284250289 0.479443163 0.217457160
0.296774477 0.476787031 0.219987482
0.311954081 0.476787031 0.216951087
0.330423653 0.476534009 0.216698050
0.353067696 0.477546066 0.218089744
0.378874153 0.477798969 0.220872954
0.403162956 0.480834574 0.226944953
0.427451015 0.483617902 0.225300163
0.450221300 0.484883070 0.224541053
0.474383235 0.484630048 0.226312280
0.504997015 0.484883070 0.232384995
0.535356998 0.481846660 0.235420614
0.567362368 0.483364880 0.240606993
0.597723126 0.483364880 0.243896037
0.624920964 0.480961055 0.243769616
0.649209082 0.480961055 0.240734011
0.673497796 0.480708003 0.248576716
0.699430764 0.482605785 0.260467738
0.725237131 0.484630048 0.272106141
0.746742487 0.484630048 0.275142521
0.774066865 0.484630048 0.278178155
0.799620509 0.487160295 0.282226294
0.826186001 0.490449339 0.289437056
0.856546104 0.493738055 0.301075041
0.886906862 0.499810070 0.307147056
0.914863825 0.505882025 0.320935845
0.948513567 0.516508222 0.338899165
0.981783986 0.530170560 0.359898627
1.000000000 0.539278984 0.381151021
0.271979988 0.490955412 0.215053573
0.271979988 0.493991017 0.218089968
0.284882993 0.494243979 0.222643986
0.297406405 0.498671561 0.225553408
0.305882126 0.504111409 0.226185992
0.321062446 0.504111409 0.226059467
0.346362710 0.501581073 0.228083730
0.368500680 0.507400393 0.228842825
0.389500082 0.513219714 0.227957219
0.406198561 0.511195362 0.223908573
0.430487305 0.511321843 0.232890457
0.456799656 0.513978660 0.235420674
0.481720418 0.514105201 0.236685827
0.508032739 0.512207448 0.238456994
0.541429758 0.515243828 0.244528994
0.566982806 0.514611244 0.247564599
0.594686747 0.513725638 0.251233190
0.622643709 0.511321843 0.253636986
0.652245462 0.511321843 0.255914360
0.676534176 0.508538425 0.261227429
0.700822413 0.509930134 0.266034067
0.726755142 0.511954427 0.273624152
0.752814531 0.511954427 0.281214505
0.780138910 0.511954427 0.284250885
0.809740543 0.516508400 0.296394527
0.836053252 0.521947980 0.307653308
0.862618864 0.526881456 0.319797814
0.892978847 0.530170798 0.331435800
0.923339665 0.536242783 0.342820793
0.953067780 0.542314827 0.355597347
0.981783986 0.552055418 0.371410191
1.000000000 0.563566983 0.390259385
0.281720787 0.522960007 0.218089804
0.284123987 0.525996208 0.225933194
0.290575773 0.524730802 0.231119797
0.306767970 0.528272927 0.234661803
0.317014605 0.536242783 0.234282255
0.330170721 0.536242783 0.232257992
0.345857114 0.540923238 0.232384518
0.369892508 0.536242604 0.235420913
0.391903818 0.540796995 0.236179993
0.412017494 0.539405346 0.233396634
0.435926735 0.539278805 0.237064868
0.456166983 0.539278805 0.240100995
0.483491480 0.540796995 0.245034844
0.510562837 0.539278805 0.249083027
0.539658427 0.540164411 0.253004789
0.568247974 0.543200791 0.259076804
0.592536390 0.543200791 0.262112409
0.618975341 0.541050017 0.263251007
0.647565007 0.539278805 0.260974169
0.677166760 0.538899243 0.266793191
0.703352749 0.537760615 0.274762958
0.728146791 0.540290952 0.278810918
0.754079521 0.541682601 0.285136282
0.781403899 0.541682601 0.292726099
0.808728278 0.541682601 0.300316483
0.838962495 0.547501624 0.315243453
0.865781248 0.552561641 0.327893913
0.894243956 0.553700268 0.338140190
0.924604654 0.556988955 0.350284785
0.949652195 0.568374157 0.371283948
0.977229774 0.577229381 0.386590570
1.000000000 0.587855637 0.401770979
0.289310992 0.554838598 0.227198184
0.296900779 0.559392750 0.234788388
0.302719772 0.559645772 0.243264183
0.311828136 0.559139431 0.243011028
0.327261537 0.566223741 0.242631435
0.342821181 0.565085411 0.241872042
0.355977297 0.570145369 0.238329992
0.372928500 0.572675347 0.241492510
0.393421978 0.568121374 0.243769795
0.416192234 0.568121374 0.243769795
0.440480560 0.566603184 0.248197496
0.463757187 0.568121374 0.250727177
0.485388815 0.568121374 0.253004193
0.515117049 0.567868352 0.260973990
0.542441428 0.566603184 0.262745202
0.566729784 0.565971017 0.268184781
0.597090185 0.570525169 0.269703001
0.622011542 0.570525169 0.274003774
0.649336278 0.568374395 0.272359401
0.676407516 0.566603184 0.274383366
0.703352749 0.566603184 0.282352746
0.730677128 0.567615330 0.289437145
0.755471170 0.570525169 0.292726457
0.781403899 0.570525169 0.301834077
0.807210445 0.569006979 0.309424460
0.834534824 0.569006979 0.318532467
0.862745047 0.575332105 0.332953960
0.887033224 0.578368187 0.343073934
0.920050442 0.582542539 0.350284457
0.949652195 0.588108361 0.371283948
0.972675562 0.601517797 0.400379598
1.000000000 0.610626221 0.416951388
0.297912985 0.582163513 0.240481004
0.309424549 0.588867903 0.248450562
0.316634983 0.590006530 0.254775763
0.326502115 0.591271400 0.256926417
0.334851533 0.594307125 0.249336034
0.354585916 0.591777444 0.252371639
0.368247986 0.595699131 0.249082565
0.384313554 0.598482132 0.248323560
0.402529746 0.598482132 0.254142553
0.420746565 0.598482132 0.254142553
0.444781572 0.594307303 0.258697152
0.469070077 0.595951796 0.264642864
0.494497210 0.598482132 0.268184572
0.521062613 0.597976089 0.273497611
0.547248423 0.594560146 0.273118168
0.571030796 0.591524363 0.276660174
0.597722769 0.592409968 0.280708164
0.629221737 0.597849548 0.278937548
0.656547010 0.597849548 0.288045943
0.681088030 0.596331358 0.289437413
0.706008852 0.594560146 0.294497222
0.730044544 0.594307125 0.300948560
0.757242441 0.597216964 0.303858399
0.781530619 0.597216964 0.311448097
0.805818975 0.595572293 0.318911999
0.832131624 0.595825136 0.327640861
0.858950138 0.595825136 0.336748630
0.877419174 0.604553998 0.348766893
0.909044623 0.610373139 0.356103718
0.942567766 0.617710114 0.372675300
0.971410573 0.623402715 0.398608238
0.998735011 0.632511139 0.432005435
0.316129059 0.609488130 0.246553078
0.325237453 0.618595660 0.261733443
0.330297232 0.618848860 0.265402019
0.341176212 0.618595898 0.263631016
0.359139621 0.621631622 0.258444488
0.362176001 0.624668002 0.261480093
0.374320030 0.627198339 0.261986017
0.391397715 0.628843009 0.261480033
0.411638170 0.628843009 0.263504028
0.429854989 0.628843009 0.269323021
0.453889996 0.620114148 0.269323021
0.478178501 0.621631980 0.277925581
0.503605664 0.626312673 0.285895318
0.530171037 0.628336966 0.288678050
0.548387051 0.622264206 0.285642445
0.574572861 0.618848860 0.285263002
0.602909446 0.618848860 0.290322781
0.632258177 0.622137666 0.297153622
0.656547010 0.625174046 0.300190002
0.681088030 0.627957404 0.303731680
0.707273722 0.626692176 0.308412075
0.732321203 0.623908877 0.312713027
0.754206121 0.621505082 0.312966049
0.778494895 0.621505082 0.312966079
0.802783012 0.621505082 0.320556343
0.829854369 0.625426710 0.332194746
0.858950138 0.632257998 0.345857084
0.883238852 0.632257998 0.354965448
0.907020926 0.635673881 0.372296005
0.937634110 0.644275963 0.392789394
0.968121231 0.653257608 0.415559977
0.992662966 0.656800032 0.435041100
0.362175733 0.684123755 0.297153771
0.362934768 0.684882700 0.298418790
0.372043163 0.685388863 0.298545390
0.380139083 0.684882879 0.299810380
0.394939750 0.686780095 0.300569385
0.400379330 0.682605743 0.301201820
0.411006033 0.683111787 0.304238051
0.424794376 0.682606101 0.304491103
0.443769485 0.681467712 0.304491103
0.464010000 0.681467712 0.306515098
0.482479721 0.678304911 0.303984761
0.506767690 0.673245072 0.303984761
0.531056345 0.675901473 0.310816020
0.556230426 0.678178430 0.315496385
0.576976717 0.672106266 0.317520827
0.602403522 0.673244953 0.319291562
0.628210127 0.672486126 0.324225187
0.652878165 0.672991872 0.330803156
0.670714617 0.671726704 0.329537988
0.700569391 0.674763143 0.335357726
0.728652775 0.672106743 0.336496085
0.755850732 0.669197083 0.340797067
0.779126883 0.668058455 0.344718546
0.806071877 0.668058455 0.352687746
0.825806618 0.668058455 0.357242316
0.849082708 0.666666806 0.368627399
0.876154065 0.669702709 0.384313524
0.902719498 0.674256742 0.400253177
0.927008212 0.679569721 0.412017733
0.956609488 0.686274588 0.433523118
0.982921958 0.696521342 0.460468292
0.997722983 0.703352749 0.488172114
0.380391985 0.713724971 0.317647010
0.380391985 0.717520475 0.315749258
0.386843771 0.719164729 0.319038749
0.395952135 0.716129184 0.314231575
0.407843202 0.718279481 0.318785548
0.418469012 0.718279481 0.323339760
0.435293883 0.715369701 0.327767313
0.447438657 0.718658686 0.329158992
0.463124484 0.717140973 0.330676973
0.483238220 0.717140973 0.332953990
0.503478765 0.714231610 0.331941843
0.521947980 0.711195230 0.332827479
0.543959320 0.709298015 0.332827479
0.566477060 0.711321712 0.337128431
0.587729394 0.708538711 0.340164423
0.609993756 0.707779765 0.341302931
0.638836384 0.709298015 0.344338924
0.663883984 0.709298015 0.351423144
0.682858765 0.707526743 0.350916743
0.710056722 0.710057139 0.352434963
0.734724700 0.709297955 0.358507246
0.764073372 0.705249965 0.361543357
0.789120495 0.705376506 0.368627489
0.812902868 0.707147717 0.377735585
0.839088798 0.703352749 0.386464298
