Assets/EldamarStudio/100 Retro LUTs Pack/LUTs/cube/Stephen LUT.cube
DOMAIN_MIN 0 0 0
DOMAIN_MAX 1 1 1
LUT_3D_SIZE 32
0.168626994 0.133332998 0.137254998
0.171663389 0.133332998 0.131182998
0.183301777 0.135483772 0.133712992
0.198482156 0.137254998 0.139784992
0.213283002 0.137634456 0.145477548
0.225427002 0.140670061 0.148513943
0.240101323 0.143706322 0.149020001
0.260214984 0.145098001 0.149020001
0.282985181 0.145098001 0.149020001
0.301201999 0.145098001 0.149020001
0.328146875 0.142188132 0.151929125
0.353446990 0.139152259 0.148892999
0.381150931 0.139532000 0.146236643
0.414042026 0.144592002 0.149020001
0.441366404 0.138520002 0.149020001
0.471094579 0.137254998 0.146616191
0.506009161 0.140290990 0.148133993
0.543580115 0.145098001 0.152308583
0.573940992 0.145098001 0.149272963
0.604301035 0.145098001 0.151802644
0.634661436 0.148892999 0.154838741
0.662998259 0.152941003 0.157874867
0.687539995 0.153193995 0.160784006
0.717899978 0.159266010 0.160784006
0.741429269 0.163061291 0.165337995
0.766856313 0.167488992 0.171410337
0.796711028 0.174067065 0.177988932
0.824035406 0.183175445 0.187096536
0.846046805 0.192283139 0.190891832
0.872612357 0.203162417 0.202782944
0.898545384 0.215306982 0.215685993
0.913725019 0.227450997 0.215685993
0.174699768 0.142441392 0.137254998
0.174699783 0.142441392 0.134218618
0.186337620 0.146742389 0.138899386
0.200252935 0.144338995 0.143326998
0.213283002 0.138393551 0.145098001
0.225427002 0.146742836 0.145477548
0.240101323 0.144718453 0.148513928
0.260214984 0.150031701 0.149020001
0.282985181 0.151929304 0.148260906
0.301201999 0.145098001 0.145983607
0.331055999 0.150916994 0.151802614
0.358507365 0.148260653 0.148892999
0.383807778 0.147501752 0.145098001
0.411764652 0.150917038 0.146236643
0.447438389 0.147628397 0.149020001
0.472359568 0.146363392 0.146616191
0.502973139 0.149399385 0.146616191
0.538140535 0.154206395 0.151170373
0.570904613 0.154206395 0.155344963
0.604048014 0.156989038 0.157874644
0.630866468 0.157242000 0.159013003
0.658950269 0.161036998 0.159898624
0.687413514 0.165338010 0.160910517
0.714864373 0.171410769 0.163820401
0.745224357 0.175205469 0.163820401
0.771536648 0.179632992 0.168374375
0.799746871 0.185704991 0.174952671
0.827071786 0.192283064 0.184060916
0.849083185 0.196078449 0.187855542
0.872106314 0.206198350 0.197975785
0.899051189 0.217457205 0.210499614
0.922833383 0.227450997 0.212650388
0.176470995 0.151549771 0.139405221
0.176470995 0.151549771 0.138519600
0.189374000 0.151549771 0.137633994
0.204553932 0.152561784 0.142947227
0.216825008 0.144465774 0.143706322
0.225427002 0.151802927 0.147248775
0.242251545 0.152941450 0.143326774
0.257431924 0.153194055 0.146363169
0.279443115 0.159013227 0.146869227
0.299051225 0.154079527 0.145224512
0.328905761 0.159518987 0.146615997
0.357242018 0.159519270 0.150664270
0.386843890 0.158760354 0.147248775
0.414674073 0.161036998 0.146742716
0.447311789 0.156103656 0.144085869
0.480581820 0.157622010 0.146616191
0.507906616 0.160658002 0.148133993
0.539405525 0.165464997 0.151802808
0.569765985 0.165464997 0.156357020
0.603162408 0.168248191 0.163946643
0.632763743 0.167488813 0.161290005
0.658317626 0.169259772 0.160784006
0.687539995 0.175331756 0.160910517
0.716888130 0.181404039 0.163946912
0.744338989 0.185199469 0.169007003
0.773307621 0.191018432 0.170398682
0.800126135 0.197849542 0.176723763
0.825806558 0.203921542 0.187476441
0.849968791 0.209487602 0.189120933
0.876533926 0.212523535 0.201011717
0.901581168 0.224414587 0.213914990
0.927640796 0.236053005 0.218216226
0.181530997 0.163188159 0.138646007
0.179000989 0.161923006 0.139911160
0.189374000 0.161923006 0.143706322
0.203795165 0.160657853 0.142441168
0.218595996 0.155344844 0.142061621
0.226438999 0.159645841 0.145477548
0.241366148 0.164453000 0.146489680
0.260467857 0.163567603 0.144085884
0.277925164 0.165844321 0.146363169
0.299683511 0.165844321 0.146363169
0.324604720 0.170398161 0.145098001
0.355471253 0.171663269 0.148387104
0.385072649 0.170904651 0.150284842
0.418216079 0.173940271 0.150284842
0.448576808 0.170904174 0.146236330
0.478810787 0.168247819 0.146109805
0.511954188 0.172802001 0.146869153
0.542314947 0.178241566 0.152941152
0.570272028 0.178874150 0.156609982
0.601897597 0.180392355 0.160151646
0.630233765 0.182163253 0.162302002
0.660594285 0.182163253 0.161290139
0.688804805 0.188235313 0.162049174
0.719165146 0.194307327 0.163946912
0.747248411 0.196837440 0.169259995
0.773307621 0.200126499 0.173940673
0.800632238 0.207716838 0.176976934
0.825680017 0.212270841 0.186843827
0.851233602 0.222137988 0.193421841
0.875269115 0.230233923 0.198988110
0.903858125 0.235926375 0.218089744
0.928146839 0.250727326 0.226059318
0.192157000 0.178368449 0.134092003
0.187602997 0.174952596 0.137887388
0.192916006 0.174446538 0.143327221
0.203795165 0.173940375 0.148513839
0.213283002 0.170524538 0.145477548
0.225427002 0.170524538 0.142441154
0.241239876 0.177355871 0.146616101
0.258950144 0.180265710 0.149020001
0.280202538 0.177988991 0.148640454
0.304490566 0.177988991 0.148640454
0.324478209 0.181277663 0.146869138
0.352055818 0.182669088 0.149145991
0.384693205 0.183428183 0.152561545
0.417836577 0.186464503 0.153067544
0.448197275 0.189500123 0.153320551
0.476913333 0.186464101 0.152941003
0.506894171 0.186084539 0.151423201
0.539278567 0.191524118 0.149525985
0.569639444 0.194560513 0.155598000
0.600759208 0.195572540 0.154079646
0.628083587 0.196710810 0.153320551
0.654901803 0.200379267 0.155218124
0.691081524 0.206451997 0.164199993
0.721442282 0.212524012 0.164706007
0.749525726 0.214421555 0.169259995
0.775458515 0.215812862 0.173940673
0.800252676 0.218722090 0.178115487
0.827577770 0.218722090 0.181151092
0.854143202 0.230866343 0.191397518
0.879064143 0.243896052 0.200379446
0.901581526 0.255660653 0.210120589
0.925869584 0.267805457 0.231372997
0.192157000 0.193548068 0.140164003
0.198229000 0.187476069 0.149272397
0.197975993 0.188361764 0.146616012
0.203795165 0.190891773 0.148134053
0.213283002 0.191776931 0.151549548
0.225427002 0.185704932 0.148513928
0.247691631 0.188235253 0.150537550
0.265528232 0.190638930 0.150790781
0.282479256 0.190133005 0.148260906
0.301454961 0.190133005 0.145604059
0.331561923 0.195951998 0.151423067
0.357874840 0.199494198 0.151929006
0.386211574 0.200885877 0.151802644
0.414800942 0.201644897 0.150031939
0.445160896 0.204680517 0.156103939
0.477925479 0.207716748 0.153953135
0.508791924 0.209234670 0.151423201
0.539025545 0.212776512 0.149020001
0.566603065 0.215812907 0.149526000
0.602529764 0.221631944 0.152814642
0.634155512 0.220999196 0.154838741
0.661480188 0.220999062 0.156356946
0.688045919 0.224667981 0.158127993
0.718405902 0.230739996 0.164200008
0.746489286 0.234535277 0.169259995
0.772422314 0.237065256 0.173940673
0.797216952 0.240100995 0.178494990
0.824541390 0.243010864 0.190259472
0.846552849 0.248323858 0.195951924
0.874130428 0.257685125 0.204807147
0.902087569 0.267299235 0.215180591
0.928905964 0.276913077 0.231372997
0.197217003 0.203668326 0.148766324
0.198229000 0.202656329 0.150284395
0.204301000 0.203036100 0.150790781
0.210120007 0.204807326 0.148893163
0.220493227 0.206198648 0.152561545
0.230487004 0.204427645 0.149525940
0.240101323 0.203415647 0.146489680
0.259456366 0.206451610 0.149525717
0.276154429 0.208096087 0.149778903
0.296141982 0.209867314 0.150284514
0.325995982 0.210626304 0.148387313
0.354332238 0.214674056 0.152435064
0.383934289 0.217710316 0.151802644
0.414042026 0.219355032 0.149020001
0.442125291 0.222391218 0.150537997
0.474889100 0.225426838 0.156609997
0.505249858 0.229980990 0.152435333
0.534598112 0.233396322 0.149020001
0.563820362 0.234534964 0.149020016
0.596963704 0.237824336 0.154332966
0.629601479 0.240101323 0.155471325
0.659962296 0.240733638 0.158886999
0.687413514 0.245161325 0.162049487
0.715370297 0.246426329 0.165717676
0.743453562 0.252498299 0.171790242
0.772169232 0.255787671 0.179253623
0.798228741 0.258823574 0.184566736
0.821505070 0.261859447 0.190638989
0.846046805 0.267551988 0.197469994
0.872612357 0.273624420 0.203541979
0.901201963 0.282859296 0.213662267
0.926881671 0.293611646 0.228842676
0.200000003 0.217710406 0.151296720
0.206577986 0.219354704 0.154585719
0.207589984 0.219860762 0.149146065
0.212397158 0.222897157 0.149905279
0.223023266 0.223276705 0.152941003
0.232131645 0.223276705 0.151170224
0.251107037 0.224920988 0.151423380
0.258570701 0.224920988 0.148387000
0.274509996 0.226438791 0.149905384
0.294876784 0.227704182 0.151170239
0.323212981 0.231119692 0.153320879
0.351549238 0.233143434 0.149399459
0.378873944 0.237317979 0.152435079
0.411259025 0.240860358 0.150664285
0.441366404 0.243896395 0.150664285
0.471853495 0.245287895 0.148893297
0.505249858 0.251359880 0.153447494
0.533459663 0.256293416 0.149020001
0.563820243 0.256293416 0.149020016
0.596964121 0.259076357 0.154586017
0.626818478 0.261859715 0.158507288
0.656167150 0.262871832 0.160531282
0.685895264 0.268311411 0.166729793
0.714737892 0.271347404 0.172801793
0.743706524 0.270967692 0.176470563
0.768247902 0.277039677 0.181151316
0.796837151 0.280834973 0.189246997
0.819228113 0.285009265 0.193421736
0.844781637 0.287412703 0.200758994
0.869323373 0.295129418 0.205186695
0.901454985 0.300316602 0.212144092
0.928779006 0.310183704 0.225806281
0.200759098 0.238204092 0.149778903
0.212143987 0.241998807 0.154332906
0.215685993 0.241366193 0.151170328
0.217710063 0.244149163 0.146869093
0.222264439 0.246046990 0.151423007
0.232131839 0.245288000 0.150663912
0.252625316 0.247058779 0.153953329
0.272233099 0.249209195 0.155218288
0.282099992 0.248450100 0.152941003
0.300316006 0.245414481 0.149905384
0.325742871 0.251106977 0.153321013
0.352308333 0.255154938 0.152815014
0.381150842 0.258570373 0.149399459
0.408222944 0.264390051 0.152182102
0.440101385 0.267425656 0.152182102
0.471094579 0.269576073 0.148893103
0.500696063 0.271853179 0.147375092
0.535357416 0.281593978 0.150411472
0.566097081 0.282099992 0.150538012
0.598482013 0.284123749 0.155344918
0.628083646 0.287159830 0.158760265
0.656926215 0.289437145 0.162808001
0.684377074 0.292600006 0.168880016
0.714737713 0.298671961 0.177356005
0.742820978 0.297912896 0.181151286
0.770524621 0.299810082 0.185705319
0.792283118 0.304870069 0.188741058
0.816571832 0.310436100 0.194560096
0.845034778 0.311195105 0.204047829
0.866793334 0.318026274 0.210373119
0.895382941 0.325363696 0.218216464
0.931814969 0.328400075 0.227324083
0.203795493 0.265528530 0.152814522
0.212903097 0.271600515 0.152814522
0.215685993 0.268943995 0.150917292
0.218215987 0.269449830 0.148893490
0.225300059 0.276407033 0.148387387
0.240480468 0.270335048 0.142314613
0.252878159 0.269576043 0.146616161
0.270588696 0.271347225 0.150917292
0.291208386 0.272738904 0.152941003
0.312460005 0.269702524 0.152941003
0.333585858 0.275395036 0.149905398
0.357115507 0.279443294 0.149273008
0.384946138 0.282479644 0.149020001
0.417330593 0.285642475 0.149146482
0.441619337 0.288678080 0.149146482
0.471094579 0.294117481 0.149146482
0.498418987 0.296900481 0.150411293
0.526249051 0.299809992 0.153447092
0.565717518 0.311954021 0.156483486
0.596457720 0.312460035 0.159392655
0.625047266 0.314484239 0.160657525
0.654395878 0.316508502 0.162808001
0.687413454 0.316888034 0.168880016
0.717773438 0.322960019 0.174952805
0.741302788 0.322201312 0.176597476
0.765717685 0.324731290 0.180898309
0.792283118 0.332194477 0.188741058
0.816571832 0.332194507 0.191777453
0.848829746 0.332447499 0.202909455
0.867805183 0.341302663 0.211384982
0.886401057 0.352688104 0.221758097
0.925743043 0.355724484 0.242504492
0.203922004 0.298671871 0.150031880
0.215939477 0.296014994 0.155850872
0.222896859 0.304237783 0.153700098
0.225680038 0.303225696 0.149399132
0.232005283 0.303857863 0.146489680
0.252245665 0.297785878 0.148007870
0.264895737 0.296773881 0.144465417
0.281973720 0.298418581 0.149399132
0.302466989 0.301454782 0.152941003
0.321568370 0.302719384 0.152941003
0.337001741 0.299683750 0.144212142
0.362302125 0.303731471 0.145224527
0.387476265 0.307906270 0.147248775
0.415053904 0.312713832 0.148766965
0.441998810 0.315749437 0.146110132
0.471094579 0.316381872 0.150917128
0.506009161 0.322960049 0.151929125
0.537254810 0.327767134 0.154205993
0.565338016 0.333079875 0.159519091
0.596457720 0.339658588 0.159772128
0.626818478 0.338013858 0.162681744
0.655155003 0.340037853 0.165717870
0.684503675 0.343832880 0.171789855
0.712081015 0.344338894 0.177861929
0.740164280 0.348134160 0.181657404
0.764073312 0.347754866 0.183681309
0.789879918 0.351802737 0.190259129
0.816571832 0.356609732 0.200506330
0.843516767 0.361922711 0.206198871
0.874636352 0.364199936 0.217836827
0.895256460 0.372169763 0.227956846
0.922580898 0.377229869 0.243137002
0.203922004 0.330044508 0.149020001
0.214041740 0.329032362 0.151044011
0.221884727 0.328526288 0.154712230
0.231751889 0.333839506 0.151676163
0.238583282 0.331941754 0.147501722
0.253257662 0.329158753 0.150537685
0.270967722 0.328146756 0.150537670
0.284756422 0.329791039 0.149145991
0.304490924 0.332068235 0.152941003
0.322707266 0.333839029 0.152941003
0.344085872 0.333080113 0.148260638
0.365338504 0.334092468 0.143200263
0.391524255 0.335989743 0.143959358
0.416065753 0.340038210 0.145477548
0.443390131 0.343073815 0.147754848
0.473118305 0.347754240 0.149904996
0.501960933 0.349272430 0.154459193
0.538140237 0.356103837 0.154965267
0.566603065 0.359139800 0.158254281
0.594434023 0.362934709 0.162808269
0.628589272 0.365211964 0.162808269
0.657178998 0.363314241 0.165717870
0.683618009 0.367362231 0.170777753
0.712840140 0.371157259 0.176850259
0.740164518 0.371410280 0.182669282
0.764705896 0.374446660 0.188488305
0.788868010 0.375585169 0.194307119
0.816192389 0.380138993 0.206451893
0.839468777 0.382162988 0.209234998
0.868564367 0.388235390 0.220620185
0.897153974 0.393295616 0.231246248
0.919544756 0.400505990 0.241113260
0.206199005 0.359266639 0.150158361
0.211891264 0.359266639 0.150158361
0.222264275 0.360404998 0.151170224
0.229854152 0.358127981 0.152814522
0.244655102 0.358127981 0.149778903
0.254522562 0.358127981 0.151296705
0.270081997 0.356989652 0.151802644
0.288930714 0.359772563 0.152941003
0.305629104 0.362808198 0.153700098
0.324225336 0.363187641 0.154079646
0.343706638 0.363187641 0.150031880
0.369133502 0.364073277 0.149272740
0.393422008 0.367109627 0.146236643
0.417710066 0.367109627 0.143200248
0.444149047 0.369259834 0.146616191
0.475015581 0.373560607 0.151423201
0.503858149 0.379253477 0.153320551
0.531815112 0.381657273 0.155724362
0.564705670 0.384187609 0.155724376
0.593675077 0.387223274 0.161290362
0.622138023 0.391777277 0.164706007
0.656546295 0.392789155 0.168753996
0.681340992 0.392915636 0.172169149
0.711701512 0.396963626 0.177229807
0.738646626 0.398481637 0.182163358
0.765465021 0.398734689 0.189626947
0.787729383 0.401771069 0.198734716
0.815053761 0.404806823 0.210246891
0.839342117 0.406324923 0.214042008
0.864769340 0.409867048 0.221758544
0.893358946 0.415939629 0.234282345
0.917647004 0.424794286 0.240354359
0.212523967 0.387350053 0.152688041
0.212523967 0.387350053 0.153700039
0.222264737 0.389247328 0.152688041
0.235673830 0.388994098 0.152688041
0.244655102 0.383428037 0.153067544
0.256799877 0.383428037 0.150031939
0.271979749 0.381151378 0.148766965
0.290195733 0.382543027 0.150664285
0.311448127 0.387602985 0.153447062
0.332700491 0.390638590 0.156483456
0.345730722 0.390765071 0.151296973
0.367742240 0.391018093 0.151043743
0.393927991 0.392156661 0.152308643
0.418469101 0.394687057 0.149526000
0.442757845 0.394687057 0.146489620
0.473244816 0.396837294 0.149904996
0.503858149 0.401138365 0.153447002
0.531562090 0.406452000 0.153447002
0.561922967 0.406452000 0.153447017
0.592283726 0.409487665 0.158760056
0.619102001 0.415306777 0.162681744
0.645414293 0.422390908 0.168247998
0.675521970 0.425300032 0.180265501
0.705628991 0.425300032 0.183554903
0.732194543 0.425553054 0.187349737
0.757368684 0.425806105 0.192662701
0.784693062 0.426059127 0.201771036
0.812017441 0.429095507 0.210879415
0.839088798 0.432384849 0.217583984
0.867425561 0.436686009 0.227450997
0.892599940 0.443010986 0.238077044
0.916887999 0.449083000 0.244149059
0.221631572 0.423782796 0.149652421
0.221631572 0.423782796 0.161796421
0.223782346 0.423782796 0.154206410
0.235673577 0.424415231 0.149652421
0.250474095 0.422770679 0.150411427
0.256799877 0.419860810 0.156103939
0.276534319 0.419860810 0.148007676
0.294876814 0.419228405 0.149019584
0.314484507 0.420493394 0.152941003
0.335736901 0.420999348 0.153447077
0.354079396 0.421125829 0.153573588
0.375079066 0.423150092 0.152308583
0.399999976 0.425553590 0.154079646
0.424541116 0.428083420 0.155598000
0.451866210 0.425047815 0.155598000
0.473751187 0.425047815 0.152561605
0.502087414 0.427198023 0.155976996
0.531182528 0.431498975 0.159519002
0.558886528 0.436811954 0.159519002
0.589247346 0.442377955 0.162302360
0.617710352 0.442125142 0.164073423
0.645414293 0.443643272 0.166730002
0.675521970 0.446552396 0.174193501
0.699810028 0.446552396 0.183301911
0.732194841 0.448829681 0.193421990
0.758128047 0.451233476 0.199494094
0.781657457 0.453131229 0.204807356
0.808981836 0.453384250 0.213915020
0.833649397 0.459076792 0.223023400
0.867425561 0.460974395 0.235041171
0.895509422 0.464895755 0.247818008
0.907779574 0.473370969 0.256293833
0.228336602 0.455407977 0.153826997
0.218722001 0.455407977 0.151550010
0.231625557 0.455407977 0.150790468
0.239721805 0.455407977 0.148007557
0.255281359 0.455028534 0.150664195
0.267425865 0.451992661 0.148640200
0.286148310 0.453889787 0.158886671
0.302466989 0.453889787 0.154711992
0.319164991 0.453889787 0.157747999
0.338772684 0.453889787 0.157747999
0.357115805 0.453889787 0.157747999
0.375331789 0.455914050 0.153699994
0.401138484 0.456673145 0.155218005
0.428209841 0.457178801 0.159013242
0.455534428 0.458444238 0.156863004
0.482858986 0.460214972 0.156863004
0.502593577 0.458697170 0.153826624
0.529411733 0.459962010 0.157242000
0.558507025 0.464262784 0.160784021
0.586210907 0.467931569 0.165970549
0.616571665 0.470208585 0.169006929
0.644402146 0.469702899 0.171536982
0.673497677 0.472612381 0.177861974
0.704617023 0.472612381 0.189247102
0.726628304 0.474889100 0.198355481
0.758127689 0.479316771 0.207589984
0.782922328 0.482858986 0.212650254
0.808349431 0.482858986 0.221758336
0.833016992 0.485768765 0.226059631
0.862618566 0.488298774 0.236938775
0.892853022 0.491840750 0.250600994
0.903478801 0.502466619 0.261227190
0.234408990 0.487286180 0.159898996
0.225300610 0.488804370 0.156863004
0.231625542 0.484250188 0.152308643
0.246047154 0.484250188 0.147501349
0.257938206 0.485768288 0.155977190
0.271979928 0.488425285 0.156736180
0.287666142 0.484377056 0.155218005
0.310057193 0.487286180 0.162302196
0.323719203 0.487286180 0.162302196
0.341935188 0.487286180 0.162302196
0.360151559 0.485768378 0.162302196
0.381404191 0.486274451 0.162808001
0.403035820 0.489310563 0.160151631
0.432258040 0.487286180 0.165085152
0.457052410 0.489057392 0.162049219
0.482858986 0.489057571 0.161416799
0.510183334 0.492093146 0.159899011
0.529664934 0.490322560 0.158127621
0.558254063 0.493358403 0.163314015
0.585831344 0.494876534 0.169386387
0.613535643 0.499051183 0.175078928
0.643896163 0.498039335 0.178115055
0.671726525 0.500063658 0.183554500
0.702339947 0.501454949 0.191524208
0.731182456 0.503732085 0.202909291
0.753826499 0.505376339 0.210625991
0.782922208 0.511195362 0.217710122
0.807210684 0.513219357 0.227830634
0.833016992 0.514357984 0.236179829
0.862618566 0.515623152 0.244528949
0.894244552 0.518279731 0.259329557
0.909551203 0.529791415 0.273371190
0.238583431 0.519417703 0.164073437
0.236306399 0.523086548 0.165338427
0.243137568 0.518152952 0.162555233
0.252751589 0.511574566 0.162681729
0.262239516 0.512333632 0.159266472
0.274383575 0.523972452 0.169892430
0.287159979 0.520303845 0.166223675
0.303984821 0.517140985 0.163061142
0.327387989 0.520050108 0.167235985
0.345603973 0.520050108 0.167235985
0.363820136 0.517140985 0.166603580
0.386084497 0.515496552 0.167994887
0.411511630 0.516635060 0.171663210
0.438583046 0.519417703 0.174699530
0.460214972 0.519417703 0.172422141
0.483870983 0.518279314 0.168626994
0.509045184 0.517646909 0.168374181
0.536369503 0.520682693 0.166603580
0.560657620 0.523719132 0.169639200
0.586463928 0.524604559 0.174826130
0.614421189 0.526502132 0.181530982
0.640860558 0.531435668 0.187223434
0.670967579 0.528400004 0.190385565
0.697785914 0.530423641 0.193927884
0.726754963 0.532827199 0.201897576
0.755597711 0.533839524 0.213156134
0.779886544 0.534851491 0.220240131
0.804174602 0.540923536 0.232384861
0.830486834 0.542314947 0.242631391
0.860720992 0.542947531 0.253510565
0.892346978 0.545604110 0.267046005
0.919671416 0.554712534 0.288298428
0.235547051 0.546742976 0.161037058
0.247691020 0.552814960 0.167109042
0.258317590 0.550032020 0.164073050
0.266666830 0.543706596 0.165844336
0.271347135 0.539658129 0.174446866
0.283491910 0.545730889 0.168374106
0.298165649 0.547249019 0.168880045
0.313092709 0.546490014 0.168121010
0.330550134 0.547501862 0.170651123
0.351675987 0.550410986 0.179380000
0.369892746 0.547501922 0.176470876
0.392156899 0.544465780 0.175711975
0.417583644 0.543959677 0.178241938
0.444655061 0.546742976 0.183807924
0.468943834 0.546742976 0.186843529
0.492978960 0.549146175 0.174952164
0.517267406 0.550158024 0.170145199
0.542441547 0.551043630 0.172675580
0.569765985 0.554079950 0.175711989
0.591271341 0.557115614 0.178747594
0.618722439 0.556103766 0.185831785
0.645794153 0.556863010 0.193675011
0.667931914 0.561796427 0.199493974
0.692219973 0.558760047 0.205565974
0.719038248 0.558507025 0.209108308
0.748007298 0.557368755 0.218469635
0.776850104 0.556104004 0.232384935
0.801138878 0.562175989 0.244528934
0.825426936 0.565591156 0.248703152
0.853510320 0.568374276 0.254269451
0.883238554 0.572928607 0.263504356
0.910562992 0.582037032 0.279190063
0.243643358 0.571284056 0.171916723
0.253004700 0.571790040 0.175205350
0.258696944 0.573561013 0.176976353
0.268943638 0.571284056 0.174699366
0.276913106 0.569006741 0.179633185
0.284250855 0.570271850 0.180771843
0.298924685 0.573814392 0.179759711
0.314104706 0.572422624 0.174826011
0.331562191 0.572043061 0.173687443
0.354838848 0.575079262 0.182795838
0.375964761 0.575079262 0.185831517
0.398229003 0.572043121 0.184819654
0.420240283 0.571283996 0.182542652
0.442378342 0.573814332 0.181530640
0.466666460 0.571284056 0.182036579
0.490955234 0.573687792 0.187475979
0.513725579 0.576723576 0.184060559
0.536748946 0.577355981 0.186464369
0.561922669 0.576091349 0.187349975
0.594813704 0.579127014 0.193169013
0.616066098 0.584060311 0.194307372
0.643769979 0.583681166 0.200759143
0.670461655 0.584187388 0.208349362
0.694750369 0.583807826 0.209108368
0.721315622 0.585325480 0.219734356
0.747248292 0.584440053 0.225679994
0.774319828 0.581910372 0.235673711
0.800885856 0.583428383 0.245540991
0.830486953 0.589500368 0.255028814
0.855028391 0.594433725 0.263630658
0.882479548 0.599367321 0.275268972
0.909803987 0.606577992 0.292346358
0.258443981 0.599367440 0.185958251
0.261859655 0.599367440 0.187096611
0.264769226 0.605060220 0.195572466
0.272865146 0.599999905 0.189247310
0.285262287 0.598228753 0.186843738
0.292852879 0.601264715 0.191397935
0.302719682 0.601897359 0.190006256
0.322833419 0.600000024 0.190006256
0.338013709 0.598228812 0.183933988
0.357748240 0.601265192 0.189626738
0.381024867 0.599493980 0.191018119
0.402403712 0.603162467 0.193927735
0.424414724 0.601264715 0.193927735
0.443137288 0.603036046 0.190385729
0.467425734 0.600000024 0.193674728
0.491713852 0.597975791 0.196584463
0.516002655 0.601012170 0.201138273
0.538899541 0.603415489 0.204174548
0.564452767 0.601644695 0.205439731
0.591398120 0.604174376 0.207210734
0.619102001 0.605312765 0.209487736
0.642378390 0.609360754 0.210499600
0.671473503 0.607336998 0.217457250
0.693991065 0.607336998 0.217457250
0.724351525 0.607716501 0.226565734
