Assets/EldamarStudio/100 Retro LUTs Pack/LUTs/cube/Steven LUT.cube
DOMAIN_MIN 0 0 0
DOMAIN_MAX 1 1 1
LUT_3D_SIZE 32
0.141176000 0.098039001 0.074510001
0.141176000 0.098039001 0.074510001
0.143326774 0.100189775 0.076660231
0.146363169 0.103225842 0.079696164
0.150537997 0.106640995 0.083112001
0.162681997 0.112712994 0.089184001
0.172296315 0.121315315 0.097786322
0.178115278 0.127134711 0.103605285
0.181909993 0.130929992 0.107399993
0.187981993 0.137001991 0.113472000
0.196963876 0.140164122 0.113724999
0.206072256 0.147248253 0.119797252
0.216318995 0.157494992 0.130043998
0.228210032 0.169386029 0.141935036
0.237318411 0.178494409 0.151043415
0.246426180 0.187602803 0.160151809
0.258570194 0.199747190 0.172296196
0.273750573 0.214927569 0.187476560
0.288931012 0.230107978 0.202656984
0.301328003 0.242505014 0.215054005
0.311574757 0.256546736 0.227197990
0.323718995 0.272738993 0.241366252
0.341808498 0.290828496 0.259709477
0.356988907 0.306008905 0.280961901
0.369892567 0.323465973 0.299936980
0.386211634 0.343073636 0.322327614
0.407464057 0.365338057 0.349146128
0.428716421 0.392662406 0.373434901
0.449968815 0.419987470 0.397722960
0.474763155 0.447312146 0.423782140
0.499430984 0.473750949 0.450221181
0.517647028 0.498039007 0.474510014
0.144212395 0.101075388 0.083618388
0.150284395 0.107147381 0.083618388
0.154585391 0.107147381 0.083618388
0.161037162 0.111828163 0.088298611
0.167236000 0.118026771 0.094497003
0.168753982 0.118785769 0.095256001
0.175837994 0.124857768 0.101327993
0.182795614 0.131815389 0.108285606
0.187981993 0.135483995 0.112713091
0.194054008 0.137002006 0.116508394
0.205945745 0.148892999 0.122580379
0.215180129 0.156356648 0.128905639
0.223149896 0.164326400 0.136875391
0.231499389 0.172675386 0.145224392
0.243390411 0.184566408 0.157115415
0.252498806 0.193674803 0.166223794
0.261606604 0.202783197 0.175332189
0.274383157 0.215559974 0.188108981
0.291967392 0.233143598 0.205692604
0.304364383 0.245540619 0.218089625
0.314611137 0.259582341 0.230234087
0.326755375 0.275774866 0.244402394
0.344971359 0.293991357 0.262871593
0.363060921 0.312080920 0.287033886
0.375964582 0.329537988 0.306008995
0.390891969 0.347754329 0.324224979
0.410499662 0.368374467 0.347121745
0.431752026 0.395698816 0.376470506
0.455661237 0.420367032 0.400759250
0.479063928 0.443770170 0.428589314
0.506008804 0.472106576 0.457178801
0.532827377 0.507147372 0.483618379
0.158000991 0.108412229 0.094876997
0.159771994 0.116635002 0.094876997
0.163693771 0.116255775 0.092726223
0.169765770 0.118785776 0.095256224
0.177608997 0.126628995 0.103098996
0.181151003 0.130171001 0.106641002
0.181909993 0.130929992 0.107400000
0.187981993 0.137001991 0.110183001
0.194054186 0.143073991 0.115243196
0.200126559 0.145857006 0.119671263
0.212017745 0.153193995 0.127766997
0.222138256 0.163314253 0.135863245
0.230107546 0.171284005 0.143832996
0.236685991 0.177861989 0.150410995
0.248829991 0.190005988 0.162554994
0.260721058 0.201897576 0.174446568
0.269829422 0.211005569 0.183554575
0.279569775 0.220746368 0.193295375
0.294750184 0.235926807 0.208475813
0.309551001 0.255028546 0.225426778
0.321694970 0.267172545 0.237570748
0.332068473 0.281087786 0.249715477
0.347754747 0.297027230 0.265907735
0.361922771 0.315243781 0.290196031
0.379885823 0.333459765 0.309930772
0.396204889 0.353067428 0.329538435
0.416192144 0.373055130 0.350537539
0.439089209 0.398735195 0.380897880
0.458696872 0.427703857 0.405945599
0.486527592 0.455534577 0.433776349
0.512460351 0.479696602 0.461480141
0.541556001 0.514105022 0.486274987
0.176217318 0.122580156 0.107020997
0.173687309 0.125363380 0.104491003
0.178367764 0.128399774 0.103605390
0.178874150 0.127893835 0.101834163
0.185325712 0.133586377 0.107906155
0.192283332 0.138772994 0.113978155
0.197090164 0.143580154 0.118785322
0.197849154 0.144339159 0.118785322
0.203921154 0.150411159 0.120303318
0.209993809 0.156483158 0.126375973
0.219355151 0.162555173 0.134092286
0.229475081 0.170651421 0.143200412
0.238583475 0.179759502 0.152308509
0.245035037 0.186211035 0.158760041
0.256167144 0.197343156 0.169892147
0.267046005 0.208222598 0.180771589
0.278937340 0.220113963 0.192662969
0.288678139 0.229854137 0.202403143
0.300822169 0.241998792 0.214547798
0.313219547 0.259962231 0.229728192
0.327766985 0.276787013 0.245414302
0.340923131 0.289943159 0.260594457
0.353573859 0.302593112 0.273751140
0.367995173 0.320809662 0.295762151
0.383428305 0.340290964 0.316761553
0.401770800 0.358633786 0.337634474
0.422517151 0.381404132 0.359392971
0.445287734 0.407210708 0.388235122
0.468058288 0.435547233 0.414547622
0.493358344 0.465907335 0.442378342
0.522833586 0.495382547 0.471853554
0.550158024 0.522707045 0.493864983
0.194054544 0.142314553 0.119164996
0.188741550 0.137001544 0.113092996
0.192283332 0.137001768 0.111321993
0.197090164 0.140037939 0.111701541
0.194813550 0.143073544 0.112080991
0.203921929 0.146109939 0.118152991
0.213029772 0.154206321 0.126755312
0.217583537 0.158760548 0.131309539
0.218722090 0.159898996 0.132447988
0.224794090 0.165970996 0.138519987
0.230866730 0.172042996 0.144592002
0.239342272 0.180518791 0.153067797
0.247691199 0.188867897 0.161416903
0.256799519 0.197975591 0.170524582
0.265907854 0.207083970 0.179632962
0.275395304 0.216951340 0.188741356
0.285641819 0.227197990 0.198987991
0.298165977 0.239342079 0.211891085
0.310310006 0.251486123 0.224035114
0.319671363 0.266413480 0.236179709
0.332574338 0.281593740 0.250980735
0.346995145 0.296774149 0.267426133
0.362302005 0.312081009 0.288551986
0.380518824 0.330297083 0.306768000
0.396458268 0.350790352 0.326881796
0.413409501 0.371030867 0.349146068
0.431625545 0.390512526 0.373813689
0.449841529 0.420872509 0.398102432
0.475648463 0.448197484 0.424667776
0.504743874 0.477292925 0.453763366
0.534218550 0.506767571 0.483238578
0.561542988 0.534092009 0.510563016
0.209234938 0.151422933 0.131309003
0.209234938 0.151422933 0.125237003
0.208222941 0.150410935 0.123465993
0.211005718 0.152182162 0.124731153
0.213029534 0.155218333 0.127261385
0.216065928 0.158253938 0.130296990
0.225174323 0.166350305 0.138899311
0.230993152 0.172169715 0.144718707
0.233523026 0.174699828 0.147248834
0.236938864 0.178114995 0.150664002
0.243010879 0.184187010 0.156736016
0.253131002 0.194307506 0.166856498
0.261353582 0.202530295 0.175079286
0.265907913 0.207083970 0.179632962
0.275015503 0.216192335 0.188741341
0.286527663 0.230107725 0.197849736
0.296647668 0.241239727 0.206957728
0.307526618 0.251486152 0.218469128
0.322454005 0.263630897 0.236179888
0.331815362 0.278558224 0.248323888
0.344718724 0.293738127 0.266160756
0.357874751 0.308918148 0.284377158
0.368374020 0.324225008 0.300695986
0.386590809 0.342441827 0.318911999
0.402530283 0.362935126 0.337128580
0.420493633 0.384187490 0.357242584
0.440733910 0.405439913 0.380012959
0.458949924 0.429980904 0.407210827
0.482479572 0.455028564 0.431498885
0.510815859 0.483364910 0.459835351
0.540290534 0.512839556 0.489310592
0.567614973 0.540163994 0.516635001
0.221884996 0.163060993 0.138393000
0.221884996 0.163060993 0.137381002
0.224035770 0.165211767 0.137760773
0.224415317 0.165591314 0.138140321
0.226186097 0.167362541 0.139911547
0.229221940 0.170398697 0.142947704
0.234788001 0.175964639 0.148513645
0.242251679 0.183428317 0.155977324
0.246932179 0.188108996 0.160658002
0.251739800 0.192915842 0.165464833
0.252625316 0.193801314 0.166350320
0.258697331 0.199873328 0.172422305
0.269829333 0.211005673 0.183554679
0.277292997 0.218469054 0.191018060
0.284123898 0.225300729 0.197849736
0.295635313 0.236812308 0.209361315
0.306261867 0.248830184 0.218596190
0.316002309 0.258570611 0.228336617
0.329284996 0.270714968 0.242757946
0.341429681 0.288172036 0.257938325
0.352435321 0.301454663 0.273877323
0.363947004 0.314990252 0.291460991
0.371916294 0.328779310 0.305249691
0.390132487 0.346995503 0.323466331
0.408349246 0.369766235 0.343959600
0.425173968 0.392662972 0.366603613
0.445287734 0.415053755 0.390133053
0.465527982 0.437317967 0.413409412
0.481467307 0.459076315 0.435547292
0.507526815 0.485135823 0.461606473
0.538899183 0.514737189 0.489436954
0.571157336 0.543706357 0.515116692
0.238962695 0.180138692 0.155977115
0.234028995 0.178494409 0.149398699
0.239468768 0.180644765 0.153193757
0.239974827 0.181151152 0.153700143
0.240354374 0.182289690 0.154459253
0.244655460 0.189120933 0.160025641
0.246932417 0.188108996 0.160657987
0.253004402 0.194180995 0.166729987
0.259835303 0.201012090 0.173561081
0.266793251 0.207969695 0.180518687
0.270335704 0.211511701 0.184060693
0.274383694 0.215559706 0.188108698
0.280455709 0.221631706 0.194180682
0.291587710 0.232763752 0.205312759
0.300442725 0.241619527 0.214168534
0.308032691 0.249209687 0.221758693
0.318658888 0.262871891 0.233902693
0.328399688 0.272865683 0.243769988
0.340543717 0.285009742 0.255914032
0.352688015 0.299430698 0.272486061
0.364832699 0.313851684 0.286274701
0.375964582 0.327007830 0.303478837
0.382921994 0.340038002 0.316381902
0.398102403 0.358254403 0.333080530
0.414674282 0.379380256 0.351929277
0.432890683 0.400885671 0.374573290
0.451106697 0.424667865 0.401138693
0.471220404 0.447058827 0.423529416
0.492093503 0.469955504 0.446426511
0.516002536 0.493105561 0.466287136
0.542441368 0.522201002 0.494497150
0.575837970 0.553320706 0.520303369
0.259456009 0.202150196 0.180265903
0.251106709 0.198355481 0.169639334
0.254142761 0.198861420 0.169639200
0.259709030 0.200885162 0.173434153
0.256672651 0.197849542 0.170398548
0.261606783 0.208096102 0.177988932
0.264137089 0.208096102 0.179253772
0.266667008 0.207843199 0.180392191
0.272738993 0.213915199 0.186464190
0.281846613 0.223023579 0.195572585
0.288804740 0.229980990 0.202529997
0.295636088 0.236812070 0.209361106
0.301708102 0.242884099 0.215433091
0.307780087 0.249462157 0.221758127
0.318912089 0.261606932 0.233396828
0.327008188 0.269702971 0.241493091
0.334598184 0.278811187 0.249842003
0.343073994 0.293358982 0.263251156
0.354965031 0.305503041 0.275648236
0.367109239 0.317647010 0.291840732
0.379253477 0.329791158 0.306261986
0.391144961 0.343706220 0.319418132
0.400505573 0.358886600 0.334851503
0.413282812 0.376470834 0.351296902
0.427704275 0.396964282 0.368754178
0.445035070 0.417584062 0.388994396
0.463757157 0.436306179 0.412777156
0.482226163 0.460341901 0.436812162
0.504237592 0.484629959 0.461100638
0.532068312 0.508918345 0.483365119
0.562176108 0.535104692 0.503605187
0.586464167 0.568501115 0.533966005
0.277671993 0.226438984 0.195445538
0.271600038 0.220366985 0.189373538
0.274003506 0.218722492 0.189500272
0.278937191 0.220113814 0.192662820
0.280961454 0.222137555 0.194686562
0.277925044 0.219101951 0.191650957
0.282859147 0.224288493 0.196711019
0.287033767 0.228210211 0.200759217
0.290955007 0.232131973 0.204680979
0.297026992 0.238203973 0.210752994
0.306135327 0.247311592 0.219860613
0.315117240 0.256293237 0.228842258
0.322960496 0.264136493 0.236685500
0.329032481 0.270714581 0.243010536
0.335104465 0.282859325 0.252118886
0.343833268 0.292599678 0.261353821
0.352814764 0.301581204 0.270335317
0.361289978 0.311574996 0.281467170
0.367362022 0.323719025 0.299683988
0.379253715 0.335862994 0.312081039
0.391397953 0.348007470 0.324478000
0.403541982 0.362175941 0.337634116
0.415685982 0.380138963 0.353067517
0.430866390 0.395319402 0.374319911
0.445920259 0.415180266 0.393042564
0.463883638 0.436432630 0.412650615
0.485009551 0.457558542 0.434029549
0.506261945 0.478810936 0.455281943
0.524730921 0.502845943 0.479316950
0.550284326 0.527134359 0.503605425
0.580645144 0.553194165 0.527640939
0.610753000 0.583681464 0.552182019
0.290069729 0.244907990 0.219354734
0.295635760 0.244654983 0.219101742
0.298165739 0.242883980 0.215179965
0.299177736 0.242883980 0.214168161
0.298039317 0.244275406 0.214294747
0.305122942 0.246299803 0.218848810
0.304616868 0.245793864 0.218342870
0.308285832 0.249462575 0.222011581
0.312080890 0.253257871 0.225806862
0.318152875 0.259329855 0.231878862
0.324224830 0.265401870 0.237950861
0.329285234 0.274509996 0.245034724
0.337760985 0.284756750 0.254395872
0.347628027 0.294623733 0.264262915
0.356356889 0.304110974 0.273371309
0.364832669 0.313851923 0.282479674
0.372422874 0.324477851 0.296141863
0.379506737 0.334345162 0.308791727
0.385578752 0.341935784 0.317899972
0.400000125 0.356862426 0.338899404
0.412270874 0.369133353 0.347627878
0.424414873 0.383301854 0.360783994
0.436685354 0.401391357 0.379506379
0.451865792 0.416571796 0.389626801
0.467046142 0.436306149 0.413156420
0.485009521 0.457558513 0.434029520
0.505755842 0.479316860 0.455787867
0.524604440 0.502972424 0.479443431
0.548513651 0.526881635 0.503352642
0.570777655 0.551170111 0.527640700
0.596204579 0.574573278 0.551043630
0.620493174 0.598861873 0.573307872
0.316382229 0.269196749 0.245667234
0.318406254 0.269196749 0.241619244
0.322453976 0.267172515 0.241492733
0.325995982 0.267172515 0.239721507
0.321821541 0.267552048 0.238583237
0.324351579 0.270588428 0.244655237
0.329917490 0.275142491 0.249715239
0.331562191 0.276786774 0.251359940
0.334598422 0.279823065 0.254396141
0.339405268 0.284630269 0.259202957
0.343453497 0.288677990 0.263251245
0.351549238 0.296774238 0.271347493
0.356862634 0.305882633 0.278557837
0.368121237 0.317141265 0.289816320
0.379000366 0.328020066 0.300695896
0.386085033 0.339152038 0.315876037
0.395193070 0.348260432 0.324984401
0.401770979 0.359898478 0.339784920
0.407842994 0.368753910 0.347248256
0.418216348 0.379127175 0.359139621
0.433396697 0.394307226 0.376596987
0.444655389 0.407590389 0.385072500
0.456040472 0.424794465 0.403162271
0.473118156 0.441872180 0.417963386
0.490322232 0.459582776 0.434408545
0.505502641 0.480834782 0.460088611
0.525490046 0.502087057 0.482606053
0.545224249 0.524857223 0.505376220
0.564705849 0.545097888 0.525616884
0.588994145 0.569386184 0.549905181
0.614167809 0.594560504 0.575078845
0.637697279 0.618090272 0.598608255
0.341809005 0.290829003 0.267298996
0.341809005 0.290829003 0.263503999
0.343959510 0.290955216 0.262871653
0.345730275 0.289184004 0.262871653
0.345730275 0.289184004 0.262112647
0.343453556 0.291461289 0.265148640
0.346868992 0.295888990 0.270081997
0.350158036 0.302593559 0.275648355
0.353953362 0.306388289 0.279443622
0.357368529 0.309804142 0.282858789
0.360404879 0.312839746 0.285894871
0.366350383 0.317646891 0.294117630
0.374319673 0.325616658 0.302087605
0.383428037 0.334725022 0.311195254
0.394686639 0.345983624 0.322454154
0.405439615 0.359266281 0.338266999
0.413030088 0.372169167 0.353067517
0.422137678 0.381277561 0.363440901
0.428715646 0.392915666 0.373560667
0.438709646 0.403415352 0.383807629
0.450474381 0.415180355 0.395572364
0.465654790 0.430360764 0.410752773
0.475269109 0.445541084 0.423149794
0.492472976 0.462745011 0.440354466
0.508412242 0.480961561 0.457431972
0.527513921 0.500569582 0.477545649
0.542694330 0.521821320 0.503858089
0.562681675 0.543073714 0.525110424
0.582416296 0.562808275 0.544844985
0.604174554 0.584566593 0.566603541
0.627577245 0.608854830 0.588235259
0.654395640 0.635927022 0.614547670
0.355471075 0.304997057 0.281467050
0.355471075 0.304997057 0.281467050
0.357368797 0.306894332 0.283364803
0.359393001 0.308918059 0.285389066
0.358634025 0.308665097 0.284630060
0.358634025 0.308665097 0.278558046
0.361922741 0.311448365 0.280581743
0.363314062 0.317267716 0.284250438
0.364073038 0.325111002 0.290322989
0.370145053 0.331183016 0.296395004
0.373813897 0.334851176 0.300063163
0.378621042 0.337887317 0.308412105
0.384946018 0.342315018 0.318532288
0.391018093 0.348387033 0.324605018
0.400126457 0.357495397 0.333712608
0.413535804 0.370904803 0.347627819
0.426186174 0.386590868 0.361796081
0.435294449 0.400505632 0.374066591
0.444402099 0.409614056 0.389247030
0.456040770 0.421252102 0.401391715
0.468185037 0.433396518 0.413535982
0.481341183 0.446553141 0.426692128
0.496521503 0.461733490 0.441872478
0.511701107 0.476913095 0.457052916
0.525110543 0.494370580 0.472485721
0.541176617 0.513725638 0.490195692
0.561670065 0.534725070 0.511195123
0.576850414 0.555977464 0.532447457
0.597090781 0.576976776 0.553446829
0.619101882 0.599999964 0.576217413
0.642757654 0.624288201 0.598608613
0.664010048 0.648577034 0.613789022
0.385831803 0.341429800 0.317899793
0.385831803 0.341429800 0.317899793
0.385831803 0.341429800 0.317899793
0.387729228 0.343327075 0.319797546
0.388614506 0.344971359 0.321062803
0.379886389 0.342062235 0.314990789
0.390006393 0.347122222 0.321568459
0.393674821 0.350917071 0.321188807
0.392915726 0.354458958 0.320682943
0.391397387 0.355470985 0.326754957
0.400379241 0.364452839 0.335736811
0.404174656 0.368248075 0.339532048
0.410120159 0.373561174 0.346742570
0.418342471 0.381783396 0.354964972
0.424415201 0.387855351 0.361036986
0.433522999 0.396963745 0.374952197
0.446932167 0.413409173 0.391650796
0.459582567 0.430866390 0.406704634
0.468690842 0.439974785 0.416571379
0.477799147 0.449083179 0.426185757
0.489437371 0.460721225 0.437823981
0.502593517 0.473877549 0.450980127
0.517773867 0.489057869 0.466160476
0.532953560 0.504237473 0.481340885
0.550410986 0.521694958 0.498797953
0.567362368 0.539911330 0.516381681
0.586211145 0.558760107 0.535230815
0.604174852 0.577229798 0.553699791
0.622011364 0.595825315 0.572296023
0.637317955 0.618216336 0.592915952
0.655534148 0.642504752 0.615686357
0.679190397 0.666792989 0.638076961
0.418595791 0.375458777 0.356736392
0.413788795 0.375458777 0.349525601
0.415939569 0.373308003 0.349525601
0.416192591 0.373054981 0.349525601
0.418089837 0.374952316 0.351423234
0.417077690 0.375964701 0.351422966
0.413662583 0.378114969 0.350790471
0.419228584 0.380897969 0.354964793
0.420746565 0.383933961 0.353446990
0.422643900 0.387223393 0.359519392
0.426438630 0.395951658 0.366097450
0.433522791 0.403035790 0.373181581
0.436938614 0.406451643 0.376597136
0.443263590 0.412776619 0.382921845
0.449335814 0.418848604 0.388994366
0.453004807 0.429727584 0.397469580
0.460594594 0.437318176 0.408095777
0.476913333 0.453510582 0.425300330
0.500189781 0.467931777 0.446805626
0.509298086 0.481847137 0.458317131
0.520303726 0.492852777 0.469323248
0.532447755 0.504996777 0.481467396
0.546110034 0.518658996 0.495129585
0.559013486 0.531562507 0.508032680
0.571916401 0.549019396 0.525490344
0.589879751 0.567235708 0.543706357
0.608095944 0.585451901 0.561922789
0.626312673 0.603668630 0.580138743
0.639721751 0.621884704 0.595951617
0.661480188 0.643643141 0.617710352
0.677925408 0.666160762 0.638709784
0.699177802 0.687412798 0.659961820
0.447438389 0.410373360 0.388614982
0.445920199 0.411891162 0.385578990
0.444781780 0.408222586 0.381404191
0.445288152 0.407716542 0.381404191
0.445414633 0.407590032 0.381404191
0.448450267 0.408349097 0.383301467
0.447944313 0.412903041 0.388361573
0.448071182 0.415812552 0.389879376
0.448830068 0.416571468 0.390638471
0.454142988 0.421884954 0.395952165
0.457305491 0.427830517 0.400506377
0.462365389 0.434914380 0.406578362
0.466160387 0.440986365 0.412650377
0.469070196 0.444655180 0.416318536
0.475142181 0.450727165 0.422390997
0.480328798 0.458570540 0.429348558
0.486401170 0.469196379 0.438456565
0.493105769 0.475901574 0.446426123
0.519418120 0.491461188 0.472359359
0.535104334 0.508412361 0.486021399
0.549146354 0.524731338 0.504237473
0.561290383 0.536875367 0.514358282
0.573560894 0.549145877 0.525869846
0.587096989 0.562681973 0.542188585
0.597722948 0.577862382 0.552814722
0.612650275 0.596078336 0.571031094
0.632384419 0.613788426 0.589247286
0.653637052 0.630993009 0.607463539
0.665022373 0.647691309 0.623022974
0.682732522 0.667931557 0.641998351
0.705250144 0.692220151 0.665401578
0.723466158 0.711701155 0.684250176
0.473624527 0.446173519 0.414800525
0.476027727 0.450474292 0.418469518
0.475648135 0.447058707 0.416571766
0.475015700 0.444149286 0.414800525
0.473118544 0.447185546 0.416318625
0.476407200 0.444655180 0.417330682
0.476913124 0.447944105 0.423023432
0.477925241 0.451739222 0.428209990
0.481594026 0.455408037 0.431878209
0.484629631 0.458443642 0.434914619
0.487033397 0.460847408 0.437318414
0.492093533 0.465907544 0.442378521
0.497153521 0.471979529 0.448450536
0.497912556 0.478304565 0.454775572
0.504364073 0.484756112 0.461227119
0.509803712 0.490196139 0.466666520
0.516761363 0.497153938 0.473624140
0.525869548 0.506261706 0.482732534
0.534977913 0.515370131 0.497912973
0.550537586 0.530929565 0.509677589
0.568754017 0.549146056 0.528146565
0.586211503 0.566603541 0.548892796
0.598482072 0.579000533 0.555092037
0.613662481 0.594687045 0.574320257
0.624920845 0.609234869 0.585452557
0.638203442 0.625174105 0.598355472
0.655408144 0.642378151 0.615559638
0.682099998 0.657431960 0.633523405
0.695382774 0.673244774 0.649715245
0.710942745 0.691334724 0.667804718
0.730676949 0.711575091 0.687792122
0.748892963 0.735863149 0.709044576
0.507020950 0.479570001 0.448197007
0.507020950 0.488678366 0.454269797
0.502972960 0.486527920 0.451486439
0.499936938 0.482985914 0.448197007
0.500442982 0.483618408 0.449715108
0.506514966 0.486654043 0.461859882
0.507273972 0.486653954 0.462871939
0.507273972 0.487159967 0.463630974
0.509045005 0.488931000 0.465401947
0.514990509 0.494876504 0.471347481
0.515116990 0.495002985 0.471473992
0.519418001 0.499304026 0.475775003
0.525490046 0.505375981 0.481846988
0.531309068 0.511700988 0.488172024
0.540417373 0.520809352 0.497280389
0.544465780 0.524857700 0.501328111
0.549272954 0.529664993 0.506134987
0.556230426 0.536622584 0.513092637
0.565338016 0.545730948 0.522201002
0.574446380 0.554838598 0.531815410
0.590006471 0.570398450 0.546868980
0.608222961 0.588614941 0.565591216
0.625806510 0.606324971 0.582416475
0.640986919 0.624541759 0.591524124
0.653889954 0.637950957 0.603921652
0.668564260 0.651739657 0.621125996
0.685768962 0.666666925 0.642884076
0.697912931 0.678810954 0.655028880
0.716634870 0.696520925 0.672991931
0.734092355 0.714484394 0.690954924
0.751676321 0.732068539 0.708538532
0.767108977 0.748007894 0.724224925
0.520936012 0.499051034 0.473244727
0.520936012 0.499810070 0.473750800
0.523086786 0.504617453 0.477672786
0.521442354 0.502973020 0.476028085
0.521821797 0.503352463 0.476407528
0.525489986 0.506388068 0.481340855
0.526502013 0.506893992 0.483364999
0.528146744 0.508538723 0.485009700
0.530044258 0.510436475 0.486907303
0.534092009 0.514484763 0.490955025
0.545477748 0.520303726 0.496774048
0.549525738 0.524351716 0.500822008
0.554459095 0.529285133 0.505755663
0.558633387 0.533459365 0.509930432
0.562681794 0.537507772 0.513978779
0.571790159 0.546616137 0.523086548
0.575585186 0.553447127 0.532953560
0.580392003 0.560784221 0.542820752
0.587349415 0.567742348 0.549778342
0.596457720 0.576849997 0.558886707
0.603668392 0.584060311 0.562302351
0.619354784 0.599746764 0.576217473
0.639468491 0.619860470 0.596331477
0.659961939 0.640733421 0.616065860
0.672865570 0.654396176 0.627450705
0.686401010 0.667932034 0.640986681
0.702719688 0.683112264 0.659582376
0.717140973 0.697533011 0.674003899
0.729285002 0.709677696 0.686147988
0.745477140 0.725869477 0.702340186
0.760910869 0.745730460 0.720429957
0.774193704 0.768501341 0.739405334
0.559645414 0.536242485 0.512713432
0.559645414 0.536242485 0.512713432
0.558001220 0.534598291 0.511068761
0.559772432 0.536369503 0.512839973
0.559392869 0.536748946 0.513219535
0.559392571 0.539784551 0.516255558
0.561796188 0.538393199 0.514863729
0.561796188 0.541682184 0.518153131
0.563820481 0.544212461 0.520683467
0.565717757 0.546110153 0.522580743
0.573687434 0.552055717 0.528526247
0.579886436 0.556230426 0.532700479
0.585958481 0.562302470 0.538772464
0.590006232 0.566350222 0.542820752
0.594686866 0.571030915 0.547501862
0.598734796 0.575079262 0.555344701
0.606325388 0.585705459 0.564452708
0.609740615 0.593927622 0.576344073
0.614547491 0.598734915 0.581151247
0.625300050 0.605692863 0.586211085
0.634408474 0.614800453 0.595319450
0.640480459 0.620872438 0.597343445
0.657052279 0.637444258 0.613915265
0.674762607 0.655154645 0.631625652
0.692978799 0.673371315 0.649841785
