Assets/EldamarStudio/100 Retro LUTs Pack/LUTs/cube/Steve LUT.cube
LUT_3D_SIZE 5
DOMAIN_MIN 0.000000 0.000000 0.000000
DOMAIN_MAX 0.903226 0.903226 0.903226
0.145098001 0.109803997 0.090195999
0.237317979 0.117647000 0.107526705
0.358886570 0.121569000 0.110436417
0.529791296 0.134345129 0.122580871
0.790006459 0.163440838 0.137254998
0.181404278 0.189247280 0.106894284
0.234028980 0.189247280 0.104237713
0.353067815 0.196457699 0.119291708
0.535989702 0.219734401 0.132321134
0.793927789 0.253383875 0.144844949
0.229475409 0.319797397 0.122201420
0.260847837 0.320430398 0.135989994
0.367488801 0.320429951 0.135989994
0.550411105 0.360404640 0.136242867
0.798482060 0.409360975 0.145224825
0.251107007 0.557242274 0.116634868
0.309550703 0.559519529 0.116887994
0.436812371 0.561796367 0.119291715
0.601391375 0.567995131 0.119544744
0.802403808 0.592156947 0.154458985
0.303604960 0.804553747 0.193801627
0.368500680 0.808475435 0.198102504
0.497786343 0.809740543 0.206957608
0.664136946 0.817330897 0.220366910
0.852877617 0.829474688 0.239721611
0.170271710 0.121569000 0.176849693
0.235673711 0.127134711 0.167362422
0.341302961 0.150031716 0.182416409
0.509171128 0.161796138 0.204680413
0.774952769 0.160784006 0.224035516
0.193168715 0.189247280 0.171283990
0.245161399 0.190259412 0.178494409
0.342947662 0.203668699 0.184060693
0.519923806 0.218722284 0.205945581
0.783807516 0.243896574 0.226565704
0.236306295 0.307653248 0.184313998
0.270968139 0.307653278 0.190891996
0.363187701 0.314864099 0.193169117
0.537381411 0.357115805 0.203668699
0.786970139 0.405439824 0.229222104
0.253890276 0.547754347 0.202782825
0.297786266 0.550411105 0.203921407
0.433270276 0.553320289 0.200758979
0.594813526 0.560152173 0.203036115
0.799114347 0.590512216 0.243390381
0.325742811 0.802276850 0.290322512
0.376470685 0.800505579 0.296521157
0.500063062 0.805818558 0.298418790
0.666160643 0.813662589 0.317394197
0.855913699 0.819860816 0.333206743
0.202024415 0.139910996 0.312586993
0.256293416 0.144465417 0.306388080
0.353700399 0.151675999 0.295635819
0.513093114 0.166350126 0.327387691
0.778241754 0.147754833 0.380644977
0.227450997 0.211511701 0.295256078
0.265781105 0.209867403 0.292979389
0.351423115 0.213788986 0.290322840
0.516129255 0.222264409 0.324098706
0.777861953 0.231878519 0.376723647
0.253004402 0.312586963 0.298924387
0.280455410 0.317773402 0.295256078
0.384439975 0.339405388 0.324351788
0.544212222 0.354459375 0.335610390
0.776217341 0.404933363 0.388614804
0.216698289 0.547122121 0.351802796
0.278178543 0.548133850 0.351170242
0.420493245 0.550031662 0.353573680
0.590892076 0.556862712 0.363693804
0.790259480 0.598481774 0.428969055
0.387349784 0.792789578 0.474383175
0.421252370 0.795698881 0.470714480
0.521947801 0.797975719 0.474257022
0.669449747 0.808855057 0.479822904
0.846426606 0.816951215 0.491840780
0.227577254 0.155977130 0.553320289
0.295508981 0.157874867 0.550411105
0.421758235 0.160151586 0.546109855
0.581783414 0.154839009 0.542568088
0.779632747 0.159013137 0.564199924
0.235167578 0.235420406 0.542820811
0.300442696 0.232763827 0.540291250
0.419860810 0.230487108 0.538267076
0.575838149 0.224920824 0.541556239
0.783048630 0.243010521 0.566603422
0.226059571 0.369892120 0.535610259
0.277799010 0.371537060 0.538646519
0.414674222 0.367615253 0.538393259
0.578494430 0.370524943 0.534092546
0.776849806 0.429854214 0.576850235
0.216825128 0.560152113 0.548387110
0.283618122 0.557241797 0.544212282
0.441239506 0.567362547 0.556862950
0.616951168 0.588614941 0.579759359
0.779253781 0.617330968 0.606578112
0.415179998 0.783048451 0.635420918
0.445161164 0.793674767 0.635294378
0.533206701 0.800632417 0.633776188
0.663124800 0.805565894 0.632763922
0.842757881 0.818975627 0.637824297
0.262871832 0.204047829 0.799240768
0.326248825 0.206325114 0.801897585
0.466919810 0.206704661 0.801897585
0.640606940 0.213029504 0.798228920
0.822770417 0.225173950 0.799240768
0.269955993 0.285894811 0.794307470
0.330929667 0.288804710 0.797975540
0.470208794 0.288804531 0.797596276
0.640986860 0.297659814 0.797343314
0.822770476 0.318153054 0.793042481
0.322707027 0.468564421 0.788109004
0.383554578 0.466540039 0.788108766
0.502466619 0.471094608 0.792789459
0.653130889 0.476913363 0.791777492
0.818848550 0.491966784 0.793422043
0.392030120 0.640354037 0.794939756
0.430866569 0.636432767 0.801770568
0.529285073 0.639342129 0.791144729
0.662112951 0.639342129 0.795445561
0.823529601 0.639595032 0.797722936
0.403921992 0.815053582 0.817710400
0.435547292 0.817963481 0.811511695
0.523592412 0.813030005 0.811764777
0.666287303 0.821884692 0.816318750
0.858064413 0.839848399 0.837191582
