Assets/EldamarStudio/100 Retro LUTs Pack/LUTs/cube/Steve LUT.cube
LUT_3D_SIZE 8
DOMAIN_MIN 0.000000 0.000000 0.000000
DOMAIN_MAX 0.903226 0.903226 0.903226
0.145098001 0.109803997 0.090195999
0.194054544 0.117647000 0.102720000
0.254775077 0.116887905 0.109044902
0.326755285 0.118785642 0.108158998
0.404300988 0.122201189 0.117647000
0.501455009 0.135357261 0.121569000
0.653130829 0.149652004 0.133332998
0.790006459 0.163440838 0.137254998
0.176470995 0.150158450 0.110183448
0.197596103 0.150537997 0.101961002
0.257179111 0.150537997 0.105881996
0.323718995 0.150917366 0.113345549
0.401517749 0.156356737 0.117140837
0.500189722 0.172042727 0.132953539
0.647691548 0.184566826 0.129917547
0.788741589 0.200252831 0.148766369
0.189752996 0.199114203 0.115243189
0.210120097 0.204174548 0.111701541
0.249968082 0.201391101 0.104996994
0.315369636 0.208096355 0.115622737
0.397217095 0.214674100 0.122960091
0.500063121 0.233902737 0.131309256
0.652371764 0.257811278 0.132574290
0.793927789 0.270588219 0.141049996
0.208475992 0.273497999 0.125489995
0.227703646 0.274257094 0.116634987
0.268817097 0.271473736 0.130929992
0.324478000 0.274636626 0.129411995
0.403162628 0.284756541 0.133712545
0.510183573 0.312586993 0.138013899
0.655913889 0.344212651 0.133333281
0.793927789 0.362302631 0.143959358
0.238962799 0.367235988 0.135736808
0.254016191 0.370904624 0.139658108
0.285136163 0.370525181 0.137254998
0.343073994 0.374446183 0.136116356
0.413662165 0.373561174 0.140290990
0.527767479 0.403668821 0.135863200
0.672106266 0.440101475 0.128652707
0.796963751 0.462239385 0.144086182
0.251107007 0.514737725 0.121695004
0.277166337 0.515243232 0.125110537
0.321694851 0.517520547 0.127260908
0.386211395 0.521821797 0.122833647
0.472359180 0.524225056 0.120050810
0.563946486 0.532574475 0.123592742
0.681973517 0.549525440 0.125489995
0.799873531 0.563567400 0.149145827
0.271220982 0.659709275 0.131688699
0.290069729 0.661606550 0.122707449
0.341682076 0.663377643 0.132321283
0.411891639 0.662618577 0.133965701
0.498165756 0.664263308 0.129917696
0.602277160 0.667552292 0.138646439
0.695635259 0.665907562 0.136875287
0.809614122 0.679949284 0.168374270
0.303604960 0.804553747 0.193801627
0.334977627 0.803162396 0.195825800
0.378620982 0.808981538 0.200379789
0.453510463 0.805565953 0.200126439
0.543073773 0.809993625 0.209740579
0.638077199 0.814294696 0.219354704
0.743959486 0.819860816 0.228462785
0.852877617 0.829474688 0.239721611
0.157622010 0.114484094 0.130929992
0.193295553 0.118026547 0.127007991
0.250854015 0.129791453 0.138772994
0.309171647 0.137634456 0.146616101
0.385958642 0.143832743 0.151676357
0.488045275 0.157242462 0.167868301
0.632510841 0.156863004 0.169765547
0.788867891 0.162681833 0.177482828
0.170145094 0.154079556 0.121062547
0.201897547 0.150917441 0.127387553
0.246173099 0.151676446 0.135989547
0.313599080 0.162302107 0.149778903
0.387223065 0.174067006 0.155344903
0.489183933 0.181404456 0.163693801
0.638582945 0.186590999 0.169892550
0.784440041 0.199367538 0.175205365
0.197596103 0.202656537 0.146236554
0.218342647 0.203035995 0.152182013
0.252372116 0.195952088 0.143073648
0.312333733 0.208096355 0.148513556
0.388994545 0.217457458 0.154332995
0.491460711 0.230360284 0.162555352
0.645667255 0.251865804 0.168880254
0.791650772 0.267931789 0.179000542
0.214294642 0.266793638 0.153194547
0.236053079 0.266793638 0.151297003
0.270462096 0.269576192 0.154459104
0.317773521 0.273118556 0.151676461
0.392915726 0.284376979 0.159898907
0.500822186 0.308665395 0.163693652
0.655154884 0.337507963 0.168247834
0.788235247 0.360657901 0.177862182
0.241619200 0.371789724 0.166603550
0.253510535 0.362682194 0.165844351
0.293864787 0.363820553 0.167362362
0.342694640 0.370145649 0.161796555
0.409361035 0.371663541 0.161037549
0.520809472 0.400885582 0.167488739
0.664642870 0.439848006 0.162302107
0.794054270 0.460973918 0.178494647
0.248576805 0.505755484 0.150158361
0.273244739 0.507653177 0.158381000
0.317014545 0.512081146 0.155470908
0.384693295 0.515876353 0.158381000
0.465275168 0.520303905 0.156103820
0.563946486 0.527767479 0.157494992
0.682353139 0.546869159 0.165844455
0.802150607 0.563567400 0.190006346
0.263883382 0.658443987 0.164579093
0.288045526 0.658696949 0.169133276
0.336875290 0.662365556 0.166729793
0.413662255 0.660720825 0.167868540
0.500063002 0.661227047 0.172928378
0.596584558 0.664263308 0.173687279
0.701834559 0.666540563 0.180645078
0.809867203 0.675901532 0.204680517
0.309424073 0.800632417 0.241619036
0.342820942 0.802150309 0.234914497
0.382795423 0.802150309 0.236306071
0.454269171 0.804553747 0.241492316
0.540417373 0.809740543 0.246426433
0.637824118 0.812903523 0.257305443
0.745098054 0.815306842 0.268817037
0.853890002 0.826818585 0.274762571
0.174066991 0.123086996 0.192030102
0.199114189 0.126249090 0.185705096
0.250854105 0.130929992 0.181784093
0.312333733 0.143073738 0.190512091
0.387982190 0.153700098 0.202276900
0.477040082 0.162302002 0.213535830
0.624035597 0.156103909 0.224921092
0.773181617 0.156736001 0.240733922
0.194434091 0.157622010 0.180265903
0.212903455 0.155597553 0.184187099
0.248450100 0.155977085 0.180645451
0.310815752 0.170145094 0.195193008
0.383681357 0.181530550 0.199367538
0.475522071 0.190512195 0.213156193
0.627956808 0.187476292 0.223276377
0.774699330 0.193674996 0.240733922
0.202277094 0.199873090 0.183428004
0.221125990 0.204554096 0.181783989
0.264137119 0.208475992 0.195193008
0.311954290 0.212397188 0.193168730
0.383175194 0.224161997 0.205313087
0.483744711 0.233902737 0.214294747
0.632637680 0.248450100 0.230360270
0.783301592 0.262871921 0.245034963
0.230107546 0.269576281 0.200252637
0.245793641 0.266793638 0.197849542
0.276280642 0.273498118 0.201391101
0.320556283 0.275521725 0.203415558
0.392156839 0.283618003 0.205692545
0.494876444 0.299937099 0.213156208
0.645794034 0.332195073 0.230107635
0.781404078 0.351676255 0.242884383
0.248576999 0.361923099 0.213788897
0.259582996 0.357115477 0.214421362
0.293864787 0.361923069 0.213915199
0.340038002 0.361416727 0.213156089
0.406578273 0.367362291 0.215560094
0.516002476 0.396204978 0.218216449
0.663377702 0.433143467 0.227324292
0.790132821 0.455155194 0.248956084
0.249589011 0.506514549 0.217457354
0.269070208 0.505755663 0.219355091
0.313978314 0.506894231 0.217330843
0.381910115 0.508918464 0.221505448
0.461733013 0.513599098 0.217963278
0.554079711 0.521948159 0.219481096
0.675142407 0.540417373 0.228210017
0.798355579 0.561669648 0.259076446
0.257685006 0.652498305 0.233902365
0.282479733 0.655661225 0.245287627
0.333080381 0.656420290 0.241239890
0.408855200 0.656420290 0.240354285
0.499051392 0.657938063 0.243390277
0.593801379 0.661606491 0.250348061
0.694117248 0.665022373 0.260594457
0.807716310 0.679949522 0.282985628
0.331055939 0.798734605 0.314358056
0.351296306 0.798861325 0.319038212
0.396710753 0.799240768 0.320303798
0.461986452 0.803162396 0.324098855
0.546236396 0.807842791 0.328905910
0.645161390 0.810120165 0.333586514
0.746109843 0.815180421 0.347880989
0.850347579 0.819101572 0.354965031
0.186590999 0.127766997 0.264010280
0.210878998 0.133712545 0.266793638
0.261859983 0.138393357 0.262618899
0.317773640 0.142314643 0.251612991
0.389879823 0.154459193 0.259708732
0.483744711 0.161543101 0.276027620
0.622896850 0.149525657 0.306641340
0.775458395 0.147754833 0.329032272
0.205440000 0.170145094 0.251486272
0.219101638 0.167362452 0.246679172
0.259835541 0.169260100 0.249588743
0.311068982 0.171663284 0.245161191
0.385199457 0.179886341 0.258949727
0.477798998 0.189373553 0.275648266
0.630360305 0.180012748 0.304237694
0.772928774 0.181783795 0.329791456
0.218722090 0.215180442 0.249968290
0.235926896 0.215939552 0.246426642
0.271600544 0.219481081 0.256293207
0.314231306 0.219860643 0.247944534
0.386717469 0.225679994 0.263251096
0.478810847 0.233523086 0.285135984
0.631372452 0.239089087 0.302213967
0.779380322 0.253383726 0.326628357
0.234788343 0.272359639 0.251612991
0.252498090 0.267173082 0.247944638
0.285768539 0.277419269 0.257811278
0.342441291 0.290322661 0.270208985
0.397975981 0.294244349 0.275774986
0.494876355 0.306641549 0.283997625
0.645287812 0.323466271 0.307779968
0.779633164 0.346362889 0.335989982
0.251106828 0.366982818 0.274636626
0.267046481 0.356735945 0.274509698
0.301454514 0.363820523 0.280075729
0.348640174 0.365718186 0.277672648
0.411258370 0.368121386 0.278811008
0.519038558 0.398228735 0.297659874
0.661100507 0.427324653 0.312460363
0.784313321 0.454142958 0.339785099
0.235167459 0.499051183 0.295635730
0.253257543 0.502213836 0.292220086
0.303731829 0.504617214 0.298039526
0.373434514 0.509297729 0.295382977
0.459455937 0.516508579 0.296521425
0.557242095 0.519165218 0.302213907
0.673244774 0.540037870 0.322580397
0.792030513 0.563567162 0.359519273
0.257937938 0.653004587 0.339278638
0.284629941 0.652118862 0.333839118
0.333965719 0.651739419 0.334851265
0.407590210 0.651359916 0.334218562
0.489942819 0.657179177 0.342062294
0.594433725 0.657684803 0.349272609
0.690069556 0.659202933 0.357874900
0.796584606 0.676660419 0.392536104
0.365970761 0.795192957 0.418722421
0.379759341 0.792536616 0.421252042
0.417963117 0.797216773 0.417710304
0.481340647 0.799620628 0.423655868
0.557874739 0.801011860 0.432258278
0.644781888 0.807842851 0.435041338
0.744971037 0.811258793 0.437697589
0.851106584 0.821378767 0.451992482
0.207843006 0.142694190 0.363314360
0.227324381 0.145098001 0.361037165
0.278937280 0.147375092 0.357874572
0.340164185 0.153699994 0.356103718
0.404300988 0.160784006 0.351802200
0.487539738 0.164706007 0.364073366
0.633523226 0.150790811 0.405692488
0.775964797 0.151929185 0.433270186
0.226185739 0.180392191 0.360657811
0.251739085 0.181530550 0.353573799
0.283364624 0.183807641 0.351676285
0.336495638 0.181910098 0.353320390
0.397596627 0.184186995 0.347374707
0.489942729 0.191271290 0.362175941
0.639342248 0.181277990 0.409108013
0.776976347 0.182795823 0.434661567
0.240733996 0.229601175 0.348387271
0.251992553 0.235547349 0.347881079
0.291587889 0.234408796 0.346995354
0.335863531 0.231625646 0.343200296
0.397217095 0.232764080 0.343833119
0.485894829 0.237444982 0.364959091
0.641366482 0.235167906 0.408096075
0.779000640 0.255155087 0.431499273
0.244655192 0.288677812 0.349399000
0.255534381 0.292220116 0.340670288
0.294244438 0.293864906 0.342188179
0.345604092 0.297785997 0.347628206
0.406578243 0.299683839 0.355217814
0.509424746 0.307526827 0.372675389
0.647564650 0.319164753 0.408349216
0.774446547 0.359519005 0.439721823
0.254902005 0.368121386 0.347628385
0.270588219 0.364959151 0.353320390
0.301707983 0.371284068 0.361037284
0.360025644 0.383427918 0.365970820
0.445667386 0.402530402 0.389879376
0.540796757 0.404807180 0.396205187
0.664389551 0.428336471 0.417584181
0.773307920 0.465148568 0.453257352
0.221126080 0.504996479 0.393801183
0.239089355 0.504237592 0.390638679
0.291714102 0.506514668 0.395066738
0.365085185 0.517520547 0.396837562
0.459329605 0.521948099 0.400379628
0.561163783 0.524731457 0.410246372
0.675395370 0.543580174 0.435294390
0.777229369 0.575205624 0.482226253
0.288425058 0.645414352 0.445414364
0.317014694 0.650221527 0.445034713
0.362302244 0.650221348 0.453257561
0.426565647 0.650980473 0.453257531
0.501960635 0.656546354 0.454902083
0.591397762 0.658064544 0.462112725
0.687792301 0.658696949 0.475142300
0.794560373 0.682985485 0.497406662
0.398481965 0.792915940 0.519544482
0.403035820 0.790765405 0.514611006
0.439847976 0.793295503 0.514484227
0.497027010 0.797469914 0.521315455
0.564452827 0.796457767 0.521948040
0.647058845 0.805818558 0.523466229
0.744212091 0.813535631 0.531688750
0.849082768 0.818848729 0.538519979
0.223528996 0.152941003 0.514863729
0.251992553 0.156736001 0.516381919
0.306641430 0.156863004 0.511701643
0.377229750 0.154838741 0.508918464
0.452371925 0.161290467 0.505502939
0.538266718 0.158886746 0.501075447
0.649462283 0.146616191 0.512460709
0.781910002 0.156230256 0.537381589
0.235293999 0.184187278 0.508159459
0.256546587 0.190132543 0.504996479
0.304870188 0.190132543 0.504237533
0.371283978 0.189753100 0.500189424
0.448323697 0.187349811 0.500948668
0.534471691 0.187096745 0.496774018
0.642125249 0.176850259 0.504617214
0.783933878 0.190638825 0.538519740
0.239974990 0.248829827 0.497027427
0.257179171 0.249588743 0.494750261
0.306767732 0.245667458 0.492726207
0.369259715 0.243011087 0.495888799
0.445667386 0.243769988 0.493232459
0.530803502 0.239848182 0.489943236
0.645161390 0.240607083 0.510562956
0.783048630 0.263757139 0.545857012
0.231878355 0.323086619 0.495888799
0.251866013 0.320809513 0.489310473
0.296268195 0.315622896 0.490828693
0.363567293 0.315749377 0.489310473
0.445287734 0.317267179 0.493991286
0.530423701 0.314104915 0.489310473
0.656293392 0.322959930 0.516128957
0.777735651 0.370777935 0.546616256
0.236685649 0.406325191 0.495635659
0.244149193 0.418216348 0.501454890
0.294117689 0.413029820 0.499304205
0.361290187 0.413535565 0.500316441
0.456673145 0.416065723 0.507652998
0.554964960 0.419987082 0.512586892
0.668816984 0.441872209 0.532321036
0.777103007 0.488930911 0.563061297
0.215812996 0.518659174 0.506894171
0.234914735 0.516761422 0.502593279
0.289184004 0.523845553 0.506009042
0.369639277 0.527893603 0.516129076
0.479949176 0.536115944 0.529664695
0.585578680 0.554206192 0.544338942
0.671094298 0.562808275 0.555218160
0.774193645 0.588994503 0.579253674
0.296268284 0.648829818 0.546489477
0.322960079 0.648323834 0.543706119
0.371536851 0.650980294 0.545477629
0.443769664 0.652877927 0.550917149
0.535104156 0.657685041 0.565085113
0.604301035 0.657685041 0.567488670
0.690448999 0.665401995 0.573940456
0.796331227 0.687286437 0.597975969
0.409867078 0.786843836 0.615180254
0.422517180 0.792915940 0.606957555
0.454269350 0.792156816 0.611511648
0.508285701 0.795319438 0.612144172
0.566477180 0.795951843 0.608981788
0.641619503 0.805059671 0.608981788
0.738772750 0.809614003 0.615686297
0.841239452 0.820240438 0.618089616
0.241492704 0.173181564 0.666540563
0.270841271 0.170904279 0.657179296
0.322201014 0.173308089 0.657052279
0.401264995 0.170398638 0.659202933
0.491334468 0.167615280 0.654902101
0.585705221 0.166982710 0.652498305
0.681594014 0.155850708 0.650221527
0.781783342 0.162302122 0.645034671
0.243137002 0.204806834 0.654395998
0.269449741 0.210626096 0.657432020
0.322074562 0.206451550 0.655661225
0.403542101 0.201391473 0.656419992
0.486401200 0.200506285 0.656040728
0.585705221 0.195066094 0.654142976
0.683491707 0.189753234 0.647058547
0.783427954 0.197849542 0.646426558
0.243010700 0.267805099 0.648956239
0.268058002 0.267552525 0.651233256
0.321442127 0.269449800 0.651612639
0.396837354 0.264642566 0.651992202
0.485009253 0.264769077 0.644781768
0.576850176 0.263124377 0.650980413
0.683112204 0.258317560 0.650980413
0.782669187 0.270461649 0.648070872
0.233775929 0.352055937 0.643643558
0.262112677 0.347628266 0.648323834
0.318026274 0.347248644 0.643137515
0.396331280 0.347628266 0.641366601
0.482858747 0.354332924 0.644022882
0.578494787 0.349525630 0.642378569
0.678810894 0.354964912 0.641872168
0.778115273 0.381403983 0.648576736
0.249589190 0.453383863 0.637444854
0.274509549 0.451992184 0.646932364
0.326249182 0.452498257 0.642125368
0.406578064 0.459202915 0.647564828
0.493358761 0.461100578 0.642378569
0.583301783 0.462239206 0.640101314
0.674636543 0.465654552 0.641619265
0.778367817 0.495509446 0.657305598
0.275521815 0.553320885 0.642125130
0.308791757 0.554585576 0.645793974
0.356356651 0.560278177 0.641872048
0.433776259 0.561164021 0.642757833
0.515369892 0.568627477 0.643137515
0.599241197 0.571031153 0.645034790
0.684756517 0.576976478 0.653384030
0.780518472 0.599493802 0.673750579
0.334471554 0.662618577 0.653130829
0.353827000 0.656040668 0.643137574
0.398987949 0.657811522 0.645161390
0.467046201 0.656925917 0.648576856
0.538140297 0.660341263 0.652498305
0.620999753 0.667805314 0.661606491
0.710309505 0.683871269 0.674383581
0.808349371 0.696773767 0.688930809
0.407843113 0.794054627 0.698545218
0.427450985 0.794054627 0.698924899
0.456040263 0.791903913 0.697153986
0.504617274 0.798987985 0.696774423
0.564326406 0.803035855 0.698291957
0.642757714 0.809234560 0.702087402
0.733080268 0.811638296 0.703984678
0.843390346 0.822896600 0.707273602
0.262871832 0.204047829 0.799240768
0.289184004 0.204047829 0.798861325
0.344465345 0.206072092 0.804427564
0.426565439 0.204047829 0.797722936
0.516635001 0.204301164 0.800379395
0.615812600 0.210499659 0.801264644
0.717647016 0.215559512 0.796584606
0.822770417 0.225173950 0.799240768
0.273370981 0.243137524 0.806324720
0.289184004 0.239974514 0.792156756
0.345224261 0.239974514 0.795066297
0.425806552 0.240733609 0.799367368
0.518152773 0.241239682 0.804300785
0.616318703 0.244149148 0.802276909
0.718153238 0.248450413 0.795698881
0.822391033 0.262998164 0.793042183
0.266413689 0.304870248 0.794054449
0.299936652 0.301454782 0.801138580
0.347375005 0.311321914 0.799999833
0.428083420 0.307273716 0.797596097
0.519670963 0.311068803 0.792409658
0.615180254 0.315370053 0.796837330
0.721315265 0.323972076 0.795319438
0.823276520 0.342441589 0.795825541
0.292346805 0.402530074 0.794307590
0.317140877 0.402782798 0.788614631
0.369386315 0.407716632 0.791650653
0.441872299 0.412903100 0.795319438
0.527387798 0.415180117 0.790385962
0.619607687 0.421378970 0.790132642
0.717773378 0.429981053 0.790006220
0.818848729 0.442378283 0.790385962
0.342314780 0.519671321 0.790259421
0.370018810 0.517014503 0.791271210
0.413535744 0.520303607 0.791018546
0.473750621 0.524478376 0.791271210
0.553321004 0.523719192 0.786211610
0.633143663 0.528526366 0.792536497
0.725363553 0.530929625 0.793801248
0.814041793 0.535230756 0.790006399
0.383174777 0.616571784 0.795445561
0.394687086 0.616192341 0.788868010
0.435926795 0.616698265 0.793927670
0.496015161 0.618595719 0.794813514
0.563694000 0.619481206 0.793675065
0.640101433 0.616824865 0.795951843
0.729664862 0.621125519 0.797090471
0.819481373 0.617330551 0.796457529
0.396963805 0.714610577 0.798987985
0.411005527 0.713851810 0.803415477
0.448576748 0.712586641 0.799873352
0.498545170 0.713725269 0.797469676
0.567489088 0.712586641 0.802909136
0.643643141 0.713092744 0.802783012
0.726881564 0.709550917 0.806451559
0.827450573 0.713472247 0.806451619
0.403921992 0.815053582 0.817710400
0.412776560 0.822896600 0.809867382
0.442378193 0.818216503 0.811764717
0.493232191 0.816571772 0.809740603
0.562049389 0.815053582 0.807336807
0.642757773 0.820113778 0.813535571
0.735104144 0.821885049 0.816065848
0.858064413 0.839848399 0.837191582
