Assets/EldamarStudio/100 Retro LUTs Pack/LUTs/cube/Steven LUT.cube
LUT_3D_SIZE 5
DOMAIN_MIN 0.000000 0.000000 0.000000
DOMAIN_MAX 0.903226 0.903226 0.903226
0.141176000 0.098039001 0.074510001
0.178115278 0.127134711 0.103605285
0.237318411 0.178494409 0.151043415
0.323718995 0.272738993 0.241366252
0.449968815 0.419987470 0.397722960
0.238962695 0.180138692 0.155977115
0.253004402 0.194180995 0.166729987
0.300442725 0.241619527 0.214168534
0.375964582 0.327007830 0.303478837
0.492093503 0.469955504 0.446426511
0.385831803 0.341429800 0.317899793
0.393674821 0.350917071 0.321188807
0.424415201 0.387855351 0.361036986
0.502593517 0.473877549 0.450980127
0.622011364 0.595825315 0.572296023
0.609234393 0.581783354 0.558254123
0.607337117 0.581151128 0.557621539
0.630487263 0.610879302 0.587349832
0.673877120 0.656293333 0.631752253
0.768754125 0.754965127 0.728526235
0.844908476 0.825300455 0.801770747
0.846552730 0.834788024 0.805313110
0.856672764 0.844908476 0.817457438
0.879949450 0.871979952 0.835420489
0.908918619 0.897153616 0.869702637
0.166350290 0.115369707 0.091840707
0.185325712 0.134345278 0.110815704
0.256293833 0.197469994 0.170018986
0.348513424 0.292979419 0.271727145
0.471220493 0.443769485 0.420240492
0.232763976 0.181783408 0.153700396
0.264136374 0.205312967 0.177861989
0.318405956 0.258317381 0.230866402
0.384186983 0.348892957 0.321441948
0.513092637 0.486021638 0.467425644
0.398861378 0.361037374 0.337507784
0.405060112 0.367235661 0.340417117
0.437191486 0.401897490 0.374446481
0.518279731 0.489563495 0.463377923
0.631751716 0.610878766 0.587349772
0.623276234 0.595825255 0.572296262
0.620620251 0.599747241 0.576217234
0.639974713 0.620999575 0.598861337
0.679823101 0.668058097 0.640607119
0.777862072 0.762808084 0.737001836
0.855028450 0.843263745 0.811258495
0.848576665 0.840606928 0.811891019
0.860847712 0.857052505 0.823655903
0.888298512 0.876533747 0.847058475
0.909550965 0.902719676 0.873624563
0.202656835 0.151675999 0.121569000
0.224920988 0.167362407 0.140543997
0.263504416 0.204680413 0.177229404
0.361290544 0.312333703 0.288804561
0.494496942 0.467045933 0.443516612
0.284376979 0.224288404 0.196837410
0.294876814 0.239342406 0.210246697
0.324604303 0.272359133 0.241619527
0.403162539 0.367868274 0.343706548
0.532321215 0.510183334 0.486653775
0.389120400 0.345983386 0.322454393
0.403795063 0.367236078 0.340417504
0.459076792 0.430360794 0.406198382
0.534724951 0.508538902 0.485009640
0.645541191 0.625933170 0.602403164
0.638203859 0.614800870 0.590259492
0.636685610 0.618342936 0.594181001
0.656926155 0.637318134 0.613788962
0.696774542 0.677166522 0.653636992
0.785072923 0.773307920 0.745856941
0.858570397 0.845541060 0.818722606
0.858949959 0.846552908 0.815812647
0.863757193 0.859962165 0.828589201
0.890322626 0.880455554 0.847058952
0.912839770 0.910942197 0.880202413
0.271727145 0.212903127 0.185452119
0.288045704 0.229221702 0.201770708
0.319418132 0.262618691 0.234155834
0.376597017 0.327641010 0.298292279
0.502719760 0.476533741 0.454016626
0.338140577 0.287159830 0.259076834
0.344591826 0.296900839 0.268816978
0.373055130 0.325363517 0.301834255
0.418216527 0.384945959 0.357747853
0.549652278 0.524225235 0.500695467
0.435167670 0.394054115 0.376090795
0.450600833 0.420619816 0.393801242
0.507526815 0.480075806 0.456546813
0.550031781 0.522580802 0.499051243
0.651360035 0.631752074 0.608222365
0.616951108 0.585705101 0.565085292
0.623909295 0.599747241 0.576217234
0.655281723 0.635673702 0.612144411
0.714105248 0.702340245 0.674889266
0.786337793 0.774573088 0.747122109
0.866160452 0.847817898 0.820493400
0.865527928 0.853763342 0.823782325
0.878557861 0.868690670 0.840607107
0.897785962 0.886021614 0.856040597
0.919038594 0.919038594 0.887665868
0.395192623 0.352055609 0.328525931
0.404554069 0.366729766 0.340543926
0.431751937 0.401770771 0.376976609
0.483491600 0.456040621 0.432510912
0.559898615 0.537760615 0.514231563
0.450727344 0.420746326 0.395951748
0.456293523 0.429601461 0.404807299
0.485388786 0.455407560 0.430613458
0.528526187 0.504364371 0.480834633
0.594939768 0.575331748 0.551802456
0.572928607 0.550790608 0.527260780
0.585957944 0.563820601 0.540290773
0.603035748 0.582162738 0.558633566
0.633143306 0.613535583 0.590006351
0.684123814 0.664515793 0.640986800
0.681467235 0.664389670 0.639595032
0.692346811 0.670714796 0.647185087
0.710942209 0.693864644 0.669070125
0.764073253 0.752308905 0.724857926
0.797849357 0.786084771 0.758633733
0.840859890 0.837064803 0.806957543
0.851739347 0.839974642 0.812523663
0.860467970 0.856672764 0.826565623
0.893864632 0.882099986 0.854648888
0.929790735 0.929790795 0.898418725
