Assets/EldamarStudio/100 Retro LUTs Pack/LUTs/cube/Steve LUT.cube
DOMAIN_MIN 0 0 0
DOMAIN_MAX 1 1 1
LUT_3D_SIZE 32
0.145098001 0.109803997 0.090195999
0.151170000 0.109803997 0.093232386
0.161542997 0.111954227 0.098419003
0.176217318 0.114990160 0.101961002
0.194054544 0.117647000 0.102720000
0.209234938 0.117647000 0.108792000
0.221884996 0.117647000 0.107273676
0.237317979 0.117647000 0.107526705
0.254775077 0.116887905 0.109044902
0.269955486 0.113851517 0.106008507
0.288045734 0.116634868 0.100062996
0.306261986 0.117647000 0.102086991
0.326755285 0.118785642 0.108158998
0.349778980 0.121569000 0.113472030
0.358886570 0.121569000 0.110436417
0.380012572 0.119165197 0.114610992
0.404300988 0.122201189 0.117647000
0.428589135 0.130676985 0.118911989
0.452877969 0.136748999 0.124983996
0.477166712 0.137254998 0.122707352
0.501455009 0.135357261 0.121569000
0.529791296 0.134345129 0.122580871
0.566603482 0.137507990 0.125742987
0.612143934 0.143580005 0.131815001
0.653130829 0.149652004 0.133332998
0.689816654 0.151549682 0.131941676
0.723213077 0.150537938 0.130423993
0.756609380 0.159645543 0.136495993
0.790006459 0.163440838 0.137254998
0.821631908 0.168247983 0.140796974
0.851106584 0.173434600 0.145983607
0.878431022 0.176470995 0.149020001
0.154206395 0.118912384 0.099304385
0.151170000 0.115875997 0.090195999
0.163693771 0.118026771 0.091081612
0.176723391 0.122327775 0.099177770
0.191397697 0.125996381 0.106894448
0.209234938 0.120683387 0.099683613
0.224415317 0.120683387 0.105755612
0.238709673 0.123972379 0.107526705
0.254775077 0.125996292 0.108286001
0.269955486 0.122959897 0.102972902
0.290954858 0.125743255 0.105755508
0.307273865 0.124731123 0.104111001
0.324478000 0.125995994 0.109297641
0.344718248 0.130423635 0.116761386
0.364958584 0.127640992 0.116508417
0.383680791 0.127640992 0.115875997
0.405818790 0.128273189 0.119165190
0.427956551 0.132447615 0.120683387
0.449841589 0.133712620 0.121948391
0.479696333 0.142567962 0.128020376
0.502593338 0.143326998 0.123846009
0.529791296 0.142441392 0.121569000
0.566603482 0.143706501 0.122833863
0.612143934 0.152688399 0.131815001
0.653130829 0.154206395 0.135610282
0.691208303 0.157368720 0.136369392
0.725743413 0.158127621 0.135483995
0.756609380 0.159645543 0.136495993
0.790006459 0.166096985 0.145224825
0.823403120 0.171284050 0.146363392
0.853257358 0.177356377 0.149019778
0.878431022 0.182542995 0.152055621
0.159013227 0.128020227 0.097659998
0.160278380 0.124984384 0.099304393
0.163693771 0.126249000 0.088045768
0.177608997 0.126755387 0.093105771
0.190132543 0.129791453 0.105882451
0.206578106 0.129032224 0.103858061
0.222264543 0.125870004 0.100948773
0.237444922 0.127514288 0.103731774
0.254142880 0.133080214 0.106261902
0.272106260 0.134218514 0.104364224
0.286653876 0.132700861 0.107020900
0.305882007 0.133712992 0.110056512
0.324604511 0.131941766 0.110183001
0.344844788 0.135483772 0.115496226
0.364199400 0.134345412 0.115496226
0.385451794 0.135863230 0.117647000
0.406704187 0.137381420 0.119165190
0.428589135 0.139784768 0.122201413
0.451359779 0.139784783 0.123719223
0.478810728 0.141682357 0.127135009
0.507273734 0.148892999 0.129411995
0.532068253 0.151422992 0.126881868
0.566224039 0.153826520 0.127767235
0.605692685 0.158886909 0.126755103
0.648829818 0.163314223 0.133459508
0.689690292 0.163314223 0.133712903
0.727135062 0.165591061 0.132954001
0.759139717 0.167235777 0.132954001
0.794307470 0.172548756 0.140923277
0.824162126 0.180391967 0.153573632
0.856799603 0.186843991 0.152814865
0.884882808 0.192916006 0.150790781
0.165844321 0.138393313 0.099177994
0.166350394 0.136622533 0.100189999
0.171536997 0.135357380 0.100948997
0.180138990 0.138393313 0.091334999
0.191524088 0.135737151 0.101581454
0.204048097 0.137887388 0.102846064
0.221758485 0.138393313 0.105882324
0.238203689 0.136116594 0.103225842
0.251866102 0.138393313 0.103225842
0.271094471 0.143453315 0.105755515
0.284883171 0.143326879 0.110056706
0.303605139 0.141050160 0.111827739
0.321821153 0.142188519 0.113724999
0.345350891 0.142315000 0.113724999
0.363567144 0.142315000 0.113724999
0.382921785 0.143453360 0.114863642
0.406704187 0.146489352 0.119165190
0.427956551 0.149525583 0.122201420
0.451612800 0.150158003 0.125237033
0.477419347 0.152687997 0.129538193
0.504743755 0.155218154 0.130676836
0.536116123 0.159266159 0.130676836
0.567615330 0.164832160 0.133332998
0.605186820 0.169006914 0.129537985
0.643643558 0.172043025 0.127514005
0.686148286 0.174952149 0.133206517
0.726123035 0.175964147 0.131688833
0.758001447 0.179759443 0.133206829
0.794054627 0.184187144 0.141176298
0.826438963 0.190765202 0.148766339
0.853763402 0.198102608 0.158633560
0.886400878 0.203795165 0.150284842
0.176470995 0.150158450 0.110183448
0.174193606 0.150917456 0.104491003
0.176849991 0.149146229 0.106261998
0.185451999 0.147881165 0.108412445
0.197596103 0.150537997 0.101961002
0.203668877 0.150537997 0.098924614
0.222011775 0.152688235 0.105629317
0.240860447 0.152814716 0.108538836
0.257179111 0.150537997 0.105881996
0.266287506 0.150537997 0.105882004
0.281594306 0.153067678 0.111700997
0.302087426 0.152435258 0.113724999
0.323718995 0.150917366 0.113345549
0.342188030 0.154206008 0.113598518
0.360531271 0.154459000 0.113724999
0.379506528 0.154838547 0.113724999
0.401517749 0.156356737 0.117140837
0.427577108 0.158633977 0.122201420
0.448829561 0.161669612 0.125237048
0.473244727 0.167868108 0.130676553
0.500189722 0.172042727 0.132953539
0.531182706 0.174446538 0.132953539
0.570904076 0.174699530 0.133080021
0.610879302 0.180771545 0.133332998
0.647691548 0.184566826 0.129917547
0.686148286 0.187602863 0.128652528
0.727261484 0.191144541 0.134724542
0.754585862 0.197216541 0.140796542
0.788741589 0.200252831 0.148766369
0.822390914 0.205439523 0.154332668
0.851865649 0.210626155 0.156736404
0.879190087 0.213662550 0.153700009
0.176470995 0.159266070 0.113219060
0.179506615 0.165338054 0.110183448
0.179380000 0.166097060 0.108792000
0.185451999 0.164326146 0.111068837
0.197596103 0.162681997 0.111068614
0.209740877 0.162681997 0.101961002
0.225933000 0.162681997 0.106514931
0.241366044 0.163187936 0.109803997
0.254522264 0.162681997 0.108538836
0.266287506 0.162681997 0.105882004
0.284123987 0.162681997 0.111700997
0.301834077 0.163187936 0.113724999
0.319923699 0.161543369 0.112586647
0.336116016 0.160278007 0.110562906
0.357368380 0.166349992 0.113598518
0.380518645 0.169006810 0.113724999
0.402277112 0.171537116 0.118279189
0.424541473 0.173308358 0.124984063
0.445793927 0.170777977 0.125237033
0.472612292 0.179380283 0.128273353
0.503225744 0.184187129 0.129917935
0.536622286 0.187223136 0.129917935
0.573940456 0.189879924 0.130044416
0.619481683 0.195951939 0.133080035
0.654902220 0.199747220 0.135610282
0.690196276 0.202783257 0.135736927
0.727640986 0.206324935 0.137760937
0.763693452 0.212396920 0.143832937
0.791018486 0.213155925 0.147248775
0.825173855 0.218975201 0.151296705
0.857937813 0.225806534 0.155218050
0.885262847 0.228842929 0.159772009
0.176470995 0.175964639 0.106135324
0.176976934 0.176976636 0.105629392
0.184313551 0.178747639 0.106894225
0.190512314 0.178747639 0.107273676
0.201897651 0.176976770 0.108664997
0.209740877 0.174825996 0.106008612
0.221884996 0.177356318 0.104490675
0.238456696 0.175711602 0.108918384
0.252245396 0.175585091 0.109803997
0.266160965 0.177356318 0.108538844
0.284123987 0.179885998 0.116761640
0.302339971 0.177862257 0.116761386
0.319417626 0.178494677 0.116255321
0.334851056 0.178494319 0.115117028
0.353826702 0.180012316 0.118153222
0.379886091 0.183681130 0.121188827
0.402783185 0.186717123 0.119797513
0.425300539 0.189753249 0.124225311
0.450347990 0.190512359 0.128020316
0.477166355 0.193548679 0.128273353
0.504490733 0.198861584 0.131309256
0.537634254 0.202909321 0.133965671
0.574066997 0.207463503 0.136748686
0.612397432 0.211132318 0.132574096
0.655661225 0.217204317 0.133332998
0.691208303 0.221884981 0.137507662
0.727135062 0.226059377 0.139784679
0.761543274 0.230107635 0.141808674
0.795066118 0.233396322 0.147754833
0.822390795 0.235167533 0.152561978
0.855660796 0.242757916 0.157242313
0.886274993 0.249083310 0.163314328
0.181404278 0.189247280 0.106894284
0.181404278 0.192536697 0.106894284
0.184566945 0.190891996 0.104111224
0.194939718 0.190891996 0.107147157
0.207084283 0.191271544 0.108285703
0.215686291 0.190765470 0.110815704
0.223529711 0.189500317 0.110815704
0.234028980 0.189247280 0.104237713
0.249209389 0.187729090 0.108033001
0.264389783 0.190765485 0.109804004
0.284123987 0.193801537 0.115243450
0.299050987 0.194433957 0.117900036
0.318405628 0.193675056 0.117140934
0.334851056 0.196457699 0.117647000
0.353067815 0.196457699 0.119291708
0.375205785 0.197216809 0.120683193
0.402530193 0.201770991 0.126755178
0.424035549 0.204933286 0.124225415
0.449335992 0.207969666 0.127261281
0.475015640 0.212650344 0.129411995
0.505629480 0.215686664 0.131309256
0.535989702 0.219734401 0.132321134
0.572675228 0.225932881 0.136369199
0.612144113 0.232004881 0.134850994
0.651486516 0.235673696 0.131688714
0.692599595 0.240354359 0.133080035
0.728273392 0.245161399 0.138393059
0.760531425 0.247059152 0.139531717
0.793927789 0.253383875 0.144844949
0.827071130 0.254775196 0.150917262
0.853510201 0.259582579 0.156103894
0.884630263 0.268691003 0.161417007
0.189752996 0.199114203 0.115243189
0.191271186 0.205186769 0.113724999
0.191903770 0.204807222 0.110183090
0.197976097 0.204554006 0.108665153
0.210120097 0.204174548 0.111701541
0.222264096 0.206451938 0.117394090
0.230107635 0.204427674 0.118406095
0.237065375 0.202909485 0.112587005
0.249968082 0.201391101 0.104996994
0.265148461 0.204427496 0.111068994
0.283111870 0.206704766 0.114231318
0.300569087 0.207716912 0.115243189
0.315369636 0.208096355 0.115622737
0.336116016 0.211132035 0.118406095
0.353826731 0.211638093 0.118406095
0.374446690 0.213156104 0.118406095
0.397217095 0.214674100 0.122960091
0.423909038 0.221378669 0.130170897
0.445288002 0.224668071 0.127261028
0.470082104 0.229727998 0.129032254
0.500063121 0.233902737 0.131309256
0.534472048 0.237950981 0.133080035
0.571030557 0.244022980 0.130170897
0.612902820 0.252498180 0.132574096
0.652371764 0.257811278 0.132574290
0.692599595 0.261606783 0.132321313
0.731056035 0.264643013 0.135357052
0.761669755 0.264896005 0.138393447
0.793927789 0.270588219 0.141049996
0.825047255 0.276660204 0.145603985
0.858064175 0.278557718 0.153826609
0.882353008 0.287666112 0.156863004
0.195824996 0.211258993 0.121315964
0.201897770 0.217330977 0.115243196
0.201265201 0.216951236 0.111574776
0.203542158 0.217710003 0.112207480
0.213156492 0.222390547 0.117773548
0.225300491 0.219354942 0.120809935
0.234914809 0.216571689 0.121442482
0.242251992 0.216824725 0.116508782
0.253004491 0.219607875 0.111069001
0.277292460 0.222643495 0.117141001
0.286653847 0.222770005 0.120303869
0.304364264 0.222896531 0.121315971
0.324098498 0.222896531 0.121315971
0.342188030 0.223276049 0.121442482
0.357368410 0.226312429 0.121442482
0.377482295 0.231625497 0.121442489
0.398734719 0.234408498 0.125996292
0.420872658 0.236559063 0.133206517
0.445161492 0.245667458 0.133206517
0.472106367 0.248956129 0.133079991
0.503099203 0.252118737 0.133206517
0.537507772 0.256166995 0.133332998
0.574066937 0.262238979 0.133206517
0.613535404 0.268311024 0.133206517
0.650853574 0.274509490 0.135610282
0.690195799 0.280455351 0.138393313
0.731056035 0.285895407 0.141429052
0.764452398 0.288931072 0.144465446
0.795066178 0.289184034 0.139532000
0.822011411 0.294876695 0.137508005
0.849336088 0.302719980 0.142188594
0.882353008 0.308918476 0.156863004
0.190259010 0.235040992 0.109930255
0.202150777 0.238203868 0.127134964
0.206072226 0.239974871 0.116761193
0.209614158 0.236432746 0.112713128
0.218722552 0.235547200 0.115496226
0.228336871 0.237570941 0.121062934
0.237950549 0.239595324 0.124098673
0.250347823 0.237318024 0.124478124
0.261732996 0.237065002 0.120683089
0.277419001 0.237950385 0.120303869
0.290069729 0.238076866 0.117647000
0.305249870 0.238076866 0.122707129
0.323339641 0.239215508 0.124478124
0.340037912 0.241239697 0.124478124
0.360531271 0.244275406 0.124478124
0.378114849 0.244907990 0.129285127
0.398861200 0.253004372 0.127261132
0.420746148 0.258570731 0.128778994
0.445034981 0.260847837 0.133332998
0.474889725 0.267172873 0.133332998
0.504237831 0.272232741 0.131435737
0.538646340 0.276280999 0.131435737
0.576976776 0.280582219 0.133332998
0.613661945 0.289436847 0.133332998
0.650853574 0.295508862 0.133332998
0.687286317 0.301580876 0.135736808
0.724731147 0.307653248 0.138772815
0.755724251 0.313093275 0.141808584
0.791777432 0.313472748 0.147501796
0.824415028 0.315243512 0.149525851
0.854775608 0.322074592 0.151802868
0.888172030 0.330170870 0.156863004
0.196331516 0.255281508 0.116002247
0.200379774 0.256293654 0.116002262
0.208096489 0.259202987 0.122833706
0.213662103 0.257938147 0.113219254
0.222011283 0.253384262 0.113598801
0.227830663 0.254775584 0.124604866
0.243010670 0.255787581 0.130170926
0.252118707 0.255534530 0.128273249
0.265780985 0.254016340 0.127514258
0.277924985 0.255281508 0.125743479
0.292093456 0.255281508 0.122707129
0.306261986 0.255281508 0.123719253
0.323339641 0.255281508 0.126375616
0.339026034 0.257432222 0.125743032
0.360278398 0.260467827 0.127514258
0.381151259 0.263124496 0.130296990
0.402403265 0.267678678 0.134851187
0.424161553 0.276787251 0.131562248
0.447058707 0.276787281 0.134851262
0.474889725 0.286401272 0.135357261
0.509044945 0.292473257 0.137254521
0.541682243 0.299557388 0.133459732
0.580012739 0.304744244 0.133332998
0.616445243 0.311954618 0.133332998
0.652877808 0.318785489 0.135357261
0.690701842 0.324857473 0.135357261
0.726755142 0.330423564 0.138266996
0.757115841 0.334978163 0.142820805
0.790765345 0.339785248 0.144465402
0.823656082 0.338014036 0.150537714
0.856799603 0.342314869 0.157495335
0.890196025 0.351423264 0.160910994
0.208475992 0.273497999 0.125489995
0.208475992 0.273497999 0.119797260
0.212776989 0.275648534 0.119291417
0.218975484 0.277292788 0.121947989
0.227703646 0.274257094 0.116634987
0.231498942 0.273497999 0.128020287
0.242630988 0.274636626 0.132194996
0.258190721 0.272991955 0.133965999
0.268817097 0.271473736 0.130929992
0.281340629 0.274510115 0.131688997
0.294117510 0.274636626 0.128779128
0.309297889 0.274636626 0.127514258
0.324478000 0.274636626 0.129411995
0.339911431 0.274889588 0.126375601
0.360278398 0.277925193 0.127640769
0.382669151 0.282099813 0.131815195
0.403162628 0.284756541 0.133712545
0.426818192 0.293232352 0.136116356
0.448070645 0.294244379 0.136116356
0.477166444 0.304238021 0.137254998
0.510183573 0.312586993 0.138013899
0.546615899 0.320683241 0.140037641
0.583175123 0.329791635 0.134471640
0.620619833 0.335863620 0.134471640
0.655913889 0.344212651 0.133333281
0.693738222 0.349146277 0.136116356
0.731688619 0.355218261 0.136622414
0.762049198 0.358887076 0.142061993
0.793927789 0.362302631 0.143959358
0.825553358 0.366477042 0.148639977
0.856799603 0.365211666 0.156482980
0.890196025 0.373813987 0.165844351
0.220367029 0.292473018 0.125237033
0.220367029 0.292220056 0.126501992
0.224668026 0.294370770 0.128399730
0.230740026 0.296141982 0.130676836
0.236559004 0.295762509 0.133332998
0.242631003 0.292726129 0.133332998
0.248703048 0.294497341 0.131309316
0.258949727 0.295003355 0.129917994
0.274383098 0.292726129 0.130929992
0.289563477 0.295762509 0.137001991
0.299683839 0.295889020 0.134598166
0.312587261 0.295889020 0.131562218
0.327767432 0.296141982 0.129917994
0.343200088 0.296141982 0.129917994
0.361416817 0.299177587 0.126881614
0.383681029 0.304364055 0.130550027
0.405439347 0.307906061 0.133838996
0.424794585 0.308918029 0.133586034
0.446047038 0.314990044 0.133586034
0.478178382 0.323845387 0.136116356
0.512966454 0.331056029 0.137254998
0.549652219 0.339152277 0.137001961
0.585958481 0.351297021 0.137128472
0.625173986 0.357622027 0.137254998
0.660847306 0.367742032 0.132953957
0.696773946 0.375964671 0.131309316
0.734725058 0.379001021 0.133839056
0.765084982 0.385073006 0.136875451
0.795445681 0.386337996 0.140417218
0.825553358 0.389627010 0.146742240
0.856293619 0.395319492 0.156989038
0.889690042 0.398355097 0.169133052
0.229475409 0.319797397 0.122201420
0.229475409 0.316761792 0.137381047
0.233776405 0.318659037 0.138645992
0.239848405 0.320429981 0.136748582
0.245540857 0.320050538 0.133332998
0.248702988 0.317014873 0.133332998
0.254775643 0.316508800 0.135863319
0.260847837 0.320430398 0.135989994
0.271853447 0.321568817 0.135989994
0.289563477 0.317014873 0.137001991
0.307652980 0.317141384 0.137254998
0.319924086 0.317141384 0.134598151
0.333839625 0.318279743 0.133839220
0.349272847 0.320429981 0.135989994
0.367488801 0.320429951 0.135989994
0.383301795 0.323466212 0.135357410
0.404933423 0.328652829 0.138140216
0.428589284 0.332827210 0.139278576
0.455155402 0.336242408 0.136622414
0.484756410 0.345097750 0.136622414
0.515749454 0.352308393 0.137254998
0.550411105 0.360404640 0.136242867
0.588994145 0.372549385 0.134092093
0.622391284 0.384693384 0.137128487
0.663883924 0.391018391 0.134977713
0.701707780 0.398355395 0.135483563
0.737760723 0.402782977 0.139405057
0.768121362 0.403288960 0.136875451
0.798482060 0.409360975 0.145224825
0.827071548 0.412397206 0.151296809
0.855028570 0.417836994 0.160658002
0.883617997 0.425680220 0.175205827
0.231372997 0.339911610 0.131182984
0.233776197 0.344086170 0.131941617
0.238077193 0.343200773 0.142820776
0.244149193 0.344718575 0.142314643
0.250221282 0.343959570 0.137001544
0.255281687 0.338899702 0.130929798
0.268057823 0.345603973 0.135863319
0.269196898 0.343959689 0.137254998
0.276028007 0.346236795 0.138013899
0.294243991 0.343453765 0.139658198
0.310056806 0.345603973 0.139658198
0.322201073 0.345603973 0.137634456
0.338519990 0.344465613 0.135736808
0.357242256 0.344718575 0.137254998
0.371157795 0.344718575 0.137254998
0.389373779 0.344718605 0.137254998
0.406071961 0.346236795 0.137254998
0.429221720 0.351802766 0.138772801
0.456546932 0.360151619 0.137507960
0.489057809 0.368753940 0.139658198
0.523213267 0.377861828 0.135863200
0.556609750 0.386464030 0.135863319
0.594686508 0.398355782 0.135483816
0.632637680 0.405945778 0.131688908
0.666034222 0.415813059 0.134724706
0.701201856 0.422011554 0.131941676
0.733586133 0.428083569 0.134977803
0.763946831 0.431878597 0.137634456
0.796710849 0.432384580 0.142821014
0.830613554 0.436685354 0.151929393
0.858950198 0.441492587 0.161290586
0.884756804 0.450600982 0.176470995
0.238962799 0.367235988 0.135736808
0.238962814 0.368754178 0.132700801
0.245667368 0.367489189 0.136748776
0.247944221 0.370019197 0.140796840
0.254016191 0.370904624 0.139658108
0.262365699 0.368247986 0.138520122
0.269955873 0.368754059 0.135989800
0.284376889 0.372801900 0.137254998
0.285136163 0.370525181 0.137254998
0.301834166 0.370525181 0.139531717
0.317141056 0.371916503 0.139658198
0.332827240 0.374446183 0.139152259
0.343073994 0.374446183 0.136116356
0.365338057 0.372042984 0.135989845
0.380012810 0.372042984 0.137254998
0.396963984 0.372042984 0.137254998
0.413662165 0.373561174 0.140290990
0.433775723 0.374193758 0.138393417
0.461100727 0.383681387 0.135736808
0.492473364 0.393042356 0.137001649
0.527767479 0.403668821 0.135863200
0.565212131 0.413788557 0.132827058
0.602150202 0.425680190 0.135610327
0.640227675 0.431752175 0.130929992
0.672106266 0.440101475 0.128652707
0.702719629 0.445035189 0.130297005
0.731562078 0.451866180 0.129917800
0.763946831 0.459962189 0.138013795
0.796963751 0.462239385 0.144086182
0.824541152 0.460974157 0.150411204
0.860088587 0.465781003 0.157748386
0.886274993 0.474889398 0.170398623
0.251612574 0.402403116 0.135863140
0.249209374 0.399999917 0.132194787
0.252245635 0.395446122 0.133712992
0.260088801 0.393801540 0.139152378
0.257811517 0.399494052 0.135356992
0.269196600 0.402529776 0.145730719
0.275648296 0.400505841 0.142694369
0.283997685 0.399114519 0.138899148
0.298418969 0.399747103 0.136622429
0.310562968 0.399747103 0.136622429
0.324984282 0.399747103 0.135990009
0.342188597 0.401138425 0.135990009
0.358760178 0.403668106 0.135483935
0.372169197 0.403921127 0.133206576
0.391524374 0.404300690 0.136622414
0.408475548 0.404300690 0.135357425
0.427071333 0.405186296 0.137761012
0.444149107 0.408222556 0.140670449
0.471473575 0.411258936 0.131562054
0.500316322 0.419228375 0.132068008
0.533839464 0.429601431 0.130803153
0.568754137 0.440480947 0.129158869
0.608096004 0.452498466 0.131815016
0.644528806 0.459076524 0.128273338
0.675395250 0.466793239 0.128399700
0.702719629 0.472991973 0.126754984
0.730550110 0.473498046 0.127766982
0.766729832 0.485262543 0.139657989
0.799873352 0.489437222 0.145224512
0.829980731 0.490828902 0.152561978
0.852877796 0.490702152 0.159645960
0.886274993 0.499810547 0.162681580
0.254648983 0.432763994 0.148007914
0.254648983 0.432763994 0.141935155
0.252245247 0.430360794 0.138266802
0.257811248 0.429601848 0.142314985
0.269955546 0.432890564 0.150537387
0.272991925 0.435926944 0.141429022
0.284376979 0.433902651 0.136622056
0.294117719 0.432511032 0.133838996
0.304490983 0.433270127 0.133586034
0.316634983 0.436179996 0.133586034
0.328779012 0.436179996 0.130676895
0.345224559 0.436179996 0.129917994
0.362302631 0.437571317 0.129917994
0.378241986 0.440353990 0.130170956
0.405566335 0.443390429 0.136242941
0.420114011 0.443769962 0.130044192
0.438836396 0.443769962 0.127767220
0.462365925 0.444655418 0.128526434
0.486654013 0.447691053 0.119418040
0.511195719 0.453510791 0.124225006
0.541682720 0.461733222 0.125995994
0.573308170 0.470082015 0.125743017
0.602024019 0.476786524 0.125743002
0.638456821 0.485894918 0.119671002
0.672612250 0.492473006 0.127514020
0.702719629 0.498798043 0.132826984
0.730550110 0.503858149 0.133838996
0.760910869 0.506894529 0.139910996
0.791777611 0.510689139 0.141176015
0.827704072 0.515496552 0.148766488
0.861227214 0.520810008 0.160404980
0.886274993 0.527135015 0.171789974
0.254902005 0.471474081 0.132321268
0.254902005 0.471474081 0.131815210
0.261353791 0.471474081 0.132194757
0.264642745 0.471600562 0.130423814
0.274130374 0.474256724 0.133839175
0.279569924 0.474889308 0.134345412
0.287666291 0.477925718 0.132827342
0.301201642 0.475395411 0.132194638
0.313345850 0.474256724 0.132574096
0.325490355 0.475268871 0.130550355
0.340417743 0.478178740 0.124857873
0.356609702 0.478178740 0.125869736
0.374826014 0.478178740 0.126628637
0.391903728 0.479570061 0.126628637
0.411638409 0.482605815 0.127640635
0.438962787 0.483238399 0.126502454
0.456040353 0.484756589 0.124225155
0.477166206 0.486654162 0.125996217
0.499304086 0.489689797 0.121189393
0.526375413 0.492726117 0.123213001
0.554459095 0.495003402 0.121695004
0.585958302 0.501454890 0.121947989
0.615180373 0.509298086 0.125489995
0.646300197 0.515749574 0.124730997
0.680455625 0.524857402 0.123213001
0.712460279 0.528652370 0.129158676
0.740670085 0.530929387 0.132068291
0.766476870 0.531688452 0.140416995
0.799493790 0.537381649 0.149145827
0.828209758 0.542315066 0.153067335
0.863630414 0.547501743 0.165844232
0.897406995 0.551676035 0.183681011
0.251107007 0.514737725 0.121695004
0.251107007 0.514737725 0.121695004
0.259456038 0.514737725 0.123845778
0.269829243 0.513472557 0.126881838
0.277166337 0.515243232 0.125110537
0.283238739 0.516761482 0.125110939
0.291840553 0.519291759 0.123719260
0.307526946 0.519038737 0.127008259
0.321694851 0.517520547 0.127260908
0.332700968 0.518659174 0.121948004
0.349652112 0.519671321 0.121695265
0.366856724 0.520683467 0.119797744
0.386211395 0.521821797 0.122833647
0.405439496 0.522327781 0.123339705
0.425300539 0.522074759 0.121695004
0.445034772 0.522707224 0.123086810
0.472359180 0.524225056 0.120050810
0.492346287 0.526628733 0.121062428
0.513598740 0.528399527 0.118026495
0.538519859 0.531435847 0.120556653
0.563946486 0.532574475 0.123592742
0.592283249 0.533586323 0.116508611
0.620746493 0.540670514 0.118152998
0.649336100 0.544971704 0.121695004
0.681973517 0.549525440 0.125489995
