Assets/EldamarStudio/100 Retro LUTs Pack/LUTs/cube/Steven LUT.cube
LUT_3D_SIZE 8
DOMAIN_MIN 0.000000 0.000000 0.000000
DOMAIN_MAX 0.903226 0.903226 0.903226
0.141176000 0.098039001 0.074510001
0.150537997 0.106640995 0.083112001
0.181909993 0.130929992 0.107399993
0.216318995 0.157494992 0.130043998
0.258570194 0.199747190 0.172296196
0.311574757 0.256546736 0.227197990
0.369892567 0.323465973 0.299936980
0.449968815 0.419987470 0.397722960
0.194054544 0.142314553 0.119164996
0.194813550 0.143073544 0.112080991
0.218722090 0.159898996 0.132447988
0.247691199 0.188867897 0.161416903
0.285641819 0.227197990 0.198987991
0.332574338 0.281593740 0.250980735
0.396458268 0.350790352 0.326881796
0.475648463 0.448197484 0.424667776
0.259456009 0.202150196 0.180265903
0.256672651 0.197849542 0.170398548
0.272738993 0.213915199 0.186464190
0.301708102 0.242884099 0.215433091
0.334598184 0.278811187 0.249842003
0.379253477 0.329791158 0.306261986
0.427704275 0.396964282 0.368754178
0.504237592 0.484629959 0.461100638
0.341809005 0.290829003 0.267298996
0.345730275 0.289184004 0.262112647
0.353953362 0.306388289 0.279443622
0.374319673 0.325616658 0.302087605
0.413030088 0.372169167 0.353067517
0.450474381 0.415180355 0.395572364
0.508412242 0.480961561 0.457431972
0.582416296 0.562808275 0.544844985
0.447438389 0.410373360 0.388614982
0.445414633 0.407590032 0.381404191
0.448830068 0.416571468 0.390638471
0.466160387 0.440986365 0.412650377
0.486401170 0.469196379 0.438456565
0.549146354 0.524731338 0.504237473
0.597722948 0.577862382 0.552814722
0.665022373 0.647691309 0.623022974
0.559645414 0.536242485 0.512713432
0.559392869 0.536748946 0.513219535
0.563820481 0.544212461 0.520683467
0.585958481 0.562302470 0.538772464
0.606325388 0.585705459 0.564452708
0.634408474 0.614800453 0.595319450
0.692978799 0.673371315 0.649841785
0.747501493 0.731688678 0.706261694
0.722074509 0.697912574 0.674383581
0.711954236 0.699430704 0.679443240
0.719038546 0.699430585 0.675901592
0.729791164 0.714737594 0.688930929
0.741808832 0.726755261 0.700948536
0.763187587 0.748134017 0.725616276
0.783554554 0.770145297 0.739405215
0.834155798 0.820366681 0.790765047
0.844908476 0.825300455 0.801770747
0.838709474 0.833775759 0.804048002
0.846299767 0.834534764 0.807083726
0.853889823 0.842125416 0.814674377
0.866033971 0.854269266 0.826818287
0.875648499 0.867678702 0.831119537
0.895129740 0.883364797 0.852624714
0.908918619 0.897153616 0.869702637
0.149779007 0.105881996 0.082353003
0.161163554 0.110183448 0.086654447
0.194054544 0.143073648 0.119544543
0.235167995 0.176343992 0.149652004
0.275142193 0.217077896 0.190006360
0.327261239 0.272232741 0.246679470
0.384566277 0.341429293 0.317900300
0.465654790 0.434914768 0.413029492
0.193674996 0.142694101 0.119164996
0.206199005 0.154459000 0.123466447
0.227324083 0.168501094 0.141050085
0.257052302 0.198229000 0.170777991
0.296647727 0.240101352 0.212270990
0.348260701 0.297280341 0.266666710
0.405312806 0.362175822 0.338646710
0.478304803 0.455407768 0.431878775
0.266540110 0.207716912 0.188109100
0.270462096 0.212397099 0.184566647
0.277419120 0.218596101 0.191145077
0.306767642 0.248703554 0.220872998
0.341556191 0.290575355 0.259203196
0.380771577 0.338393092 0.314484566
0.440986663 0.407210678 0.380518556
0.525490046 0.499936610 0.475268751
0.350031555 0.300569415 0.277039766
0.355976999 0.306515008 0.277419299
0.364958644 0.315496534 0.291967452
0.376217216 0.335357189 0.310689539
0.418089807 0.382795811 0.355344832
0.456419796 0.428209841 0.400253087
0.516634881 0.489183813 0.465654820
0.586210966 0.566602945 0.543073833
0.455534607 0.428083658 0.399747014
0.456419736 0.424161732 0.398228794
0.462618858 0.430360854 0.409234732
0.482226670 0.449968606 0.428842723
0.504491150 0.477799177 0.454269469
0.558127820 0.532194853 0.508665562
0.603921711 0.585072696 0.561163783
0.674509585 0.655660868 0.634028971
0.572802067 0.546110213 0.522580743
0.576470673 0.549778640 0.526249290
0.583428383 0.555977345 0.532447577
0.593421876 0.569765925 0.546236694
0.613282561 0.593674541 0.570145369
0.637950897 0.618342936 0.597849369
0.698798478 0.679949462 0.656040430
0.752941132 0.737128258 0.711701512
0.721441984 0.705123544 0.679949284
0.729538262 0.706641257 0.683112264
0.728526473 0.709677577 0.685768545
0.737001538 0.718153000 0.694244027
0.752814531 0.733965874 0.711574793
0.765844285 0.754079819 0.726628840
0.785831869 0.774067283 0.746616304
0.832511067 0.820746064 0.793295145
0.851486564 0.839342058 0.811132014
0.847564578 0.831245959 0.806072176
0.849209249 0.834914327 0.808728456
0.858696997 0.845667362 0.815686345
0.867172599 0.855407596 0.820872605
0.881720245 0.869955957 0.842504978
0.897406518 0.885642111 0.854396045
0.913852036 0.902087033 0.872106135
0.170145184 0.119164996 0.095635995
0.174446538 0.123466447 0.099936545
0.195192993 0.144212186 0.120682992
0.238709643 0.179886341 0.152435347
0.285262287 0.226439089 0.198988095
0.337381363 0.282352835 0.256799370
0.395572573 0.352434993 0.330423564
0.475015819 0.447564811 0.424035788
0.197090536 0.153194547 0.129664540
0.221884996 0.163820088 0.142314553
0.231625542 0.172801629 0.145350635
0.267678559 0.208855554 0.181404546
0.308412433 0.251106828 0.224414825
0.361669630 0.307400525 0.281847179
0.414041817 0.377988696 0.351676285
0.493738085 0.466287047 0.442757577
0.255534172 0.204553992 0.181024998
0.265275538 0.206451654 0.179380193
0.288424999 0.231119186 0.202909291
0.314610749 0.257305712 0.229854643
0.351043463 0.302340180 0.276534110
0.393295050 0.353953063 0.328525811
0.451233268 0.420493275 0.398608565
0.535356939 0.506261826 0.492219776
0.361796528 0.311574638 0.288045645
0.363314569 0.313092738 0.289563537
0.376217306 0.325996190 0.302466989
0.388361752 0.345983565 0.322074294
0.422770530 0.387476534 0.360784531
0.465401351 0.432384372 0.410120010
0.521315932 0.495382905 0.471852928
0.594812930 0.575205803 0.551675975
0.464516282 0.435547262 0.412776560
0.462239295 0.432258278 0.410373271
0.470841289 0.444908321 0.421379089
0.484503537 0.458570808 0.435040951
0.511575103 0.485642076 0.462112457
0.557241976 0.537633955 0.514104962
0.609487534 0.589879572 0.566350341
0.676027656 0.657938123 0.633649707
0.586590588 0.560657561 0.537128389
0.583807826 0.561922848 0.538393080
0.588488102 0.566603124 0.543073773
0.598355532 0.578747571 0.555218339
0.617583692 0.600253105 0.575585246
0.641872227 0.624541163 0.603921533
0.703478694 0.683871090 0.660341561
0.759898543 0.740290523 0.716761529
0.727008283 0.708918273 0.684630156
0.724098802 0.712333798 0.688677788
0.731688738 0.716635108 0.690828443
0.741176426 0.726122618 0.700316370
0.752814531 0.734724760 0.710436285
0.769639254 0.754838884 0.728906035
0.788235426 0.776470423 0.749019444
0.835800111 0.820746064 0.794939816
0.853004575 0.839721620 0.813029647
0.852245271 0.841619372 0.809993327
0.851612628 0.839848101 0.812397122
0.860215127 0.850727260 0.822517395
0.866160810 0.860088527 0.830739975
0.881720424 0.872232795 0.842504919
0.894876361 0.889942944 0.860215187
0.910309851 0.904237568 0.874889433
0.187729344 0.136748642 0.113219641
0.195952103 0.144971192 0.121442094
0.211258650 0.160278350 0.136748642
0.238709643 0.179886356 0.152435362
0.287159830 0.228336543 0.200885534
0.342061818 0.287033647 0.261480093
0.400758922 0.359898925 0.335230976
0.487918943 0.454901934 0.434155613
0.229221731 0.177482635 0.154332891
0.236685887 0.177862182 0.150411189
0.248450190 0.189626992 0.162175998
0.268058181 0.209234893 0.181783900
0.311828077 0.253763288 0.228209928
0.358760387 0.316128850 0.286527395
0.422264576 0.387729079 0.362175733
0.503984809 0.476533800 0.450474471
0.274762630 0.218216553 0.191903993
0.285641730 0.221252546 0.193421990
0.305249721 0.247944444 0.221252546
0.318532735 0.267552435 0.236179739
0.361543447 0.310562730 0.281467736
0.400632739 0.359772027 0.335104197
0.463377714 0.432637721 0.410752714
0.535736680 0.515369952 0.491840631
0.341809005 0.293105990 0.269576281
0.350410998 0.301708013 0.272612274
0.365591556 0.322453737 0.298924714
0.397343278 0.356483251 0.331815630
0.432131827 0.396837443 0.377229810
0.470967978 0.445793986 0.422264278
0.531941533 0.503984928 0.488804251
0.600379586 0.580771565 0.557242274
0.471220732 0.438203722 0.411891371
0.469576031 0.442125022 0.418595761
0.484503627 0.457052737 0.433522940
0.493105620 0.468690723 0.445161015
0.517773569 0.492599547 0.469070196
0.567615628 0.543200672 0.519671142
0.616824687 0.594939768 0.571410596
0.677672327 0.664516270 0.639089108
0.591903746 0.570018768 0.546489477
0.586970091 0.567362130 0.543832898
0.602403402 0.578747392 0.555218339
0.606578112 0.586970091 0.563440800
0.628589809 0.608981848 0.585452020
0.652498484 0.632890463 0.609361470
0.705882311 0.690069318 0.664642811
0.760278285 0.748513579 0.721062660
0.731562257 0.715243280 0.690069556
0.733586311 0.719544709 0.693232179
0.733586311 0.721062720 0.693991303
0.743832886 0.732068241 0.704617143
0.757115781 0.740796804 0.715622962
0.772043049 0.760278046 0.732827127
0.788614929 0.780265570 0.751675904
0.840860248 0.829095304 0.801644206
0.861733139 0.842125416 0.818595827
0.855155051 0.841998577 0.812397361
0.859076560 0.846046805 0.816065788
0.865654409 0.853889823 0.826438844
0.872612417 0.860847414 0.833396375
0.886021495 0.874256730 0.841492534
0.901834130 0.890069425 0.862618446
0.919417799 0.907653451 0.880202472
0.220240191 0.161416799 0.138772801
0.225679994 0.171663374 0.146616191
0.241366193 0.187349796 0.162302002
0.264136970 0.205312997 0.177861989
0.292346984 0.236558974 0.207590178
0.341556162 0.288298279 0.262238979
0.412017286 0.370398283 0.346110195
0.494244158 0.469829142 0.446299821
0.257431716 0.200885639 0.180139095
0.256672919 0.202656552 0.172801733
0.274762660 0.215939447 0.193295449
0.291587800 0.235041186 0.211258650
0.321315408 0.262492090 0.239848107
0.364705920 0.319291562 0.295762450
0.432004899 0.398987889 0.370398581
0.508665323 0.488298625 0.464769006
0.308665395 0.254648983 0.226312175
0.324984342 0.262112737 0.235800192
0.325996101 0.273498088 0.244402185
0.344085991 0.288298368 0.262365371
0.364326119 0.313346088 0.289816469
0.406198740 0.366856754 0.341429472
0.469955474 0.442504466 0.414168268
0.545350909 0.526502013 0.500695884
0.359013200 0.310310096 0.286780179
0.362049192 0.319291621 0.294623911
0.381150842 0.338013828 0.314484537
0.413282841 0.377229840 0.350158274
0.437697828 0.404680818 0.383934170
0.484124064 0.456673354 0.433143377
0.534218550 0.514611006 0.491840571
0.609867275 0.585452318 0.561922610
0.447185189 0.411891162 0.387476176
0.450094730 0.413029701 0.389500111
0.465275198 0.437824190 0.414294571
0.493864745 0.466286898 0.449968636
0.538899362 0.509045184 0.492726386
0.577735662 0.550284684 0.526755095
0.619607627 0.600000083 0.576470673
0.679316998 0.665401936 0.639595032
0.594686925 0.567235887 0.543706357
0.591397464 0.568500578 0.544592023
0.599493802 0.579886138 0.556356788
0.620746017 0.601138771 0.577608883
0.635673702 0.619101703 0.594053984
0.659835696 0.643263698 0.618975043
0.713978469 0.694370925 0.670841038
0.761922777 0.747627735 0.721441925
0.739405274 0.719797254 0.696268260
0.735610545 0.720556557 0.697027266
0.743453383 0.726881564 0.701834381
0.748134077 0.736369491 0.708918452
0.761416793 0.749652267 0.722201288
0.778368056 0.766603112 0.739152074
0.795192599 0.783428431 0.755977452
0.843010902 0.830487251 0.799367309
0.862365603 0.850600600 0.820113599
0.860215187 0.844781816 0.819354773
0.862112582 0.850347936 0.822896957
0.867172599 0.855407894 0.827956915
0.876660645 0.864895642 0.837444603
0.888551533 0.876786709 0.841492534
0.904111326 0.892346442 0.864895463
0.918659031 0.910309613 0.879443228
0.260594755 0.201770738 0.174319729
0.268817186 0.209993795 0.182542801
0.278937399 0.220114082 0.192663088
0.296141982 0.237317979 0.209866986
0.320556462 0.265527993 0.236179724
0.358380735 0.307400733 0.276027739
0.410120040 0.370778024 0.346110284
0.503225923 0.479569852 0.456040680
0.289310992 0.240607098 0.217457533
0.299810529 0.240986541 0.213535547
0.308412552 0.249588639 0.226185635
0.324098676 0.269070446 0.243769899
0.348260552 0.293231905 0.270209163
0.372928470 0.329791099 0.306261986
0.425300360 0.390006363 0.367109329
0.520050526 0.494117528 0.470588118
0.345477462 0.300063193 0.276533991
0.352561474 0.302719623 0.273244977
0.359013200 0.311828017 0.284250498
0.369133204 0.323086649 0.292093486
0.388994336 0.349399090 0.319038719
0.417963415 0.378620893 0.356989175
0.469955564 0.442504555 0.418975264
0.559013486 0.538646579 0.514358103
0.390892088 0.351802379 0.326248825
0.403921634 0.366350651 0.340038002
0.427830368 0.392536163 0.370651364
0.445034891 0.412017375 0.391271532
0.464262903 0.432763934 0.405692458
0.488045394 0.456546366 0.435041130
0.538519979 0.517393947 0.493864924
0.615559518 0.595951498 0.572422504
0.474256933 0.446046919 0.418848455
0.477040082 0.448830068 0.421631724
0.488931000 0.462492138 0.445035011
0.516761482 0.491081536 0.473624438
0.560278416 0.534598112 0.517140985
0.578621089 0.554965138 0.531435668
0.629601479 0.611511707 0.583428025
0.683870971 0.666793346 0.641998827
0.579506457 0.548260450 0.526628733
0.575205922 0.551043749 0.532068014
0.587476492 0.567868471 0.544338942
0.612270892 0.588614821 0.565085113
0.646805704 0.623149753 0.599620700
0.679696739 0.663883686 0.638456404
0.718153000 0.702340007 0.676913261
0.765844285 0.750031590 0.724604547
0.736369550 0.713725567 0.689816535
0.732827127 0.721442044 0.697279990
0.743453383 0.727893472 0.702340126
0.753573656 0.738013685 0.712460637
0.772169709 0.760404706 0.732953727
0.785072744 0.773308277 0.745857298
0.805059791 0.793295324 0.765844285
0.845920444 0.836559474 0.808854997
0.865654647 0.850094616 0.824541390
0.861480057 0.849715173 0.822264194
0.864515781 0.852751434 0.825300455
0.875521898 0.863756895 0.836305857
0.881594062 0.874383390 0.845414519
0.892472982 0.880708575 0.853257537
0.903984785 0.896015108 0.867299259
0.919038534 0.916761637 0.886148036
0.317267269 0.258444279 0.230993271
0.322833568 0.268563986 0.238836274
0.332827181 0.278557986 0.248830259
0.346995264 0.292726278 0.267552257
0.370524973 0.322580576 0.295761973
0.395572275 0.354079574 0.329411745
0.436179280 0.400885284 0.381277263
0.498798221 0.471347332 0.447817892
0.330929816 0.291587710 0.266160578
0.349525303 0.295256287 0.270082086
0.354079366 0.303858280 0.273244768
0.368248105 0.323718935 0.294497192
0.387096792 0.343706250 0.319418162
0.415559769 0.377735734 0.352308571
0.454649031 0.423909009 0.402023822
0.507653236 0.487286478 0.463757068
0.388488263 0.353194267 0.325743288
0.393674612 0.354332626 0.328905374
0.401138484 0.359519273 0.335230798
0.414421201 0.375838190 0.350031465
0.434661448 0.399367452 0.373434454
0.457811832 0.427071810 0.401897639
0.496521294 0.470588267 0.447058856
0.555344462 0.531688452 0.508159339
0.461859614 0.431119621 0.405945629
0.469702631 0.439721644 0.414547920
0.475522101 0.447058648 0.425174057
0.489943206 0.462492198 0.438962638
0.505249977 0.480075985 0.456546366
0.527513921 0.501580894 0.478051931
0.556736231 0.534851313 0.511321962
0.612903059 0.593294978 0.569765985
0.504364431 0.481467485 0.457938433
0.508665502 0.487539709 0.464010090
0.532700658 0.509804070 0.486274451
0.573181450 0.550284863 0.526754916
0.589120507 0.569512904 0.545983493
0.608981907 0.589373946 0.565843940
0.634535372 0.614927351 0.591397583
0.686274469 0.669702828 0.644655287
0.612523556 0.588867545 0.565338433
0.617710173 0.594813168 0.571283817
0.624667943 0.605060101 0.581530809
0.642378390 0.622770369 0.599241138
0.664263129 0.645414233 0.621505260
0.703984678 0.685135722 0.661227226
0.722074449 0.707021058 0.681214750
0.768627226 0.753573716 0.727767467
0.711322308 0.699557304 0.672106266
0.715243280 0.703478813 0.676027834
0.723972261 0.708918273 0.683111966
0.737634182 0.725869596 0.698418617
0.755977392 0.741176486 0.715243280
0.782795608 0.770271957 0.743200541
0.815559566 0.803794980 0.776344001
0.851360023 0.839595079 0.812144041
0.859709024 0.847185194 0.820113599
0.864136338 0.848576903 0.823023200
0.863250911 0.851486564 0.824035585
0.873245060 0.861480057 0.834029078
0.881720245 0.873750806 0.845034957
0.898418784 0.886653781 0.858443797
0.903352201 0.903352201 0.871979892
0.929538012 0.921568334 0.892852545
0.395192623 0.352055609 0.328525931
0.398102522 0.355724156 0.331815034
0.407083958 0.369259626 0.343073785
0.419607610 0.389626592 0.364832431
0.445414126 0.415433109 0.393168986
0.475901425 0.445920408 0.423655748
0.512713492 0.485262632 0.461732924
0.559898615 0.537760615 0.514231563
0.415939152 0.381404161 0.361416608
0.418848634 0.381024629 0.362681806
0.427071482 0.391777188 0.372169495
0.442631066 0.408095866 0.388108492
0.465781122 0.433523118 0.412397325
0.488551557 0.465654552 0.442125559
0.521442115 0.498544991 0.475015581
0.571536899 0.551929355 0.528399348
0.466160774 0.438709795 0.415179968
0.467425406 0.439974457 0.416445315
0.472485900 0.448829889 0.425300568
0.491587520 0.464136541 0.438077211
0.508918226 0.482985526 0.459456027
0.532574177 0.510436416 0.486906946
0.562808394 0.539405465 0.515876055
0.606072128 0.586464107 0.562934637
0.535989583 0.511574566 0.488045603
0.538140297 0.516255736 0.492726177
0.545224249 0.523339570 0.499810249
0.555850625 0.536242604 0.512713194
0.573308110 0.551170170 0.527640700
0.592536092 0.570398211 0.546869099
0.619607449 0.597469687 0.573940456
0.653383732 0.633776009 0.610246778
0.590133011 0.567994952 0.544465244
0.599620581 0.577482581 0.553952992
0.615812540 0.596710742 0.571663499
0.634788096 0.618216157 0.593168914
0.647691309 0.628083348 0.604554355
0.664136648 0.644528687 0.620999336
0.682732344 0.664642990 0.640354097
0.711321950 0.697027266 0.670841157
0.655913770 0.636306286 0.612776816
0.659329712 0.636685729 0.613156378
0.663757265 0.646679282 0.621884584
0.681467295 0.661859512 0.638330281
0.720176935 0.703099012 0.678304851
0.741555691 0.728273213 0.701581240
0.755977511 0.744212508 0.716761470
0.777608812 0.765844285 0.738393247
0.758254528 0.745730579 0.718659043
0.756736338 0.741682351 0.715875924
0.762555063 0.750031412 0.722959995
0.772801876 0.760278165 0.733206749
0.786211252 0.773687601 0.746616125
0.807716489 0.795951605 0.768500626
0.837950706 0.826185822 0.798734725
0.855028391 0.847058654 0.818342805
0.840859890 0.837064803 0.806957543
0.851107001 0.839342058 0.811891019
0.852751434 0.840986788 0.813535750
0.858317733 0.849968374 0.821378767
0.867425680 0.863630772 0.833522916
0.888551474 0.876786709 0.849335670
0.908538997 0.896773994 0.869323015
0.929790735 0.929790795 0.898418725
