Assets/EldamarStudio/100 Retro LUTs Pack/LUTs/cube/Susan LUT.cube
LUT_3D_SIZE 5
DOMAIN_MIN 0.000000 0.000000 0.000000
DOMAIN_MAX 0.903226 0.903226 0.903226
0.000000000 0.000000000 0.101961002
0.227577403 0.032005005 0.123845711
0.494370788 0.045793995 0.127514407
0.775838137 0.125616997 0.157874867
0.996204793 0.214547977 0.226312652
0.173940405 0.229854703 0.109803997
0.287033409 0.229854703 0.116635293
0.470841408 0.270081967 0.134345293
0.761796296 0.313851982 0.166982859
0.992409945 0.354079515 0.246552825
0.363566995 0.466919810 0.096015424
0.448956490 0.452878088 0.091461010
0.574826181 0.481973380 0.107147001
0.717394233 0.561796427 0.199873120
0.970904350 0.590512395 0.280708373
0.544339120 0.720936120 0.106008999
0.601011872 0.719923794 0.091713995
0.734345257 0.697153866 0.011258847
0.838583112 0.743453264 0.151169986
0.934598088 0.798734963 0.350663781
0.682479799 0.940290630 0.297279745
0.723845780 0.938013911 0.299051017
0.828968942 0.930423379 0.275774986
0.980391920 0.924225092 0.248070717
0.994687021 0.941429675 0.423023403
0.002277292 0.033649713 0.231119692
0.204048395 0.053636990 0.218722701
0.444402099 0.126881823 0.251106977
0.738266706 0.204427287 0.307653129
0.986590624 0.275395393 0.369259506
0.004933705 0.238330111 0.211511701
0.244908124 0.232131407 0.229474977
0.439848065 0.276280671 0.262239397
0.722706795 0.330929846 0.302466691
0.984313726 0.384187102 0.380392343
0.303731710 0.470840961 0.236306280
0.402783394 0.460088491 0.232511103
0.548640251 0.470208824 0.231119275
0.701707840 0.554206252 0.326628685
0.960531175 0.592409849 0.407463551
0.508032978 0.723592520 0.252751261
0.564958990 0.718658864 0.244908705
0.707906127 0.698671699 0.207084104
0.821252406 0.733965695 0.275395572
0.925869644 0.799746990 0.438329995
0.662112713 0.938899636 0.403921694
0.700821996 0.938646376 0.391018331
0.810373068 0.932447612 0.370145291
0.971284151 0.920935869 0.332574189
0.997343183 0.939152658 0.487792313
0.000000000 0.084377408 0.455154806
0.216444984 0.108918279 0.443389952
0.432890803 0.145857409 0.434914380
0.714358091 0.218848690 0.499051392
0.955218256 0.353320599 0.575458586
0.046426415 0.272992104 0.437570810
0.220999405 0.278557956 0.428969234
0.436559081 0.297533393 0.458064526
0.694750190 0.352182120 0.505502641
0.946742654 0.442504913 0.586970091
0.004554423 0.508791804 0.454522401
0.173940822 0.505502343 0.429981083
0.510689378 0.485895216 0.439468801
0.683491290 0.562049508 0.526122630
0.929790735 0.612143815 0.601012051
0.339279056 0.747375250 0.474130392
0.451739430 0.740543723 0.487159967
0.627071440 0.716382086 0.448323548
0.796711087 0.727134407 0.469576240
0.907526970 0.804300845 0.616698205
0.603668332 0.946110189 0.578114986
0.637570798 0.940923214 0.573434412
0.745983422 0.938267052 0.548766196
0.929538131 0.924225092 0.512966335
0.997470021 0.946742654 0.616951168
0.018090244 0.173687115 0.712080956
0.249715522 0.185072586 0.714105248
0.495129377 0.208601996 0.708538711
0.725996256 0.240354121 0.692599237
0.956229925 0.379885912 0.729285300
0.060720958 0.342062235 0.695635974
0.255281389 0.343326837 0.698418975
0.479443252 0.351549685 0.690828562
0.703352094 0.376723826 0.696647704
0.943833113 0.486021370 0.732954025
0.000000000 0.558253944 0.696141958
0.228083283 0.557874858 0.690196157
0.486021370 0.568627477 0.696015537
0.706009150 0.602909386 0.708159268
0.911195517 0.660468221 0.752561390
0.041492607 0.785705090 0.677799106
0.254775375 0.788235545 0.680075824
0.465148777 0.772548914 0.677039742
0.742441118 0.742568135 0.670968056
0.907526791 0.807842970 0.752814651
0.383301824 0.967995107 0.674889207
0.479696274 0.962175667 0.695256293
0.666287184 0.950031579 0.722833455
0.841998935 0.937887490 0.712839961
0.985957921 0.942567945 0.738899350
0.316887736 0.289183795 0.883870840
0.413662016 0.296014935 0.884250700
0.592536688 0.324477941 0.881973386
0.807590246 0.365464777 0.871853113
0.991017997 0.425300419 0.864262819
0.377735406 0.440860242 0.880581856
0.446299732 0.442884207 0.873750925
0.609614134 0.459202796 0.870841205
0.802024126 0.485388637 0.867172658
0.985578477 0.521442175 0.865274906
0.379000336 0.624415219 0.868184805
0.474762738 0.636052907 0.860341787
0.648956418 0.661859632 0.857684970
0.798228920 0.670967817 0.861985862
0.962555587 0.686021328 0.861732960
0.353573382 0.832637370 0.854775608
0.435167581 0.831625521 0.850980520
0.603541851 0.819607973 0.852878094
0.790638685 0.824162126 0.847944260
0.932068050 0.839595020 0.855913818
0.518279433 0.985957980 0.827577770
0.559013486 0.977735519 0.831625760
0.667172611 0.969513237 0.838203788
0.804174721 0.963946819 0.839721620
0.965085506 0.942820907 0.851233661
