Assets/EldamarStudio/100 Retro LUTs Pack/LUTs/cube/Susan LUT.cube
DOMAIN_MIN 0 0 0
DOMAIN_MAX 1 1 1
LUT_3D_SIZE 32
0.000000000 0.000000000 0.101961002
0.003036387 0.003036387 0.098924614
0.027577773 0.010373225 0.104490772
0.066034153 0.015686000 0.112333998
0.111195087 0.016824547 0.118026547
0.153699875 0.025932934 0.121062934
0.191144645 0.032511000 0.124098673
0.227577403 0.032005005 0.123845711
0.265528202 0.027450999 0.121569000
0.308032990 0.027450997 0.121569000
0.341808856 0.024541130 0.118659131
0.375205249 0.027577514 0.115622744
0.413155913 0.033650000 0.114863642
0.457938045 0.039721999 0.118406028
0.494370788 0.045793995 0.127514407
0.533206761 0.056672990 0.131815195
0.574193358 0.068816997 0.134851187
0.616065681 0.080328569 0.137887418
0.655534983 0.089436978 0.140923053
0.695003390 0.101328008 0.149525359
0.736369491 0.113472477 0.154838741
0.775838137 0.125616997 0.157874867
0.809487522 0.137887493 0.161163509
0.848956764 0.153067917 0.170271903
0.883871317 0.165970996 0.179380283
0.917267621 0.175331980 0.188488305
0.950664043 0.183428124 0.198608071
0.984060407 0.201644883 0.213788435
0.996204793 0.214547977 0.226312652
1.000000000 0.224921197 0.234914973
1.000000000 0.235800356 0.246299967
1.000000000 0.250979990 0.270588011
0.000000000 0.030360773 0.108033001
0.015180387 0.030360773 0.120176993
0.035420768 0.035547383 0.106388383
0.064516157 0.043769933 0.106261998
0.100948639 0.049462609 0.111954451
0.156736270 0.053257316 0.114990160
0.186590716 0.059835382 0.115496226
0.224794403 0.060974095 0.119671032
0.262492180 0.057811771 0.120050810
0.295888990 0.057811771 0.115496226
0.338393748 0.057811771 0.115496226
0.378241897 0.062997892 0.116634868
0.414674431 0.068943642 0.117900029
0.452119052 0.073118389 0.120936356
0.491334409 0.079190381 0.124478020
0.532574177 0.082859188 0.128779411
0.574193358 0.093105763 0.133333370
0.614800513 0.104617342 0.138519987
0.649462163 0.113725752 0.143959448
0.691713989 0.125616789 0.152561754
0.731435835 0.133965775 0.155977398
0.772802293 0.143832996 0.157874867
0.812397420 0.155977011 0.161163509
0.848956764 0.168248296 0.170271903
0.886147976 0.181151375 0.181656986
0.918911934 0.190512374 0.191524282
0.949652016 0.198102459 0.201644465
0.977988422 0.213788867 0.216824830
0.992789030 0.221378982 0.226692215
0.998734832 0.234535173 0.240227729
1.000000000 0.247058973 0.254522204
1.000000000 0.260088384 0.276659995
0.023655772 0.062871777 0.114105001
0.051739704 0.062871777 0.115496226
0.060468316 0.062871777 0.125489995
0.080202386 0.067678928 0.111068837
0.103352092 0.074636772 0.111954227
0.148640022 0.079443611 0.113219060
0.193928093 0.080708548 0.120176770
0.222896755 0.085135840 0.113598779
0.261859417 0.085388996 0.117394321
0.295003235 0.088171996 0.118279576
0.337001979 0.090322770 0.118026547
0.375458747 0.088298514 0.118026547
0.413156480 0.096900418 0.120936126
0.446553022 0.102466799 0.123972252
0.489816397 0.110436536 0.127008349
0.529538333 0.114104800 0.130044028
0.569006741 0.118658997 0.134598210
0.610878885 0.128905565 0.140670374
0.650347769 0.138013974 0.146742776
0.692093551 0.147754788 0.151296586
0.730803251 0.156103760 0.152814969
0.769007266 0.164199755 0.155597880
0.808981955 0.176090762 0.161163509
0.845414281 0.184187040 0.170271903
0.881846964 0.198481977 0.181656986
0.916887641 0.207842976 0.192409664
0.949019313 0.214421064 0.203035995
0.981277406 0.226312444 0.219860658
0.988867760 0.237823978 0.229728043
0.993927777 0.247438416 0.244149610
0.997469962 0.261353761 0.262365490
1.000000000 0.273497790 0.284882784
0.054522160 0.097533323 0.112587005
0.087919310 0.097533323 0.115875773
0.105756000 0.096268162 0.116381608
0.116888314 0.097533323 0.120429993
0.124477930 0.100190155 0.113219157
0.149398863 0.104491159 0.114990160
0.185831636 0.110563159 0.120050475
0.225679994 0.110942610 0.121442005
0.259835273 0.113978416 0.113093093
0.297786146 0.119544476 0.121189483
0.336242735 0.121442184 0.121569000
0.374699503 0.124225222 0.122833841
0.413409263 0.123465829 0.125110835
0.445035040 0.131815195 0.128273025
0.488551378 0.138899565 0.131309405
0.528020203 0.145730674 0.133080363
0.564705968 0.149019301 0.135104150
0.603668094 0.155723900 0.142441139
0.649841785 0.164832294 0.149778783
0.691334784 0.172675520 0.153067812
0.731309295 0.181151316 0.154838577
0.769766092 0.186211184 0.155850962
0.806831360 0.197596177 0.164958671
0.844402313 0.205945492 0.174067065
0.878304541 0.215053603 0.181656986
0.910815656 0.228589296 0.192409664
0.944212198 0.234661311 0.201518074
0.979885995 0.243010610 0.217457145
0.992156684 0.253510296 0.234028816
0.994686961 0.265654415 0.248450398
0.992030382 0.276913613 0.266666979
0.996204853 0.288678169 0.290196002
0.082985096 0.133586541 0.103478998
0.114484712 0.132827535 0.112966456
0.136116311 0.131435767 0.115116775
0.152561411 0.130170703 0.113219157
0.168880552 0.133586541 0.110183448
0.165844157 0.133586541 0.116255447
0.186210871 0.142568097 0.120177321
0.216191947 0.148134097 0.120303839
0.253383756 0.149272636 0.118026547
0.298924953 0.152309030 0.121062934
0.333206862 0.153194547 0.121569000
0.368627489 0.157242551 0.123972282
0.406578243 0.161796451 0.127387539
0.448576987 0.165338129 0.133459538
0.487918854 0.168627515 0.136622414
0.526502013 0.176091343 0.136875451
0.561796188 0.182542890 0.137254998
0.598355114 0.186464116 0.139405534
0.646932006 0.195572525 0.151549563
0.687919080 0.201897547 0.155724362
0.727008283 0.209487736 0.159139812
0.765970707 0.217330962 0.164199680
0.808475435 0.220366597 0.173055023
0.848197639 0.231752351 0.181657359
0.881214559 0.240101546 0.187349707
0.912080705 0.247818083 0.192789212
0.938899159 0.259329557 0.203415617
0.972296298 0.265401542 0.212523997
0.990132689 0.273750812 0.233016953
0.997849226 0.283870935 0.253383845
0.998481989 0.295509160 0.271979988
0.989373565 0.304617554 0.290196002
0.119417861 0.166982919 0.115622997
0.137634635 0.160910934 0.106514610
0.162681922 0.162302166 0.109550834
0.182922184 0.161796093 0.112839937
0.199241325 0.160910934 0.116255447
0.202276930 0.166982919 0.113219060
0.211890861 0.169513255 0.119291708
0.229854345 0.172422856 0.121569000
0.254902035 0.173940867 0.120303839
0.289816558 0.179633424 0.118026547
0.326628804 0.185578942 0.121062934
0.362555504 0.190638930 0.125616997
0.398988277 0.194433928 0.128905937
0.436432987 0.195698902 0.130423933
0.472864956 0.204807281 0.136495933
0.519417703 0.210499853 0.134851187
0.559898436 0.217077911 0.135357246
0.598355114 0.222643852 0.139152572
0.646932006 0.228968918 0.148513958
0.692726076 0.235293925 0.155091941
0.731562436 0.241365910 0.160658002
0.766476929 0.248956114 0.167236075
0.799367070 0.256799370 0.176091418
0.841871858 0.259835780 0.179127038
0.877039969 0.271220922 0.190006047
0.914105237 0.278178602 0.197849348
0.950537980 0.283744782 0.206958011
0.972296298 0.292725921 0.227704376
0.992409945 0.298797935 0.236812070
0.999493957 0.305375993 0.251992166
1.000000000 0.314231217 0.269449651
0.998481929 0.325869948 0.290196002
0.148260325 0.197849646 0.112586997
0.161417082 0.196837649 0.108538613
0.183934316 0.192915872 0.105881996
0.204427481 0.192662805 0.108538836
0.221378997 0.190006644 0.112586997
0.235167369 0.191777647 0.111701384
0.248323649 0.197849646 0.118785642
0.255534351 0.199241325 0.118279584
0.266287327 0.199241325 0.117267452
0.283744544 0.201771319 0.117773525
0.322580397 0.215433642 0.123086542
0.356989443 0.221505627 0.126122937
0.395193279 0.227577642 0.129411995
0.434662044 0.230613604 0.129664958
0.473371297 0.235167399 0.133459672
0.514610887 0.241872594 0.139531672
0.559898734 0.247944638 0.141429380
0.599620461 0.254016638 0.146110311
0.644402325 0.260088652 0.153320983
0.685135782 0.268690974 0.162175685
0.728779197 0.274762958 0.162555426
0.766476929 0.280834943 0.167742133
0.800252855 0.288172126 0.176723987
0.840353787 0.291207910 0.182163417
0.871473849 0.298798293 0.189753026
0.904364645 0.307906300 0.203035653
0.942441821 0.312586993 0.214041740
0.973814428 0.319670856 0.231246114
0.992409945 0.323592633 0.241872460
1.000000000 0.331435829 0.252751291
1.000000000 0.339152336 0.268058181
1.000000000 0.349651992 0.287666321
0.173940405 0.229854703 0.109803997
0.184440464 0.226565704 0.100189619
0.203542396 0.229348630 0.112460412
0.226565570 0.223782241 0.107400090
0.242884398 0.219987527 0.108918287
0.261100411 0.218722701 0.111448288
0.275142014 0.223782703 0.114104904
0.287033409 0.229854703 0.116635293
0.294623792 0.230613798 0.115875803
0.305123419 0.231499404 0.122454189
0.323465884 0.239468858 0.123466000
0.352308333 0.253510714 0.130803257
0.387982488 0.258444339 0.133839354
0.429981351 0.264263362 0.134092316
0.470841408 0.270081967 0.134345293
0.511068881 0.273877323 0.134850994
0.553573668 0.279949695 0.142441198
0.597343385 0.286654264 0.150537848
0.641872287 0.293738395 0.159646004
0.684883118 0.300949067 0.160278365
0.721315503 0.309803993 0.170018733
0.761796296 0.313851982 0.166982859
0.798608482 0.318785489 0.173940584
0.841112912 0.324857503 0.186085001
0.873118162 0.329158694 0.196078405
0.903225899 0.338266730 0.206577674
0.936116397 0.343579710 0.219481051
0.970272124 0.347374678 0.230107442
0.992409945 0.354079515 0.246552825
0.996711016 0.357368886 0.255787671
0.998481989 0.365591675 0.270588279
1.000000000 0.373940408 0.289563984
0.198988095 0.261733115 0.110562898
0.210373387 0.256420195 0.099936701
0.222011775 0.258950174 0.102846354
0.244023055 0.260215044 0.118026674
0.264896005 0.251865745 0.106261544
0.283112109 0.248830125 0.110436097
0.299304068 0.249589100 0.112206995
0.309044719 0.257938176 0.111321613
0.320430189 0.263251096 0.111322001
0.341682583 0.266287476 0.126502395
0.347754300 0.270841300 0.127261221
0.359898448 0.278178364 0.130803153
0.382668823 0.290322751 0.138393357
0.421884954 0.294118106 0.141429037
0.463377684 0.303731740 0.139405414
0.505755782 0.308791906 0.137887374
0.543706417 0.314105183 0.139405191
0.588108659 0.320809603 0.146615997
0.636812091 0.329917967 0.161163867
0.680328846 0.336243182 0.160657987
0.720556617 0.342694432 0.165212080
0.755724251 0.351043284 0.175331950
0.792283475 0.351296276 0.172548592
0.836558938 0.359772086 0.187602818
0.872991681 0.362808287 0.201264992
0.903984606 0.368627489 0.212650076
0.937381029 0.377229184 0.225300163
0.967994750 0.377735198 0.229348540
0.990385711 0.384187013 0.245287701
0.997976005 0.389753193 0.261733174
0.993927956 0.394434065 0.273624510
1.000000000 0.400506079 0.294876903
0.226312488 0.289057523 0.113598518
0.244528472 0.286021918 0.116634898
0.247311786 0.289310992 0.106008708
0.256673008 0.291587830 0.103858039
0.280075610 0.288298547 0.112333544
0.298292398 0.285262942 0.103225939
0.321568489 0.277166665 0.104870148
0.335483491 0.281847179 0.106134988
0.344718218 0.293611914 0.108285613
0.362935007 0.296647519 0.117394008
0.375458509 0.305502892 0.126755372
0.385199249 0.308285981 0.131309226
0.398228973 0.312334150 0.135736510
0.418848574 0.321442515 0.141429037
0.455281317 0.333586484 0.144465417
0.501581073 0.340796977 0.147248805
0.540670395 0.348260701 0.150031775
0.575964689 0.357242405 0.152687997
0.627577960 0.366350025 0.152688012
0.665148497 0.372675747 0.161669880
0.705755472 0.376850247 0.170145735
0.746868849 0.382163137 0.179380357
0.786211491 0.390765458 0.187729001
0.825679958 0.396837473 0.190765396
0.865401804 0.396204710 0.201264992
0.900316417 0.398987681 0.212017670
0.931309104 0.407590002 0.222264543
0.964705408 0.413662016 0.237444922
0.987349331 0.416824818 0.246805623
0.997975767 0.420113742 0.261732906
0.999746978 0.424920648 0.279569983
1.000000000 0.433902502 0.297912508
0.256546736 0.322200865 0.116634868
0.254395872 0.322074383 0.108032510
0.272612393 0.325489998 0.111068904
0.282479554 0.323972017 0.105502710
0.301833957 0.316761434 0.107905999
0.325110734 0.318785787 0.106388062
0.343326867 0.310689569 0.099810131
0.363567263 0.309803843 0.101707712
0.375458509 0.318153083 0.104490869
0.387222946 0.321189255 0.111448489
0.399620742 0.335863590 0.117647007
0.411764711 0.340923458 0.122707397
0.422896862 0.342947483 0.128020227
0.437570930 0.348260880 0.135863006
0.458064675 0.355091870 0.141555548
0.492093682 0.372042865 0.139784932
0.539658546 0.383175254 0.147881314
0.581657350 0.393675119 0.157115862
0.624162138 0.402782768 0.161669880
0.664642513 0.409107745 0.161669880
0.704996467 0.413282752 0.170398742
0.744465351 0.416318864 0.178494990
0.779886484 0.421632200 0.185958371
0.813788891 0.430486858 0.200126782
0.855534554 0.434282154 0.207716569
0.894244432 0.433902621 0.216444984
0.928652883 0.438456804 0.226565242
0.964452386 0.446932614 0.248956427
0.989879608 0.447691619 0.248197153
0.998987854 0.452245712 0.266919583
1.000000000 0.455534607 0.289437205
1.000000000 0.458570749 0.309677005
0.280835241 0.357621491 0.107526749
0.289942831 0.357621491 0.112586610
0.289816260 0.355850756 0.114105023
0.306767881 0.356862426 0.110815927
0.323086321 0.347754240 0.105502546
0.347375125 0.349145919 0.103858262
0.366603255 0.348133922 0.102846257
0.386463970 0.342314959 0.098418549
0.404301077 0.346489429 0.099936746
0.415939033 0.349525481 0.103478752
0.427956730 0.358128130 0.109550744
0.442125261 0.371284217 0.115622744
0.455407888 0.374319851 0.119797774
0.468690515 0.377609044 0.127514228
0.485136062 0.383681476 0.131815001
0.501201749 0.395319492 0.148893058
0.533080399 0.410499483 0.147375256
0.577988863 0.423909128 0.158127993
0.616066039 0.437191784 0.164200023
0.655534387 0.443516761 0.172802001
0.696900487 0.449588746 0.176596999
0.740417361 0.452751368 0.181530863
0.778241992 0.455913991 0.184946492
0.817331195 0.463124841 0.200126916
0.847438574 0.469702780 0.216824949
0.889943302 0.474130481 0.224541232
0.926123023 0.475901455 0.232637376
0.958001196 0.481973439 0.253890157
0.985831618 0.481088251 0.264389664
0.999493957 0.482859015 0.273750424
1.000000000 0.488677979 0.298545301
1.000000000 0.490954965 0.319797248
0.306641638 0.394054264 0.100315996
0.317267239 0.394054264 0.107905999
0.325110286 0.390765399 0.113472261
0.331435442 0.387602955 0.117647320
0.346995264 0.381909847 0.107020639
0.369765848 0.381150931 0.104743928
0.385578632 0.381150931 0.100822359
0.406578004 0.380645007 0.099177942
0.427071303 0.379127204 0.096900649
0.442631125 0.382162809 0.096900649
0.456040293 0.385831743 0.100442640
0.470208526 0.392536640 0.106514640
0.486527264 0.405819267 0.113724999
0.501454592 0.409613907 0.119797781
0.515749395 0.417457461 0.123719223
0.529664636 0.426059633 0.137887299
0.542947352 0.434788257 0.154586002
0.572043121 0.446932256 0.156483412
0.606451988 0.464136928 0.163061380
0.646806061 0.476913661 0.176976651
0.687033474 0.484124273 0.184186995
0.729538262 0.489184141 0.191271126
0.774952829 0.492219776 0.189247504
0.818469524 0.497280419 0.202403918
0.853004634 0.503352642 0.216445342
0.881594002 0.508285999 0.230233982
0.923086822 0.514358163 0.237824067
0.952308774 0.518026471 0.255408257
0.979633152 0.518026531 0.271726996
0.994560361 0.518532693 0.287412941
0.997090399 0.520682931 0.304743588
0.996584356 0.526248932 0.325489998
0.339278996 0.430487067 0.105123028
0.342567712 0.430487067 0.105881996
0.349904805 0.426439047 0.105375998
0.360784173 0.421884894 0.107147157
0.376850039 0.418595612 0.109044969
0.395066053 0.415559977 0.109044969
0.405692369 0.414801061 0.102213681
0.423276454 0.415054053 0.095635682
0.445541024 0.414547980 0.093612000
0.463757038 0.417583585 0.093612000
0.479063898 0.417963028 0.093612000
0.494750261 0.420493305 0.097406961
0.510563016 0.427577674 0.104111388
0.529285133 0.442505002 0.113219000
0.541429102 0.454649001 0.119291767
0.555723846 0.462492019 0.128526226
0.568121254 0.467299193 0.139405385
0.579380155 0.471220970 0.150917411
0.603669047 0.483365029 0.160025060
0.642125785 0.503352404 0.176723689
0.682985723 0.518279791 0.186717257
0.723466277 0.526122928 0.192283124
0.765971005 0.529032052 0.201138511
0.811384976 0.531941950 0.209993914
0.850094616 0.537255049 0.219101757
0.882352710 0.541935444 0.227956697
0.911701143 0.544971228 0.238583103
0.948133886 0.551043928 0.253763467
0.976343811 0.554712236 0.274003804
0.992030025 0.557495296 0.293737978
0.995066047 0.559392989 0.311321586
0.988994002 0.559392989 0.326501995
0.363566995 0.466919810 0.096015424
0.369639784 0.466919810 0.105123043
0.377229452 0.464769036 0.101581000
0.385072410 0.462365389 0.103099167
0.395319045 0.460973799 0.108665451
0.419354826 0.455028325 0.099936590
0.429981112 0.451992720 0.099936590
0.448956490 0.452878088 0.091461010
0.471853405 0.451486409 0.085009687
0.485009372 0.441872329 0.087540001
0.500316262 0.444907933 0.087540001
0.519544661 0.451359659 0.089563742
0.536116421 0.459203035 0.093232229
0.550537467 0.469829410 0.098039404
0.574826181 0.481973380 0.107147001
0.586970210 0.494117409 0.122833773
0.599746823 0.501960397 0.137634605
0.611258566 0.506134927 0.150917411
0.624921322 0.507652998 0.160025045
0.638077378 0.522580326 0.169133365
0.675522029 0.544718444 0.185831577
0.717394233 0.561796427 0.199873120
0.759898961 0.571536779 0.213282496
0.802403808 0.571536779 0.216318890
0.840987027 0.576723397 0.225174278
0.873245120 0.581404030 0.232890815
0.903099597 0.583934247 0.242125481
0.945098281 0.584440291 0.262871832
0.970904350 0.590512395 0.280708373
0.990512133 0.592409849 0.301328182
0.999367416 0.592156827 0.321062386
0.998102427 0.589752972 0.338645995
0.385451794 0.508159578 0.096521191
0.398734778 0.500948787 0.098418616
0.400505990 0.500948787 0.096773997
0.411384940 0.500695765 0.094497167
0.421252131 0.500316322 0.100190006
0.435420662 0.490195811 0.097153872
0.459076285 0.493864298 0.090828814
0.469829381 0.489183962 0.094117813
0.490322709 0.488424897 0.087286711
0.504110992 0.481214583 0.083744675
0.526375651 0.481214523 0.081467390
0.541556060 0.482226402 0.075395651
0.560910821 0.489057600 0.076913364
0.576090872 0.497153789 0.080961436
0.596078634 0.509297788 0.094370574
0.613156557 0.519038558 0.105881996
0.626818419 0.529664814 0.119544595
0.639847934 0.537254810 0.133586392
0.651992679 0.542567551 0.148007274
0.668943763 0.546868980 0.166729555
0.684882760 0.560151637 0.183427915
0.718279541 0.582416296 0.200126261
0.753700495 0.600000083 0.213535801
0.793928027 0.606830776 0.218848899
0.831878781 0.609108031 0.235547274
0.868311524 0.615053594 0.245161653
0.899178028 0.619101822 0.253257781
0.934092224 0.620999575 0.268817425
0.972675800 0.616698563 0.285009772
0.988108575 0.626312554 0.306767732
0.998481810 0.627071619 0.333965778
1.000000000 0.622517407 0.362808406
0.414294362 0.543074191 0.096521199
0.424920589 0.540037751 0.091967009
0.430866390 0.535863400 0.093737997
0.432131559 0.537128210 0.088931158
0.445540845 0.539405525 0.091840997
0.454648912 0.530676723 0.094117999
0.474889189 0.529158354 0.087539807
0.495635599 0.528652370 0.081973806
0.510057271 0.524857461 0.086527810
0.526755095 0.523339868 0.079696521
0.544591904 0.517140985 0.073371135
0.570398629 0.521695197 0.066286884
0.584440351 0.520556808 0.061733261
0.601391435 0.525490344 0.065781042
0.617077827 0.535104334 0.080961414
0.635926783 0.543326974 0.096773997
0.651107192 0.556989193 0.107400186
0.666286945 0.566097558 0.117140986
0.679317057 0.575205445 0.133586034
0.695509374 0.580265582 0.151549369
0.712207139 0.588994205 0.174319923
0.729411304 0.600126326 0.196584195
0.754459262 0.621505558 0.211132303
0.785578728 0.633396506 0.224161997
0.824288547 0.642504454 0.241619259
0.860721290 0.646932185 0.255914003
0.897153974 0.652498245 0.267425954
0.929537952 0.655534625 0.283618182
0.960278273 0.655155420 0.299936801
0.986590743 0.653637290 0.311321914
0.995698571 0.661353767 0.340037763
1.000000000 0.655914187 0.379507005
0.447564542 0.572296143 0.091587856
0.453004152 0.575331748 0.087539598
0.457558334 0.574699283 0.085389011
0.461859703 0.572928548 0.088931158
0.466034532 0.575584710 0.085515901
0.475395203 0.572802067 0.090575859
0.492725879 0.569765806 0.084630117
0.511068821 0.566350102 0.077799015
0.529412091 0.561290205 0.074510001
0.550664485 0.564326584 0.074509993
0.565085590 0.554711998 0.066413708
0.588108897 0.552940845 0.055407755
0.614168525 0.558127582 0.048323669
0.626312554 0.555850923 0.051865987
0.638456523 0.561922967 0.066287272
0.657178938 0.568627536 0.084503427
0.674762726 0.579506576 0.100063205
0.689310551 0.596457720 0.109803997
0.704490900 0.605566144 0.121948026
0.719671309 0.612523556 0.137507796
0.735483825 0.621125698 0.158380911
0.750031292 0.631625295 0.181404427
0.765338123 0.640733600 0.205818921
0.786084473 0.654901862 0.228083342
0.817204237 0.667805135 0.248703301
0.854016721 0.680961132 0.268690556
0.889943480 0.686527193 0.275774568
0.926248968 0.689563572 0.299557298
0.953320622 0.691334784 0.317899972
0.977229536 0.693232536 0.332827121
0.990891576 0.692346931 0.344212174
1.000000000 0.689310551 0.383681417
0.468816996 0.608729005 0.079443082
0.471853405 0.611764610 0.094623446
0.477292955 0.612649977 0.088425010
0.484377146 0.611132205 0.084124163
0.493358970 0.608981967 0.085515894
0.505502999 0.608981967 0.079443134
0.517394006 0.606198668 0.074383073
0.530297041 0.604806960 0.069702744
0.544465244 0.603542089 0.068690985
0.562808514 0.600759447 0.074509986
0.584060848 0.597976148 0.068690985
0.606577992 0.590132713 0.054269455
0.631372273 0.585958064 0.040227644
0.653636992 0.586211085 0.033649951
0.665781021 0.592283070 0.042757541
0.682732642 0.600758851 0.061985821
0.698166013 0.611132026 0.081467375
0.710563004 0.623782218 0.097659960
0.722706974 0.635927022 0.109804004
0.737887383 0.645034671 0.127513990
0.754965007 0.651992500 0.149272501
0.770904243 0.658571005 0.171537027
0.783554971 0.665022433 0.190638512
0.801770985 0.674130082 0.217962936
0.822517216 0.686021626 0.237950608
0.849462330 0.703731954 0.263377637
0.880835056 0.722959995 0.290954977
0.914231420 0.725996435 0.303098977
0.945224643 0.723719120 0.318911880
0.976850092 0.724731266 0.339658409
0.999240994 0.725743413 0.360657930
1.000000000 0.722707033 0.380645037
0.490069389 0.647944391 0.086780362
0.498671770 0.648197353 0.090828747
0.501707613 0.649082720 0.090955347
0.507147312 0.649082720 0.083871193
0.514737844 0.647944391 0.083112098
0.524478018 0.647944391 0.079443134
0.541682661 0.645414710 0.075901322
0.555977464 0.642378390 0.068437651
0.569260120 0.641239703 0.064642735
0.583428383 0.640227854 0.068690985
0.604554236 0.639974892 0.060341638
0.625806630 0.632890463 0.052245382
0.649335742 0.626059413 0.035167363
0.673118055 0.624668062 0.019987315
0.690322697 0.628209710 0.018975558
0.709677577 0.634281695 0.035293967
0.723719180 0.641492784 0.057684995
0.735863209 0.649842083 0.080329180
0.752308726 0.657685280 0.103226021
0.772802055 0.669829428 0.118153356
0.784187436 0.678937495 0.143959343
0.797723055 0.687919378 0.169006765
0.809867322 0.697659910 0.189246997
0.822770417 0.706768215 0.213915259
0.836432397 0.711321831 0.238962337
0.856166661 0.721948028 0.259582281
0.880834699 0.739152014 0.286400706
0.905123055 0.751296461 0.309929997
0.943833053 0.759645820 0.340670466
0.971030891 0.760657907 0.363693863
0.993421614 0.762808740 0.386337936
0.997216642 0.761670113 0.402656734
0.517014444 0.685515463 0.095888734
0.524225116 0.683617711 0.093232386
0.523339748 0.689310491 0.095509246
0.528905630 0.684250474 0.090702415
0.535610735 0.681720436 0.087286741
0.543200552 0.681720436 0.082732543
0.563693643 0.686780274 0.083491310
0.573687732 0.680455685 0.075521998
0.589374065 0.677672446 0.066160642
0.604933739 0.677672446 0.064642735
0.625806630 0.673877478 0.059835870
0.650853992 0.673497915 0.050727487
0.669829369 0.665528178 0.037065104
0.691840470 0.661733449 0.016318709
0.713345766 0.661480069 0.006704686
0.730170786 0.663124442 0.012903255
0.746868968 0.672232449 0.034155644
0.756988883 0.679063976 0.059076820
0.772675633 0.685136020 0.086401276
0.791777372 0.692978978 0.113978632
0.809234679 0.707020700 0.132953987
0.817330956 0.714105129 0.160278127
0.827956975 0.723466218 0.182036474
0.843643486 0.732574642 0.211638078
0.859582424 0.737128496 0.235926732
