Assets/EldamarStudio/100 Retro LUTs Pack/LUTs/cube/Susan LUT.cube
LUT_3D_SIZE 8
DOMAIN_MIN 0.000000 0.000000 0.000000
DOMAIN_MAX 0.903226 0.903226 0.903226
0.000000000 0.000000000 0.101961002
0.111195087 0.016824547 0.118026547
0.265528202 0.027450999 0.121569000
0.413155913 0.033650000 0.114863642
0.574193358 0.068816997 0.134851187
0.736369491 0.113472477 0.154838741
0.883871317 0.165970996 0.179380283
0.996204793 0.214547977 0.226312652
0.082985096 0.133586541 0.103478998
0.168880552 0.133586541 0.110183448
0.253383756 0.149272636 0.118026547
0.406578243 0.161796451 0.127387539
0.561796188 0.182542890 0.137254998
0.727008283 0.209487736 0.159139812
0.881214559 0.240101546 0.187349707
0.990132689 0.273750812 0.233016953
0.198988095 0.261733115 0.110562898
0.264896005 0.251865745 0.106261544
0.320430189 0.263251096 0.111322001
0.382668823 0.290322751 0.138393357
0.543706417 0.314105183 0.139405191
0.720556617 0.342694432 0.165212080
0.872991681 0.362808287 0.201264992
0.990385711 0.384187013 0.245287701
0.306641638 0.394054264 0.100315996
0.346995264 0.381909847 0.107020639
0.427071303 0.379127204 0.096900649
0.486527264 0.405819267 0.113724999
0.542947352 0.434788257 0.154586002
0.687033474 0.484124273 0.184186995
0.853004634 0.503352642 0.216445342
0.979633152 0.518026531 0.271726996
0.414294362 0.543074191 0.096521199
0.445540845 0.539405525 0.091840997
0.510057271 0.524857461 0.086527810
0.584440351 0.520556808 0.061733261
0.651107192 0.556989193 0.107400186
0.712207139 0.588994205 0.174319923
0.824288547 0.642504454 0.241619259
0.960278273 0.655155420 0.299936801
0.517014444 0.685515463 0.095888734
0.535610735 0.681720436 0.087286741
0.589374065 0.677672446 0.066160642
0.669829369 0.665528178 0.037065104
0.746868968 0.672232449 0.034155644
0.809234679 0.707020700 0.132953987
0.859582424 0.737128496 0.235926732
0.932826936 0.782036543 0.348639727
0.605818987 0.829601288 0.159392565
0.622264564 0.825047314 0.156230077
0.669196308 0.814927518 0.145224363
0.739784956 0.811005533 0.115116917
0.824288189 0.803921461 0.071220845
0.890955269 0.812144279 0.130676717
0.933206558 0.838456571 0.237444848
0.977102816 0.858317673 0.350537658
0.682479799 0.940290630 0.297279745
0.703225493 0.941050112 0.302972853
0.735230982 0.940290630 0.296014905
0.791397631 0.936495841 0.283238381
0.878684163 0.927640617 0.267299414
0.971030951 0.923212945 0.241239399
0.993674815 0.935610533 0.318912029
0.994687021 0.941429675 0.423023403
0.000000000 0.023908548 0.159140006
0.109297544 0.020746548 0.163440555
0.249588639 0.053257097 0.173560724
0.379506737 0.101454645 0.185705185
0.536116004 0.131562188 0.200632289
0.708411992 0.169133484 0.217077792
0.861985981 0.202150568 0.248703241
0.989120781 0.244781822 0.288425386
0.000379548 0.137507632 0.152056009
0.152055994 0.130044088 0.174446538
0.232257724 0.153194547 0.175964534
0.375205278 0.174319819 0.187729537
0.537001789 0.205692738 0.201770931
0.707400441 0.235420540 0.229348347
0.864136755 0.268311262 0.245793790
0.987222791 0.298545092 0.293485075
0.160531193 0.259329200 0.171283633
0.229221642 0.252245188 0.165085554
0.314610749 0.255028665 0.159898996
0.361796290 0.283618122 0.192789197
0.527893603 0.317267299 0.207969531
0.691714287 0.345730722 0.230740011
0.856672823 0.374825954 0.257558554
0.988235235 0.396710634 0.303732067
0.281214178 0.391271651 0.164199650
0.326755166 0.388615102 0.163061097
0.406578183 0.377988636 0.151296914
0.476407290 0.395951837 0.162555441
0.529158831 0.429981261 0.204554185
0.681594074 0.480202317 0.235293925
0.839468896 0.506894290 0.274130195
0.975711465 0.521821558 0.320556611
0.399620384 0.539405763 0.159013093
0.427830279 0.534597933 0.154838741
0.496394664 0.524857521 0.152561545
0.578620911 0.516634881 0.129664645
0.641745567 0.554205954 0.165464908
0.699683666 0.585452080 0.229728013
0.817204475 0.649209499 0.294749945
0.955344439 0.657685041 0.349905163
0.502973139 0.682479441 0.171916530
0.527513921 0.682479441 0.153826728
0.576976717 0.680455565 0.147881180
0.657811821 0.670967698 0.127008080
0.746868968 0.661606789 0.124225356
0.792915642 0.700821996 0.187476531
0.851866007 0.737001896 0.277799249
0.930170417 0.786464274 0.388740987
0.590385973 0.823276579 0.221252561
0.614041567 0.821125865 0.225553721
0.659962058 0.816445410 0.199620813
0.730170429 0.808981717 0.184693098
0.823655844 0.799114347 0.153446823
0.888424993 0.804680347 0.182795465
0.928020000 0.836053252 0.270588249
0.962428629 0.859455824 0.385832071
0.674383402 0.942820966 0.346742123
0.696521223 0.936116219 0.346489400
0.725743294 0.936749101 0.335357606
0.785705209 0.934471846 0.317899972
0.869702816 0.929790795 0.302466929
0.964326262 0.924983978 0.284123868
0.994939983 0.932953656 0.351043642
0.995066464 0.943200469 0.446679413
0.000759096 0.033649903 0.254649192
0.117140643 0.045034546 0.253510565
0.238962993 0.066540100 0.246805996
0.376470625 0.107274093 0.270714730
0.520177364 0.151170194 0.290702105
0.687412679 0.195825472 0.317773432
0.840607405 0.243643284 0.353194118
0.982036591 0.291334540 0.399873346
0.019101642 0.155977100 0.233902633
0.129664645 0.151170090 0.238583550
0.235041082 0.162555546 0.249588653
0.366223723 0.191903979 0.269449979
0.515875876 0.218595996 0.295382917
0.683870971 0.258064628 0.327767015
0.841872096 0.293738276 0.355850726
0.983301640 0.331056327 0.401897818
0.010247001 0.267931998 0.235041201
0.111574635 0.271473616 0.227577627
0.283618182 0.264769077 0.248450100
0.361922979 0.288677722 0.272991717
0.509045184 0.320430160 0.302340180
0.673877478 0.356483161 0.333839118
0.837697625 0.385452092 0.363440901
0.978241742 0.416825026 0.407716811
0.201391071 0.405439734 0.253890008
0.270714730 0.399494171 0.264516443
0.367109567 0.387729287 0.245161191
0.455155283 0.390512556 0.250347733
0.507906735 0.428463191 0.298418880
0.662998080 0.479443282 0.340290934
0.822770536 0.508412242 0.379759461
0.959645808 0.535357177 0.418596029
0.357369095 0.545983434 0.269576281
0.378747761 0.539278865 0.261353552
0.456799388 0.536622286 0.260341793
0.551169932 0.515749812 0.227830380
0.620493531 0.543706357 0.262492180
0.684756339 0.586717308 0.321821511
0.804680347 0.644781768 0.394054353
0.944591880 0.658950150 0.450221270
0.466287374 0.690701842 0.281593919
0.491713911 0.689816535 0.279949456
0.546995401 0.685515463 0.261606574
0.636685729 0.669449985 0.240860537
0.724351764 0.659203172 0.225806728
0.783554494 0.695762277 0.289057583
0.842884123 0.732953787 0.369513094
0.918532550 0.787602663 0.475268662
0.567489147 0.821252584 0.321948171
0.581404090 0.825553715 0.316634923
0.629980981 0.821125865 0.313852191
0.706008971 0.811638534 0.289690107
0.796837568 0.805439293 0.266919672
0.879190564 0.804554224 0.278431565
0.918532252 0.834535003 0.356862456
0.957747936 0.860847712 0.457685053
0.660088778 0.941682816 0.421631694
0.669575751 0.940670133 0.418342501
0.699303925 0.938899636 0.409740686
0.771031260 0.935231030 0.403541923
0.847817898 0.933712780 0.384060621
0.945224404 0.925490022 0.362428963
0.989120543 0.928273082 0.411131918
0.996837080 0.940923691 0.494623512
0.000000000 0.063377991 0.385072649
0.115496442 0.071600541 0.378747642
0.239342451 0.098671906 0.366603285
0.372169286 0.112713277 0.367109627
0.522580564 0.158633545 0.406198710
0.681467474 0.193801731 0.433775932
0.829601526 0.254016638 0.469196558
0.961290002 0.329032093 0.511828065
0.025047192 0.176976189 0.360278368
0.118532538 0.184946179 0.355091721
0.242884085 0.183681428 0.359139711
0.357621729 0.193042621 0.369386524
0.506768107 0.225932837 0.402656376
0.667046130 0.259582728 0.430360645
0.827830553 0.313598901 0.474509597
0.962302446 0.366097510 0.523086548
0.031878553 0.284377187 0.365591645
0.129664645 0.281593829 0.358760178
0.251865864 0.295762450 0.373181731
0.371663749 0.316887736 0.398735195
0.508032739 0.333333462 0.414421290
0.660847843 0.367362291 0.442631304
0.816698194 0.407716632 0.482859045
0.954332530 0.444149256 0.529285133
0.002276998 0.426565647 0.378368288
0.081720807 0.430486917 0.366730005
0.266160667 0.426186204 0.376596749
0.438329935 0.406957626 0.363820642
0.503605187 0.440607041 0.417963624
0.646046698 0.489183903 0.456293523
0.809361219 0.516255558 0.493864924
0.949905157 0.544592023 0.539152324
0.163440749 0.571537018 0.367489070
0.258949757 0.567995131 0.370904535
0.396963745 0.555471361 0.394940078
0.497785807 0.541808724 0.362175822
0.606072009 0.541682780 0.369639456
0.669576049 0.587476373 0.437824160
0.793674827 0.646426439 0.509045184
0.930170417 0.668058038 0.557495296
0.391904116 0.705882430 0.415939391
0.419607729 0.703225791 0.412017554
0.487413108 0.697786033 0.402276933
0.581024706 0.682732642 0.383807480
0.694623709 0.667931736 0.349652112
0.771410704 0.694497108 0.401771247
0.829854250 0.734092474 0.478304535
0.910942316 0.792156756 0.578115463
0.509930611 0.830107629 0.451233268
0.527387440 0.832511008 0.450474471
0.580518544 0.826059282 0.435800225
0.661353588 0.818342924 0.423276633
0.760531068 0.808981717 0.395825565
0.862492144 0.803415537 0.382795364
0.902213931 0.831751883 0.455787569
0.945351124 0.861227274 0.551549613
0.624668121 0.945224404 0.521315396
0.634914517 0.947122037 0.522453964
0.673497617 0.944465697 0.523719430
0.730297208 0.940670490 0.509171009
0.817330778 0.934851468 0.492093593
0.917393923 0.926628709 0.467299134
0.989500046 0.930676758 0.489563704
0.998734832 0.945224464 0.570525110
0.002403808 0.104110993 0.536495566
0.100189894 0.117394179 0.525869787
0.245794088 0.138646290 0.518406153
0.381783813 0.153067544 0.520556808
0.506009161 0.170778006 0.513852179
0.683238268 0.210625976 0.558760166
0.824161649 0.268563986 0.582795680
0.954711735 0.360278159 0.619607806
0.003036191 0.214294538 0.524224937
0.126628548 0.212144092 0.514357746
0.250980645 0.215053633 0.514611244
0.374446452 0.223655820 0.509930253
0.496141821 0.236179546 0.521315753
0.670082152 0.271473736 0.556103587
0.821758568 0.323845834 0.582289755
0.951170146 0.400885522 0.631499171
0.029854806 0.318912178 0.498039275
0.135736987 0.323086739 0.509677529
0.256926090 0.324225068 0.517140985
0.372422636 0.333713084 0.515875876
0.500442445 0.344718277 0.526375473
0.655534685 0.379127264 0.558507264
0.805566192 0.429981172 0.600758970
0.932700932 0.488171995 0.640227973
0.000000000 0.433902472 0.520177364
0.104870364 0.433902562 0.519797683
0.244908437 0.446046919 0.521441996
0.378747731 0.463377714 0.538267195
0.517014444 0.480961382 0.558001339
0.647691309 0.505629659 0.575585365
0.790765226 0.534218490 0.605439723
0.929538012 0.570272267 0.650600791
0.003035997 0.600126565 0.513852179
0.000000000 0.600885391 0.519923747
0.184693187 0.593801379 0.497406453
0.410878837 0.590259016 0.518279850
0.580518603 0.561796188 0.511701226
0.663630426 0.600759149 0.561163962
0.788994372 0.648830056 0.611891389
0.921821535 0.671221018 0.655281365
0.021252371 0.730549932 0.482732534
0.184313804 0.725110888 0.489690065
0.357748330 0.717647314 0.518912017
0.511701167 0.705882251 0.539278924
0.635420442 0.687539697 0.504491150
0.748766541 0.689436972 0.498039335
0.806072056 0.737761021 0.595066488
0.907020688 0.790638864 0.663250983
0.394307166 0.842378557 0.557874560
0.428968936 0.841619492 0.561669767
0.511068940 0.840860367 0.574320078
0.595192850 0.827704012 0.564073265
0.701328218 0.822011471 0.536369443
0.824035764 0.805059850 0.505123496
0.884756446 0.828209996 0.563187480
0.939278781 0.859962106 0.643896341
0.571157455 0.949398816 0.629728198
0.588994324 0.949398816 0.626565397
0.625427008 0.945477784 0.623276293
0.691461086 0.945350945 0.620113492
0.772801757 0.937634468 0.598482132
0.876533806 0.928273022 0.583554447
0.972422421 0.929411352 0.572802007
0.991397798 0.942694366 0.646046638
0.001897740 0.156482980 0.681720436
0.130044013 0.162934795 0.678557992
0.275015920 0.178241730 0.673624456
0.412650377 0.189879730 0.672612131
0.543200672 0.205186278 0.666919470
0.673371434 0.225173727 0.660214722
0.828589737 0.284250557 0.686147988
0.956482828 0.372801751 0.707526863
0.006831090 0.249588549 0.669829488
0.137128532 0.251612812 0.674130201
0.277925193 0.247058615 0.663504243
0.407969356 0.256926179 0.663124919
0.538393259 0.266666740 0.660468280
0.666160941 0.284250468 0.666413903
0.823402584 0.336242795 0.678304732
0.947754741 0.414547503 0.706894457
0.035167724 0.363061547 0.662998080
0.156609803 0.359013021 0.662365675
0.278811097 0.359012991 0.662745357
0.401644349 0.366603404 0.654016495
0.528273106 0.373561174 0.662491977
0.661100566 0.388867855 0.662492037
0.806831360 0.435040921 0.688804388
0.934218824 0.506261945 0.710183740
0.004807100 0.477798998 0.658696711
0.124604709 0.480076075 0.662112474
0.267046183 0.481720269 0.655787408
0.401264995 0.490702093 0.663630366
0.534851313 0.506768167 0.674762964
0.661986470 0.523213327 0.677040100
0.794307768 0.557621539 0.698165417
0.915876150 0.607843280 0.736242890
0.000000000 0.621884823 0.665275335
0.012523632 0.619987190 0.663124919
0.239847913 0.622011364 0.665275335
0.395572454 0.623656034 0.666413665
0.529031873 0.640101194 0.668817163
0.675142288 0.638077080 0.684250712
0.792156637 0.664009988 0.714864194
0.912713647 0.689436853 0.735610366
0.000000000 0.752308428 0.646426499
0.070588186 0.756989121 0.649082899
0.248956293 0.754585445 0.648450732
0.380392373 0.743200660 0.641113102
0.561416805 0.734598160 0.657431960
0.709044993 0.703099132 0.638583422
0.797975957 0.748513699 0.699936986
0.908791661 0.781277418 0.732827425
0.093864813 0.867425740 0.620493472
0.177861750 0.858823478 0.612397254
0.322580725 0.860088646 0.633143544
0.499051243 0.850600898 0.660088778
0.649968624 0.840480864 0.685009480
0.758001029 0.823150039 0.647817552
0.866793096 0.827324569 0.655281484
0.923718929 0.864389300 0.726375520
0.434408754 0.960910678 0.669575751
0.463756830 0.964452863 0.670841038
0.538899243 0.955597818 0.684124112
0.641619325 0.952055633 0.706894457
0.734724522 0.943579972 0.713851929
0.824288547 0.936369658 0.692599714
0.946109772 0.931309044 0.674256623
0.985957921 0.940796852 0.720935881
0.155724257 0.213661984 0.796964288
0.228462815 0.219607830 0.800253272
0.338772655 0.228589267 0.796331465
0.466540247 0.238836274 0.790259182
0.596837342 0.256799579 0.794054568
0.726122499 0.271980017 0.786590517
0.854775548 0.301201552 0.781277239
0.961163819 0.387855798 0.777482271
0.169133380 0.292852342 0.792410254
0.232764363 0.293231815 0.792915821
0.343200624 0.295635641 0.789247274
0.467046201 0.307779878 0.789879620
0.595066547 0.315496355 0.791144907
0.721442163 0.331182361 0.785199344
0.851992309 0.351296574 0.781910002
0.959139645 0.432890445 0.786211133
0.200252935 0.402656466 0.789373934
0.260721028 0.405060083 0.780645251
0.356862485 0.415686488 0.780645251
0.466540158 0.415812582 0.788488269
0.589626729 0.422011286 0.780518532
0.705882311 0.433776379 0.775711417
0.835800529 0.455028564 0.782921970
0.932068050 0.521062672 0.779506505
0.186084837 0.529664516 0.785199285
0.243769899 0.528020263 0.780518472
0.356230021 0.532700419 0.779886127
0.476154208 0.543200612 0.773434520
0.592789471 0.549778461 0.777861953
0.706135035 0.552941203 0.773814023
0.817836821 0.572295964 0.776849926
0.920683205 0.617330730 0.785578966
0.140164822 0.653383911 0.774446547
0.219734102 0.649462342 0.784313679
0.333839357 0.651739359 0.777988493
0.459076643 0.650600910 0.774320245
0.589500248 0.663504362 0.773434281
0.710056722 0.671726942 0.776091039
0.805439293 0.683997393 0.780645072
0.911954343 0.716887891 0.794813514
0.129032016 0.778747737 0.769513249
0.210879281 0.783933997 0.770904541
0.330803454 0.779253840 0.772675395
0.457179159 0.772928417 0.769259930
0.583934009 0.772169411 0.773561239
0.702087462 0.772296011 0.778621018
0.814927518 0.780392230 0.786337972
0.914864063 0.795572102 0.810752511
0.306008816 0.885515571 0.759392560
0.337254643 0.878937721 0.753573716
0.408222646 0.877672553 0.753067374
0.499683917 0.874256909 0.758759975
0.594180763 0.866793156 0.756103516
0.718532324 0.858064532 0.769765973
0.838456571 0.834535003 0.759392500
0.915623069 0.872106493 0.797723055
0.402656615 0.965338528 0.751296222
0.428716063 0.964579642 0.746489406
0.470587999 0.969133615 0.743832767
0.552182078 0.963693798 0.749399066
0.662365913 0.958886623 0.763946712
0.795698702 0.951549351 0.784440398
0.888424993 0.938520074 0.770651698
0.980771780 0.944718778 0.789500356
0.316887736 0.289183795 0.883870840
0.354712158 0.293105781 0.881340802
0.439215750 0.301075101 0.885262787
0.537381291 0.314990819 0.882605970
0.655914187 0.334092319 0.877546012
0.773434281 0.359645784 0.873877227
0.896773815 0.387982488 0.874762952
0.991017997 0.425300419 0.864262819
0.336622477 0.359266341 0.885641932
0.374952137 0.353447169 0.880329251
0.441745877 0.359392464 0.879570305
0.544085622 0.371536881 0.878684640
0.653889537 0.388994336 0.872106373
0.771536529 0.411638051 0.873624325
0.895382524 0.434282213 0.871220589
0.993674815 0.460594475 0.864262819
0.388867646 0.471220702 0.874509811
0.420999527 0.473244905 0.877925515
0.474130183 0.476786733 0.871473670
0.564326346 0.484630138 0.869575799
0.664010346 0.493232131 0.867678583
0.775458336 0.509677112 0.870714784
0.882479370 0.523465872 0.865401626
0.983554661 0.543959677 0.860973954
0.399999768 0.576976776 0.863124430
0.436179668 0.583428442 0.865654528
0.512207687 0.596837223 0.865021884
0.600506067 0.613156438 0.865781009
0.681467116 0.612650096 0.857811511
0.769765615 0.617583692 0.855407953
0.874383450 0.624920666 0.855787635
0.966982722 0.639468789 0.855534792
0.375078857 0.681087732 0.865401447
0.408601850 0.682479322 0.864895523
0.476027846 0.685515344 0.860088646
0.581783235 0.696267962 0.858317316
0.689436972 0.712840140 0.853257596
0.779759765 0.719418049 0.858697057
0.860973954 0.719291151 0.850095034
0.951675773 0.726249158 0.850347936
0.362934560 0.801264703 0.859835505
0.392663032 0.800505996 0.859961927
0.464262962 0.799241006 0.855534732
0.555597544 0.795445979 0.854396045
0.657305598 0.791018426 0.855155051
0.769892454 0.802150548 0.850221276
0.857938170 0.812523842 0.855660915
0.933838964 0.817330539 0.853383839
0.364073187 0.918532252 0.851233661
0.396584541 0.914990723 0.841872215
0.460847437 0.910057008 0.846932411
0.553826809 0.903984904 0.848703325
0.650600791 0.899430692 0.850221574
0.752308905 0.887919188 0.850474536
0.853636801 0.887919247 0.850854099
0.938013911 0.898292243 0.855534494
0.518279433 0.985957980 0.827577770
0.527134478 0.981657088 0.828842700
0.572422385 0.977988839 0.828336716
0.634914398 0.975711465 0.832764030
0.706641197 0.968754172 0.839468658
0.784440100 0.966223776 0.840733826
0.868817508 0.955850780 0.844402075
0.965085506 0.942820907 0.851233661
