Assets/EldamarStudio/100 Retro LUTs Pack/LUTs/cube/Suzanne LUT.cube
DOMAIN_MIN 0 0 0
DOMAIN_MAX 1 1 1
LUT_3D_SIZE 32
0.058823999 0.054901998 0.039216001
0.092220388 0.048829999 0.042251613
0.129917771 0.042757999 0.045287773
0.170651317 0.036686003 0.045793839
0.212397099 0.031752452 0.043516546
0.248829871 0.034788065 0.046552934
0.282732308 0.037824322 0.047059000
0.317773402 0.039216001 0.043770004
0.354206175 0.039216001 0.040733997
0.390638977 0.039216001 0.046805996
0.421252728 0.039216001 0.041239999
0.453637242 0.041239738 0.039216001
0.490449280 0.045413997 0.039216001
0.532195032 0.051233035 0.039216001
0.565591395 0.054269414 0.039216001
0.601391554 0.057305802 0.041619189
0.637824357 0.061859995 0.044655193
0.674256921 0.067931987 0.047059000
0.710689008 0.074004009 0.047059000
0.738773048 0.077292651 0.047059000
0.766097724 0.082226478 0.047059000
0.794433951 0.087286867 0.049082998
0.824541032 0.090448990 0.055154990
0.848829865 0.096521005 0.061226998
0.877672553 0.102592997 0.069576286
0.905249953 0.108664989 0.074510001
0.930044055 0.115243062 0.074003935
0.957368433 0.124351434 0.070967555
0.984692812 0.130802989 0.075900987
0.997849226 0.136874974 0.081973433
1.000000000 0.142061606 0.088931374
1.000000000 0.145098001 0.098039001
0.052751228 0.085262775 0.030107614
0.098292381 0.091334775 0.048323616
0.138140544 0.085262775 0.047058776
0.174699724 0.081720769 0.044529002
0.208602384 0.080329224 0.039721839
0.239721477 0.083364844 0.037444547
0.291334242 0.076281101 0.040480934
0.321694702 0.077293061 0.042631287
0.351928890 0.077925488 0.041492712
0.390638977 0.075648770 0.040734004
0.424161851 0.078557901 0.043896127
0.460721344 0.078684390 0.042251613
0.495003372 0.080708414 0.042251613
0.529411674 0.084377155 0.042251613
0.565591395 0.084630191 0.042251613
0.596584618 0.085262775 0.042251613
0.631752372 0.089184389 0.044655193
0.667552531 0.094623804 0.047691416
0.701581419 0.098292008 0.050094612
0.738014102 0.107147366 0.047311965
0.766097724 0.104996778 0.050853994
0.791398108 0.105502866 0.054143127
0.815686405 0.108665019 0.058064867
0.845793426 0.114737779 0.061226998
0.872359455 0.120809771 0.067298993
0.903352678 0.128273070 0.074256606
0.933080435 0.134977385 0.077039681
0.960404813 0.136495441 0.074003942
0.985072374 0.140290827 0.070967555
0.997849226 0.147754595 0.079443417
1.000000000 0.153320774 0.090702362
1.000000000 0.154206395 0.104111001
0.066033773 0.115622997 0.029601775
0.102972932 0.119544767 0.034914777
0.137760773 0.121315770 0.046679001
0.176470712 0.117773771 0.042378228
0.209994093 0.116635226 0.036685776
0.250980556 0.112586834 0.033649839
0.282226413 0.111954324 0.035673548
0.327008188 0.109424703 0.035420939
0.353067547 0.111701541 0.035926681
0.388361692 0.110057250 0.032890715
0.424161851 0.114990674 0.042125128
0.457558244 0.113978289 0.041113261
0.495635718 0.113851771 0.042125124
0.528020024 0.115622997 0.043136999
0.560657859 0.115622997 0.043136999
0.598734856 0.117773771 0.043136999
0.632131636 0.116255581 0.044655193
0.667931795 0.119164996 0.045161434
0.701328218 0.120682813 0.042125039
0.733206928 0.127134368 0.048197351
0.763946950 0.132447734 0.050853994
0.790259480 0.128146648 0.056925997
0.813030005 0.129031792 0.060974225
0.843389988 0.135104582 0.061986096
0.871473849 0.141176775 0.069449767
0.898798645 0.144465774 0.071347103
0.929665029 0.150790542 0.075141996
0.956989408 0.154079556 0.077039689
0.988108754 0.154585615 0.080455713
0.996457577 0.161163971 0.080961309
0.996963859 0.169386759 0.089310832
0.995698988 0.171916768 0.099430770
0.082226165 0.151043311 0.032637838
0.116888158 0.149019718 0.033902999
0.143074006 0.152435318 0.037824225
0.179759488 0.152435318 0.039342165
0.212777093 0.152055770 0.034408614
0.256040871 0.144718379 0.033143774
0.290702164 0.143200308 0.032637842
0.321695417 0.143579870 0.037444551
0.356610000 0.145098254 0.033649839
0.386970043 0.144592315 0.030107522
0.421884894 0.146616146 0.037824161
0.458823413 0.147881061 0.042378098
0.492219776 0.147121966 0.040480837
0.528273046 0.147248477 0.042631000
0.559645653 0.147248477 0.040607002
0.593421817 0.148387134 0.041872162
0.633902371 0.149652287 0.043390032
0.669070125 0.147880897 0.047058828
0.701834142 0.148513332 0.041113038
0.732447565 0.151549309 0.043643363
0.762175739 0.154458895 0.048323996
0.790512264 0.156483158 0.053383872
0.815306962 0.154079318 0.059202861
0.843389988 0.160151809 0.061480161
0.872738719 0.163693994 0.065781124
0.900063515 0.166982993 0.074383490
0.925870001 0.166982993 0.072359093
0.950917423 0.171536997 0.077671997
0.986084759 0.174825996 0.085009500
0.999493957 0.178874359 0.086780921
0.995572209 0.185326159 0.092473142
0.992156982 0.190639153 0.096648000
0.092472993 0.192409635 0.035294000
0.127767324 0.183681369 0.038709838
0.150916994 0.185705543 0.040227778
0.179759488 0.188488543 0.039721612
0.223403081 0.188488543 0.031752452
0.253763855 0.185452148 0.034788065
0.288804561 0.185325637 0.033902772
0.323972106 0.184566543 0.035926834
0.356989533 0.183807641 0.041619003
0.387349576 0.180772021 0.035547003
0.421379060 0.178115219 0.038583323
0.457685232 0.177103087 0.041239738
0.494876623 0.177862182 0.042757548
0.528020024 0.180645540 0.042757548
0.561289966 0.180645540 0.036938556
0.593421578 0.180645540 0.037697803
0.628715932 0.181024984 0.041113354
0.669070125 0.180898502 0.044022538
0.699431002 0.183934122 0.050094549
0.730170608 0.184566543 0.048197351
0.759772003 0.183807537 0.046679452
0.790132701 0.184566543 0.048450418
0.820113897 0.184440061 0.051612541
0.844148993 0.189753100 0.057685256
0.873371124 0.191650540 0.061859705
0.902340233 0.191650540 0.067678660
0.929285169 0.191650540 0.075775027
0.947501898 0.191650540 0.078810640
0.983175218 0.196204543 0.086021371
1.000000000 0.201897442 0.089184232
0.998988032 0.207337543 0.089816980
0.992915988 0.207337543 0.101961002
0.110688999 0.225806803 0.035294000
0.138014153 0.219734028 0.041366000
0.158254147 0.223908752 0.036179841
0.184060484 0.226185933 0.034155775
0.223403081 0.221884936 0.034788065
0.253763855 0.221884921 0.034788065
0.286654323 0.223909184 0.040353999
0.322201341 0.221505374 0.039974775
0.357369095 0.217204034 0.038962841
0.390385956 0.214168400 0.035547003
0.429474771 0.214041919 0.041112997
0.461859584 0.213535860 0.042631064
0.494876623 0.213535860 0.041998647
0.528020024 0.214041919 0.039721936
0.558380842 0.214041919 0.039721936
0.596457720 0.214041919 0.038709935
0.631372571 0.215559721 0.042251997
0.666287482 0.216824561 0.046552934
0.699431002 0.214294896 0.047058936
0.732574403 0.217330500 0.047564935
0.759772420 0.214167923 0.045161258
0.787096918 0.213155925 0.046679191
0.817077518 0.217836440 0.054648925
0.838329971 0.214800835 0.060720932
0.869196832 0.217836559 0.066793062
0.899304569 0.218974933 0.073750660
0.926628947 0.218974933 0.081847072
0.953573883 0.218974933 0.084883407
0.982415974 0.218974933 0.085262865
0.998355269 0.221758142 0.090322919
1.000000000 0.227071583 0.094876990
0.998987973 0.234661937 0.101961002
0.128905639 0.261732996 0.035294000
0.146110162 0.258191168 0.038836323
0.173434779 0.258570194 0.038456548
0.193927631 0.263124317 0.033902679
0.226691768 0.260341316 0.034914549
0.261353552 0.260341316 0.032764323
0.294243991 0.262871653 0.035294000
0.327640772 0.262618601 0.036432713
0.362429082 0.258949637 0.033396907
0.395825505 0.257684797 0.030360516
0.435040861 0.252498329 0.030993000
0.468437493 0.252498329 0.035041258
0.503352284 0.253636956 0.038962673
0.540923357 0.254775584 0.042251676
0.573560834 0.252498329 0.046805676
0.608728588 0.252498329 0.044402484
0.643516660 0.252498329 0.042757805
0.675268948 0.253889650 0.044528678
0.706767678 0.252751291 0.044528678
0.737634420 0.252751291 0.047059000
0.769133449 0.253889650 0.048956256
0.793675125 0.250094771 0.049209129
0.819228292 0.251233459 0.055154990
0.842883885 0.248197213 0.061226998
0.870967567 0.247438312 0.065022282
0.901328325 0.250221312 0.070841312
0.929158807 0.251359969 0.077798933
0.958507419 0.251359969 0.080834806
0.985958278 0.251359969 0.088804677
0.998608351 0.253130734 0.094117880
0.998229027 0.256166935 0.100948989
0.994939983 0.261986315 0.107020997
0.145477697 0.296521097 0.033649713
0.162302375 0.291840374 0.028462976
0.179506779 0.296394646 0.035420939
0.206831157 0.296900570 0.032384552
0.232257783 0.296141565 0.030487003
0.266160578 0.294876397 0.023656234
0.296774030 0.299051017 0.030613681
0.331815094 0.298798412 0.028716007
0.366730094 0.296521097 0.027957296
0.401897490 0.296521097 0.027577516
0.436179578 0.293991119 0.027450999
0.471220493 0.290322423 0.026185840
0.503858268 0.290322423 0.029222228
0.544845104 0.292599708 0.036812037
0.579633117 0.290955007 0.041492712
0.615433276 0.290322423 0.041998819
0.651865661 0.288804233 0.043517001
0.682479382 0.288677692 0.042125128
0.712839782 0.288677692 0.043137003
0.739911437 0.287033409 0.047564648
0.768627465 0.285388708 0.048956256
0.796963990 0.286400825 0.051992130
0.819228232 0.284630179 0.055281501
0.846552730 0.281593800 0.062871709
0.873750567 0.279190391 0.066666573
0.904111326 0.280581713 0.073877625
0.932194769 0.282606065 0.080961637
0.962555110 0.281467706 0.086274244
0.988614798 0.281467706 0.094623521
0.998355269 0.286527455 0.097153485
0.999240875 0.287792295 0.105376273
0.995445967 0.289310694 0.111448288
0.157621905 0.329918087 0.032890998
0.175079003 0.326881498 0.020746224
0.193421870 0.327766985 0.021252356
0.212144256 0.334092259 0.025553843
0.239089087 0.331815660 0.023656001
0.268690765 0.329538375 0.013789002
0.298039228 0.331815183 0.019607902
0.331056416 0.332194805 0.024162002
0.367489189 0.330677003 0.019607998
0.406957597 0.330677003 0.025680000
0.438456714 0.331436098 0.025173904
0.470841259 0.328652918 0.023149842
0.504617155 0.325996101 0.022390550
0.540796995 0.326249123 0.025679903
0.576723814 0.326755196 0.029222224
0.612397492 0.327514112 0.031373002
0.646552920 0.325237006 0.034408998
0.682985067 0.322833180 0.040480994
0.713598967 0.322833180 0.043643132
0.739911735 0.320050538 0.048703004
0.766097724 0.317014456 0.050980002
0.791651070 0.314484328 0.052751228
0.816445112 0.317267686 0.055787578
0.848070920 0.314231277 0.063630804
0.875395298 0.311954379 0.069702804
0.903352261 0.310183436 0.073877245
0.933713078 0.313219190 0.086021900
0.964073062 0.310689539 0.095382541
0.989120543 0.310310096 0.104490824
0.998987854 0.314105034 0.109550774
0.996204555 0.321188688 0.106134988
0.999240935 0.318153083 0.112207003
0.160657540 0.363314509 0.038962983
0.175837919 0.369386494 0.026818216
0.197596565 0.366350502 0.018974993
0.220240653 0.365971029 0.012397191
0.242125481 0.371284068 0.005439997
0.266413480 0.374320447 0.011511995
0.298544824 0.372043163 0.014294676
0.334977627 0.367742002 0.017710224
0.373561203 0.364073455 0.019607997
0.409994006 0.367109030 0.019607993
0.443643361 0.370018899 0.016951123
0.476913244 0.366856515 0.014041772
0.510309637 0.362049341 0.013282834
0.543832660 0.359645545 0.016571509
0.577229738 0.362681925 0.022643503
0.610752761 0.365591198 0.028589634
0.641239703 0.363946527 0.034408994
0.670841098 0.359265983 0.040480994
0.707273960 0.359265983 0.046553005
0.737887740 0.356483340 0.049715135
0.766097724 0.353447258 0.050980005
0.791398108 0.350411117 0.053004265
0.813409507 0.347628474 0.058823973
0.849842310 0.344592094 0.061859589
0.876913488 0.343832999 0.069702812
0.902719676 0.342314839 0.074383490
0.930676699 0.340543598 0.076913521
0.961037397 0.343579948 0.089057513
0.986084461 0.343706489 0.098418824
0.997975767 0.345477700 0.107526749
0.998987854 0.348766893 0.111701012
0.996204555 0.351549506 0.106135003
0.178241745 0.396710873 0.013030132
0.187602386 0.402782857 0.009614229
0.209234536 0.406704664 0.010373004
0.225932986 0.406704575 0.007337002
0.241619229 0.409993410 0.001012129
0.281087846 0.407969803 0.002024130
0.307906181 0.403415889 0.015686449
0.340543568 0.403289020 0.016951162
0.375964433 0.402529866 0.015180131
0.410246998 0.403415263 0.010879128
0.440860003 0.403541744 0.007970002
0.480328619 0.404553890 0.008981613
0.515243292 0.402529866 0.007716776
0.546615899 0.401011735 0.007463872
0.577356219 0.396078289 0.013535867
0.608348966 0.396710873 0.017204063
0.641239703 0.397722751 0.028842639
0.671979785 0.395066321 0.039848417
0.703858137 0.392789602 0.043643136
0.734724879 0.390006244 0.049715132
0.765085578 0.386970103 0.056672737
0.793422103 0.383933991 0.061732866
0.818469465 0.380898356 0.067678638
0.840986967 0.377861977 0.070714965
0.870588422 0.374826133 0.076027870
0.896900654 0.374193728 0.081720673
0.925237060 0.372675538 0.084756806
0.958001018 0.370904297 0.094496988
0.988361776 0.373940706 0.096014999
0.997216642 0.372422516 0.104364328
0.997975767 0.374067008 0.114357851
0.998987854 0.379126877 0.120429866
0.188362002 0.432131499 0.003922000
0.203541860 0.438203514 0.002909869
0.207210287 0.442125291 0.000253004
0.232763901 0.443896502 0.003795004
0.247564614 0.445414215 0.000000000
0.285136133 0.442378163 0.000000000
0.314990580 0.442884505 0.004554329
0.345603943 0.438456804 0.011512008
0.378241479 0.439974517 0.008855168
0.410373479 0.439974517 0.004048003
0.444908530 0.439974517 0.002909615
0.475268483 0.439974517 0.001897744
0.514357686 0.438836157 0.003795004
0.545856893 0.438456744 0.001897744
0.577988803 0.439468771 0.004427742
0.614421248 0.434155762 0.006072200
0.640227497 0.432637572 0.013662002
0.670335293 0.430866510 0.029601641
0.699304104 0.426439196 0.036812305
0.729664743 0.423402876 0.046679262
0.758127749 0.416572005 0.054648995
0.788361967 0.413282633 0.065781124
0.816824973 0.410373241 0.074762508
0.843769610 0.409234613 0.077798903
0.871600270 0.406198263 0.085136250
0.896141648 0.404553980 0.087033585
0.922707140 0.404553980 0.088804804
0.954585671 0.403035790 0.094876796
0.983301640 0.403288811 0.102086991
0.999493957 0.404553980 0.109171405
0.998102248 0.401770830 0.117647238
1.000000000 0.404427499 0.127514258
0.196711004 0.474256903 0.002783356
0.212650001 0.478051931 0.003922000
0.223655641 0.480835080 0.002909870
0.233902439 0.482606292 0.002276998
0.260847270 0.481847167 0.001517999
0.291967124 0.478051722 0.000000000
0.319165319 0.480075955 0.001391678
0.348640352 0.480961561 0.002783356
0.382036746 0.479443371 0.002783357
0.412776977 0.479822934 0.000126517
0.451233745 0.478684306 0.002276998
0.482479632 0.477545619 0.001138644
0.515116930 0.478684276 0.000000000
0.548260272 0.475901634 0.000000000
0.580771565 0.480202645 0.000000000
0.617836714 0.477798969 0.000000000
0.650474191 0.473245084 0.003794996
0.672991514 0.468311310 0.016571565
0.700316012 0.461227298 0.029222310
0.729285359 0.457937926 0.043643367
0.756609738 0.453384012 0.060721371
0.783934116 0.445288002 0.065781504
0.813915372 0.442251623 0.079696156
0.842251658 0.442251623 0.082732551
0.873750567 0.438836008 0.089184284
0.903352320 0.437191278 0.097280324
0.926122665 0.436685354 0.095256060
0.956483185 0.436052918 0.098292440
0.983048797 0.436052918 0.108918421
0.995698988 0.437191278 0.118658759
1.000000000 0.437191278 0.129032567
1.000000000 0.434408635 0.135104641
0.208855003 0.523846030 0.000000000
0.220746040 0.524098992 0.003036387
0.234534815 0.523846030 0.003922000
0.253763348 0.524098992 0.004933871
0.278051972 0.523845971 0.007590001
0.302339971 0.517773211 0.001518000
0.327134639 0.519038320 0.000000000
0.354459375 0.520177066 0.000000000
0.384820104 0.520683110 0.000000000
0.418216527 0.523719490 0.000000003
0.459582716 0.520936191 0.005312999
0.492473245 0.518405855 0.006072228
0.523213267 0.517646611 0.002783356
0.559646010 0.520177066 0.000000000
0.590005994 0.520177066 0.000000000
0.624667585 0.518026292 0.000000000
0.656799138 0.514737248 0.002783030
0.684629560 0.510310054 0.009993563
0.711954057 0.498165995 0.025173990
0.738773048 0.494117677 0.043390043
0.764199972 0.490828753 0.066034146
0.789500117 0.486780792 0.085009843
0.816950977 0.480834544 0.082732469
0.841492832 0.480708003 0.086274870
0.872106314 0.476660043 0.092093959
0.904111326 0.473371029 0.099304371
0.933713078 0.472865105 0.107147098
0.964073002 0.469829470 0.110183477
0.989626586 0.469450027 0.122833773
1.000000000 0.470461816 0.134218752
1.000000000 0.473371029 0.143706173
1.000000000 0.473371029 0.149778962
0.220998988 0.551170409 0.000000000
0.230107382 0.554206014 0.003036387
0.239848182 0.552308738 0.003922000
0.257811606 0.552435219 0.003922000
0.284123987 0.554458976 0.004933874
0.308411956 0.554205954 0.007589994
0.337760627 0.553193808 0.001517995
0.365211695 0.552182138 0.000000000
0.392409772 0.550537825 0.000000000
0.418216527 0.551043868 0.000000000
0.451612890 0.548260570 0.000000001
0.486906856 0.549272656 0.005313003
0.520176888 0.551043570 0.004933580
0.556609690 0.553573430 0.000000000
0.593042433 0.550537825 0.000000000
0.623403013 0.550537825 0.000000000
0.655028403 0.546869218 0.001518192
0.685388684 0.541429639 0.005819418
0.718026817 0.534597993 0.013030007
0.739785194 0.528019965 0.033776384
0.764199972 0.522580385 0.048703421
0.789500117 0.517140985 0.066034175
0.816950977 0.511195302 0.079696082
0.847311854 0.508158863 0.094876491
0.874130309 0.508032382 0.105249561
0.904111326 0.506767392 0.113345906
0.932954073 0.506261468 0.119038828
0.954965413 0.503225863 0.119291857
0.985325396 0.502846420 0.122327566
0.998481810 0.499304414 0.129664555
1.000000000 0.499557167 0.140796587
1.000000000 0.506767392 0.158886582
0.230739802 0.578494787 0.000000000
0.242251381 0.583934247 0.003036387
0.249209538 0.578367829 0.001771226
0.264389783 0.579886138 0.001518196
0.289816558 0.584060609 0.002656743
0.312080830 0.580012619 0.009740869
0.334218651 0.584819615 0.005186805
0.362934709 0.583174884 0.000759096
0.391018212 0.580897987 0.000759096
0.418595999 0.580897987 0.002403804
0.454016685 0.580391943 0.002403804
0.483365059 0.577356100 0.000379548
0.517141104 0.577356160 0.004174649
0.553067803 0.577608824 0.002150772
0.585199058 0.576723397 0.000000000
0.619228601 0.578494787 0.002403804
0.648071170 0.576976597 0.002403804
0.677545726 0.571157575 0.007084399
0.709171295 0.563314438 0.018469201
0.736242771 0.559645593 0.026439376
0.763187826 0.555470824 0.043896254
0.788488269 0.549904764 0.056546450
0.814547777 0.543959320 0.071979791
0.844907999 0.540923536 0.089436911
0.875268757 0.537887156 0.104617283
0.901328325 0.536369264 0.114104800
0.929665029 0.535357416 0.120683260
0.956609607 0.534219027 0.126375988
0.981024742 0.536242783 0.126628965
0.997216821 0.536242783 0.136748984
0.999114394 0.531435788 0.151802555
0.997596204 0.532953620 0.177608788
0.242884189 0.604300976 0.000000000
0.250474364 0.608855188 0.003036387
0.259835362 0.610246778 0.001771226
0.272232950 0.604933560 0.000000000
0.295888543 0.612144411 0.000000000
0.317140937 0.608349383 0.005692745
0.333839118 0.610879183 0.005186809
0.359898686 0.613535702 0.002277292
0.387982190 0.611258388 0.000000000
0.418343008 0.611258388 0.002277292
0.449968547 0.609740555 0.002403808
0.484883249 0.607716441 0.003415936
0.513346016 0.604680538 0.002656546
0.548766732 0.601644218 0.005692837
0.580392182 0.600379407 0.005186773
0.611638010 0.601265013 0.008475798
0.643516958 0.604300976 0.005439805
0.671473920 0.601264775 0.007337374
0.701834261 0.593928099 0.020746237
0.729411542 0.590385795 0.027577521
0.758633673 0.587349832 0.039342444
0.787982345 0.583301604 0.053510193
0.813030005 0.577229559 0.065907814
0.843389988 0.572801888 0.084124200
0.870714545 0.569766104 0.098545283
0.901075304 0.566729724 0.113725655
0.926629007 0.564199984 0.120683126
0.956988990 0.564199984 0.129791245
0.983554423 0.565338314 0.132447988
0.992662966 0.568121374 0.141303167
0.998734951 0.567235768 0.156483576
0.997596204 0.561796188 0.183681190
0.256166995 0.631119132 0.000000007
0.261100799 0.631625533 0.003036393
0.267805398 0.634029329 0.003036223
0.281973153 0.636432946 0.001897574
0.302087069 0.636432946 0.001897574
0.322580516 0.636432946 0.001897574
0.338772565 0.638330221 0.001897574
0.359518975 0.639721572 0.000632583
0.387982190 0.640354156 0.001897574
0.418343008 0.640354156 0.001897574
0.446426451 0.637444854 0.003794978
0.477925509 0.635041296 0.003921669
0.512713611 0.632637501 0.007590341
0.543073654 0.629854143 0.010372989
0.576091230 0.627197921 0.013029829
0.607083976 0.625300527 0.017204417
0.637444377 0.626185954 0.018216375
0.669070125 0.627956569 0.012903132
0.699431002 0.624920905 0.022011541
0.728273332 0.622517169 0.029601557
0.756862879 0.619481325 0.039468721
0.786211550 0.615433574 0.052371994
0.813282907 0.609488010 0.064262986
0.842124999 0.603921294 0.080455661
0.868563950 0.601391375 0.093485422
0.896268308 0.598355472 0.110183641
0.925616980 0.595319211 0.123845987
0.955724001 0.595192730 0.132827103
0.984060407 0.594560146 0.138519809
0.995572209 0.595698774 0.148640156
0.993295372 0.597596526 0.162555575
0.999367416 0.594560146 0.177735984
0.262239009 0.667551994 0.000000038
0.274383008 0.658444405 0.003036423
0.281467617 0.656800032 0.006072260
0.294117808 0.658317864 0.008602196
0.314231098 0.660721064 0.011006003
0.326375902 0.660721064 0.011006006
0.349398971 0.660721064 0.011006007
0.372675389 0.660974026 0.007717010
0.396711051 0.661733091 0.005187004
0.418343037 0.664642990 0.011006003
0.448703766 0.661733150 0.019734122
0.476787239 0.660721064 0.017963037
0.507147670 0.660468042 0.017204065
0.540037990 0.660215020 0.022517031
0.570398748 0.660215020 0.022517037
0.601011932 0.655155003 0.022770070
0.631372333 0.652625024 0.024794260
0.662998080 0.652245402 0.028083568
0.699431002 0.649209023 0.037191972
0.732574403 0.648956060 0.049082998
0.761669755 0.646805823 0.056925990
0.789247155 0.642758071 0.063757025
0.816318512 0.636812508 0.070335023
0.837570965 0.633776128 0.076407030
0.864136279 0.635041237 0.085768372
0.893990993 0.634788334 0.104870342
0.925616980 0.631752074 0.129917994
0.949904978 0.628716409 0.135989979
0.980012596 0.625933111 0.147627935
0.995951951 0.624921024 0.160784185
0.998608410 0.625174046 0.174193606
0.996331036 0.624921024 0.183808014
0.282226384 0.701201379 0.030613378
0.286021709 0.697659791 0.030866411
0.298165709 0.699304402 0.033902794
0.308032990 0.699304223 0.036938570
0.323971897 0.698544919 0.039974570
0.338519871 0.696141720 0.042378377
0.355724037 0.696141720 0.042378377
0.381151110 0.694496989 0.039089382
0.408096343 0.693358421 0.035294279
0.435420513 0.694370508 0.039342023
0.462618381 0.697153866 0.039974503
0.486906916 0.694117486 0.047058880
0.516128898 0.692220032 0.045161445
0.550411046 0.690828681 0.046299726
0.575711787 0.693358421 0.051359728
0.610879540 0.690955222 0.053763535
0.638962686 0.689816535 0.052624896
0.666793108 0.690448999 0.054395944
0.698924959 0.687413096 0.063504353
0.729791045 0.687160075 0.067046024
0.765085101 0.685262322 0.077292748
0.795066118 0.681214392 0.084250376
0.822137475 0.675395370 0.090195879
0.843389928 0.675015807 0.093611732
0.869196892 0.669702768 0.101960421
0.900695682 0.667046428 0.111068666
0.933965743 0.663630664 0.128146708
0.958254337 0.665148437 0.136495993
0.985199153 0.662112832 0.150537804
0.997722983 0.660847723 0.162808314
1.000000000 0.660847723 0.179633185
0.998861372 0.660847723 0.198229373
0.284503251 0.728905439 0.048829734
0.300822377 0.725869358 0.052624732
0.304617226 0.727387726 0.054775506
0.312966406 0.729664564 0.054016735
0.325110555 0.726628304 0.055534478
0.346362919 0.723592639 0.060088668
0.362175733 0.724983990 0.060594734
0.383681148 0.728273392 0.060594734
0.409994006 0.726755202 0.057305638
0.438077033 0.726755202 0.060341254
0.467425615 0.725869596 0.066160470
0.494496971 0.724857509 0.066413507
0.515749395 0.722959757 0.067931995
0.547881067 0.720683038 0.064895734
0.575458765 0.720430076 0.070967726
0.605566084 0.720556557 0.074636534
0.638962865 0.719038725 0.080708534
0.665275097 0.720429897 0.080455303
0.695636034 0.717393935 0.087033696
0.729791045 0.717140973 0.084883124
0.756356478 0.719038665 0.087918736
0.792789280 0.714990437 0.097027123
0.822643697 0.709297955 0.104111239
0.845666885 0.711068690 0.110689640
0.873371124 0.702719748 0.114484437
