Assets/EldamarStudio/100 Retro LUTs Pack/LUTs/cube/Suzanne LUT.cube
LUT_3D_SIZE 5
DOMAIN_MIN 0.000000 0.000000 0.000000
DOMAIN_MAX 0.903226 0.903226 0.903226
0.058823999 0.054901998 0.039216001
0.317773402 0.039216001 0.043770004
0.565591395 0.054269414 0.039216001
0.794433951 0.087286867 0.049082998
0.984692812 0.130802989 0.075900987
0.145477697 0.296521097 0.033649713
0.331815094 0.298798412 0.028716007
0.579633117 0.290955007 0.041492712
0.796963990 0.286400825 0.051992130
0.988614798 0.281467706 0.094623521
0.220998988 0.551170409 0.000000000
0.365211695 0.552182138 0.000000000
0.593042433 0.550537825 0.000000000
0.789500117 0.517140985 0.066034175
0.985325396 0.502846420 0.122327566
0.285515130 0.754206121 0.058949996
0.387729406 0.752561390 0.072738990
0.571157694 0.746995509 0.087159991
0.783681095 0.746363103 0.103099123
0.987349629 0.724098504 0.166856408
0.375331968 0.952055633 0.212017640
0.451359689 0.955850780 0.228336811
0.592915535 0.953953207 0.230360627
0.789879978 0.948133945 0.252118617
0.981909811 0.953320801 0.277545601
0.088551708 0.043136999 0.239974394
0.311574697 0.050347995 0.249462694
0.570525050 0.064389706 0.242251694
0.791777372 0.124857575 0.240986526
0.984313667 0.164072990 0.244908527
0.145098001 0.290322423 0.243896410
0.336369693 0.291967124 0.243516713
0.574446559 0.295888692 0.245541126
0.777988434 0.293232262 0.237950817
0.984313667 0.292599708 0.244275525
0.212144285 0.547881007 0.221631989
0.356356800 0.552182138 0.220366985
0.591397703 0.544971526 0.227956682
0.785578966 0.516888142 0.251739413
0.983427942 0.506388068 0.268817216
0.307273984 0.746995151 0.237444401
0.393295258 0.751296282 0.239089265
0.573687553 0.745097935 0.246299684
0.784566998 0.740164280 0.255028546
0.987349629 0.723845243 0.284250408
0.379126996 0.952055633 0.307779849
0.440100789 0.951928794 0.314610809
0.594686925 0.951928794 0.316634923
0.790132701 0.949398816 0.332953811
0.984313667 0.944844961 0.351043493
0.128146991 0.058823999 0.476027817
0.303352416 0.054901998 0.470461667
0.563693762 0.032005426 0.489183784
0.782036424 0.103352003 0.459456086
0.972169340 0.191017970 0.445919991
0.148387000 0.271346986 0.488804519
0.318406403 0.269702673 0.483871222
0.581277430 0.272612005 0.488424987
0.779633105 0.297532976 0.460594684
0.973561227 0.331182539 0.467172682
0.185704991 0.546615839 0.476660401
0.341302961 0.542694449 0.481594086
0.583934247 0.535483420 0.472105950
0.768247962 0.530929804 0.480202705
0.974319756 0.523086786 0.480075806
0.321695387 0.741049707 0.460088551
0.400379300 0.743706524 0.458317578
0.574699402 0.743453264 0.462871373
0.781277776 0.740164399 0.461985916
0.981783450 0.730044544 0.479949385
0.346363008 0.955344319 0.460974395
0.426944792 0.953952968 0.480076224
0.583175004 0.951296389 0.481973380
0.780012429 0.950790763 0.482859075
0.988614798 0.951423228 0.495761961
0.152055874 0.076534003 0.677799106
0.302340716 0.073244579 0.680708289
0.529917657 0.066034004 0.675142109
0.774826229 0.071600132 0.679696143
0.975964665 0.173307985 0.660468102
0.176470995 0.258950412 0.685642123
0.314104676 0.262492299 0.679696143
0.540417492 0.265148669 0.685262263
0.782922089 0.269070089 0.679949224
0.977735519 0.318785280 0.662112355
0.226185992 0.507653296 0.683238447
0.352055669 0.514990509 0.686527371
0.561669827 0.515875757 0.685894966
0.778115273 0.515876412 0.683364987
0.967109203 0.531562388 0.675521970
0.333207011 0.743453205 0.675901115
0.403288811 0.751549482 0.683997393
0.567109227 0.742441118 0.678684294
0.773940384 0.735610247 0.669956148
0.978494465 0.728779137 0.682985306
0.356609702 0.953699887 0.693737984
0.422264576 0.950790763 0.682985127
0.558633685 0.951676071 0.675521851
0.758128107 0.950410962 0.674889266
0.983048558 0.945856929 0.683744252
0.168626994 0.088931151 0.895888746
0.303352416 0.083997712 0.899430633
0.521821797 0.078431003 0.898544908
0.768374264 0.081467696 0.899430692
0.994939983 0.109930143 0.907653451
0.166982710 0.256293565 0.900442779
0.306261867 0.253383696 0.898544908
0.525363564 0.255028397 0.900821865
0.770651519 0.264516264 0.908538938
0.992409945 0.274003804 0.905376494
0.146615967 0.491081387 0.899177372
0.303985000 0.487159967 0.899809778
0.525616825 0.487792641 0.907021046
0.769007266 0.493611395 0.908665538
0.993674934 0.492978960 0.909044743
0.211258397 0.736243010 0.909677446
0.314737767 0.732701123 0.905755877
0.510183454 0.722833514 0.909677207
0.750664115 0.713725448 0.914863765
0.991144776 0.720936120 0.912966430
0.296900988 0.965085447 0.901074886
0.375331819 0.962175429 0.902593076
0.549272656 0.959266186 0.903099179
0.767109394 0.956609845 0.908665359
0.967489004 0.948133945 0.923465908
