Assets/EldamarStudio/100 Retro LUTs Pack/LUTs/cube/Suzanne LUT.cube
LUT_3D_SIZE 8
DOMAIN_MIN 0.000000 0.000000 0.000000
DOMAIN_MAX 0.903226 0.903226 0.903226
0.058823999 0.054901998 0.039216001
0.212397099 0.031752452 0.043516546
0.354206175 0.039216001 0.040733997
0.490449280 0.045413997 0.039216001
0.637824357 0.061859995 0.044655193
0.766097724 0.082226478 0.047059000
0.877672553 0.102592997 0.069576286
0.984692812 0.130802989 0.075900987
0.092472993 0.192409635 0.035294000
0.223403081 0.188488543 0.031752452
0.356989533 0.183807641 0.041619003
0.494876623 0.177862182 0.042757548
0.628715932 0.181024984 0.041113354
0.759772003 0.183807537 0.046679452
0.873371124 0.191650540 0.061859705
0.983175218 0.196204543 0.086021371
0.157621905 0.329918087 0.032890998
0.239089087 0.331815660 0.023656001
0.367489189 0.330677003 0.019607998
0.504617155 0.325996101 0.022390550
0.646552920 0.325237006 0.034408998
0.766097724 0.317014456 0.050980002
0.875395298 0.311954379 0.069702804
0.989120543 0.310310096 0.104490824
0.196711004 0.474256903 0.002783356
0.260847270 0.481847167 0.001517999
0.382036746 0.479443371 0.002783357
0.515116930 0.478684276 0.000000000
0.650474191 0.473245084 0.003794996
0.756609738 0.453384012 0.060721371
0.873750567 0.438836008 0.089184284
0.983048797 0.436052918 0.108918421
0.242884189 0.604300976 0.000000000
0.295888543 0.612144411 0.000000000
0.387982190 0.611258388 0.000000000
0.513346016 0.604680538 0.002656546
0.643516958 0.604300976 0.005439805
0.758633673 0.587349832 0.039342444
0.870714545 0.569766104 0.098545283
0.983554423 0.565338314 0.132447988
0.284503251 0.728905439 0.048829734
0.325110555 0.726628304 0.055534478
0.409994006 0.726755202 0.057305638
0.515749395 0.722959757 0.067931995
0.638962865 0.719038725 0.080708534
0.756356478 0.719038665 0.087918736
0.873371124 0.702719748 0.114484437
0.988614798 0.694749773 0.156230047
0.327767283 0.836179256 0.118911989
0.359392524 0.833017290 0.127893537
0.429475099 0.834535003 0.127387568
0.526248932 0.835040867 0.135736927
0.629981160 0.831372499 0.139784992
0.749399185 0.828336298 0.146110028
0.872106314 0.828969240 0.165591270
0.987476230 0.818469167 0.195951819
0.375331968 0.952055633 0.212017640
0.407210529 0.955217898 0.214927435
0.461227149 0.952055633 0.225300446
0.553067625 0.958633780 0.230107784
0.650474370 0.954585612 0.234535143
0.765338600 0.949398816 0.249335706
0.875395298 0.950411201 0.258317471
0.981909811 0.953320801 0.277545601
0.067425996 0.057305902 0.156356543
0.212397099 0.039216001 0.153573990
0.354206175 0.054522451 0.157115549
0.489690155 0.072865099 0.150411099
0.633143604 0.088172346 0.147754446
0.763441205 0.106008537 0.151802361
0.869449973 0.124604702 0.158633828
0.981151223 0.143706545 0.161922976
0.114484094 0.184946090 0.146109641
0.223782539 0.188868091 0.152814999
0.356610000 0.185325637 0.156356648
0.494876623 0.184187174 0.150917456
0.635926723 0.188108996 0.149778709
0.756356478 0.193927824 0.150537804
0.867931843 0.203668579 0.152814999
0.985705197 0.209993720 0.156736106
0.159139901 0.329918087 0.141935095
0.240607083 0.330677003 0.133966088
0.370271742 0.331056535 0.133206993
0.501455188 0.326375663 0.143832728
0.639468431 0.328399897 0.152055800
0.755471408 0.317394197 0.147248283
0.870967865 0.316128939 0.160910547
0.986211121 0.316635102 0.167994931
0.200252742 0.473118156 0.118658639
0.260467738 0.475142539 0.119417734
0.375711650 0.475901634 0.119038187
0.507653356 0.477925181 0.121821545
0.645287812 0.465780914 0.131562188
0.759013236 0.452624917 0.154206097
0.869955599 0.442757994 0.167868435
0.982036531 0.439721823 0.184946179
0.243010998 0.601138413 0.121442094
0.290322572 0.607083678 0.118279092
0.389500171 0.605439544 0.125363901
0.510562837 0.604680538 0.126502350
0.641872168 0.598355591 0.126502350
0.761923075 0.583427906 0.142061725
0.865528047 0.570777833 0.174573272
0.983175218 0.566983044 0.203921735
0.283744484 0.721062481 0.138773099
0.322960287 0.721821487 0.146742731
0.407590270 0.721695065 0.153067738
0.518532515 0.717520535 0.156989455
0.632384598 0.716634870 0.156862631
0.760151446 0.711575210 0.170651481
0.871726811 0.700948954 0.172802091
0.984566808 0.693864524 0.216698065
0.329664290 0.825174272 0.177103117
0.364073515 0.828842700 0.186843827
0.422770560 0.829728305 0.183554724
0.519164741 0.832258224 0.188235343
0.634408772 0.830613554 0.192410082
0.752308547 0.824667811 0.202023908
0.880834997 0.830613613 0.219860986
0.984692812 0.818848550 0.240607113
0.375711530 0.950663984 0.252624840
0.402403831 0.956230223 0.256799638
0.460214913 0.951676130 0.260088801
0.548513234 0.953573406 0.259203196
0.646805763 0.951422989 0.266413718
0.758254230 0.949146152 0.280961573
0.877672553 0.945857227 0.285515636
0.989500046 0.943200529 0.302719623
0.090069897 0.043896098 0.271853179
0.203795001 0.054142904 0.275395572
0.348007292 0.054901995 0.282100022
0.496015161 0.054901902 0.279316634
0.636306167 0.072865091 0.269576102
0.761416852 0.107147381 0.268817186
0.866034091 0.152688190 0.271853387
0.979759753 0.170904085 0.271726996
0.127008095 0.175584987 0.274636537
0.227324083 0.176343992 0.281720549
0.354585618 0.177103087 0.278937191
0.495635748 0.181024909 0.277039737
0.629981279 0.188108996 0.276787132
0.753446996 0.203288928 0.269449890
0.865907550 0.218595803 0.276280820
0.979253531 0.227703631 0.269323289
0.145098001 0.327514112 0.275016099
0.234408990 0.329918087 0.269070536
0.365971178 0.329918087 0.267046213
0.502719641 0.332321078 0.285262197
0.638709545 0.325996101 0.274257004
0.756230474 0.329159021 0.276154429
0.861985981 0.325996101 0.270208895
0.980012655 0.327261269 0.277419120
0.174825981 0.474762976 0.260088176
0.253510535 0.477925152 0.250980645
0.381277651 0.478304714 0.264137030
0.514357865 0.474383622 0.258190751
0.640986383 0.465401381 0.267932057
0.749905169 0.456799388 0.278811067
0.864768922 0.449462444 0.287918746
0.980771780 0.447944462 0.293106109
0.234282091 0.604301214 0.253004283
0.287159830 0.605439603 0.252624840
0.390259087 0.609740555 0.250601083
0.512587130 0.603921473 0.256167084
0.651486218 0.598735094 0.258570194
0.756609917 0.582289457 0.267172992
0.867552280 0.570398271 0.294623911
0.983048677 0.572169185 0.304743975
0.294624001 0.717900038 0.270082355
0.332953990 0.718659043 0.269450098
0.406704575 0.722200871 0.266666800
0.517646849 0.718279600 0.273118347
0.638836384 0.714357853 0.275016099
0.760278463 0.712839723 0.275522172
0.869829535 0.702213943 0.277925104
0.986337721 0.696773887 0.309044838
0.333839297 0.827451050 0.278810978
0.358507276 0.828336298 0.279822737
0.428842068 0.829854488 0.286021203
0.523466289 0.831372380 0.289436847
0.632511079 0.829854488 0.292852491
0.753447115 0.826945007 0.297533274
0.873624265 0.829095364 0.310057074
0.984566629 0.818848550 0.323592663
0.370778084 0.952814519 0.331056237
0.402403623 0.951423049 0.331562191
0.457052201 0.951423049 0.325490177
0.549651980 0.951043606 0.337634087
0.644528925 0.950663984 0.341429293
0.760531187 0.945351005 0.343073785
0.873371422 0.947501302 0.353320897
0.983301818 0.945603848 0.363946736
0.113219641 0.056040641 0.409740269
0.207337543 0.054522451 0.409360826
0.345224530 0.053004455 0.406578183
0.487033635 0.038077354 0.412523627
0.642631352 0.053257190 0.417330623
0.760278463 0.097280242 0.397469997
0.866413653 0.146868929 0.390638918
0.983554423 0.198228970 0.395951629
0.128905639 0.170904189 0.402656376
0.219481185 0.164579093 0.406957626
0.348766267 0.165717736 0.416825116
0.492852271 0.167741999 0.414168626
0.633522928 0.173940271 0.409487754
0.758254230 0.191777080 0.398102313
0.861353576 0.227198094 0.392915815
0.973434150 0.258190930 0.396711200
0.146615997 0.316255629 0.416825056
0.232384533 0.314231187 0.422770649
0.360910654 0.319417745 0.419607729
0.511701286 0.318153203 0.417963505
0.639088929 0.328020453 0.412144184
0.751676083 0.334598184 0.399873734
0.862365782 0.347501457 0.408981442
0.975331962 0.347628027 0.403921723
0.166983008 0.480328977 0.416445643
0.242504731 0.477925271 0.425173730
0.368248194 0.475648195 0.416824996
0.513346016 0.469702661 0.405819267
0.633649826 0.469702631 0.413662285
0.742441714 0.463377655 0.416698366
0.862491906 0.460721284 0.412523925
0.974446595 0.459582627 0.415306985
0.220366731 0.612144411 0.401011825
0.280834734 0.608222425 0.396078646
0.394181073 0.609487653 0.398355663
0.515749216 0.597976148 0.396837652
0.645414591 0.596078634 0.399620295
0.753573596 0.584187031 0.405060261
0.858191013 0.580012679 0.424035281
0.977482796 0.574699819 0.424035281
0.298165739 0.722327590 0.398861408
0.339784801 0.722200871 0.394939899
0.422137648 0.718279600 0.396710992
0.520809531 0.717140973 0.404680640
0.638456762 0.716002643 0.401644707
0.759519339 0.717140973 0.401264995
0.867931783 0.699430764 0.398734987
0.980265498 0.699304223 0.426439017
0.336242706 0.830107629 0.402403623
0.366223812 0.828715861 0.400126338
0.430739820 0.831499219 0.398481935
0.521189034 0.832763910 0.403035909
0.636053085 0.828715861 0.405060083
0.753067553 0.830234051 0.406830937
0.876027524 0.830107629 0.417584002
0.985199153 0.820872962 0.426312298
0.367615193 0.954838574 0.428589642
0.392030299 0.953573406 0.426691920
0.451359898 0.954964817 0.429221988
0.543073773 0.949778616 0.429095447
0.643896520 0.951296449 0.434028983
0.757242084 0.947375059 0.438330203
0.874763012 0.945098221 0.440101177
0.987096608 0.945856929 0.451233476
0.127640992 0.065148808 0.530423582
0.214294538 0.062365547 0.533586204
0.340923190 0.054901998 0.538393259
0.479443282 0.047438450 0.542188168
0.629348159 0.034409001 0.546995163
0.755723953 0.082352929 0.539658427
0.871600389 0.137001798 0.514737189
0.977988422 0.191017970 0.511448205
0.146489203 0.164579093 0.536622405
0.221378729 0.167362452 0.536242843
0.346362978 0.163820297 0.540670276
0.485136002 0.160658002 0.543453515
0.633522928 0.157115549 0.544212520
0.755471289 0.185705081 0.528652668
0.864136696 0.220872998 0.518026173
0.979633152 0.250221223 0.516002357
0.160784200 0.303225994 0.548513353
0.242251992 0.301328540 0.546236157
0.351043284 0.305629164 0.546995163
0.497659981 0.305249661 0.547374785
0.640354276 0.307906270 0.546110153
0.752687991 0.322327644 0.521315813
0.856420100 0.343959361 0.519418061
0.974699497 0.359645903 0.524984121
0.185705185 0.454775721 0.548513472
0.255154729 0.459962279 0.550158024
0.367868543 0.457558483 0.548513353
0.506641448 0.456293643 0.543074191
0.631245971 0.463757098 0.538267195
0.739026189 0.474889189 0.533206642
0.852245510 0.480455190 0.534218729
0.975585222 0.478557914 0.540417612
0.222137988 0.602783144 0.533459544
0.285136163 0.605819166 0.532447755
0.394054353 0.601897180 0.536116362
0.514864087 0.601265013 0.534092546
0.633270204 0.599493980 0.529791355
0.740543962 0.587729394 0.536369443
0.855787277 0.586084664 0.536622465
0.974446595 0.583554745 0.536875188
0.322453737 0.721062481 0.526881635
0.353447288 0.719923735 0.528525889
0.428716093 0.719418168 0.528526127
0.524098575 0.713978410 0.528652847
0.635293961 0.715623200 0.525363803
0.760657907 0.709677577 0.529411852
0.863883734 0.703478813 0.529664457
0.977608860 0.701834559 0.545857012
0.343326986 0.833776057 0.520177364
0.370271802 0.832258284 0.533333421
0.429728091 0.831499040 0.524478316
0.514737606 0.832258284 0.520682812
0.625427186 0.832258284 0.518659174
0.750790477 0.827830553 0.520682931
0.873750567 0.827451110 0.524857461
0.985831499 0.820746303 0.531941712
0.330802977 0.952055633 0.528020382
0.358380795 0.953952968 0.528146386
0.427198172 0.955597758 0.526122689
0.519038260 0.957241774 0.529411852
0.630613387 0.949525595 0.528652728
0.744971573 0.951423049 0.533080459
0.868564367 0.946742654 0.533459783
0.989879608 0.946995616 0.543200314
0.151043743 0.070461996 0.646426439
0.219101533 0.070461996 0.652751327
0.334977746 0.072485738 0.653130829
0.462618530 0.067299090 0.650348008
0.610878944 0.062998444 0.656293750
0.748513460 0.060467735 0.648323774
0.868311286 0.123213023 0.638962924
0.976470530 0.180645138 0.629601657
0.161163554 0.166097283 0.648703754
0.228968903 0.164073542 0.647944272
0.341429532 0.166603357 0.659962237
0.464642465 0.160910636 0.648830175
0.607716739 0.165338188 0.657937884
0.752308428 0.172296092 0.654775560
0.867552280 0.206831291 0.633396745
0.980771601 0.242504820 0.631372750
0.172422469 0.297406763 0.659076333
0.243137091 0.296521336 0.661859512
0.343453556 0.297406763 0.649841666
0.476407290 0.297786206 0.656673193
0.615939140 0.298924744 0.656293750
0.755850613 0.304490834 0.655407846
0.861985981 0.331056476 0.638962924
0.979759693 0.354206175 0.634787977
0.205186382 0.442378461 0.662492037
0.258949935 0.441113293 0.659455776
0.360025346 0.440733641 0.655028462
0.488298267 0.441492558 0.655028522
0.623782277 0.447438180 0.656166732
0.755091786 0.453637183 0.649968743
0.856166959 0.469576180 0.638583481
0.977482677 0.478937387 0.647691607
0.255281389 0.584566534 0.654775560
0.300442517 0.584945917 0.661986351
0.394181103 0.589374125 0.653889835
0.507147133 0.585831583 0.649589121
0.622264147 0.588994622 0.651992321
0.740923524 0.587349832 0.646932542
0.851359785 0.589753628 0.649209619
0.971283734 0.591904163 0.655661047
0.323086709 0.719164729 0.648576736
0.352940917 0.715496302 0.649968565
0.423782438 0.718152881 0.648323715
0.513978362 0.715116739 0.651107132
0.623529375 0.713472486 0.652371764
0.746615708 0.705249965 0.644655764
0.858317554 0.701328516 0.655661225
0.978747547 0.696647525 0.650348008
0.340290964 0.829981029 0.635420501
0.369006634 0.835420310 0.645920157
0.427703708 0.828969300 0.641872227
0.514610827 0.830993056 0.646426260
0.623149991 0.828210175 0.638203919
0.738267183 0.832890272 0.641745448
0.872106314 0.830993056 0.640733719
0.986590564 0.821252346 0.649841726
0.355597824 0.952434897 0.662112594
0.383048832 0.954965055 0.653510571
0.439215928 0.952561736 0.654395819
0.505882621 0.953320801 0.646426260
0.601897180 0.953700244 0.638583422
0.730044246 0.949398816 0.641239643
0.860468149 0.949905038 0.644781768
0.982795537 0.950157881 0.653130651
0.161417007 0.082353003 0.767868519
0.228842378 0.080455266 0.768121123
0.330803275 0.080708288 0.766982734
0.458444268 0.080075718 0.771283925
0.595445871 0.076786712 0.770145297
0.733333468 0.076407261 0.768121541
0.868184865 0.088551708 0.768500566
0.980771780 0.163314536 0.755344570
0.167362258 0.166223809 0.768247962
0.234155536 0.168121547 0.770145297
0.338140339 0.166223809 0.768627405
0.464642584 0.170145378 0.771031022
0.592662811 0.168880358 0.770018756
0.736242890 0.172801644 0.770272195
0.874509573 0.182922259 0.774699807
0.983807504 0.229348630 0.755724192
0.176470995 0.289816469 0.771663308
0.231878564 0.290702105 0.768880248
0.344085902 0.294624090 0.772549033
0.466287285 0.295382828 0.771410644
0.597723126 0.295256287 0.771663427
0.739405692 0.295762450 0.771031260
0.880708575 0.306261986 0.770777702
0.980012536 0.339531958 0.755597889
0.197216645 0.431498945 0.775711298
0.250095010 0.427324563 0.772169530
0.348766476 0.433775932 0.774067283
0.478557914 0.432637274 0.773434579
0.609740376 0.435673386 0.777735591
0.740543962 0.437318295 0.776470542
0.877798975 0.444908321 0.775205672
0.979253590 0.464010268 0.762555599
0.232890815 0.568121374 0.770018578
0.286654145 0.572548807 0.774572909
0.373940289 0.571284056 0.774067104
0.483618021 0.572169244 0.775331914
0.605945230 0.568248093 0.771916509
0.743706465 0.571410358 0.778494716
0.870588481 0.574572921 0.774193347
0.974699438 0.582163215 0.762175739
0.278305173 0.708791971 0.771789968
0.319291711 0.714357853 0.777102828
0.390512407 0.709677577 0.773560882
0.488931060 0.704870462 0.773434520
0.608602107 0.697785974 0.779886007
0.733713150 0.693484962 0.777988315
0.864516318 0.704111397 0.773940682
0.975964487 0.706135273 0.773181379
0.314104736 0.840733886 0.774699271
0.346489578 0.834282339 0.766982853
0.408602118 0.837571383 0.770145297
0.506514966 0.835167587 0.770145535
0.616066039 0.836053193 0.771790028
0.734724760 0.830993056 0.772042990
0.865907609 0.830613613 0.771789968
0.980392218 0.825047255 0.788108528
0.351296812 0.954332352 0.764958978
0.376470715 0.952435017 0.769639075
0.427071184 0.950157881 0.768753827
0.520303309 0.952055633 0.776217461
0.621758580 0.952941239 0.776344061
0.726881742 0.951043546 0.778747380
0.848956347 0.947501600 0.770651519
0.981151223 0.947122097 0.773434103
0.168626994 0.088931151 0.895888746
0.228209808 0.082732551 0.895255804
0.330423832 0.086274996 0.898671627
0.457179099 0.078810833 0.901327968
0.595825315 0.077292651 0.905249953
0.736495435 0.080202736 0.898671567
0.870461583 0.093105704 0.901074946
0.994939983 0.109930143 0.907653451
0.160278171 0.174699366 0.896647274
0.228336528 0.167109102 0.894750059
0.333965838 0.165591538 0.902972758
0.460088462 0.165717736 0.904237628
0.601012170 0.164958641 0.902593136
0.737254560 0.172801733 0.903225660
0.875015557 0.180518538 0.902340293
0.993674815 0.192283541 0.908918619
0.163440838 0.289943188 0.900948763
0.228589356 0.285389096 0.901960731
0.335610211 0.288804352 0.900568843
0.460468024 0.289943188 0.904996634
0.594054282 0.289563447 0.902719617
0.738519907 0.294623911 0.908032715
0.872991741 0.298924744 0.906135082
0.993674755 0.306388080 0.905629516
0.164073005 0.416445643 0.901074946
0.222896710 0.420366645 0.903858006
0.331309378 0.421631813 0.905755699
0.463883460 0.425553471 0.904111326
0.596837580 0.426691830 0.902846158
0.737760782 0.425806433 0.909171224
0.873371363 0.432258129 0.906261802
0.993674755 0.438836277 0.909171224
0.168880418 0.557494998 0.905376256
0.227197751 0.558887005 0.904490590
0.328273296 0.555218220 0.904996634
0.452751428 0.555976987 0.907653451
0.591650784 0.554838598 0.908032656
0.731941521 0.555597484 0.908285975
0.870208740 0.554459155 0.909550726
0.991144836 0.557621539 0.908159137
0.202656314 0.701834500 0.905629516
0.248703316 0.701075673 0.906894386
0.336748928 0.699051201 0.906767905
0.448576897 0.690322399 0.909171224
0.570778191 0.683238506 0.905249953
0.714737535 0.681593835 0.914610863
0.868817270 0.680582047 0.911827922
0.992409945 0.686780632 0.911954522
0.225300685 0.843010545 0.906894207
0.267299175 0.836812198 0.908159494
0.352308542 0.835167587 0.910056770
0.457938015 0.838330567 0.910563231
0.580139220 0.832258224 0.909803927
0.718532264 0.829475105 0.916382134
0.850727737 0.819734275 0.911195338
0.985957921 0.827704132 0.911827922
0.296900988 0.965085447 0.901074886
0.328399986 0.965844452 0.903984547
0.392283261 0.965717912 0.898291826
0.493991286 0.960151970 0.902087033
0.606072187 0.957241714 0.906135261
0.734471679 0.957874715 0.907653451
0.860468268 0.947501600 0.908032894
0.967489004 0.948133945 0.923465908
