Assets/EldamarStudio/100 Retro LUTs Pack/LUTs/cube/Theresa LUT.cube
DOMAIN_MIN 0 0 0
DOMAIN_MAX 1 1 1
LUT_3D_SIZE 32
0.047059000 0.066666998 0.050980002
0.050094616 0.069702610 0.054016385
0.057431772 0.070588000 0.057052772
0.067805000 0.073118001 0.062618837
0.079949096 0.079569548 0.071726546
0.092093870 0.088677935 0.080834940
0.106767677 0.092726320 0.082353003
0.121947698 0.095762290 0.080708295
0.137887195 0.098798096 0.080708094
0.156103984 0.101834491 0.089816481
0.177229866 0.107779995 0.093105868
0.196457997 0.109803997 0.092093743
0.216951281 0.114357993 0.091334641
0.241239995 0.126249030 0.094370969
0.265527993 0.135357410 0.097406581
0.299430609 0.142061993 0.105249800
0.334345192 0.148133993 0.114358187
0.369006693 0.154838577 0.122833990
0.408475935 0.163946986 0.128906012
0.439595014 0.173055366 0.134977996
0.481340438 0.184060991 0.141049996
0.526881397 0.195193127 0.147121996
0.566603482 0.204301476 0.153320506
0.612143934 0.213409096 0.162428916
0.657684863 0.222517282 0.171537280
0.700442612 0.231625661 0.182036981
0.739405096 0.241239995 0.194687068
0.775837839 0.253383994 0.209867448
0.814927399 0.268184811 0.222390980
0.845540881 0.286907166 0.236306176
0.868943572 0.308159590 0.253257573
0.890196025 0.329412013 0.274509996
0.044022612 0.078811005 0.050980002
0.053130999 0.075774610 0.066160388
0.060468160 0.080961548 0.067046002
0.072106548 0.083997615 0.067931615
0.085642219 0.087918937 0.070967548
0.095129482 0.091714323 0.074762940
0.102213606 0.098292388 0.083871320
0.122453704 0.098545291 0.083744675
0.141682088 0.100316100 0.082226485
0.153067589 0.107906491 0.086780868
0.171284348 0.113851994 0.090069517
0.198481977 0.119923994 0.097153865
0.221884638 0.123086639 0.098165743
0.244528651 0.129538387 0.097912639
0.271599978 0.141429409 0.106514961
0.300695598 0.145730808 0.109550580
0.332827389 0.152688205 0.114357799
0.365338504 0.161543146 0.120430179
0.402403951 0.173055366 0.128906012
0.447438389 0.182163045 0.137760654
0.480961144 0.189373612 0.142188355
0.523845255 0.198228747 0.148134127
0.569639146 0.207337126 0.156356871
0.615180314 0.216445491 0.165464520
0.662997901 0.227830380 0.176850185
0.705123305 0.240480646 0.186717302
0.742441475 0.252878070 0.197722688
0.778874218 0.262492388 0.212903053
0.807337165 0.271979541 0.228083417
0.841745734 0.289942771 0.240606949
0.869829178 0.312966168 0.255407810
0.893232405 0.338519633 0.274509996
0.049588773 0.090955004 0.063883550
0.052245386 0.085768387 0.070461392
0.067805000 0.089183778 0.070588000
0.074383385 0.093991384 0.073118001
0.085642219 0.097406775 0.075268552
0.096521065 0.102213934 0.078304939
0.107400000 0.105629228 0.079949543
0.116761409 0.106767938 0.085768938
0.140037864 0.105249673 0.085262671
0.154712275 0.111574717 0.088298708
0.176849976 0.122074768 0.095635906
0.193042487 0.128146768 0.094623521
0.220493272 0.134218767 0.102087222
0.243263811 0.138773039 0.102845997
0.270588160 0.149019763 0.110056639
0.304617375 0.156103820 0.114357963
0.336495966 0.162176192 0.120429963
0.369386524 0.171283960 0.124731191
0.407337248 0.181910187 0.130803198
0.447818160 0.193422198 0.137760654
0.487665743 0.200632542 0.144971475
0.524351239 0.206704542 0.149272770
0.570777476 0.214674279 0.157368988
0.620366752 0.223782673 0.168500870
0.661733270 0.233016983 0.175584793
0.707526684 0.245161325 0.189120874
0.744971395 0.259076774 0.200758845
0.779759824 0.269829422 0.215939209
0.814674556 0.281087935 0.231119573
0.838456929 0.299051166 0.242757514
0.870335340 0.318911910 0.258949786
0.898419023 0.341176003 0.280961782
0.054901998 0.104364157 0.074510001
0.053636838 0.100822158 0.080075935
0.064010158 0.100822166 0.076660000
0.079696164 0.105629325 0.073118001
0.084250547 0.108286157 0.079949096
0.097280160 0.112587161 0.085642099
0.106894158 0.118658841 0.086148165
0.124098249 0.118405864 0.086527713
0.137761027 0.116129160 0.088804998
0.158507496 0.118658841 0.091334686
0.180139005 0.129158571 0.096394874
0.200885251 0.138519987 0.101201907
0.217204288 0.145730644 0.100442514
0.241745993 0.151676118 0.106387995
0.270082235 0.158760250 0.112459995
0.304617435 0.165465161 0.118658803
0.339532018 0.173055023 0.122201189
0.374193549 0.182163402 0.131309405
0.413662195 0.191271201 0.135610044
0.453130931 0.201897711 0.141429320
0.491967291 0.212777004 0.146236315
0.530423582 0.216825008 0.151296973
0.573181331 0.222896963 0.157495499
0.623655915 0.235420734 0.170778170
0.666160643 0.244528860 0.178368166
0.705755949 0.252498180 0.188614815
0.746742189 0.264642954 0.203289166
0.780139327 0.276787132 0.217710435
0.817457438 0.290195972 0.230360806
0.847564995 0.308159232 0.247059062
0.867932081 0.330677032 0.259708911
0.899431050 0.346236318 0.286274999
0.054901998 0.119164996 0.075648546
0.052245162 0.119923994 0.084377386
0.059202999 0.119923994 0.083491541
0.072485998 0.121189155 0.079190098
0.084250547 0.123845994 0.079569548
0.099430934 0.123845994 0.091714323
0.108918540 0.131056219 0.094497450
0.122959986 0.133586258 0.094117999
0.145350650 0.131688997 0.094117999
0.163567439 0.131688997 0.094117999
0.182163000 0.140417218 0.095635995
0.202403247 0.148766249 0.099304445
0.222896740 0.157115638 0.104237899
0.242378548 0.166224033 0.108032539
0.272865057 0.169512674 0.114357539
0.307273597 0.175332054 0.120556347
0.341429174 0.183301896 0.127767190
0.376849711 0.192030117 0.131688952
0.416318953 0.201138526 0.140796587
0.456166953 0.210626364 0.147881165
0.495635659 0.220872983 0.151296809
0.536496282 0.230107546 0.154332593
0.579127431 0.230487049 0.157621965
0.627451241 0.247944102 0.172296360
0.669196844 0.259708822 0.182163447
0.709803641 0.267425537 0.192030653
0.746742189 0.274509579 0.206325457
0.780139327 0.286654353 0.218469441
0.818089724 0.301075250 0.228336826
0.850474119 0.319417685 0.244149610
0.876280665 0.339784622 0.265402019
0.894497454 0.358001441 0.286654443
0.054901998 0.131309003 0.084756933
0.054901998 0.137381002 0.090828933
0.058696933 0.138139993 0.093106002
0.072106220 0.139405161 0.089563869
0.090322547 0.142061993 0.085642315
0.099430934 0.142061993 0.088677935
0.119671315 0.147121996 0.095762067
0.131815225 0.148766652 0.095888771
0.144971102 0.147248834 0.094117999
0.160531044 0.149904996 0.094118007
0.181656927 0.158633873 0.105755992
0.202403247 0.163693607 0.109803736
0.223655641 0.167741641 0.113345705
0.245414153 0.172296032 0.117140934
0.278811306 0.181404412 0.129284918
0.309297860 0.189500064 0.123592742
0.339152187 0.199620456 0.128146932
0.371283680 0.209993869 0.137507990
0.416318953 0.216318905 0.143832982
0.458570749 0.228209943 0.155723959
0.498671651 0.236052990 0.157368809
0.540164411 0.244149119 0.157368809
0.585199416 0.251739442 0.160657570
0.630739868 0.260847837 0.169765964
0.672232926 0.273750871 0.186717048
0.715876222 0.282605916 0.200126395
0.758380949 0.289689928 0.212270945
0.780139327 0.301833957 0.221505046
0.813535750 0.313978702 0.233649716
0.844402134 0.330170810 0.248829946
0.871726573 0.348892897 0.268437654
0.897533059 0.367109060 0.289690077
0.052371677 0.151043326 0.096395001
0.052371677 0.152055323 0.097406998
0.058823448 0.158127323 0.099178001
0.070335321 0.158886313 0.101708002
0.088804767 0.159898549 0.100695997
0.097912617 0.157748327 0.097280383
0.117140993 0.165338635 0.100315996
0.140038088 0.171410635 0.106387995
0.154332638 0.171790317 0.106008776
0.167741820 0.173055157 0.104237996
0.181150869 0.174320191 0.108285680
0.202403247 0.179380059 0.114357933
0.223655641 0.184692964 0.119670965
0.245161071 0.190765321 0.125743315
0.271726906 0.197596416 0.133333310
0.307527274 0.209107995 0.135863319
0.339658499 0.215306506 0.133206800
0.371536851 0.223782569 0.141049832
0.413282663 0.231752336 0.147122338
0.453510731 0.243390337 0.156230018
0.501707733 0.249842063 0.160784006
0.541682363 0.256293505 0.164452806
0.581151426 0.265401512 0.173687309
0.626691937 0.274509907 0.180391908
0.669955552 0.285894990 0.191777572
0.709677339 0.296647638 0.203921631
0.751802504 0.304870307 0.213789001
0.779127061 0.317014307 0.224920854
0.808475733 0.329158336 0.239215657
0.836558878 0.344845086 0.254901946
0.866666496 0.362175912 0.273118198
0.900569320 0.378747642 0.292726308
0.049335711 0.173940405 0.110183701
0.050980002 0.177229404 0.101961002
0.057431772 0.174952418 0.105249994
0.066540159 0.181024402 0.107779995
0.083238840 0.182921961 0.113092996
0.094876774 0.184946343 0.109550990
0.112460323 0.187097013 0.106135383
0.135357410 0.189626992 0.114104696
0.161164001 0.197976083 0.119417794
0.178621009 0.202403694 0.118153177
0.194054410 0.202403694 0.119291537
0.213914946 0.202783138 0.120682955
0.234028980 0.204680398 0.122580700
0.254522413 0.212017700 0.129664958
0.276027799 0.218089700 0.134345278
0.303352594 0.225679696 0.140543997
0.342821360 0.234787688 0.143579990
0.376597255 0.239215553 0.148007274
0.414041728 0.248323962 0.155091941
0.455155104 0.258570701 0.157368660
0.495635688 0.268311441 0.167362422
0.546236277 0.273371577 0.171410412
0.583048761 0.282605678 0.185452178
0.625553668 0.293231875 0.190006003
0.668817282 0.301328391 0.197343573
0.708538651 0.313472360 0.208096310
0.746742189 0.322833776 0.215433419
0.778241575 0.333839387 0.227577701
0.810246587 0.345983386 0.240733802
0.835420609 0.356736124 0.262618661
0.861479878 0.375838310 0.283491284
0.898672044 0.392536700 0.303985000
0.042504810 0.201265186 0.120809905
0.047817711 0.205060095 0.110183708
0.055154677 0.202530101 0.111575089
0.065022163 0.203036085 0.114611089
0.076407552 0.208349094 0.120303541
0.093105927 0.216318935 0.120682999
0.110815994 0.218596101 0.115622997
0.130803406 0.217710480 0.117899992
0.158127993 0.216951191 0.128526002
0.188488007 0.232131585 0.131562382
0.211764738 0.235800087 0.131688893
0.234029174 0.237318084 0.132448003
0.256040275 0.238077193 0.132448003
0.274004012 0.237571195 0.132701039
0.291714072 0.241619185 0.135736778
0.315496594 0.246932089 0.142061800
0.343580276 0.252245188 0.150411084
0.386085033 0.258949757 0.154585525
0.419861019 0.268058151 0.163187876
0.460088730 0.276407450 0.164199740
0.500695705 0.285515636 0.169892475
0.540923357 0.294623971 0.180518985
0.589626610 0.303731591 0.192662984
0.631625652 0.315243185 0.197596192
0.672612548 0.323592663 0.202909470
0.712334156 0.332448065 0.210373402
0.748260260 0.343580097 0.219481155
0.781657338 0.352435440 0.231372878
0.813535750 0.364959091 0.247312054
0.839848161 0.376850277 0.265275240
0.863757193 0.390259594 0.292599678
0.894118011 0.411511987 0.319924116
0.024288023 0.237697989 0.117773525
0.036432795 0.234661609 0.120809913
0.046046700 0.229854524 0.129538491
0.056419834 0.231372505 0.133839488
0.070335545 0.241745502 0.129411936
0.097659923 0.241745517 0.132447541
0.116887994 0.244655341 0.127766997
0.135104418 0.245920509 0.128273010
0.158128008 0.247311994 0.134598002
0.194560021 0.253383994 0.140670016
0.230739728 0.265654504 0.140796527
0.258317500 0.273244500 0.142820790
0.280328959 0.277925164 0.144592017
0.298292041 0.280076027 0.144845054
0.313472450 0.274003983 0.147881433
0.338393301 0.275648206 0.150917187
0.362555206 0.278810710 0.157242209
0.389120638 0.283238590 0.163693935
0.431625515 0.292346954 0.160657555
0.468184739 0.298671991 0.169259891
0.506767690 0.306767762 0.177862227
0.546236336 0.315875649 0.186084986
0.586590946 0.324983984 0.192662984
0.638203382 0.334092379 0.204807013
0.680202305 0.343327254 0.212017491
0.718406260 0.353700459 0.219481185
0.754333019 0.364832491 0.228589565
0.787729383 0.370904505 0.237697944
0.815812767 0.385072798 0.262871802
0.839848161 0.400126666 0.282479674
0.863757193 0.417710453 0.301708072
0.894118011 0.441872001 0.329032511
0.008981873 0.268310994 0.132194862
0.021125905 0.274004221 0.129411519
0.033270132 0.266666830 0.136748895
0.048197158 0.264895737 0.140543997
0.066793226 0.272991747 0.135989994
0.091587931 0.278051734 0.141555935
0.118912317 0.275522053 0.144592196
0.143200561 0.281087995 0.147881031
0.168248191 0.286400855 0.153699875
0.200379759 0.292472869 0.155470863
0.230992734 0.298544884 0.158633739
0.271473497 0.306641400 0.162681729
0.305629253 0.313851953 0.165464863
0.334977776 0.319923908 0.165464863
0.358128011 0.316508770 0.165844411
0.378115416 0.315243751 0.166476995
0.402909607 0.317773432 0.173560873
0.424920887 0.320176870 0.181530580
0.449209720 0.322453946 0.178494781
0.477799118 0.328778982 0.181024387
0.517647326 0.332953721 0.186084732
0.559139967 0.339025736 0.193169117
0.600632846 0.346236378 0.201138869
0.643896639 0.355344772 0.207716882
0.684123695 0.364453167 0.222138152
0.721568406 0.374952853 0.232890725
0.756989241 0.387096852 0.245034859
0.787982404 0.397975862 0.261353463
0.818722606 0.406704694 0.278431624
0.844528735 0.419607818 0.297912568
0.866919577 0.435420573 0.313092709
0.891208172 0.457684875 0.332321107
0.001897744 0.304743767 0.151423246
0.005945751 0.310816020 0.148386851
0.016066011 0.310183436 0.143832773
0.035800010 0.306135386 0.151675999
0.060088392 0.311068952 0.150537550
0.086021870 0.315496236 0.158254251
0.116888314 0.320050806 0.159772307
0.145856977 0.317014784 0.162808701
0.175837919 0.324604601 0.170398504
0.208728716 0.331941754 0.172928512
0.243137240 0.338013768 0.171789855
0.281593770 0.344085753 0.172802001
0.324098527 0.352435231 0.178873986
0.363061339 0.362681538 0.180898026
0.399747312 0.368501157 0.182669252
0.425680280 0.365844488 0.184692994
0.443896651 0.364326298 0.186211184
0.466666728 0.363820076 0.194939837
0.487666219 0.359645754 0.194687217
0.512207866 0.359139472 0.199241146
0.531941712 0.359519243 0.198481768
0.570272088 0.364326388 0.203289121
0.609740973 0.371410251 0.212523967
0.652245820 0.378620863 0.222390994
0.690195978 0.387729287 0.235294282
0.723845303 0.398228943 0.242125317
0.756989121 0.409867048 0.251612812
0.784313858 0.420493245 0.268310994
0.816698372 0.427956820 0.284503371
0.845287859 0.438836396 0.306262106
0.869829178 0.453637093 0.323972106
0.892220259 0.474889517 0.341429502
0.000000000 0.346489638 0.170398638
0.000000000 0.349146277 0.165085256
0.006451774 0.348766506 0.162175640
0.023276644 0.349398792 0.161163628
0.053636741 0.352055639 0.166097179
0.081720799 0.354332358 0.172169566
0.114105314 0.358760267 0.174825996
0.151549622 0.363314569 0.179886058
0.181909829 0.363314390 0.182922438
0.217583627 0.372422755 0.188614994
0.255154729 0.377482653 0.185958132
0.294497132 0.382416278 0.188361645
0.337001920 0.388488293 0.188361645
0.380265683 0.400632292 0.194180682
0.427577585 0.412776798 0.197217062
0.468944073 0.420873106 0.203668475
0.493611813 0.416698396 0.204427183
0.508792162 0.411764413 0.208096147
0.531562328 0.402150601 0.211638615
0.553573728 0.398608565 0.217457637
0.572169542 0.395572364 0.216698557
0.588361561 0.392536759 0.215686157
0.620620131 0.400505900 0.224288508
0.656040788 0.402529627 0.233396649
0.693990946 0.410878927 0.246679276
0.727640271 0.421378613 0.259202957
0.757495046 0.433522761 0.258190691
0.782416224 0.443263710 0.272106081
0.813535750 0.450853616 0.290701807
0.841113150 0.460468054 0.307779729
0.869323194 0.472612619 0.333839536
0.894118011 0.493105978 0.355850995
0.000000000 0.392030090 0.186085030
0.000000000 0.389753461 0.177229673
0.005692742 0.386970311 0.174320027
0.023909191 0.387476116 0.176597059
0.051866092 0.392536104 0.182289571
0.082226858 0.392536104 0.179253966
0.116129309 0.395066410 0.181277707
0.155344710 0.399241090 0.188488051
0.198102221 0.405819178 0.197849095
0.228463024 0.414927572 0.200885490
0.266792923 0.418722183 0.198861167
0.306514800 0.421758324 0.203415290
0.347375274 0.425933063 0.209867075
0.389374077 0.432005078 0.209614038
0.440986395 0.444149047 0.212650418
0.494750172 0.460341632 0.222896993
0.536749065 0.468438029 0.228462875
0.560151637 0.461859971 0.227071181
0.575331986 0.449715167 0.233143985
0.592283070 0.444908410 0.238963008
0.608854830 0.441619366 0.237698033
0.624794364 0.438330173 0.234408930
0.642884552 0.435041547 0.237318069
0.663883865 0.428842276 0.240227938
0.695255995 0.432890356 0.249335989
0.728146255 0.442631006 0.261732996
0.757748067 0.454522133 0.273877114
0.785072446 0.466666907 0.282985479
0.814800620 0.476154208 0.304617018
0.839848161 0.487539411 0.323845178
0.863504171 0.499936998 0.343706191
0.893864989 0.512081027 0.374067008
0.000000000 0.437571228 0.207337409
0.000000000 0.443643212 0.201265395
0.000000000 0.443516791 0.196711034
0.020873070 0.444149375 0.196837574
0.061100952 0.447059065 0.200885832
0.094370849 0.444149196 0.206578329
0.137381315 0.446679533 0.208602056
0.175458372 0.448071212 0.211638093
0.215306595 0.450854212 0.215053722
0.255787373 0.457432300 0.213029474
0.286148131 0.466539919 0.218974993
0.326502323 0.470335037 0.221125662
0.369513005 0.474509776 0.227704048
0.413662046 0.480581790 0.233902782
0.450094759 0.486653805 0.230866402
0.501707792 0.496394575 0.241112977
0.555471361 0.511954367 0.251739174
0.598102391 0.520682931 0.257052392
0.623908758 0.516508639 0.260468334
0.630739808 0.501581252 0.263757050
0.646932304 0.494623780 0.263630718
0.663504362 0.489184201 0.260974407
0.679317296 0.483618289 0.261606812
0.694496930 0.474509895 0.261606812
0.715496182 0.468311220 0.264516115
0.739911020 0.469576150 0.275015652
0.763567090 0.475521445 0.289563477
0.788108826 0.484882861 0.304237813
0.815433204 0.494370788 0.318659216
0.839848161 0.508791745 0.337507755
0.862871587 0.524857521 0.359518975
0.890828609 0.539405406 0.392282963
0.000000000 0.485515594 0.216571987
0.014420986 0.484376788 0.229727983
0.033776306 0.492599577 0.227956980
0.053763382 0.492093414 0.230233938
0.094750062 0.493232071 0.233270243
0.118026718 0.496268451 0.225173995
0.161543101 0.495888919 0.233523279
0.202150181 0.498924881 0.231625587
0.237824067 0.500442863 0.232384697
0.275395602 0.504870534 0.232637301
0.313472509 0.509044707 0.235926583
0.347881287 0.516128600 0.241998598
0.390765399 0.519544423 0.247691438
0.436052859 0.524098575 0.256546795
0.476786584 0.528020382 0.259962171
0.518026412 0.534092367 0.264136612
0.562049389 0.543200374 0.271726787
0.610752702 0.558127344 0.282226563
0.652245581 0.565717757 0.297659755
0.669702590 0.556356966 0.298292249
0.679569542 0.546868920 0.299430609
0.694750190 0.540796757 0.297912776
0.708539248 0.534345269 0.297912776
0.723718882 0.520682871 0.297912776
0.736622334 0.513851762 0.297912776
0.756103516 0.510562778 0.302213579
0.774825752 0.512080550 0.312333852
0.791524053 0.515496194 0.319924235
0.813661993 0.517393827 0.335104614
0.840986788 0.531815350 0.360910922
0.860847771 0.549146175 0.386717141
0.880582035 0.564326584 0.420113593
0.044022538 0.534092367 0.237824365
0.065274924 0.532574177 0.245414183
0.076280676 0.533586144 0.250727177
0.101075515 0.536369383 0.255787194
0.140290648 0.534977555 0.264389545
0.163061425 0.543327034 0.256040454
0.191903889 0.544339180 0.251992315
0.229474574 0.544465661 0.257432193
0.265148491 0.547501445 0.254396170
0.298545659 0.550537825 0.258190900
0.336242855 0.555091679 0.262745053
0.376723498 0.558633327 0.269323379
0.413156271 0.562428355 0.273118377
0.456546217 0.565085173 0.281088173
0.495255768 0.568121612 0.288424969
0.534724534 0.573561132 0.296015173
0.574193358 0.576597154 0.302087188
0.610626101 0.585072339 0.306388557
0.657811761 0.597596169 0.326249212
0.692472994 0.601138711 0.340417564
0.711448133 0.593927920 0.341935366
0.725616455 0.586843550 0.341935366
0.738520145 0.580392003 0.341935366
0.749525487 0.570777655 0.341935366
0.760910749 0.562428534 0.344971359
0.777229846 0.556356549 0.346363038
0.793042302 0.556103587 0.350284547
0.802150190 0.556103587 0.350284815
0.820746183 0.557621360 0.363947183
0.837950408 0.557621539 0.377609134
0.865275383 0.572296143 0.410120159
0.880581975 0.585578978 0.442884177
0.133332774 0.580771506 0.273624539
0.153194010 0.580139101 0.272485703
0.159645662 0.579506516 0.270967513
0.167235836 0.579506516 0.274130106
0.188108668 0.574573100 0.284376562
0.217457384 0.585958123 0.286906898
0.239595428 0.586717129 0.281087816
0.265781075 0.586717129 0.279822826
0.295635402 0.588108599 0.283618122
0.329032570 0.591144979 0.289690137
0.365338117 0.595825553 0.295762122
0.403288633 0.599873424 0.303858370
0.442883819 0.603035688 0.309551120
0.479063630 0.603035688 0.310057133
0.512460113 0.605692565 0.318785280
0.546995103 0.609234571 0.329158485
0.581530333 0.614800513 0.337381095
0.616698086 0.613535523 0.342820674
0.653130949 0.619607568 0.351929098
0.696014941 0.630613685 0.373687685
0.728905320 0.635800242 0.387223363
0.750410855 0.629980683 0.390512079
0.768121600 0.620746553 0.390259087
0.774193525 0.616192222 0.389247090
0.783807814 0.612776697 0.393801093
0.794687033 0.606072128 0.397216797
0.814421535 0.600506067 0.401265025
0.817836702 0.600379527 0.395825535
0.833523035 0.601770878 0.405819327
0.848197520 0.601264775 0.416824877
0.861606598 0.600885510 0.427071154
0.888931036 0.606957555 0.457431972
0.227450907 0.620239973 0.307020992
0.230487302 0.617204368 0.313093007
0.230993181 0.614421189 0.311954200
0.235800147 0.615432978 0.311701149
0.251865983 0.620113552 0.314737409
0.270081967 0.623149931 0.311701030
0.289310664 0.619354963 0.309171379
0.314357996 0.617078006 0.312207669
0.343959272 0.618596017 0.320050985
0.371537477 0.624541461 0.326122999
0.407842964 0.624668002 0.332194984
0.440227479 0.627198279 0.340291232
0.472738594 0.631372929 0.345983982
0.506388068 0.636432886 0.346489996
0.539785206 0.636432886 0.352561980
0.570777893 0.634282231 0.366097748
0.600126147 0.639595032 0.377735734
0.628842115 0.646932006 0.385325551
0.659202993 0.640859962 0.388361961
0.695635736 0.649715304 0.405818999
0.730929673 0.662871718 0.422643751
0.760278225 0.670208812 0.433775961
0.783301950 0.666287065 0.438835979
0.789373934 0.654143035 0.432763994
0.802277207 0.654143274 0.436306000
0.811385274 0.650854349 0.438203663
0.817457139 0.643010974 0.437697887
0.829601884 0.639974535 0.446805537
0.843643010 0.637191832 0.449335843
0.857305467 0.634661734 0.455154985
0.869449973 0.634281993 0.461479962
0.882858992 0.640354037 0.469576031
0.282606095 0.640227735 0.337634742
0.288425118 0.645540714 0.343706727
0.295762509 0.642504573 0.341176748
0.300316304 0.640733361 0.340037912
0.312080860 0.642630935 0.343073905
0.325490475 0.640860319 0.344845146
0.341176152 0.643896043 0.346868753
0.359139800 0.641872048 0.345983386
0.383428097 0.643390179 0.352435201
0.408728540 0.649462759 0.362555772
0.436433077 0.652498364 0.357495040
0.468817055 0.654522598 0.367615551
0.495761991 0.656420350 0.376344353
0.522074401 0.658697367 0.380392402
0.550410867 0.658697367 0.388994724
0.586211205 0.661100566 0.397469938
0.614294767 0.661859572 0.405819207
0.640354276 0.667678714 0.412397295
0.668564379 0.665907681 0.419734746
0.701707721 0.670967698 0.433902383
0.728652716 0.676281095 0.446426123
0.757495284 0.686907351 0.460847646
0.785199463 0.692979217 0.474130541
0.804554343 0.694117427 0.481340736
0.815180361 0.688804686 0.482100040
0.822897017 0.688045740 0.483491421
0.826565385 0.682226360 0.480961382
0.840986848 0.676913261 0.483238310
0.855787754 0.671220720 0.492346585
0.865654707 0.669829428 0.495635509
0.874003947 0.671347320 0.498924375
0.882353008 0.679317117 0.501201391
0.358886927 0.669829488 0.383175462
0.361163914 0.666413784 0.385452449
0.363693953 0.673624396 0.381024718
0.366477162 0.669323206 0.378747880
0.374699473 0.668817222 0.382163227
0.394434035 0.670335412 0.386717379
0.401517868 0.668564141 0.385958135
0.416697890 0.671600163 0.387349457
0.435420543 0.671853185 0.388867468
0.458570212 0.675648749 0.398734927
0.480076075 0.678810894 0.402909458
0.501834452 0.679949224 0.401391238
0.531056106 0.681846976 0.412397355
0.554079533 0.681846976 0.419228464
0.579759598 0.681846976 0.426692098
0.606704295 0.682352901 0.435800374
0.637065113 0.688424945 0.447944373
0.657558739 0.692220151 0.451233596
0.676028073 0.693484962 0.455281705
0.708918393 0.695255995 0.468058139
0.734724760 0.697533011 0.477545500
0.753953159 0.701581538 0.486653894
0.779759765 0.712081194 0.502087474
0.804554164 0.722200871 0.514737546
0.820873022 0.722580314 0.521188974
