Assets/EldamarStudio/100 Retro LUTs Pack/LUTs/cube/Theresa LUT.cube
LUT_3D_SIZE 8
DOMAIN_MIN 0.000000 0.000000 0.000000
DOMAIN_MAX 0.903226 0.903226 0.903226
0.047059000 0.066666998 0.050980002
0.079949096 0.079569548 0.071726546
0.137887195 0.098798096 0.080708094
0.216951281 0.114357993 0.091334641
0.334345192 0.148133993 0.114358187
0.481340438 0.184060991 0.141049996
0.657684863 0.222517282 0.171537280
0.814927399 0.268184811 0.222390980
0.054901998 0.119164996 0.075648546
0.084250547 0.123845994 0.079569548
0.145350650 0.131688997 0.094117999
0.222896740 0.157115638 0.104237899
0.341429174 0.183301896 0.127767190
0.495635659 0.220872983 0.151296809
0.669196844 0.259708822 0.182163447
0.818089724 0.301075250 0.228336826
0.042504810 0.201265186 0.120809905
0.076407552 0.208349094 0.120303541
0.158127993 0.216951191 0.128526002
0.256040275 0.238077193 0.132448003
0.343580276 0.252245188 0.150411084
0.500695705 0.285515636 0.169892475
0.672612548 0.323592663 0.202909470
0.813535750 0.364959091 0.247312054
0.000000000 0.346489638 0.170398638
0.053636741 0.352055639 0.166097179
0.181909829 0.363314390 0.182922438
0.337001920 0.388488293 0.188361645
0.493611813 0.416698396 0.204427183
0.572169542 0.395572364 0.216698557
0.693990946 0.410878927 0.246679276
0.813535750 0.450853616 0.290701807
0.044022538 0.534092367 0.237824365
0.140290648 0.534977555 0.264389545
0.265148491 0.547501445 0.254396170
0.413156271 0.562428355 0.273118377
0.574193358 0.576597154 0.302087188
0.711448133 0.593927920 0.341935366
0.760910749 0.562428534 0.344971359
0.820746183 0.557621360 0.363947183
0.358886927 0.669829488 0.383175462
0.374699473 0.668817222 0.382163227
0.435420543 0.671853185 0.388867468
0.531056106 0.681846976 0.412397355
0.637065113 0.688424945 0.447944373
0.734724760 0.697533011 0.477545500
0.820873022 0.722580314 0.521188974
0.864136815 0.703858435 0.526881516
0.605439305 0.771157563 0.546616316
0.610246837 0.766350508 0.537634134
0.625679791 0.771916270 0.545730472
0.671600163 0.771663666 0.566856563
0.717647254 0.774446547 0.575585067
0.778620780 0.782289565 0.599114537
0.821505547 0.787855744 0.618848562
0.875521541 0.799114585 0.661985993
0.746868730 0.813156009 0.664389610
0.757115662 0.814547956 0.675521970
0.758886576 0.813915074 0.671726882
0.773687601 0.819860578 0.679822624
0.795699000 0.818595827 0.688298762
0.828083694 0.820998967 0.708032668
0.847691000 0.822896838 0.727766991
0.862871826 0.820998967 0.736242771
0.050600551 0.078810550 0.102720000
0.088172443 0.079190098 0.099556997
0.149652094 0.103478901 0.119923994
0.220113993 0.129284993 0.136748642
0.330803007 0.161796346 0.151676357
0.491208196 0.199367538 0.177482545
0.668943822 0.229474992 0.213789001
0.814041615 0.282605976 0.254396260
0.063883543 0.123466447 0.103478998
0.102720000 0.128146544 0.111701541
0.143327102 0.144212097 0.124984540
0.222391099 0.165338084 0.140670449
0.340164542 0.196710989 0.166603550
0.495256007 0.233143538 0.188108802
0.659709096 0.261227012 0.212650254
0.801391304 0.303099096 0.248829961
0.078810647 0.205692649 0.144591644
0.099936545 0.210753009 0.147754550
0.171916649 0.220114097 0.160278544
0.244276077 0.236179635 0.162555546
0.355344355 0.260847360 0.177355826
0.508918285 0.289436847 0.196078628
0.680581808 0.326248914 0.234535024
0.816318810 0.373940736 0.282226741
0.051739097 0.346995384 0.196584180
0.103099450 0.351296633 0.195066184
0.200758740 0.367741823 0.211511984
0.337254465 0.390006274 0.218596086
0.483871162 0.408855259 0.234534919
0.553573430 0.392789632 0.232637376
0.682858527 0.411258459 0.261100739
0.803289056 0.447185248 0.310563058
0.138519555 0.537381172 0.273624539
0.183681101 0.543326795 0.280708522
0.286527812 0.550284863 0.290069640
0.432384819 0.560910344 0.306894273
0.589374006 0.578241348 0.331815362
0.704491198 0.592662811 0.365970701
0.758760273 0.559013069 0.362175912
0.816571534 0.554206192 0.378494501
0.394433916 0.660847723 0.400126398
0.412776560 0.669575989 0.406704724
0.463377297 0.670461893 0.416698098
0.546995461 0.677925467 0.435926527
0.640353918 0.687286317 0.463883698
0.734218657 0.697026908 0.489690006
0.826945007 0.715623200 0.534598231
0.865780771 0.709171355 0.543073833
0.614294350 0.764073253 0.547248781
0.626059294 0.767235994 0.559898555
0.640733600 0.768121362 0.564705849
0.673877120 0.772802234 0.570145488
0.728273153 0.775584936 0.584693193
0.775458694 0.777735531 0.607084095
0.823655844 0.783807278 0.627451003
0.875142097 0.795699120 0.661985993
0.745603561 0.819734156 0.670967817
0.751296341 0.817963243 0.677925169
0.764959097 0.815812707 0.676027894
0.774067044 0.814674079 0.682985544
0.799873590 0.820746303 0.699303985
0.823656023 0.816951156 0.710183561
0.842758000 0.820998967 0.726249218
0.858697295 0.822896779 0.740796745
0.050221097 0.087792993 0.159772098
0.094876900 0.090954997 0.159013197
0.155977011 0.103478998 0.171663195
0.258823633 0.127387539 0.196963727
0.383681297 0.154459193 0.220240191
0.508412182 0.188741282 0.228716090
0.675774634 0.245161280 0.274130106
0.811131954 0.305629224 0.317773551
0.068184897 0.136369094 0.164958641
0.101075090 0.143453106 0.161037564
0.159392655 0.148133993 0.171537101
0.264262736 0.172422186 0.203288734
0.370651722 0.199114189 0.215433195
0.515243471 0.235167906 0.246047094
0.671347260 0.272612095 0.267931998
0.804427505 0.321062356 0.311448544
0.097153999 0.202909291 0.188867986
0.127261549 0.211511999 0.185958534
0.190259278 0.241240084 0.205945298
0.262239158 0.245161191 0.215433091
0.378874242 0.272612095 0.235673368
0.530044556 0.303099096 0.257937819
0.686147988 0.335104287 0.290575385
0.814673781 0.386590809 0.337508082
0.156989530 0.343453765 0.244149268
0.174193636 0.351676285 0.256546646
0.236432374 0.366097748 0.265907645
0.355344564 0.387729168 0.275395632
0.462998033 0.391144812 0.281214207
0.553953111 0.388741016 0.279569894
0.691208184 0.420746446 0.312839925
0.803415596 0.459329635 0.360910863
0.235673651 0.526375473 0.332827181
0.256546199 0.528273046 0.337381274
0.334598452 0.542062223 0.348387092
0.453130543 0.552308500 0.361290127
0.592156708 0.571157396 0.386717290
0.691081583 0.577482462 0.401518285
0.741429269 0.551676273 0.395572186
0.807083964 0.560531020 0.415812850
0.447565079 0.660594463 0.448197573
0.467172295 0.663124263 0.451612651
0.512839913 0.668058217 0.458823442
0.569133520 0.673877478 0.476407111
0.659203112 0.685894966 0.499303997
0.735357106 0.697533011 0.520809591
0.818848908 0.716382027 0.552308500
0.857685089 0.700569391 0.549399137
0.625806391 0.766603589 0.566350579
0.636685669 0.762808025 0.571536779
0.661859453 0.768121362 0.581151187
0.687286615 0.766603291 0.592030287
0.731941581 0.772802234 0.606451571
0.782289445 0.774825990 0.621252596
0.826945066 0.782543004 0.639468610
0.869702816 0.791271448 0.668184638
0.759392858 0.815812826 0.677925169
0.763693929 0.814168394 0.685642064
0.769765854 0.813915074 0.686021686
0.782921970 0.818595767 0.698671639
0.806071997 0.818342805 0.707906306
0.828462958 0.816318929 0.717900157
0.844781816 0.818216324 0.733712852
0.860342026 0.822896719 0.741555989
0.030740004 0.101454645 0.246173635
0.088551901 0.104617447 0.251360089
0.174699187 0.110815637 0.256926090
0.259582639 0.130043998 0.263503909
0.439594924 0.149020001 0.321189165
0.609108269 0.168374479 0.348766297
0.739405513 0.224920928 0.359898895
0.832131445 0.312080920 0.381277472
0.059203357 0.151549548 0.250221521
0.108159088 0.152688190 0.254142731
0.179253280 0.164958656 0.259582728
0.267172813 0.176723540 0.272486091
0.451233178 0.192283452 0.322580397
0.609234691 0.223276272 0.343453646
0.726881564 0.269070476 0.358001173
0.821505249 0.341555864 0.385072440
0.096774451 0.234155387 0.264262825
0.134345442 0.238836184 0.258317381
0.197596624 0.248703644 0.285895169
0.314231813 0.257685095 0.300316542
0.467299253 0.285515726 0.329664439
0.587982416 0.308539003 0.339405507
0.706894100 0.355218142 0.368121296
0.815053582 0.414547920 0.414674282
0.171030641 0.334092647 0.300442636
0.202403650 0.346615940 0.306641519
0.286147743 0.374446392 0.332574636
0.401518285 0.405312926 0.362175941
0.484376818 0.403794914 0.350410819
0.595951855 0.419101983 0.366477281
0.712460637 0.444528937 0.390765250
0.810120225 0.487033248 0.431752086
0.330424011 0.516255379 0.406957626
0.359898567 0.514104903 0.405566275
0.411511451 0.535104275 0.419354916
0.491081893 0.551169932 0.433902383
0.604554176 0.570018768 0.450980365
0.673750520 0.561416686 0.448829889
0.722959816 0.541429162 0.435673445
0.812397063 0.577103078 0.479696512
0.530930102 0.645287812 0.501707733
0.530550420 0.646805942 0.502087235
0.551676035 0.656166911 0.507526994
0.600885510 0.669196546 0.521315634
0.665907621 0.677419603 0.535736680
0.743580103 0.698671639 0.565591335
0.804553866 0.704111457 0.575838089
0.842251837 0.691587746 0.570398510
0.653004587 0.756482959 0.597596526
0.660468340 0.758633673 0.608222306
0.677292943 0.757874310 0.606071770
0.701707661 0.762175918 0.614927530
0.739784896 0.767741919 0.626565456
0.785831630 0.775205433 0.644402087
0.828842700 0.777735531 0.665907621
0.863883615 0.789500237 0.682353020
0.769259810 0.812144160 0.693358421
0.774699569 0.810499430 0.699303746
0.779506683 0.813915312 0.700948358
0.793421805 0.813156009 0.710942626
0.809108019 0.815686345 0.718152940
0.832384527 0.815812826 0.728019953
0.847944379 0.817204177 0.740923584
0.863377810 0.819481194 0.750537813
0.000000000 0.122201189 0.379000366
0.085009456 0.124984443 0.377482563
0.204427481 0.130803093 0.383048475
0.321695268 0.141935199 0.394307554
0.443643570 0.156863004 0.404048175
0.657811463 0.170524985 0.459582448
0.803162336 0.261227250 0.496015191
0.878178537 0.360910952 0.502593338
0.017963191 0.182542980 0.372928798
0.104997002 0.185831904 0.380518556
0.213788986 0.185705081 0.387222946
0.336622387 0.189626992 0.398608357
0.456293583 0.202150196 0.405945808
0.660594702 0.230234087 0.462491930
0.796331465 0.301960558 0.491461039
0.868058026 0.379380435 0.499683559
0.104743987 0.281214207 0.375964373
0.145730287 0.271853089 0.390133083
0.228715986 0.269323111 0.386843413
0.349146277 0.275775015 0.398988008
0.490828454 0.292979211 0.421884537
0.673244953 0.335863292 0.474888921
0.782922149 0.395319372 0.498292267
0.852119088 0.455913872 0.510183334
0.186717629 0.377862036 0.399873644
0.226565629 0.379759371 0.408981472
0.307147503 0.394687206 0.420493394
0.422390938 0.418722630 0.442883909
0.563314140 0.433143497 0.466540039
0.676281214 0.460468233 0.490828633
0.752182186 0.483617991 0.490575731
0.819228232 0.513725638 0.509550810
0.336875528 0.502087176 0.449588954
0.368880212 0.503984809 0.460974008
0.437444627 0.519418240 0.469955474
0.540796995 0.553067386 0.498165339
0.630613565 0.577482581 0.524098396
0.675522029 0.557874620 0.509803951
0.742315114 0.569007039 0.515749276
0.817077577 0.593675017 0.541682541
0.539658368 0.633902252 0.539278984
0.559392810 0.636432528 0.548766613
0.592535973 0.644402027 0.553067446
0.635294318 0.661353350 0.567615569
0.683997154 0.673497915 0.583301723
0.751423359 0.688424766 0.598608494
0.790512681 0.687160194 0.596710801
0.833017170 0.673497796 0.576597095
0.686400950 0.743833065 0.638709366
0.691460848 0.746362925 0.641366124
0.706135273 0.747628212 0.642504692
0.718532324 0.757115364 0.642251492
0.750031590 0.765844524 0.655028403
0.790892184 0.772548795 0.670967877
0.832637310 0.779253542 0.685642302
0.863757432 0.786969960 0.699304104
0.783680975 0.811891139 0.715369940
0.788614810 0.811005533 0.712333977
0.787476182 0.809867084 0.716888130
0.802024007 0.813788950 0.723972142
0.816318750 0.813156009 0.730043828
0.832384408 0.816318691 0.740797043
0.852498412 0.815939248 0.750916958
0.864263177 0.820619762 0.759013176
0.000000000 0.154712260 0.532447457
0.083997540 0.156736001 0.525110900
0.236559182 0.160151735 0.531688511
0.373940527 0.163693890 0.540417492
0.527767360 0.166982800 0.544718504
0.667678714 0.191777468 0.560025454
0.807083964 0.273245007 0.586464345
0.898798227 0.419860601 0.619734585
0.007843000 0.208349288 0.528399885
0.106008634 0.210373551 0.527893484
0.237191558 0.214294553 0.532574356
0.380012721 0.213788882 0.537254572
0.524857700 0.218089536 0.540037692
0.657558858 0.239595279 0.555471361
0.793674827 0.309297830 0.578874230
0.886148036 0.432637304 0.608728647
0.096774191 0.306135297 0.516887963
0.154332727 0.308159530 0.519670844
0.268311292 0.309044927 0.531309187
0.400506020 0.310183287 0.537760913
0.543833137 0.323466092 0.547628164
0.676913381 0.342441738 0.559645832
0.797723174 0.416824728 0.592789412
0.885515571 0.513219476 0.630233705
0.245287746 0.425806463 0.527387738
0.284376740 0.434282035 0.524351716
0.362934560 0.434535176 0.531435728
0.449462116 0.435800135 0.540417492
0.576344192 0.443896264 0.550917149
0.689816713 0.464516014 0.566350520
0.791524410 0.519038439 0.596710682
0.861986101 0.564958990 0.618595600
0.401391387 0.539658189 0.552055657
0.421758562 0.548513353 0.548133910
0.481088012 0.550031483 0.554332793
0.559266150 0.566982746 0.571663737
0.640607119 0.578241587 0.583681166
0.719797552 0.594307661 0.598861516
0.795066714 0.611258626 0.619861245
0.845414221 0.620620131 0.617836952
0.544339001 0.628715694 0.570145726
0.561669469 0.630739987 0.580265582
0.591018200 0.640227497 0.583301783
0.639089048 0.648450732 0.594813347
0.701834619 0.671220720 0.624668181
0.758254230 0.687665761 0.640607238
0.785705030 0.672738731 0.621252239
0.841492712 0.681340694 0.635420561
0.676660478 0.730929554 0.655407846
0.691840410 0.733965814 0.654143095
0.702214003 0.740923703 0.659708977
0.732700646 0.745224357 0.664009929
0.764199913 0.758380532 0.679443598
0.793295443 0.770398557 0.695509017
0.835041285 0.780012250 0.711195409
0.854649246 0.775205553 0.701960623
0.791903853 0.806957901 0.729158998
0.796078622 0.805565834 0.738013685
0.799367607 0.802783012 0.733965755
0.813156009 0.810752809 0.738267004
0.825300455 0.813029766 0.746615946
0.839215815 0.813788891 0.751043558
0.850727320 0.816824496 0.759518981
0.862365723 0.820998967 0.760404706
0.004553996 0.203542277 0.661353528
0.125616372 0.207463279 0.665527999
0.265401483 0.211258367 0.660468161
0.411005557 0.217583984 0.668184817
0.552308440 0.228462979 0.666034102
0.697786033 0.245160997 0.669955552
0.799241006 0.309044957 0.673118532
0.890448928 0.415306866 0.680708408
0.052624807 0.249715373 0.654142976
0.150410905 0.258191109 0.654648840
0.275521904 0.261986107 0.659329712
0.411005437 0.265528202 0.654269278
0.553447068 0.274004191 0.664515972
0.692726016 0.287539810 0.659709275
0.791271567 0.343200713 0.665527999
0.885768652 0.427577406 0.681847274
0.186464459 0.353953183 0.648070991
0.240986913 0.355597377 0.656799376
0.334092170 0.360151440 0.655787468
0.446932375 0.366982847 0.654522777
0.577229619 0.375838280 0.662112415
0.694496989 0.392156750 0.664768875
0.793928146 0.437444448 0.671473444
0.881088138 0.507400274 0.685642123
0.365970910 0.478304863 0.637950957
0.392030299 0.483617783 0.640860260
0.432131410 0.477292925 0.642251670
0.510309577 0.483871281 0.643516898
0.606072247 0.488931179 0.654648900
0.708159387 0.498545080 0.656040490
0.791903913 0.524225235 0.664263308
0.867678463 0.577609062 0.688045442
0.480581462 0.577356279 0.645034969
0.498165786 0.585705042 0.642251611
0.541935384 0.586843550 0.647312105
0.594180822 0.594433784 0.655914068
0.653510153 0.593295455 0.661480308
0.728020251 0.596331298 0.666034281
0.798735082 0.615939319 0.679443598
0.866160333 0.653637111 0.703858018
0.587602735 0.661732793 0.651612818
0.602656603 0.666160464 0.666666687
0.628336489 0.670588374 0.664389670
0.660594404 0.674762964 0.667046070
0.706768095 0.681847036 0.674636245
0.754332721 0.689816415 0.682985783
0.820366979 0.705756009 0.701960802
0.861480236 0.728399754 0.722454190
0.665907562 0.724098563 0.678052247
0.677798986 0.731562018 0.673118532
0.688804567 0.731941521 0.677039981
0.717393875 0.737508297 0.691587687
0.750917196 0.744592190 0.696015000
0.795952022 0.756356299 0.716508269
0.832637548 0.774446487 0.728019953
0.851360261 0.762175739 0.719165146
0.784060776 0.802783012 0.743074238
0.794181049 0.800379395 0.742315114
0.792030394 0.801265180 0.745097995
0.803794801 0.804301202 0.747248828
0.825047612 0.807842851 0.756989121
0.843263745 0.812397063 0.763314247
0.850727320 0.816065490 0.768880665
0.869702697 0.819354713 0.773940682
0.178367585 0.278810799 0.767615795
0.230992705 0.287918955 0.771157324
0.333206654 0.297279924 0.771789968
0.452245623 0.305882245 0.775458753
0.581277311 0.324983776 0.770018995
0.703352749 0.356989264 0.772928655
0.815559745 0.403921157 0.765717924
0.886400878 0.475142419 0.762302101
0.217457294 0.330297351 0.763567209
0.272738606 0.325743377 0.764832139
0.354332745 0.334092021 0.762049079
0.466919661 0.350537658 0.763061166
0.583933890 0.364579141 0.766729951
0.708791912 0.386084795 0.764705718
0.808348835 0.424920797 0.763820350
0.884756565 0.488425225 0.757495105
0.341429412 0.424668014 0.750537634
0.373814017 0.433017164 0.761163652
0.435546994 0.437191904 0.756609678
0.520050704 0.441492438 0.755850792
0.621252298 0.456420153 0.758633435
0.721441805 0.474003792 0.760404885
0.812396824 0.497532904 0.757368684
0.879822969 0.545983553 0.757621646
0.473118216 0.534977913 0.739784956
0.488930821 0.537760735 0.749019504
0.528020263 0.538899541 0.749651909
0.587349951 0.543200433 0.747627914
0.655661285 0.547501266 0.749272645
0.735863268 0.552941442 0.753826499
0.813155949 0.568247914 0.755977035
0.876154304 0.597596288 0.757115662
0.569513142 0.632384658 0.737760961
0.584819794 0.632131636 0.740670145
0.611511827 0.631878734 0.742947459
0.642125130 0.629222035 0.741808772
0.688804507 0.631498992 0.747754455
0.750537753 0.633902490 0.753193915
0.817204356 0.642125189 0.754332781
0.870714784 0.668058157 0.764452815
0.643896520 0.705755770 0.741555929
0.661606669 0.707273662 0.742947578
0.671094418 0.706894457 0.743706644
0.696267724 0.709550798 0.747121871
0.733839035 0.709930241 0.751296699
0.768627644 0.710056901 0.754205942
0.825553298 0.716255248 0.759898484
0.866793156 0.734345496 0.762555242
0.715749741 0.760151625 0.751802683
0.717520416 0.757621884 0.749904931
0.727893651 0.759772003 0.748386919
0.749652147 0.765464962 0.750537574
0.775584877 0.762175739 0.752687871
0.804174244 0.768248320 0.759898484
0.835293829 0.774826109 0.763820231
0.865527987 0.789120555 0.770398557
0.774193585 0.802782953 0.756989121
0.792536438 0.807969809 0.764832139
0.792536438 0.800126791 0.758380830
0.806071937 0.801517785 0.763820291
0.818468988 0.804047823 0.765717864
0.834788084 0.807337224 0.771283805
0.849715114 0.807843029 0.779253602
0.866793156 0.815812826 0.788487971
