Assets/EldamarStudio/100 Retro LUTs Pack/LUTs/cube/Theresa LUT.cube
LUT_3D_SIZE 5
DOMAIN_MIN 0.000000 0.000000 0.000000
DOMAIN_MAX 0.903226 0.903226 0.903226
0.047059000 0.066666998 0.050980002
0.121947698 0.095762290 0.080708295
0.265527993 0.135357410 0.097406581
0.526881397 0.195193127 0.147121996
0.814927399 0.268184811 0.222390980
0.049335711 0.173940405 0.110183701
0.135357410 0.189626992 0.114104696
0.276027799 0.218089700 0.134345278
0.546236277 0.273371577 0.171410412
0.810246587 0.345983386 0.240733802
0.000000000 0.437571228 0.207337409
0.175458372 0.448071212 0.211638093
0.450094759 0.486653805 0.230866402
0.663504362 0.489184201 0.260974407
0.815433204 0.494370788 0.318659216
0.440860361 0.701202154 0.431752235
0.474383086 0.700948834 0.429854244
0.615812957 0.706135273 0.467805266
0.760025144 0.722833395 0.519038439
0.871473968 0.734219015 0.562049150
0.746868730 0.813156009 0.664389610
0.759898603 0.812903225 0.669955671
0.784060419 0.819734156 0.687413037
0.835420787 0.820998967 0.709550977
0.862871826 0.820998967 0.736242771
0.050980002 0.088551708 0.143832996
0.134724990 0.095129706 0.148133680
0.298291951 0.139278576 0.186084688
0.535737276 0.210246712 0.218849108
0.808601916 0.297279924 0.298292398
0.089563996 0.175584704 0.161543399
0.157621399 0.208602384 0.177861989
0.294370800 0.237065107 0.203415409
0.552814841 0.285388708 0.240986526
0.814168036 0.365591377 0.313978404
0.149904802 0.427830607 0.274762809
0.224415228 0.444781810 0.277292788
0.472359180 0.485009521 0.303858519
0.638709486 0.476407498 0.313978374
0.814041376 0.514357924 0.382289916
0.494370550 0.695762396 0.477799118
0.530550301 0.702213824 0.478558123
0.631498992 0.703858554 0.510815799
0.769259751 0.725110710 0.549399257
0.864769161 0.731941700 0.583554864
0.755344629 0.818342805 0.670587897
0.764199734 0.816698074 0.683997631
0.795066655 0.816445410 0.704364300
0.830233812 0.819607973 0.715622902
0.859582841 0.822643697 0.738266826
0.013030007 0.109803997 0.315243810
0.166476697 0.122580700 0.313599110
0.352688223 0.141176000 0.333585948
0.695888638 0.183807567 0.423909217
0.857811749 0.332447767 0.442124963
0.092852995 0.230866387 0.314610809
0.178241685 0.230233967 0.321442097
0.383048505 0.247185409 0.348260492
0.681214571 0.305502802 0.419228375
0.835294068 0.409867346 0.452625036
0.245414212 0.414041370 0.374826193
0.325869799 0.438203365 0.387223214
0.528525770 0.493105799 0.446679354
0.659202874 0.498038948 0.438835949
0.815306365 0.546110094 0.495761931
0.593422115 0.672865272 0.557874799
0.613409281 0.679063678 0.561669827
0.665654778 0.696015537 0.565591276
0.775711119 0.721441686 0.605819166
0.847564936 0.718532383 0.610120296
0.778874040 0.809234977 0.710816205
0.777735472 0.815180361 0.710436225
0.802150488 0.814420998 0.721947968
0.837697744 0.816824615 0.740417659
0.869323194 0.823655784 0.751802623
0.000000000 0.163820133 0.570904255
0.205439821 0.167742133 0.566350400
0.456925929 0.174319699 0.575838149
0.710183263 0.213030130 0.596458256
0.897026777 0.423149854 0.639215827
0.063883647 0.288424850 0.557621539
0.237191528 0.290069699 0.560404956
0.471979767 0.298291832 0.567994952
0.707526982 0.339911550 0.585957825
0.891081810 0.503352046 0.646679401
0.344971776 0.497406542 0.556483388
0.415559888 0.506894410 0.562049150
0.565844178 0.520303547 0.586970150
0.729032397 0.551549673 0.610120416
0.869196713 0.615686119 0.653257370
0.581783354 0.659076273 0.596458197
0.612017870 0.665022254 0.611385405
0.686907232 0.677039742 0.628715694
0.782543004 0.713978291 0.665908158
0.844275653 0.703858316 0.659456134
0.792409956 0.805439830 0.735483766
0.796837568 0.805313289 0.743074119
0.820746124 0.810246825 0.749525547
0.843010843 0.815812826 0.756103635
0.865401983 0.819734156 0.766223788
0.178367585 0.278810799 0.767615795
0.303099155 0.292472810 0.767994881
0.510816216 0.317394197 0.772169352
0.732953787 0.368121356 0.767362475
0.886400878 0.475142419 0.762302101
0.319924116 0.400126517 0.761669934
0.394307494 0.408602327 0.757115662
0.559266210 0.424920648 0.760404348
0.744718373 0.459582746 0.763693750
0.878051817 0.532068372 0.761416912
0.550790608 0.593042374 0.745983422
0.578494489 0.593801677 0.749904931
0.651359737 0.594434083 0.748640180
0.764326453 0.605566204 0.757495046
0.876660407 0.638329804 0.767615676
0.660088658 0.716887951 0.740796804
0.680708349 0.721568525 0.745983779
0.721821666 0.722833693 0.748007417
0.785831869 0.725742757 0.756736100
0.866793156 0.751549482 0.763314307
0.774193585 0.802782953 0.756989121
0.792283356 0.799620867 0.763440788
0.808728397 0.800759256 0.764199555
0.842631042 0.808855176 0.772295952
0.866793156 0.815812826 0.788487971
