Assets/EldamarStudio/100 Retro LUTs Pack/LUTs/cube/Thomas LUT.cube
LUT_3D_SIZE 8
DOMAIN_MIN 0.000000 0.000000 0.000000
DOMAIN_MAX 0.903226 0.903226 0.903226
0.172548994 0.133332998 0.137254998
0.251233548 0.125489995 0.144718453
0.409108192 0.122327901 0.138013899
0.584060907 0.120430358 0.137254998
0.764832199 0.115243189 0.130297005
0.893611491 0.123466253 0.133332998
0.993422031 0.139531702 0.149020001
0.998734832 0.164832145 0.170145810
0.200379550 0.223782539 0.133332998
0.278684556 0.219860628 0.140037552
0.419228166 0.231246084 0.137254998
0.597469926 0.232384637 0.132194549
0.758633554 0.230360374 0.131056011
0.893864572 0.225806281 0.138013810
0.991777301 0.226944640 0.151423305
0.996204793 0.236685708 0.173687354
0.229601189 0.381657183 0.137381107
0.308033079 0.384313732 0.132321358
0.434029281 0.387097180 0.125489995
0.610752821 0.388994664 0.113345549
0.765717983 0.384061009 0.120683186
0.890322328 0.368753850 0.137507826
0.993422031 0.362175882 0.164579287
1.000000000 0.353447080 0.180897981
0.281846642 0.560530901 0.096900649
0.342061698 0.562555254 0.099936545
0.469070554 0.565338671 0.102340356
0.624920905 0.559898615 0.104237996
0.774446189 0.545097888 0.120176740
0.883997440 0.521315277 0.153446987
0.984060645 0.502719641 0.181657284
0.998481810 0.481593817 0.218722433
0.332448006 0.705376387 0.127387568
0.378368080 0.701581180 0.137128085
0.487539381 0.699178040 0.139279082
0.621252656 0.694876552 0.148766190
0.761796176 0.692979157 0.158760175
0.876786768 0.665021896 0.185452178
0.982163072 0.637191355 0.224667892
0.998481810 0.614168584 0.264263034
0.397722721 0.811384976 0.219101980
0.437318087 0.812017620 0.220746279
0.509044826 0.808601856 0.226818472
0.616065860 0.806578100 0.235800087
0.738772750 0.807463467 0.244276181
0.868184745 0.793674767 0.252498746
0.969133735 0.769133270 0.284883171
1.000000000 0.741808772 0.323212892
0.470841289 0.897659719 0.315622985
0.486654282 0.901581287 0.318279743
0.544592142 0.896774054 0.317014456
0.631498635 0.896647274 0.327513933
0.725110292 0.893611610 0.334218860
0.837950468 0.888171971 0.343326986
0.953194261 0.882606268 0.357115269
0.994181037 0.855661094 0.383301437
0.534977615 0.975331962 0.419860959
0.549778521 0.979633212 0.419354796
0.590259194 0.973434508 0.418089718
0.657811284 0.974066794 0.431372643
0.736622155 0.967109442 0.431751788
0.826312542 0.972043037 0.446552873
0.923972011 0.963946521 0.453510374
0.990891814 0.955724001 0.464262813
0.179253444 0.133332998 0.222264543
0.259076536 0.129411995 0.215180561
0.418089718 0.115749449 0.219860628
0.587602496 0.092599802 0.218342543
0.767615557 0.096015453 0.210752994
0.893485010 0.128020257 0.221884891
0.989499986 0.160910845 0.225679785
0.996457577 0.190259367 0.248956069
0.197216541 0.216698542 0.213156104
0.276280642 0.219860643 0.215559989
0.423529655 0.220619634 0.223023534
0.595825672 0.223402992 0.217963099
0.761796176 0.223782539 0.216824546
0.888424754 0.228083089 0.221758276
0.988488257 0.237824231 0.229980826
1.000000000 0.249209389 0.239847898
0.232890993 0.380771309 0.206578448
0.314737558 0.386717677 0.214421451
0.449842095 0.383934289 0.205692545
0.609614313 0.387856096 0.217583641
0.767615557 0.381277531 0.215433180
0.887286305 0.369133413 0.223782539
0.988614798 0.366097212 0.245287895
0.999240935 0.365591526 0.261606663
0.275901288 0.556609929 0.208855554
0.345224559 0.560657740 0.204554096
0.473750710 0.558633506 0.206072092
0.620620310 0.557115257 0.207969740
0.765338600 0.540290892 0.217330635
0.882606030 0.520430267 0.241239890
0.978621006 0.502340257 0.262365460
1.000000000 0.485135883 0.277040184
0.338140637 0.699177980 0.230993181
0.392789185 0.696647346 0.233143643
0.493865103 0.697659910 0.233016834
0.618343055 0.697659850 0.236559287
0.763187706 0.689310551 0.247817904
0.872865736 0.664263010 0.260974020
0.974825919 0.636053026 0.294876635
1.000000000 0.618595958 0.317267358
0.410246730 0.807716548 0.287033707
0.441113114 0.808475733 0.292726099
0.515749156 0.808475673 0.291713804
0.618722558 0.803415477 0.295003444
0.737254798 0.799114525 0.306388527
0.867425740 0.791651011 0.319038510
0.966477036 0.764579535 0.340544075
1.000000000 0.744718373 0.371916264
0.472991526 0.892852604 0.360278368
0.498292118 0.894749820 0.362682104
0.549399257 0.892726004 0.362934738
0.632890642 0.892473042 0.375584811
0.726628363 0.890069604 0.375079155
0.834788024 0.885009468 0.380012810
0.950917006 0.880708575 0.392915606
1.000000000 0.851233423 0.419607937
0.550790310 0.970904827 0.443137050
0.561796010 0.977103114 0.450980633
0.596963942 0.974066794 0.453004837
0.658696890 0.972422481 0.464009911
0.739025950 0.969259799 0.464136511
0.832763731 0.968501091 0.476660728
0.928399682 0.963061213 0.480835050
0.996204793 0.959012806 0.493358642
0.183554903 0.130170897 0.346363187
0.268817097 0.124351449 0.354965091
0.412271112 0.112966098 0.361290097
0.595825613 0.078178458 0.371030718
0.767236173 0.063377798 0.360531211
0.890069723 0.140543982 0.354079455
0.991777301 0.215180188 0.368374377
0.999240935 0.261859924 0.375964284
0.204301447 0.219101533 0.356862724
0.294370621 0.208476007 0.362049162
0.430613637 0.212017655 0.360405177
0.601771295 0.205313101 0.362428844
0.765844285 0.217077896 0.358633667
0.885009468 0.251106828 0.360910863
0.984313548 0.281973183 0.366730094
0.998734832 0.302846253 0.378873944
0.219481081 0.380771399 0.358127981
0.310815662 0.380012304 0.365591645
0.452245176 0.380771399 0.362808287
0.612396896 0.382795662 0.358001292
0.761037230 0.390259266 0.365844280
0.881467640 0.389753550 0.370651305
0.980645239 0.392536342 0.376850009
0.996837080 0.404048026 0.392410189
0.269829631 0.561037302 0.345730841
0.345983624 0.561037242 0.354079366
0.479570210 0.561037302 0.364326298
0.624541283 0.559519291 0.359139830
0.758001268 0.546236336 0.372928172
0.875522017 0.528146386 0.381024957
0.971157253 0.518405795 0.388488173
0.998481989 0.512460530 0.402530074
0.369766086 0.695256114 0.384819925
0.406198651 0.696521461 0.377861947
0.500822186 0.696015179 0.379886359
0.625047624 0.690954804 0.381404281
0.754838586 0.685009241 0.385452271
0.865780890 0.666287363 0.396458089
0.962682009 0.647438347 0.416065991
0.998861372 0.636053026 0.431245923
0.440227479 0.807463467 0.416066080
0.470461845 0.807337105 0.415812463
0.536495805 0.806578100 0.415306985
0.631245911 0.803415239 0.422643721
0.744212508 0.797596574 0.427324533
0.855660856 0.793674707 0.427577585
0.957494795 0.772928298 0.446046829
1.000000000 0.753699839 0.465781093
0.500063062 0.896015167 0.453763366
0.527007937 0.895635545 0.459329307
0.576091290 0.891967118 0.465275347
0.644275904 0.890069783 0.465654641
0.738393247 0.886527240 0.470082164
0.837570906 0.880708516 0.473877192
0.942441583 0.878684282 0.482479572
1.000000000 0.852119327 0.502466977
0.563946843 0.976596951 0.514357924
0.574826121 0.971916318 0.518532634
0.609993815 0.973434687 0.519924164
0.672991931 0.970018864 0.528020263
0.742188215 0.970777869 0.531562030
0.833143473 0.963061273 0.534724712
0.924984276 0.959898651 0.541935682
0.989500165 0.961669505 0.549651742
0.200000003 0.122707352 0.521189272
0.284630090 0.117267452 0.523845732
0.422011554 0.103984550 0.520303369
0.593548596 0.071094356 0.530170619
0.764958978 0.061353542 0.525869489
0.885262728 0.141808823 0.499557495
0.978873968 0.237823978 0.495888621
0.996078014 0.334724605 0.515116811
0.205060363 0.214800909 0.520303309
0.291334450 0.205692634 0.521062374
0.428209722 0.207717001 0.521315634
0.608855307 0.198608443 0.530929685
0.761037171 0.213029891 0.520430326
0.879570007 0.256040365 0.503984988
0.977735281 0.317520618 0.500696003
0.999620438 0.381024718 0.521568477
0.226565197 0.372548848 0.525363624
0.310815632 0.378873736 0.520936191
0.455028653 0.376850218 0.532447636
0.614800692 0.382036567 0.535610676
0.752814710 0.392915815 0.521568596
0.871727049 0.416318744 0.517141044
0.962934852 0.451359898 0.533586264
0.996457636 0.469829619 0.539658546
0.279696286 0.558253944 0.532953978
0.343833178 0.560278296 0.534471989
0.481088161 0.557115257 0.531688750
0.621505320 0.557115257 0.529664218
0.748640180 0.552435100 0.534472108
0.853130817 0.555976927 0.535484016
0.951549530 0.558760285 0.537508249
0.998481810 0.558633447 0.545856953
0.387602568 0.700822175 0.526881874
0.441745490 0.692472816 0.531561971
0.526248813 0.690954804 0.534851551
0.633649707 0.692472756 0.534724832
0.752181768 0.684250176 0.536749065
0.850221574 0.676786900 0.547374845
0.947375000 0.665907741 0.555344641
0.998861372 0.660214782 0.561416864
0.488298446 0.798355639 0.553320289
0.510562658 0.803541958 0.546742439
0.562049091 0.802276850 0.552055657
0.647438407 0.798355639 0.556483269
0.753826499 0.798355639 0.556483269
0.854522467 0.793674707 0.560278237
0.945351243 0.776343822 0.565464914
0.999240875 0.764705956 0.585452437
0.536875308 0.889310658 0.565464675
0.556230366 0.892346561 0.569259763
0.595445693 0.885642111 0.566603303
0.661859930 0.887665927 0.574446321
0.745983601 0.888931096 0.573307633
0.839595258 0.884250283 0.574572861
0.943074346 0.881467640 0.580645323
0.998734832 0.859962046 0.590259075
0.588614821 0.969133377 0.602782845
0.600379586 0.972422600 0.604553998
0.631372690 0.974826157 0.606957495
0.685515583 0.968880653 0.608096421
0.753573716 0.966603339 0.610119939
0.834787965 0.963820279 0.612144411
0.923718810 0.959519148 0.618469059
0.997722983 0.958253980 0.623023272
0.213282809 0.120050810 0.663757205
0.289690554 0.113345549 0.658317387
0.417837024 0.106514990 0.667046189
0.576091051 0.090828799 0.665654838
0.744591951 0.088172182 0.674889386
0.882985771 0.153826654 0.652498424
0.977609277 0.245540649 0.626312375
0.998861372 0.339026153 0.617077708
0.221758187 0.211512089 0.668564320
0.300443023 0.209993899 0.675648153
0.424794406 0.210752890 0.667299032
0.582036734 0.208728731 0.668184698
0.741808712 0.216065884 0.666666746
0.880708516 0.257937908 0.652245283
0.970145583 0.318279535 0.623402834
1.000000000 0.382163167 0.617077827
0.257558286 0.371410370 0.662239194
0.333839297 0.371789724 0.667805374
0.446679294 0.376091123 0.667046189
0.598861277 0.380771399 0.668564379
0.750917137 0.392536163 0.667046189
0.866666734 0.419481546 0.649715364
0.960278153 0.452751309 0.633902550
1.000000000 0.489310920 0.644022644
0.326628447 0.540797055 0.665780902
0.384186924 0.544212639 0.667805254
0.493990809 0.548133910 0.664516330
0.622390985 0.553573728 0.661100745
0.746236205 0.559519053 0.656673253
0.850474477 0.567362428 0.655534625
0.939785004 0.580265760 0.653890133
1.000000000 0.594307601 0.660088599
0.414294362 0.694496989 0.670082390
0.458696723 0.693738222 0.666666806
0.536116183 0.695256054 0.659962118
0.639215827 0.690195799 0.659456015
0.745477378 0.689689934 0.663757205
0.842631459 0.689689934 0.664136648
0.932827175 0.682732403 0.666919410
0.995951772 0.683238387 0.673751056
0.509424508 0.799999952 0.659455895
0.535736740 0.798608422 0.659962118
0.588488162 0.799494147 0.668058038
0.665021896 0.795572400 0.670968056
0.751043141 0.795951962 0.666034400
0.849083185 0.789626718 0.665528178
0.929285109 0.784566641 0.679822743
0.998734832 0.775964439 0.677039862
0.577609122 0.886654198 0.675521970
0.588741124 0.890069544 0.672359407
0.619355023 0.888172150 0.675774992
0.671853304 0.886527240 0.677672625
0.751929164 0.888171971 0.678051889
0.841998875 0.884250581 0.675648272
0.937381327 0.880329013 0.678684294
0.995698810 0.864136457 0.684629738
0.609107971 0.968880653 0.695382535
0.623402834 0.967615545 0.694496989
0.648956180 0.970525086 0.693864644
0.701201916 0.968880653 0.696900725
0.762049377 0.967742026 0.701960862
0.838456511 0.964199841 0.699177921
0.921315551 0.959898591 0.702973068
0.996331334 0.956989169 0.708032787
0.229348734 0.127387732 0.779759467
0.292220354 0.123339735 0.774320185
0.408475816 0.122201085 0.778368056
0.547881126 0.123718992 0.776723325
0.702593625 0.142315179 0.772801995
0.858191013 0.175964475 0.777988732
0.974319994 0.253383994 0.749651670
0.999240935 0.344718665 0.724098563
0.245920256 0.212271094 0.768754005
0.303731740 0.216445088 0.777482271
0.413409442 0.221378818 0.776217639
0.556103647 0.225932822 0.775079012
0.699810266 0.240354270 0.780265629
0.857811570 0.267805308 0.773940742
0.959519088 0.320303351 0.748133898
1.000000000 0.383807451 0.723339558
0.297280341 0.373307943 0.775584757
0.345351279 0.381910056 0.773813784
0.443137527 0.376850218 0.779127121
0.577735305 0.383807659 0.777229667
0.716381967 0.400758713 0.778241277
0.852498710 0.419607848 0.771663666
0.956230044 0.451992184 0.756230474
0.999240935 0.491208166 0.741429567
0.376850009 0.529158711 0.775711477
0.420999616 0.537887692 0.773940563
0.504237831 0.546869278 0.773307860
0.611764550 0.550790310 0.767236114
0.726628363 0.557874382 0.769513190
0.848450720 0.562681973 0.762175679
0.933965802 0.576723576 0.748387158
1.000000000 0.592283368 0.745604217
0.457558155 0.671979725 0.777735889
0.487033635 0.678304732 0.773813903
0.553699970 0.681088030 0.772042990
0.643137455 0.684756577 0.773307920
0.739152133 0.688172162 0.766603291
0.839848101 0.684250176 0.762175739
0.927513957 0.690954924 0.758633733
0.997469962 0.701455116 0.769259870
0.517267466 0.799493968 0.766223729
0.541556001 0.799873531 0.773307681
0.593801320 0.800632596 0.777229667
0.667425692 0.793548703 0.769259810
0.751422703 0.793548703 0.769006968
0.840860248 0.789626718 0.771916449
0.921948254 0.793295264 0.774572730
0.993042231 0.786464334 0.773560941
0.581656992 0.884123981 0.757369041
0.602277040 0.884882987 0.766856611
0.638709664 0.884630024 0.765718043
0.693611503 0.886527240 0.772042990
0.762302399 0.880329132 0.777988613
0.831246018 0.884882987 0.776217520
0.923718989 0.877419531 0.779127002
0.995825291 0.868690789 0.778747559
0.649715483 0.972043037 0.787096918
0.665401459 0.965844274 0.789626718
0.695635855 0.964326084 0.796710730
0.726502180 0.964579403 0.794687092
0.770524919 0.964958966 0.790385842
0.834281683 0.962175786 0.789120674
0.919797480 0.958760321 0.788994610
0.996204793 0.950916946 0.795698822
0.233649701 0.144086286 0.877040029
0.287286758 0.145477548 0.872865558
0.397469908 0.147248566 0.880202293
0.526755273 0.160910651 0.877672255
0.674257040 0.182289377 0.872359276
0.811638236 0.220367014 0.874509811
0.951549590 0.265274972 0.869829535
0.999620438 0.350284517 0.852878153
0.257685244 0.225932822 0.873624682
0.303099245 0.226059332 0.875901461
0.406831115 0.232637554 0.875015855
0.533333540 0.248450190 0.874509871
0.673750639 0.259456128 0.871979952
0.813662469 0.291461289 0.865781009
0.941429257 0.327387363 0.865654588
1.000000000 0.382289648 0.836938381
0.317267299 0.376090914 0.874889374
0.362049401 0.383175284 0.880961776
0.443516999 0.386338115 0.873245060
0.560910702 0.392915815 0.875268936
0.688172162 0.410626203 0.870082200
0.813535571 0.426186025 0.868311405
0.943073988 0.449588984 0.866919279
0.997722745 0.492093474 0.840354264
0.419354647 0.535230994 0.867046177
0.445667446 0.539911449 0.866413653
0.507906377 0.545351267 0.868564010
0.601897299 0.547627985 0.865275025
0.705755711 0.558001220 0.867172718
0.819481492 0.556736052 0.861732841
0.935357213 0.568880558 0.861986041
0.998861372 0.588108599 0.843263447
0.474130481 0.663883626 0.862112463
0.504237831 0.668184638 0.869196653
0.556356609 0.674889386 0.864516079
0.633776009 0.678052127 0.863757014
0.722833157 0.678810954 0.859962285
0.822264433 0.678051889 0.862618506
0.926628232 0.686653972 0.856673241
0.996204793 0.696141720 0.847185433
0.535736740 0.783807456 0.870714724
0.556230247 0.788488269 0.862998247
0.603162766 0.787855983 0.866413593
0.666034400 0.790259361 0.867931962
0.744212627 0.789626718 0.864009976
0.828336716 0.786084712 0.861227036
0.919544578 0.791271448 0.862744808
0.992030382 0.800126553 0.853257298
0.580012321 0.886527240 0.859709263
0.595699251 0.886527300 0.856546283
0.633396268 0.885768414 0.858191073
0.692599654 0.883744657 0.860214949
0.759519458 0.881088078 0.859076321
0.835167408 0.881847262 0.866539836
0.913978279 0.878684282 0.859076262
0.986843526 0.879949450 0.864263117
0.655913949 0.962681651 0.851360023
0.677166402 0.963061273 0.861986279
0.697659791 0.958633482 0.863757253
0.740290761 0.959898591 0.869829416
0.795825422 0.962302148 0.874763250
0.850348175 0.959645987 0.871600330
0.909551084 0.960657537 0.873244822
0.987729132 0.951549351 0.874763250
0.247059003 0.167488977 0.964958966
0.297153980 0.171283826 0.960025430
0.392283261 0.178621083 0.965718031
0.510689437 0.190638825 0.966477156
0.646426558 0.224288344 0.964705646
0.779632866 0.256799549 0.962428808
0.903352499 0.308159441 0.961543143
1.000000000 0.362428635 0.951928794
0.262618691 0.243010998 0.963061512
0.314357907 0.243390545 0.960151315
0.399747103 0.251739323 0.962049067
0.519291759 0.267552346 0.959519148
0.646173537 0.289057583 0.963693798
0.773813963 0.321568549 0.955597460
0.904491186 0.355217934 0.951802492
0.998355329 0.399494261 0.960277915
0.332320899 0.382416099 0.955976844
0.374446362 0.387982488 0.964073539
0.448829919 0.392283350 0.965464711
0.543833196 0.405945271 0.956988931
0.662871659 0.423150092 0.956735909
0.783554673 0.444022834 0.956482887
0.903858185 0.465021938 0.953953028
0.998102367 0.492473006 0.950537801
0.423656166 0.537508249 0.951928794
0.454269528 0.541176617 0.957368791
0.511828005 0.544212639 0.953194201
0.592283487 0.552055657 0.955850780
0.686147749 0.557242095 0.951549351
0.793548763 0.566224158 0.951549470
0.903984904 0.573307931 0.951802611
0.998481929 0.585199475 0.944085836
0.496141821 0.660467803 0.949272633
0.520176828 0.670462012 0.952055573
0.563314378 0.672612429 0.949272633
0.627956808 0.673624575 0.947627962
0.709045053 0.673624575 0.948007762
0.805060148 0.679063976 0.948892772
0.907021046 0.681594014 0.950917244
0.997216761 0.693358362 0.950663924
0.544085979 0.775964439 0.947628081
0.572548985 0.774066746 0.953700125
0.604300976 0.781150818 0.941556096
0.665148735 0.781909764 0.945856929
0.738393366 0.786211431 0.949905038
0.817710519 0.786337793 0.946868956
0.904743731 0.787729442 0.950410843
0.993674994 0.793548763 0.947248697
0.594054580 0.874763250 0.940037966
0.611005723 0.873371243 0.942694843
0.644402385 0.875142634 0.948134005
0.696015298 0.875648558 0.944844782
0.760910869 0.880329072 0.948640049
0.832131624 0.881847203 0.947248757
0.908792078 0.876407564 0.944465399
0.983933926 0.884630084 0.939785242
0.651233673 0.968753815 0.934725046
0.669196308 0.968880653 0.946615934
0.685641766 0.970145762 0.949272633
0.735230803 0.965211987 0.946616173
0.785832047 0.962302148 0.945350945
0.855281532 0.961543202 0.948007762
0.912460566 0.954458833 0.947122037
0.975205898 0.954458833 0.954585612
