Assets/EldamarStudio/100 Retro LUTs Pack/LUTs/cube/Thomas LUT.cube
LUT_3D_SIZE 5
DOMAIN_MIN 0.000000 0.000000 0.000000
DOMAIN_MAX 0.903226 0.903226 0.903226
0.172548994 0.133332998 0.137254998
0.368121386 0.121569000 0.141809002
0.680708349 0.117647000 0.130677000
0.919924259 0.126502126 0.135356992
0.998734832 0.164832145 0.170145810
0.218974993 0.340670407 0.141176000
0.396837384 0.340037793 0.130043998
0.697026789 0.350790679 0.123466007
0.922200978 0.331815094 0.142567843
1.000000000 0.322327405 0.176850110
0.309929967 0.637444377 0.100695997
0.447565109 0.640100956 0.106894284
0.702846348 0.635546744 0.129537985
0.908032835 0.585831344 0.174952537
0.999367416 0.550537646 0.244654968
0.412903130 0.831625283 0.242378116
0.495888710 0.829348564 0.239721686
0.670461655 0.830613136 0.255534530
0.889437139 0.815939307 0.276786983
0.998734832 0.775711536 0.337887287
0.534977615 0.975331962 0.419860959
0.578620970 0.977988839 0.419607937
0.692978978 0.972801924 0.433143765
0.847818017 0.972801924 0.446805626
0.990891814 0.955724001 0.464262813
0.179759994 0.131688714 0.309930414
0.372043401 0.120556295 0.323339701
0.690196037 0.056799591 0.321315706
0.923466146 0.163567409 0.320177108
0.998987913 0.241366223 0.343326986
0.213409290 0.336748391 0.321695417
0.406704366 0.334471703 0.318785697
0.695382535 0.345604092 0.323972106
0.913345873 0.348513395 0.336748838
0.996331275 0.363567233 0.356989413
0.317773402 0.636812449 0.323972136
0.451106966 0.635167658 0.328272969
0.701834083 0.628336847 0.333839089
0.900569558 0.592662692 0.356989413
0.997976005 0.571410418 0.392663091
0.450854123 0.827703953 0.391777247
0.518532395 0.831625283 0.398355842
0.683491528 0.824414849 0.401897520
0.886527419 0.819481134 0.416192293
0.998734832 0.777988434 0.445034802
0.558127522 0.980897903 0.494117498
0.599114537 0.970904648 0.510309875
0.702466488 0.968501091 0.510436654
0.855660856 0.961037219 0.521568477
0.993801117 0.961922884 0.537507832
0.213155985 0.122201420 0.598355353
0.384439975 0.103858009 0.593674839
0.674762785 0.059456419 0.606830835
0.913345873 0.168880254 0.568880796
0.998734832 0.331055939 0.564958811
0.235041112 0.329285085 0.607463360
0.407336950 0.327893704 0.606451571
0.688804507 0.336748838 0.606451511
0.895003021 0.384566545 0.580644965
1.000000000 0.462365389 0.588108718
0.344718397 0.632890821 0.603542209
0.475648135 0.632257760 0.600885808
0.694370806 0.625680208 0.608095825
0.870841444 0.628336430 0.603795111
1.000000000 0.625680208 0.615939021
0.523718953 0.823149860 0.611258388
0.572422683 0.827324510 0.609740674
0.699557364 0.818849146 0.612903237
0.872485697 0.813915253 0.617457151
1.000000000 0.797596395 0.630866408
0.591650546 0.970778227 0.651233673
0.628716111 0.967236161 0.644402027
0.719797373 0.966856420 0.648576796
0.854016602 0.963314295 0.655787408
0.994687021 0.953826368 0.662239254
0.230360866 0.131435990 0.809108138
0.371030688 0.127513990 0.801644623
0.614927053 0.143959254 0.802277267
0.886527240 0.200252980 0.802277267
1.000000000 0.347754508 0.757495284
0.281087816 0.333839267 0.803921402
0.408981502 0.336115986 0.809740901
0.635800123 0.355091572 0.805818915
0.875775099 0.387476265 0.799241126
1.000000000 0.465907753 0.765970886
0.429222286 0.608095825 0.793674886
0.516508400 0.614294648 0.793042421
0.676027834 0.625679851 0.800632536
0.869197130 0.631246090 0.791777372
0.997722685 0.651866257 0.777608871
0.534472108 0.822770119 0.789500117
0.592283428 0.822390854 0.802783012
0.710942090 0.818849146 0.796331286
0.857052207 0.815939248 0.799241126
0.992283165 0.812270999 0.802909315
0.653004646 0.970524907 0.804806828
0.689563692 0.963314533 0.812903225
0.756988943 0.961669505 0.816951513
0.857052267 0.963946819 0.809107959
0.993674815 0.953193784 0.813915133
0.247059003 0.167488977 0.964958966
0.366476864 0.176596820 0.961416483
0.575331986 0.210625976 0.966983199
0.808728635 0.269449830 0.957115650
1.000000000 0.362428635 0.951928794
0.319417685 0.346489578 0.960025251
0.410879284 0.355091393 0.963440776
0.597849250 0.378621399 0.960404336
0.814927340 0.414927244 0.954205930
0.996078074 0.468184799 0.952561796
0.478557974 0.609993398 0.960404336
0.531815529 0.611258566 0.953952789
0.657684803 0.618469000 0.953193963
0.825300574 0.630613565 0.951296389
0.999367416 0.643389940 0.945983350
0.552435160 0.801517844 0.945603967
0.602783024 0.804174244 0.951675951
0.707400382 0.809993804 0.949019492
0.839974999 0.807084143 0.945603967
0.991650939 0.816571832 0.948007762
0.651233673 0.968753815 0.934725046
0.681593955 0.966603696 0.942694366
0.758380771 0.962302148 0.945350766
0.869449854 0.961542964 0.946995616
0.975205898 0.954458833 0.954585612
