Assets/EldamarStudio/100 Retro LUTs Pack/LUTs/cube/Thomas LUT.cube
DOMAIN_MIN 0 0 0
DOMAIN_MAX 1 1 1
LUT_3D_SIZE 32
0.172548994 0.133332998 0.137254998
0.187729388 0.130297378 0.134218603
0.205059990 0.129411995 0.137633994
0.225806311 0.128146827 0.142441168
0.251233548 0.125489995 0.144718453
0.284629941 0.125489995 0.141682059
0.325616628 0.122960322 0.143706322
0.368121386 0.121569000 0.141809002
0.409108192 0.122327901 0.138013899
0.445540994 0.125363514 0.141049519
0.493611753 0.122580871 0.135356992
0.538140535 0.121569000 0.135357261
0.584060907 0.120430358 0.137254998
0.635168016 0.117647000 0.136748999
0.680708349 0.117647000 0.130677000
0.723845541 0.115243196 0.131815195
0.764832199 0.115243189 0.130297005
0.803035736 0.118279576 0.126122564
0.836432934 0.121315971 0.129158959
0.867046058 0.121569000 0.132194638
0.893611491 0.123466253 0.133332998
0.919924259 0.126502126 0.135356992
0.950158536 0.129664987 0.141429022
0.977482915 0.135737002 0.147501811
0.993422031 0.139531702 0.149020001
0.998608351 0.143959343 0.150411323
0.996078014 0.150031999 0.153447062
0.996078014 0.156103998 0.156483456
0.998734832 0.164832145 0.170145810
1.000000000 0.170398206 0.178241760
1.000000000 0.176976591 0.183048591
1.000000000 0.192157000 0.192157000
0.169512600 0.148513392 0.140290618
0.184692994 0.145477772 0.143326998
0.210626155 0.151043624 0.135989621
0.234914705 0.149905175 0.136369169
0.260721356 0.143706769 0.139405459
0.296773940 0.143706769 0.141682059
0.327640623 0.141176447 0.136115998
0.371410370 0.143074006 0.137634322
0.415180176 0.145098105 0.136495903
0.451612979 0.143580288 0.134977520
0.493864745 0.146615893 0.140923008
0.542188466 0.143833265 0.139404997
0.587855935 0.143959746 0.138013616
0.635168016 0.144718423 0.134471640
0.680708349 0.141935781 0.136748999
0.721441746 0.139531970 0.128273204
0.761796176 0.138013780 0.128779188
0.799999893 0.139531970 0.129791379
0.833396554 0.142568365 0.135230944
0.864010334 0.142821386 0.129917994
0.892473102 0.144718647 0.128399640
0.919924259 0.148766384 0.129284993
0.949905515 0.153700009 0.135483503
0.971410930 0.153953016 0.144465417
0.991904020 0.157748282 0.152814895
1.000000000 0.162175760 0.156483322
0.999114394 0.168247998 0.159519061
0.999114394 0.174319997 0.162555456
0.999114394 0.177735835 0.165591151
0.996457994 0.182542533 0.173940659
0.994813383 0.188235208 0.181783751
0.996963620 0.201265395 0.195192620
0.172928542 0.170145541 0.141176000
0.188108385 0.167109385 0.139911398
0.205439553 0.166224003 0.142947227
0.238330320 0.171536773 0.133839160
0.266920000 0.166224003 0.133713007
0.299809992 0.166224003 0.138519838
0.335483640 0.165844455 0.138266772
0.369133413 0.164452776 0.132194772
0.413409114 0.168753862 0.133712903
0.451233208 0.168501258 0.133459508
0.497785956 0.173434675 0.141302764
0.540290773 0.170398548 0.137254521
0.588614762 0.169513136 0.136875004
0.635421038 0.172042817 0.133080035
0.682859123 0.169007197 0.132321417
0.727893531 0.165970966 0.132194966
0.764325976 0.162934974 0.127640769
0.799999952 0.162934959 0.130044416
0.830360770 0.165970966 0.134598225
0.865274966 0.166224003 0.133839205
0.893737972 0.168121740 0.131562218
0.920050442 0.170145541 0.130803123
0.948134243 0.173940539 0.135989755
0.975458920 0.177988544 0.147121906
0.990132987 0.178115055 0.149778515
0.998608351 0.181151092 0.154712230
0.998355269 0.185958058 0.158001080
1.000000000 0.190385774 0.164326459
0.997849226 0.191650838 0.169512928
0.997849226 0.201771185 0.172548980
0.994307220 0.206324920 0.181783974
0.996078014 0.214674219 0.198228776
0.184060991 0.195699155 0.138646007
0.195445776 0.191397920 0.139405221
0.211511537 0.193042308 0.138140380
0.237318307 0.191777155 0.141176000
0.273371577 0.191777155 0.133965924
0.304617137 0.191777155 0.140038162
0.338772655 0.194307148 0.137254998
0.375205427 0.195572317 0.136495993
0.414674193 0.195572317 0.133459985
0.455660671 0.198102638 0.137001678
0.498797894 0.200252995 0.138266712
0.545856655 0.202024162 0.139025748
0.589500070 0.199367791 0.133332998
0.637445033 0.202150479 0.133080035
0.683997810 0.200126737 0.130044416
0.726375639 0.195825338 0.130676836
0.765844345 0.196584508 0.128146827
0.798608124 0.193548739 0.129411817
0.826565623 0.195319355 0.133080035
0.863504171 0.194307148 0.134598166
0.895508766 0.193674892 0.135862991
0.921821237 0.195699155 0.135862991
0.946236491 0.195825636 0.138899341
0.975458682 0.200758994 0.149905011
0.993422031 0.202276990 0.151676163
0.999873519 0.201138645 0.154206172
0.995825112 0.205186397 0.154712111
0.995825291 0.209740773 0.162302285
0.998608351 0.211385161 0.172548980
0.997343183 0.216445178 0.176850200
0.997343183 0.226312608 0.183428586
0.997343183 0.228589326 0.201265171
0.200379550 0.223782539 0.133332998
0.206831008 0.218090102 0.139404997
0.220113769 0.219481543 0.138646230
0.243010774 0.222517461 0.138899386
0.278684556 0.219860628 0.140037552
0.312080950 0.219860628 0.146110326
0.345856875 0.224920630 0.142188683
0.380897969 0.229348257 0.137254998
0.419228166 0.231246084 0.137254998
0.467804998 0.231246084 0.143326998
0.505882323 0.229095221 0.135989666
0.550790489 0.230107352 0.132953539
0.597469926 0.232384637 0.132194549
0.642758071 0.235673994 0.132447511
0.685262799 0.235926986 0.129664868
0.722959995 0.231119484 0.131056190
0.758633554 0.230360374 0.131056011
0.791777492 0.234914973 0.126754984
0.822137654 0.231878579 0.132826999
0.859329522 0.228842288 0.134977803
0.893864572 0.225806281 0.138013810
0.921441674 0.223782539 0.140796542
0.945730448 0.223782539 0.141176045
0.972801864 0.226565182 0.150284454
0.991777301 0.226944640 0.151423305
1.000000000 0.226312220 0.151802987
0.999620497 0.224162057 0.157748491
0.990512133 0.233270437 0.160784096
0.996204793 0.236685708 0.173687354
1.000000000 0.241492525 0.182542667
1.000000000 0.245667160 0.187982500
1.000000000 0.242631540 0.203162909
0.203415945 0.257178932 0.133332998
0.212523550 0.254143298 0.139404997
0.229727775 0.250601113 0.136875004
0.252498150 0.251613081 0.137634218
0.281720161 0.253257781 0.143073946
0.312080950 0.253257781 0.130929932
0.348007649 0.258317798 0.142062068
0.383934349 0.262745082 0.140797004
0.421126038 0.264263034 0.135737002
0.461733013 0.261606872 0.131182998
0.507400632 0.264515996 0.131435990
0.555471182 0.266540110 0.129917935
0.602023900 0.267299235 0.127640933
0.642758071 0.266034007 0.123339899
0.685262799 0.272105992 0.126375496
0.722959995 0.267552018 0.125996053
0.760910571 0.264515877 0.129537985
0.798102498 0.265527993 0.132321000
0.831246018 0.265274972 0.132826984
0.858823299 0.262239307 0.127766982
0.893864512 0.259203047 0.128905803
0.923212945 0.257178932 0.132953927
0.942694068 0.257178932 0.138140440
0.966982901 0.257178932 0.147248849
0.989500225 0.255408168 0.154079944
1.000000000 0.255661130 0.155851007
1.000000000 0.257178932 0.157875001
0.999620497 0.257558435 0.163820490
0.998481929 0.258697003 0.172169760
1.000000000 0.262744904 0.182289690
1.000000000 0.267931551 0.189500049
1.000000000 0.269955933 0.197090134
0.211511672 0.298165649 0.138393000
0.228210256 0.295129389 0.136875317
0.243769631 0.294243991 0.140796542
0.264642477 0.292852312 0.138393000
0.289816409 0.294243991 0.141429231
0.320177197 0.294243991 0.131435990
0.358127624 0.294243991 0.131941676
0.394560397 0.298671693 0.135863394
0.433270305 0.301707745 0.132953897
0.476281136 0.302214116 0.132194683
0.513978302 0.304996759 0.129411995
0.557495236 0.308032900 0.131435737
0.606451273 0.309930652 0.131941676
0.650347769 0.308538973 0.128905699
0.692852497 0.310056984 0.127387896
0.732954085 0.308918148 0.125616521
0.766476631 0.306008637 0.127008185
0.801644385 0.305376232 0.131435737
0.835041344 0.303478956 0.133332998
0.867931664 0.298165351 0.135357320
0.893358290 0.297026992 0.134977579
0.924225032 0.294623435 0.139025941
0.947248638 0.292979121 0.144845322
0.971536815 0.290575325 0.146742910
0.986716986 0.290575325 0.151296705
0.998861313 0.290575683 0.158507347
1.000000000 0.292599559 0.162935004
1.000000000 0.290575325 0.169006988
1.000000000 0.290575325 0.172675818
0.996457994 0.290575325 0.180012971
0.995825350 0.294243932 0.188361689
0.997469664 0.297280312 0.196078002
0.218974993 0.340670407 0.141176000
0.245414466 0.335989714 0.138140380
0.253763705 0.336748391 0.127893522
0.275774866 0.338013560 0.137254626
0.298924714 0.337634087 0.138013721
0.329285145 0.335104108 0.127640933
0.362302303 0.338393092 0.131941676
0.396837384 0.340037793 0.130043998
0.437824190 0.343833089 0.125490189
0.486021757 0.347754896 0.124983817
0.524477959 0.347501516 0.127134874
0.563314259 0.347248673 0.123213038
0.606957376 0.350284785 0.123971939
0.654522061 0.350790679 0.123718970
0.697026789 0.350790679 0.123466007
0.733839393 0.348387301 0.123719193
0.771790028 0.345350921 0.123719193
0.803035736 0.344591826 0.127387986
0.836432934 0.341555953 0.131435752
0.864895701 0.335736692 0.134471640
0.895888686 0.331815094 0.137507975
0.922200978 0.331815094 0.142567843
0.950158536 0.329538405 0.149399474
0.975964725 0.328020215 0.153953284
0.991144717 0.325616419 0.156230405
0.997722745 0.322833419 0.156483024
1.000000000 0.324604690 0.164579347
1.000000000 0.322706968 0.171789989
1.000000000 0.322327405 0.176850110
0.999746978 0.322327405 0.186590970
0.995445967 0.321441799 0.193548590
0.997722745 0.322959989 0.202656418
0.229601189 0.381657183 0.137381107
0.255408168 0.378621191 0.134345293
0.269703001 0.378241539 0.125869632
0.281847239 0.382036358 0.116761133
0.308033079 0.384313732 0.132321358
0.336875081 0.378621280 0.121315911
0.368753731 0.380392194 0.126122683
0.401391387 0.384819895 0.129285097
0.434029281 0.387097180 0.125489995
0.488678068 0.393169194 0.116381615
0.529538095 0.392789423 0.118026547
0.569765866 0.390512437 0.116761588
0.610752821 0.388994664 0.113345549
0.655281186 0.391524255 0.110815927
0.696267903 0.391018182 0.113851674
0.732321382 0.388615012 0.116887897
0.765717983 0.384061009 0.120683186
0.801517725 0.382922173 0.123719417
0.834914923 0.380265325 0.129664898
0.862239063 0.373687208 0.133712634
0.890322328 0.368753850 0.137507826
0.918406069 0.365212083 0.141050026
0.948640347 0.365085572 0.150031894
0.975964904 0.364452988 0.158507109
0.993422031 0.362175882 0.164579287
1.000000000 0.359266192 0.167109415
1.000000000 0.353194177 0.166603088
1.000000000 0.352688193 0.175964445
1.000000000 0.353447080 0.180897981
1.000000000 0.351929098 0.192283168
1.000000000 0.353320569 0.204174593
1.000000000 0.350284189 0.213283002
0.253889978 0.418089986 0.122201473
0.256926358 0.424162000 0.119165093
0.271979988 0.425427020 0.120430276
0.294497311 0.428083509 0.118785642
0.323213458 0.432890564 0.114104569
0.341429472 0.429854929 0.111068964
0.375332117 0.426692188 0.115243517
0.413156182 0.427324712 0.119797707
0.452245265 0.429601997 0.122454375
0.491714478 0.429601997 0.125489995
0.534725249 0.435673982 0.116381608
0.577103496 0.437318474 0.111954287
0.619481802 0.437191993 0.111068830
0.661354005 0.437065452 0.113851547
0.694750369 0.434029073 0.116887935
0.730930030 0.431119800 0.119924285
0.764199972 0.425047815 0.124478474
0.795445740 0.419354975 0.129791409
0.828842938 0.425426990 0.132827044
0.862239420 0.417204142 0.138772532
0.893358469 0.410120010 0.144718468
0.920682669 0.404174507 0.149652347
0.942567527 0.398482025 0.153067514
0.969892740 0.395445585 0.159139529
0.990386009 0.392536312 0.167615280
1.000000000 0.390891999 0.175078988
1.000000000 0.389626980 0.181783482
1.000000000 0.383554995 0.193927482
1.000000000 0.385705173 0.195318997
1.000000000 0.383301556 0.204427183
1.000000000 0.381024510 0.216065601
1.000000000 0.386716992 0.219354987
0.260720998 0.469070584 0.109930255
0.269576371 0.466413736 0.121442482
0.279064000 0.470335513 0.107653320
0.297027171 0.474889457 0.109171256
0.323213220 0.480708301 0.114104547
0.356609881 0.472612649 0.116128929
0.384946495 0.474636406 0.108032674
0.420619845 0.474003732 0.110562831
0.458823293 0.475015849 0.112840131
0.498292446 0.475015849 0.113725521
0.534851730 0.477925748 0.110942133
0.577356517 0.479949743 0.107905999
0.619861305 0.479949743 0.108032770
0.661860049 0.479443729 0.111068837
0.697912514 0.473751187 0.114104547
0.733712673 0.470714808 0.117140934
0.767109454 0.466160864 0.121695124
0.797469974 0.459709167 0.127134711
0.828589916 0.458949864 0.130170926
0.864769042 0.451107234 0.135989875
0.894496858 0.449588865 0.143959612
0.921821237 0.445540607 0.150031865
0.944844842 0.437570870 0.153320506
0.963819981 0.431751817 0.162175879
0.984313846 0.426438719 0.170525149
0.996963918 0.424161851 0.179633170
1.000000000 0.423655927 0.187729061
1.000000000 0.419987738 0.197469860
1.000000000 0.421884894 0.198987871
1.000000000 0.417836547 0.204301074
1.000000000 0.413282454 0.216318846
1.000000000 0.417330742 0.225427002
0.270841002 0.514611006 0.101833999
0.281973630 0.515623093 0.109930262
0.295255959 0.512839794 0.108665451
0.308665156 0.515876174 0.098039001
0.329538077 0.522327483 0.105249554
0.362681866 0.518153191 0.104996942
0.396078378 0.519165397 0.110056676
0.428083837 0.520556748 0.104237713
0.464895636 0.520556748 0.106514901
0.504364431 0.520556748 0.107779741
0.540923715 0.519418120 0.104870394
0.579380214 0.520430267 0.103858262
0.621885002 0.520430267 0.104996614
0.663630784 0.520177245 0.107526772
0.698291957 0.515875995 0.107020847
0.738772571 0.510183454 0.114104547
0.770651221 0.505629241 0.118659131
0.799873471 0.499557257 0.124731250
0.828842998 0.495129526 0.129158974
0.856673002 0.490575314 0.139025986
0.889310479 0.483364999 0.145098001
0.914737403 0.482985258 0.154079869
0.938140512 0.475015521 0.159266248
0.962049305 0.468943506 0.166476905
0.986337543 0.466919512 0.175585270
0.994813323 0.459455848 0.184693307
0.998481810 0.456546247 0.193295121
1.000000000 0.451992422 0.200885713
0.997975767 0.450221658 0.208095998
0.997975767 0.449715286 0.213409185
0.997975767 0.443769515 0.221631974
0.997975767 0.445667267 0.231498986
0.281846642 0.560530901 0.096900649
0.295129776 0.561290324 0.101834007
0.309424520 0.562302113 0.101581000
0.325742781 0.560657442 0.100315996
0.342061698 0.562555254 0.099936545
0.370904505 0.561037302 0.096900940
0.401517957 0.563567638 0.100569323
0.434914470 0.563820660 0.103099070
0.469070554 0.565338671 0.102340356
0.508159518 0.566097617 0.105755515
0.546995759 0.562049448 0.102972873
0.585452259 0.561037302 0.103099354
0.624920905 0.559898615 0.104237996
0.666919649 0.559392631 0.107273608
0.701201379 0.555470884 0.106008776
0.739531577 0.551169932 0.112586834
0.774446189 0.545097888 0.120176740
0.801138163 0.538393319 0.126881927
0.827957332 0.531815290 0.133460015
0.854775608 0.529664516 0.143959656
0.883997440 0.521315277 0.153446987
0.911322117 0.517267287 0.159519255
0.932954013 0.511574745 0.168501124
0.961290538 0.506514668 0.175585002
0.984060645 0.502719641 0.181657284
0.999746978 0.499683619 0.191903949
0.997216642 0.490575194 0.201517642
0.999620438 0.483870625 0.208855242
0.998481810 0.481593817 0.218722433
0.997216642 0.478558064 0.227830186
0.996331036 0.476407290 0.236053199
0.996078014 0.476407290 0.242125288
0.291714013 0.610119998 0.094623998
0.305882394 0.607590437 0.097659610
0.321315765 0.608602285 0.098545000
0.337761045 0.609867036 0.100822031
0.356989086 0.610373020 0.106008545
0.381277859 0.604301035 0.102972932
0.408349335 0.605060339 0.102213971
0.437950730 0.605566323 0.101075321
0.472106159 0.604048073 0.100062996
0.508538961 0.610119998 0.106134996
0.550031781 0.604807019 0.103731841
0.590259314 0.602783024 0.104490735
0.629727900 0.601897478 0.107779674
0.669450045 0.599114060 0.111322001
0.705881953 0.593042076 0.114357613
0.741808593 0.589120865 0.121947795
0.774193227 0.584567010 0.129791021
0.801391184 0.577862442 0.135483608
0.825680017 0.568754077 0.144592017
0.855281711 0.567489028 0.154206321
0.886780679 0.558507323 0.162808284
0.916382134 0.547881067 0.171157256
0.937761009 0.547628045 0.177482978
0.967868745 0.544465125 0.186717138
0.987349749 0.539405107 0.192030281
0.997469664 0.533333063 0.198482022
0.999746978 0.527007997 0.210879058
0.999746978 0.517899632 0.223023042
1.000000000 0.516508102 0.234914616
0.999746978 0.514737308 0.244781777
0.998861432 0.512334049 0.253763199
0.995825052 0.512334049 0.259835988
0.309929967 0.637444377 0.100695997
0.312966377 0.640480816 0.103731602
0.329284996 0.640101433 0.104616992
0.346868902 0.638203859 0.105882153
0.366223961 0.635294259 0.109171413
0.393421859 0.643769324 0.109044924
0.422770619 0.637697339 0.106008671
0.447565109 0.640100956 0.106894284
0.475142390 0.641998470 0.108665310
0.511574566 0.640480816 0.112206995
0.545098186 0.637823939 0.112459995
0.582416475 0.636179388 0.111827567
0.620620072 0.636179388 0.114737280
0.660341620 0.635546803 0.120430380
0.702846348 0.635546744 0.129537985
0.734471977 0.629474759 0.134977400
0.767615616 0.624035358 0.143200189
0.799114525 0.617330790 0.149145991
0.828716397 0.608222365 0.147628397
0.855787754 0.601897359 0.162302062
0.881846964 0.595192671 0.168627307
0.908032835 0.585831344 0.174952537
0.931688964 0.581024408 0.183554977
0.955977023 0.574952424 0.195699006
0.979253411 0.571790099 0.207210407
0.993674695 0.566729844 0.213282660
0.999493957 0.560657382 0.220240474
0.996710598 0.554332376 0.235167816
0.999367416 0.550537646 0.244654968
0.998228788 0.548134029 0.250853777
0.995825231 0.545098066 0.258697003
0.992789388 0.542694807 0.271979988
0.323339611 0.671979547 0.109171189
0.328779191 0.670208991 0.114611216
0.340417564 0.668943822 0.113345832
0.353320599 0.671220779 0.118152790
0.368501097 0.670082331 0.123086534
0.397849739 0.671094477 0.117014796
0.422896832 0.674762547 0.124098465
0.454901874 0.670335293 0.121062495
0.480708271 0.671853364 0.121821791
0.512206972 0.668817282 0.123213120
0.548133790 0.668184757 0.125742793
0.585578978 0.667172611 0.129790783
0.621252596 0.667172611 0.130549788
0.657938063 0.666919589 0.133333206
0.696141779 0.664768755 0.133839384
0.731435776 0.667172551 0.140543804
0.761796534 0.661100566 0.143579811
0.794940114 0.653763592 0.151928976
0.828842998 0.642884433 0.161290139
0.854016542 0.636558771 0.165338457
0.881340921 0.628589511 0.182415798
0.906135261 0.619481266 0.188994244
0.930550516 0.612144053 0.196584791
0.957115829 0.608348787 0.204174817
0.979127049 0.602276742 0.209487513
0.993421793 0.599114656 0.225426644
1.000000000 0.594054401 0.235040978
0.998861372 0.587982416 0.244528607
0.998734832 0.579759598 0.249588951
1.000000000 0.582036793 0.258697003
0.996710837 0.578241587 0.269196749
0.992156982 0.570651770 0.288930982
0.332448006 0.705376387 0.127387568
0.344591975 0.703858554 0.130423963
0.352561593 0.699304581 0.130044416
0.370271981 0.696268201 0.127008021
0.378368080 0.701581180 0.137128085
0.401897848 0.701960921 0.133713126
0.430233985 0.700949073 0.136748865
0.456420064 0.700695693 0.140796706
0.487539381 0.699178040 0.139279082
0.514104664 0.697659910 0.140038177
0.547121942 0.696015179 0.144465506
0.584060729 0.696015179 0.144971177
0.621252656 0.694876552 0.148766190
0.654396057 0.694496989 0.148513228
0.688298821 0.692725718 0.145477608
0.722327769 0.694496989 0.149652183
0.761796176 0.692979157 0.158760175
0.790891945 0.688172162 0.158760175
0.823782742 0.679570198 0.171663195
0.850601017 0.671473682 0.175964549
0.876786768 0.665021896 0.185452178
0.903099239 0.655914009 0.200632319
0.927767456 0.646805704 0.207463980
0.957874894 0.640986621 0.216318995
0.982163072 0.637191355 0.224667892
0.995066464 0.629727721 0.226312175
1.000000000 0.626439095 0.246679068
1.000000000 0.621379197 0.257811189
0.998481810 0.614168584 0.264263034
0.996963978 0.607843399 0.269323170
0.998734951 0.610373199 0.279316962
0.995193005 0.599493980 0.301074982
0.340417564 0.734471977 0.152182400
0.357368559 0.733839571 0.152814984
0.368880153 0.730803549 0.150031790
0.378747344 0.726628959 0.148260385
0.399620146 0.724731147 0.146742105
0.412270844 0.730803132 0.153067842
0.438962579 0.729285240 0.155977234
0.465781122 0.725616813 0.155470997
0.492979586 0.724098623 0.156862661
0.517267585 0.727135003 0.159899056
0.547375143 0.724984288 0.165211990
0.580518901 0.723339558 0.166476890
0.616445661 0.723466098 0.165211558
0.649336040 0.720429659 0.165211558
0.679317236 0.720050097 0.162555397
0.712713778 0.721188962 0.166097552
0.749652207 0.720936120 0.175205544
0.792662561 0.715496540 0.185452133
0.816951394 0.715496540 0.185452133
0.844655395 0.707779765 0.187602907
0.872612357 0.699936509 0.195698977
0.898292243 0.693484962 0.207463682
0.922580957 0.684503078 0.216319039
0.954459310 0.675901413 0.226944998
0.979759634 0.670082271 0.237823978
0.997469664 0.665528059 0.247564554
0.999493957 0.656925678 0.248070613
0.999367416 0.653763592 0.268564016
0.997975767 0.648070991 0.279822826
0.995572209 0.641366541 0.287792563
0.993295372 0.635926902 0.294370562
0.999367416 0.629854143 0.306514591
0.355598003 0.758760035 0.167362049
0.367742002 0.755724430 0.170398444
0.382542759 0.755092025 0.166730046
0.394434094 0.754586041 0.164705858
0.405692935 0.755092025 0.167994559
0.423908979 0.761164010 0.177102923
0.449209332 0.759645700 0.178368032
0.471853375 0.754965067 0.173687294
0.493106097 0.751423120 0.169133231
0.520303965 0.754459500 0.175079480
0.550410986 0.754586041 0.178115129
0.580771565 0.752308786 0.181404307
0.613915324 0.751802683 0.183934316
0.649336040 0.753826916 0.186463997
0.676660419 0.750790536 0.186463997
0.711448610 0.748007774 0.188614845
0.746110201 0.746995986 0.196457997
0.780518532 0.745857418 0.206704572
0.813915014 0.742821038 0.209740967
0.843769789 0.737255037 0.209740967
0.873877466 0.729032278 0.215686247
0.900949121 0.721189022 0.226059288
0.922580957 0.714864016 0.237571478
0.946869016 0.708791971 0.240607098
0.967362583 0.700189710 0.246679023
0.986084938 0.694370747 0.257431656
0.999493957 0.690322936 0.269323051
0.996457577 0.684250951 0.272359431
0.998987854 0.678431332 0.284882993
0.999746978 0.670588315 0.295003206
0.998608410 0.663504422 0.302972972
0.996331036 0.660215020 0.309551001
0.379127026 0.788614750 0.193675086
0.391271710 0.785578430 0.191144764
0.399114728 0.786843836 0.194181144
0.411132365 0.786211252 0.193801582
0.422517568 0.784693062 0.196457744
0.438330382 0.785958052 0.198355302
0.454016685 0.786970019 0.199873373
0.478684366 0.785831392 0.199873373
0.501454711 0.782795548 0.196457744
0.528779149 0.781783819 0.198481977
0.553447425 0.781910360 0.207210854
0.583807886 0.781910360 0.212270737
0.614168346 0.780771732 0.211511731
0.646805644 0.781910360 0.208222359
0.676660419 0.781404316 0.213282377
0.708791792 0.783174932 0.218089983
0.743326783 0.779380023 0.219987735
0.776723325 0.776217639 0.223909155
0.810120344 0.773181736 0.222643986
0.843516767 0.770145416 0.231246367
0.873877466 0.765971184 0.240734100
0.900189996 0.760657966 0.249588937
0.919797659 0.756230235 0.256040514
0.944086373 0.747501373 0.259076834
0.968374312 0.739152670 0.266666412
0.984819651 0.731435716 0.273244739
0.997722685 0.725490034 0.283744723
0.999240935 0.714864016 0.293611825
0.998861372 0.711448848 0.301960528
1.000000000 0.707273901 0.312207192
1.000000000 0.701960802 0.322200984
0.998861372 0.698924363 0.332068026
0.397722721 0.811384976 0.219101980
0.406072050 0.812144101 0.216066077
0.417710721 0.809613764 0.217330754
0.425047576 0.813915312 0.219101980
0.437318087 0.812017620 0.220746279
0.454016656 0.807463467 0.219228476
0.467299312 0.807463467 0.217330739
0.485768706 0.809107780 0.225553438
0.509044826 0.808601856 0.226818472
0.534092247 0.805566192 0.226818472
0.560404718 0.807336986 0.231751844
0.586843729 0.805439711 0.233143732
0.616065860 0.806578100 0.235800087
0.645161033 0.807336986 0.229221761
0.672232807 0.807336986 0.233649462
0.706894577 0.805945635 0.239721596
0.738772750 0.807463467 0.244276181
0.771789670 0.802782893 0.246553138
0.805186927 0.799746931 0.248576760
0.834788442 0.796711087 0.243390352
0.868184745 0.793674767 0.252498746
0.897533417 0.789627016 0.266666979
0.918659031 0.785452247 0.272359252
0.942947865 0.776343822 0.275395632
0.969133735 0.769133270 0.284883171
