Assets/EldamarStudio/100 Retro LUTs Pack/LUTs/cube/Timothy LUT.cube
DOMAIN_MIN 0 0 0
DOMAIN_MAX 1 1 1
LUT_3D_SIZE 32
0.003922000 0.000000000 0.000000000
0.055534385 0.018215999 0.024288775
0.111448318 0.036432549 0.046426773
0.170398325 0.050854161 0.063883997
0.231498629 0.059582997 0.075648546
0.295255810 0.065655001 0.084756933
0.341302633 0.066666998 0.083744682
0.383807391 0.066666998 0.082353003
0.424794197 0.066666998 0.082353003
0.461227000 0.066667005 0.082353011
0.497659743 0.075395130 0.088172004
0.534092486 0.090575509 0.102339990
0.571663618 0.108791992 0.119417638
0.610373020 0.127261028 0.134851068
0.640733838 0.148513407 0.153067827
0.673497796 0.169765785 0.166476995
0.708412349 0.192536384 0.186211184
0.742947519 0.216824979 0.211638138
0.770272017 0.241113022 0.229854956
0.797596395 0.254269719 0.248071015
0.823023498 0.270208985 0.264389724
0.846300125 0.289437145 0.279570132
0.867425978 0.310562968 0.294876963
0.885641992 0.328778982 0.313093007
0.908412576 0.344718277 0.331308991
0.934092641 0.361290336 0.350916654
0.960910976 0.379507005 0.372169077
0.985198975 0.397722989 0.393421412
0.996204793 0.418595791 0.412017643
0.998228788 0.439848155 0.430233926
0.996963620 0.461100578 0.450221181
1.000000000 0.482353002 0.474510014
0.058570772 0.042504773 0.024288775
0.073751159 0.051613156 0.027324388
0.125363544 0.067678928 0.047312163
0.180012643 0.081214607 0.068944000
0.236053318 0.090701997 0.086654000
0.289183795 0.102086999 0.087792546
0.340290636 0.103098996 0.086780928
0.383807391 0.103098996 0.087033674
0.424035311 0.102340095 0.086147904
0.458191395 0.100063391 0.079316624
0.494623423 0.111701377 0.093864486
0.531056106 0.122959763 0.106388249
0.568627536 0.138013631 0.122454025
0.607590437 0.154079422 0.137634426
0.640733838 0.169765785 0.153067827
0.671094596 0.188614979 0.173687786
0.700822532 0.209234953 0.190765381
0.732700944 0.230107784 0.212270558
0.767235637 0.247185022 0.232890561
0.791777372 0.268690377 0.245540619
0.815053761 0.283491313 0.263251066
0.839215755 0.299557120 0.280581981
0.864642620 0.316508502 0.297912598
0.888678372 0.331815392 0.316129386
0.911448419 0.352308661 0.336622655
0.935736954 0.370398372 0.356989443
0.960910976 0.388108671 0.377735794
0.985198975 0.403794974 0.396457821
0.996204793 0.422011644 0.412397206
1.000000000 0.442884564 0.432005167
0.998228788 0.464136988 0.453257352
0.996963620 0.485389382 0.477545619
0.100316547 0.087159768 0.044275999
0.115496382 0.098418921 0.053763386
0.143580317 0.096774548 0.054648772
0.192662701 0.109424606 0.067805223
0.243516877 0.118911862 0.084123775
0.291587681 0.131056324 0.085895002
0.327766865 0.137381315 0.083364770
0.374699324 0.137381315 0.080329157
0.416951120 0.137381315 0.083112001
0.453130931 0.135737032 0.080961302
0.491587788 0.142947540 0.092978872
0.525996029 0.155091539 0.110183507
0.562302291 0.166097194 0.124351770
0.600253284 0.179253578 0.139026031
0.633649647 0.194433957 0.158001408
0.666793048 0.209867358 0.175838009
0.701708019 0.225047767 0.197090402
0.729664981 0.244402558 0.214674145
0.756989062 0.262618601 0.231372759
0.788740993 0.279063910 0.250727564
0.813029706 0.292725801 0.264768779
0.834535122 0.307400137 0.282732487
0.859582543 0.322580487 0.300948739
0.885895073 0.337760895 0.319165051
0.908033013 0.357495278 0.335357487
0.932321310 0.377355963 0.355218202
0.958128095 0.394560128 0.375711530
0.987349749 0.408096194 0.395572215
0.996204793 0.428083628 0.411132038
1.000000000 0.444529176 0.431625605
1.000000000 0.466793567 0.453257591
0.998228788 0.490575999 0.476280779
0.130424157 0.136495635 0.062491998
0.146868929 0.142314926 0.072106324
0.172422320 0.144086152 0.073118001
0.208349466 0.140544161 0.074383162
0.251233310 0.149272323 0.080455162
0.290575653 0.159645870 0.084376939
0.331056148 0.165465161 0.081087843
0.367109269 0.172043324 0.084376708
0.409614265 0.172043324 0.083617993
0.448070675 0.172043324 0.089690007
0.485009462 0.176597148 0.097786158
0.522960067 0.185452312 0.113978341
0.558633745 0.197596312 0.133333474
0.594434023 0.206831187 0.145604029
0.625806451 0.219987571 0.162808403
0.660467982 0.232637957 0.181656986
0.694370389 0.248830155 0.198861182
0.731941998 0.260341734 0.219481140
0.752688229 0.279064149 0.232890949
0.782289565 0.294750184 0.252119213
0.808728516 0.306135416 0.268311232
0.833016992 0.318279415 0.285515130
0.854648888 0.333712786 0.303984851
0.880834937 0.348892897 0.322201163
0.903605282 0.364832401 0.338140428
0.927514136 0.383428305 0.352182120
0.951802969 0.401138246 0.371410161
0.982922375 0.414041758 0.393421412
0.997469962 0.432890803 0.410625994
1.000000000 0.451866031 0.429854393
1.000000000 0.469703048 0.451486588
1.000000000 0.496648014 0.471980006
0.152435541 0.188488543 0.079949096
0.170651540 0.186211243 0.084883220
0.194180861 0.185325637 0.083111994
0.223529384 0.185705096 0.080455162
0.262998521 0.185325637 0.083112001
0.287286550 0.191397637 0.089184001
0.330297202 0.195319414 0.086274549
0.373561025 0.201265246 0.089310542
0.411891520 0.208096549 0.099936545
0.445287943 0.208096549 0.106008545
0.479063869 0.211385220 0.109930411
0.515749216 0.218089804 0.122706987
0.554458916 0.227957085 0.141682193
0.593675017 0.239848122 0.162681550
0.621378839 0.248956501 0.172169402
0.655914009 0.258444369 0.187729076
0.690828621 0.270967990 0.204806745
0.723592579 0.287286580 0.220240146
0.753953457 0.296394974 0.238456964
0.781151354 0.310689211 0.256673008
0.804680705 0.322074294 0.271094084
0.827324510 0.333459705 0.285894662
0.851359546 0.351549953 0.306894034
0.875142276 0.366729647 0.324857831
0.898671687 0.379633129 0.341176718
0.921568632 0.392789662 0.355344981
0.948766530 0.407590479 0.368753999
0.973055303 0.422770053 0.393041968
0.992030382 0.440607190 0.412776649
1.000000000 0.458443940 0.432384610
1.000000000 0.477292657 0.452245593
1.000000000 0.501581430 0.467426002
0.179759935 0.221884936 0.092093870
0.197975934 0.224921316 0.089057483
0.216192484 0.224794805 0.089690059
0.234661698 0.226059645 0.088677935
0.256925762 0.227830410 0.089184001
0.296394944 0.224794805 0.089184001
0.330803573 0.230866805 0.092726320
0.369259894 0.236432865 0.095888935
0.406198293 0.241492927 0.102972932
0.442251563 0.241492927 0.109044939
0.478557795 0.247311920 0.118026808
0.512460232 0.252877861 0.130170658
0.546868920 0.260594577 0.146995291
0.581530988 0.270208895 0.165717945
0.617962956 0.279317290 0.183933929
0.652877629 0.290828884 0.195825607
0.687792242 0.300948739 0.212017864
0.720556140 0.311574578 0.229095489
0.750917077 0.320683002 0.244528964
0.775711775 0.332574010 0.262745023
0.798608780 0.343326688 0.277166486
0.821885109 0.353446931 0.291334867
0.848323941 0.366729558 0.309930414
0.866539955 0.381909966 0.325110853
0.897153378 0.394813508 0.343073994
0.921568394 0.406957895 0.359392732
0.942821026 0.419607997 0.374572992
0.970018923 0.431878448 0.393041968
0.988994002 0.449715585 0.417330623
0.998355269 0.466160655 0.437064946
1.000000000 0.481846571 0.455787271
1.000000000 0.498545080 0.473498017
0.202024326 0.265401959 0.101707675
0.212649986 0.265908033 0.098671935
0.233016759 0.266793638 0.097786322
0.251612991 0.266793638 0.097786322
0.269576192 0.267805398 0.097786322
0.300442785 0.264769256 0.097786322
0.334851325 0.266793638 0.100315996
0.367995083 0.269576639 0.103352383
0.403415412 0.274636537 0.110056996
0.441618979 0.279949307 0.119671009
0.478051722 0.283238649 0.133712858
0.512460232 0.293358624 0.146869242
0.548133910 0.301581293 0.160910636
0.584567070 0.310689628 0.176344067
0.620999575 0.319797397 0.194560632
0.657431602 0.324098796 0.210372820
0.689310133 0.334345490 0.224161863
0.720050097 0.343453348 0.241998553
0.750411034 0.352561295 0.260973990
0.777735412 0.359392971 0.276407331
0.798229158 0.373434216 0.292726040
0.820873141 0.383807451 0.306515127
0.848324001 0.394180626 0.323086828
0.876154661 0.402150244 0.338267237
0.901201904 0.412776619 0.353447020
0.928526282 0.427450985 0.371410340
0.948387384 0.441872120 0.387729377
0.971663773 0.454016626 0.403921634
0.991018295 0.468943954 0.424920917
0.996837139 0.487160265 0.445667267
0.998355269 0.503099203 0.466539890
1.000000000 0.518279612 0.489690006
0.226565704 0.302719980 0.110815704
0.234029025 0.301075697 0.106135376
0.248450175 0.301075697 0.111827992
0.264642537 0.302340537 0.109297991
0.282479703 0.303099543 0.108918540
0.308538944 0.302593499 0.110183701
0.339279026 0.302973032 0.112713374
0.364452690 0.304364711 0.114104696
0.398608565 0.305123597 0.120936178
0.439848214 0.312460214 0.134851426
0.478051722 0.319038540 0.149904847
0.510815918 0.326502383 0.161796242
0.544212341 0.336369425 0.174699634
0.582669318 0.344971746 0.186843693
0.620493412 0.354079694 0.205060109
0.655281663 0.360025197 0.217583895
0.688677669 0.364579380 0.232763901
0.718026102 0.373561263 0.248576701
0.750411034 0.382669151 0.268817008
0.773055077 0.388994426 0.284503371
0.799620509 0.397469968 0.299683720
0.820873141 0.409613967 0.314864129
0.848070979 0.418216377 0.330044508
0.875395417 0.427324414 0.345224917
0.898545563 0.437317997 0.363694131
0.927261233 0.446426362 0.378873736
0.949778736 0.462871403 0.396837413
0.972169697 0.475015879 0.413156420
0.992409945 0.489816815 0.430360794
0.999873519 0.505123615 0.451486647
0.997722745 0.522454321 0.471473664
1.000000000 0.537634671 0.498039007
0.250095010 0.334598184 0.122960098
0.257685006 0.331562400 0.119165190
0.267172784 0.332195193 0.122960195
0.284377128 0.332701117 0.131309092
0.294244528 0.335736722 0.125237092
0.317394078 0.338773042 0.127134934
0.345983624 0.337761104 0.130929768
0.369765967 0.338520199 0.132321090
0.391777277 0.338520199 0.134598181
0.437318474 0.341555804 0.152814969
0.474762738 0.350410938 0.166603327
0.509677410 0.358760238 0.177735254
0.541176558 0.366730183 0.188361645
0.574826002 0.373055160 0.198229060
0.613788366 0.382163405 0.216445178
0.647691309 0.388868004 0.227450788
0.679570079 0.394940197 0.238077179
0.711195052 0.400379598 0.253890127
0.747627854 0.409234971 0.272106230
0.769639730 0.416319102 0.287539363
0.791271687 0.422770351 0.301201731
0.818596065 0.431625247 0.316382110
0.845793962 0.437697977 0.331689000
0.870082140 0.448577017 0.347501814
0.891334474 0.459962100 0.365718186
0.913599074 0.471473664 0.384187400
0.944465160 0.481088012 0.401391149
0.969512880 0.493231982 0.420366883
0.991144776 0.508032799 0.435167700
0.999240935 0.523972273 0.453890055
0.999240935 0.536875606 0.473750949
0.999240935 0.552056015 0.498039007
0.262239009 0.371030986 0.144212514
0.274383038 0.367994606 0.147248894
0.279822797 0.371410578 0.147754982
0.293485194 0.374700010 0.152055815
0.318532556 0.375205934 0.158633500
0.333712965 0.378241539 0.152561516
0.359392792 0.373687506 0.156989008
0.381909966 0.372802198 0.159645498
0.403921276 0.374953002 0.161922604
0.437318474 0.374953002 0.171030968
0.468310982 0.383807600 0.180518880
0.503098965 0.390891492 0.189879715
0.538140178 0.397090316 0.201264650
0.571789622 0.403415978 0.216445059
0.608222365 0.412523597 0.234661818
0.639974594 0.419228047 0.245667145
0.670461893 0.425300419 0.254775196
0.702087462 0.430740416 0.266034126
0.738519549 0.433776021 0.284250975
0.766603589 0.442631394 0.299683630
0.787855983 0.447817773 0.311068743
0.809487641 0.453130633 0.322454154
0.836685538 0.461986005 0.337760985
0.860974312 0.468058020 0.355976999
0.885262489 0.476660281 0.371789783
0.909297824 0.487286478 0.387223154
0.935357571 0.499303997 0.404427558
0.968753934 0.511447966 0.431751907
0.991144776 0.526248813 0.445413977
0.998228788 0.543200374 0.462997675
0.996204555 0.557748437 0.482479095
0.996204555 0.564200044 0.498039007
0.286021739 0.404553890 0.180012733
0.298165739 0.407337219 0.180139259
0.301707745 0.410752624 0.181024864
0.309045017 0.413029701 0.179759696
0.330170870 0.411385000 0.180771410
0.358000934 0.411890924 0.177229732
0.370651633 0.412396848 0.178747416
0.397722840 0.412017554 0.186084569
0.420999050 0.414294869 0.189879745
0.443643451 0.414294869 0.192536354
0.465401888 0.414294869 0.192915872
0.499810368 0.421378732 0.202024251
0.536242843 0.426312357 0.213409379
0.571410120 0.430866838 0.228336737
0.605186701 0.439974457 0.241239816
0.641619444 0.444275677 0.257052779
0.668438077 0.451359928 0.268690735
0.694623947 0.458823860 0.280455440
0.726502001 0.464136779 0.296394944
0.754585326 0.469955742 0.309045017
0.780012727 0.475142598 0.322200835
0.802276969 0.477166593 0.333333254
0.827830136 0.480582207 0.346616328
0.857684970 0.489436895 0.362049013
0.881973684 0.500062823 0.377988279
0.909044802 0.508412361 0.391777337
0.935863197 0.516508758 0.405439824
0.959645569 0.523845673 0.423149556
0.990385771 0.535989702 0.447817773
1.000000000 0.550917029 0.464515805
0.996331275 0.567995012 0.482858568
0.990258992 0.582163036 0.498039007
0.308286250 0.437950760 0.212397501
0.314357996 0.443010896 0.204300985
0.325995982 0.444149494 0.206325248
0.332321137 0.446426332 0.207590088
0.346742511 0.444149047 0.206451237
0.365591258 0.445793748 0.205059916
0.386843622 0.447817504 0.207084179
0.405566394 0.447817504 0.206830785
0.432131529 0.450474352 0.212143987
0.450347990 0.451739520 0.212143987
0.475521863 0.447691500 0.212143987
0.500822246 0.449715257 0.216192499
0.534978032 0.455787241 0.225300595
0.569639385 0.459962040 0.238203764
0.604807258 0.467299342 0.248576999
0.638583302 0.473624319 0.267172813
0.671980143 0.476660311 0.280834973
0.694750547 0.483491570 0.292346567
0.720936358 0.488172233 0.304744005
0.748513639 0.492220014 0.317140996
0.775838017 0.494497001 0.327387750
0.801265121 0.499430895 0.342441380
0.826565266 0.502719998 0.357621968
0.853131115 0.509930372 0.370904356
0.885009527 0.519291461 0.388108790
0.907906651 0.527260840 0.400505841
0.935863316 0.534218788 0.413029850
0.960151672 0.544844985 0.429728031
0.983301640 0.558254242 0.448829651
0.999493957 0.566856265 0.469576389
1.000000000 0.579506576 0.486021489
0.994307280 0.594307303 0.500063241
0.332953990 0.479317278 0.239342630
0.335989892 0.481973618 0.231752142
0.343200266 0.486021638 0.229222044
0.355470806 0.485895097 0.232258111
0.369892180 0.482858837 0.234534815
0.379000574 0.484377176 0.233775914
0.397090316 0.486274600 0.237444595
0.418848783 0.486527264 0.238330215
0.444655538 0.488045275 0.237570912
0.464389652 0.491461128 0.238329917
0.486780524 0.486907244 0.236052930
0.514104903 0.485768646 0.241239488
0.541429222 0.486527264 0.245034978
0.571537018 0.492346287 0.254395694
0.605313182 0.497533441 0.264389664
0.640480816 0.503605604 0.278557777
0.672359347 0.508159459 0.295256287
0.700822532 0.511195242 0.306767672
0.722074986 0.514231622 0.315875977
0.746616364 0.517267525 0.326628655
0.775079131 0.519544303 0.340290755
0.803415656 0.520556450 0.348387271
0.830866516 0.529158771 0.368880630
0.856167197 0.534218609 0.383048654
0.885009646 0.542567909 0.398608565
0.912840009 0.552308619 0.414927602
0.934092402 0.556356370 0.424541295
0.960151792 0.570271730 0.441492885
0.984440148 0.582036436 0.461986244
0.995698988 0.595319271 0.480202377
0.999114394 0.605818868 0.501075566
0.998861372 0.615939260 0.514484644
0.361796051 0.530929983 0.260847986
0.365085423 0.528905630 0.260088950
0.370272011 0.531562030 0.260847986
0.379127055 0.535610020 0.262112886
0.391144574 0.535989642 0.264389545
0.400252968 0.532953978 0.261353910
0.416445017 0.531688988 0.265402019
0.436811745 0.530044258 0.268185019
0.458823204 0.528779030 0.268691033
0.489183992 0.534851015 0.274763018
0.506008923 0.532953858 0.270714998
0.528779268 0.531941950 0.274003744
0.555091679 0.530803382 0.279443055
0.582922041 0.528020024 0.280455053
0.610246420 0.531056404 0.292599827
0.643769562 0.536242962 0.301834166
0.677166343 0.540796876 0.312460393
0.706388533 0.543832660 0.324225426
0.727640986 0.546869040 0.333333045
0.748893380 0.549905360 0.342947364
0.775079072 0.552941322 0.356989056
0.805692315 0.555724204 0.371663272
0.835800052 0.559140027 0.378115505
0.862997949 0.562555134 0.396205038
0.890322328 0.569892287 0.412144303
0.915369689 0.580139041 0.427324623
0.936875045 0.591524124 0.442505002
0.958127439 0.600632489 0.454649001
0.984945834 0.607337058 0.476660639
0.997849226 0.618216157 0.497406960
0.999367416 0.634661615 0.516761541
0.996331036 0.655914009 0.544085979
0.373940825 0.549145997 0.285135984
0.380012810 0.558254361 0.276027590
0.385452390 0.556230068 0.281720340
0.395319551 0.558886349 0.286401153
0.409487844 0.563693464 0.288678259
0.421505332 0.569386721 0.285641909
0.433143377 0.561290503 0.285135984
0.454775095 0.557368696 0.286400974
0.477039576 0.555091381 0.284882963
0.492220432 0.556103349 0.280835003
0.519671261 0.562175393 0.292725980
0.540417671 0.562301993 0.292978972
0.560658038 0.561163664 0.293738037
0.579886436 0.558380842 0.292599797
0.613282800 0.558380842 0.304743826
0.638203382 0.561416626 0.309677184
0.668057919 0.565085173 0.318532407
0.698418677 0.568121374 0.330676973
0.727640986 0.571157753 0.342441440
0.748893380 0.574193418 0.357115775
0.770145714 0.577229738 0.367236167
0.797343552 0.579253793 0.379253834
0.829728007 0.580392361 0.390259475
0.854016840 0.592536390 0.405439913
0.881214738 0.598228812 0.421252668
0.908539116 0.606325030 0.436432689
0.934092402 0.615559816 0.452118725
0.958127439 0.621884823 0.469829410
0.987349629 0.630993187 0.484630227
0.999367416 0.639468551 0.503478944
1.000000000 0.651612580 0.519038618
0.999367416 0.668057978 0.531942010
0.395698994 0.576976597 0.307020783
0.394560784 0.583681166 0.302719384
0.404933780 0.586337805 0.295761794
0.410246611 0.586084783 0.303605139
0.421252310 0.590259433 0.308538973
0.437444806 0.592283666 0.307526857
0.449588805 0.592916250 0.314231604
0.463377506 0.587096870 0.312586904
0.486147910 0.584819615 0.311827779
0.503225982 0.584819615 0.309044778
0.525110841 0.588235438 0.310815781
0.544339240 0.590259433 0.312840044
0.564832628 0.587982118 0.311321974
0.583301961 0.584187031 0.308791995
0.610246599 0.586337805 0.314484775
0.638835967 0.586337864 0.319417983
0.663124382 0.589373827 0.323971778
0.691714108 0.591777623 0.334977746
0.722074986 0.593042791 0.348893017
0.746489584 0.598482251 0.361416578
0.767741919 0.601517856 0.372801930
0.793042302 0.605565965 0.383934319
0.826185703 0.608348966 0.397596478
0.852751851 0.611384988 0.412776917
0.879317284 0.621252298 0.427957267
0.905249953 0.626059473 0.444528967
0.931562245 0.633143723 0.460720867
0.957747996 0.641112983 0.477039903
0.977735639 0.649841785 0.495003015
0.997469902 0.662492156 0.510183334
0.998229027 0.672865212 0.528652608
0.995193005 0.685009599 0.543833017
0.418469191 0.607337356 0.328273177
0.416951388 0.613409340 0.328273177
0.421631962 0.612144411 0.323086202
0.428715974 0.615939260 0.322074533
0.433775723 0.618722558 0.330929846
0.453130841 0.617584169 0.334345192
0.460215002 0.616065979 0.334345311
0.478557885 0.614421666 0.338393509
0.492979169 0.612903297 0.336116195
0.511954546 0.613662183 0.336116195
0.531688690 0.613536060 0.334598392
0.553447247 0.616065979 0.337128460
0.569765985 0.616065979 0.335231185
0.590385854 0.611005425 0.332574368
0.612144172 0.611511827 0.333080411
0.634281754 0.612144411 0.334598392
0.664642572 0.615180373 0.337634385
0.688298583 0.616951585 0.343706369
0.716002643 0.616065979 0.356230170
0.740797043 0.620114207 0.367109418
0.766223729 0.625806630 0.380391717
0.789500117 0.628842235 0.391524106
0.821757972 0.634281754 0.406578004
0.850474536 0.635673404 0.420367092
0.876281261 0.640986502 0.437065244
0.902213931 0.648703218 0.450853944
0.927514136 0.652371943 0.469323069
0.955850601 0.660467744 0.486527413
0.976723671 0.671094179 0.499810159
0.991397977 0.676154375 0.514737189
1.000000000 0.693105817 0.532574177
0.995193005 0.704744220 0.554459214
0.438456565 0.635800540 0.348892987
0.439721555 0.643137515 0.353194356
0.444022536 0.641239941 0.349146008
0.448197126 0.640227973 0.346236318
0.448956132 0.647817552 0.352308989
0.468943506 0.644781888 0.361163646
0.475648135 0.641745806 0.359519154
0.486906976 0.639974654 0.356736153
0.508159578 0.637824416 0.357368559
0.520303607 0.640860081 0.357368559
0.537634194 0.637444854 0.355724424
0.558001101 0.638456881 0.357495546
0.580012560 0.640354156 0.361922950
0.598481596 0.640860140 0.362175971
0.617077768 0.638962924 0.359898716
0.636559129 0.637065530 0.357368559
0.660467982 0.638203979 0.358254164
0.690702379 0.643010974 0.361922950
0.711954057 0.639974594 0.367994964
0.735989749 0.643137336 0.377482921
0.762175739 0.646806002 0.389120817
0.788867712 0.652498424 0.403668284
0.816065550 0.655660570 0.418722153
0.845414281 0.659203053 0.430866778
0.872485995 0.663883567 0.446299970
0.898039520 0.671220541 0.462998122
0.921821654 0.676786602 0.474636078
0.951802850 0.682732105 0.495382428
0.974826217 0.693485200 0.507273793
0.990765393 0.699810565 0.520050526
1.000000000 0.702846587 0.533206582
1.000000000 0.724098980 0.557495415
0.453637004 0.657053053 0.367109060
0.459709048 0.669197023 0.376217425
0.465275019 0.670082271 0.371916294
0.470082164 0.669323266 0.365591198
0.473244995 0.672106445 0.364453077
0.479317009 0.669070065 0.370525062
0.494244307 0.666034400 0.374320328
0.508159637 0.666287303 0.374952972
0.523339987 0.668058097 0.375711888
0.535484016 0.668184578 0.378621012
0.550537825 0.662492037 0.381530881
0.565971196 0.662745297 0.382036984
0.583048999 0.664642990 0.383681357
0.601518035 0.665148973 0.386464059
0.622770369 0.671221018 0.389500439
0.646173656 0.666920006 0.382416159
0.669955909 0.662871838 0.378620982
0.693737984 0.661227047 0.380138993
0.711954057 0.661227047 0.386211038
0.735989749 0.666540027 0.397849739
0.762175739 0.668564081 0.407843262
0.788488269 0.671094060 0.418469250
0.813029945 0.676913023 0.430866957
0.837318003 0.682985842 0.443010986
0.866666555 0.686527729 0.455155045
0.896521330 0.693991005 0.470588356
0.924858034 0.704111099 0.486780882
0.946110427 0.707147479 0.495888531
0.970777929 0.715749800 0.511321783
0.987728953 0.723340034 0.529538214
0.997216642 0.728906035 0.547374964
1.000000000 0.736243010 0.560531020
0.485515386 0.700569391 0.407589734
0.497153372 0.707147360 0.411132127
0.498924375 0.706388414 0.411637962
0.501201391 0.705249906 0.405059725
0.503858089 0.707527161 0.401264936
0.514737725 0.704490781 0.404933751
0.515749693 0.703984737 0.405945748
0.529665053 0.704491138 0.407084376
0.545604348 0.706768095 0.408602387
0.561796367 0.706768095 0.413662255
0.571284235 0.703731775 0.413915277
0.588488340 0.701707780 0.414927393
0.604427695 0.703985035 0.416066021
0.620746434 0.705376744 0.418090045
0.636938751 0.703858435 0.411005795
0.658191144 0.705123425 0.411638379
0.682099998 0.701328218 0.408222735
0.705123127 0.698924363 0.408855140
0.723339796 0.698924363 0.412776381
0.747121751 0.698924363 0.418849111
0.771410465 0.703099132 0.430993378
0.798861623 0.706008732 0.441998720
0.826565862 0.711827695 0.454016536
0.848197758 0.712586820 0.463504404
0.874763012 0.718659043 0.475648373
0.899051309 0.724984050 0.487792373
0.922833741 0.734724760 0.502213776
0.946363449 0.740037858 0.513599277
0.978241742 0.740417421 0.528019905
0.992283344 0.749146223 0.543200195
0.998861372 0.758001328 0.560657620
1.000000000 0.767868400 0.574699342
0.507526755 0.730929732 0.433016717
0.513978481 0.731308997 0.436053127
0.519417703 0.734471738 0.438582987
0.520682871 0.733459711 0.431751758
0.521694899 0.737128556 0.426312268
0.529285133 0.737128496 0.432384670
0.544591963 0.732827485 0.434787989
0.547880948 0.737760782 0.434787989
0.561543465 0.738267064 0.434787989
0.577482700 0.734851718 0.438583016
0.588867843 0.733839631 0.436938733
0.604047954 0.732827485 0.438836008
0.619987249 0.732827485 0.437697649
0.634408772 0.734851718 0.438709974
0.649589121 0.733460069 0.432890594
0.667678833 0.730929732 0.434787989
0.688931227 0.733965755 0.436306179
0.712839723 0.732068062 0.437950701
0.733586252 0.730803192 0.442251503
0.753573775 0.730803192 0.442378461
0.774066687 0.730803192 0.448450714
0.799367368 0.733839393 0.457558602
0.828463018 0.738899291 0.466919512
0.849715412 0.740670443 0.476027906
0.873624563 0.743326724 0.487412989
