Assets/EldamarStudio/100 Retro LUTs Pack/LUTs/cube/Timothy LUT.cube
LUT_3D_SIZE 5
DOMAIN_MIN 0.000000 0.000000 0.000000
DOMAIN_MAX 0.903226 0.903226 0.903226
0.003922000 0.000000000 0.000000000
0.383807391 0.066666998 0.082353003
0.640733838 0.148513407 0.153067827
0.846300125 0.289437145 0.279570132
0.996204793 0.418595791 0.412017643
0.226565704 0.302719980 0.110815704
0.364452690 0.304364711 0.114104696
0.620493412 0.354079694 0.205060109
0.820873141 0.409613967 0.314864129
0.992409945 0.489816815 0.430360794
0.373940825 0.549145997 0.285135984
0.454775095 0.557368696 0.286400974
0.613282800 0.558380842 0.304743826
0.797343552 0.579253793 0.379253834
0.987349629 0.630993187 0.484630227
0.524731159 0.755218267 0.450221121
0.569133103 0.761037409 0.458064139
0.661733389 0.758128107 0.456925958
0.797343135 0.759139955 0.473751128
0.982668936 0.786590755 0.551802695
0.669575751 0.957241774 0.627703965
0.710309684 0.957621634 0.636052907
0.769513190 0.952561378 0.633649349
0.874130249 0.958506942 0.640859962
0.993674755 0.954585612 0.659202814
0.160152003 0.091840707 0.269702703
0.334724993 0.115749404 0.246173710
0.554459453 0.257685393 0.318152666
0.770145237 0.385452539 0.421125829
0.964452624 0.490448803 0.506894171
0.270335704 0.271347404 0.251739413
0.355344683 0.296521127 0.276913702
0.545983434 0.367488801 0.341682106
0.763314128 0.448197275 0.421125978
0.961416900 0.539784670 0.521188855
0.403668702 0.522707105 0.377229393
0.455028385 0.525996089 0.376596987
0.577609122 0.533206642 0.387729406
0.767235696 0.579633117 0.460341841
0.957874835 0.647691488 0.552182078
0.549145877 0.737507999 0.504364550
0.583554685 0.744085968 0.507779717
0.662997961 0.742820859 0.516634881
0.785578549 0.747374833 0.523845851
0.961416483 0.788235307 0.596584499
0.691713810 0.952308714 0.655660748
0.713725686 0.949019670 0.661353648
0.775079072 0.951043487 0.667678356
0.871220708 0.951296628 0.672106385
0.987476110 0.952940881 0.682099700
0.278557986 0.192915559 0.511321843
0.390006542 0.230234399 0.485515535
0.549272835 0.277292818 0.470840961
0.744339108 0.409361422 0.525110364
0.924604654 0.548640251 0.615306556
0.357621402 0.361290097 0.451865792
0.418469399 0.365844548 0.452498406
0.536495686 0.393295109 0.464895815
0.721821427 0.487792581 0.541049719
0.906514645 0.596331418 0.637570918
0.449209362 0.509297550 0.479949802
0.499557406 0.535483778 0.505755723
0.589752913 0.554458976 0.527007937
0.724098504 0.599241138 0.575711727
0.921947777 0.676154673 0.649968624
0.587476552 0.712713361 0.598987818
0.611638129 0.722453833 0.604554117
0.665907502 0.722200930 0.609740674
0.765971124 0.728399873 0.615939438
0.940543890 0.799367547 0.688804507
0.708791971 0.940290809 0.731055915
0.728652537 0.940923214 0.736622512
0.789879799 0.944845200 0.740923226
0.867299378 0.945477784 0.738266826
0.982036710 0.949398816 0.762555420
0.393295139 0.346363127 0.696521282
0.468184829 0.364579529 0.693738401
0.606451511 0.394686699 0.677419364
0.748260140 0.431625247 0.654269397
0.929538071 0.563693762 0.720935941
0.460973859 0.467551827 0.662998259
0.506135225 0.472738981 0.665401995
0.611005664 0.482605994 0.658443868
0.728399873 0.507400393 0.656799138
0.915116906 0.613029659 0.728399813
0.526628852 0.588488400 0.648323715
0.567868114 0.592409849 0.654522419
0.638456702 0.606071949 0.657811224
0.734977841 0.624794066 0.674510121
0.907273948 0.709803700 0.755597472
0.607969999 0.719924212 0.692473233
0.637697816 0.722833335 0.697027385
0.696268439 0.739152133 0.708791971
0.770904243 0.751296222 0.733586252
0.934977651 0.816698253 0.796331406
0.757368565 0.930802941 0.820746601
0.774446487 0.934092402 0.831751823
0.806198835 0.935989916 0.829854608
0.871979773 0.939658463 0.829854608
0.969639778 0.949398816 0.844528735
0.542820990 0.521947801 0.914104819
0.591903806 0.527514100 0.908539057
0.698418736 0.546742797 0.901707411
0.835041106 0.573560774 0.890322506
0.970398486 0.608222783 0.884123743
0.598355353 0.598102331 0.898924828
0.629095793 0.604553938 0.898797929
0.717014372 0.612397373 0.893611491
0.836306274 0.624920726 0.891334295
0.963567317 0.645793617 0.886021793
0.649336219 0.713472128 0.891334355
0.677798927 0.718405902 0.881593585
0.741555810 0.721315324 0.878937602
0.836432755 0.725237131 0.877545774
0.951423168 0.737634599 0.885515451
0.690069616 0.822011232 0.877672434
0.706515133 0.820999086 0.885135889
0.762428820 0.825933158 0.882859051
0.844149292 0.827577651 0.890701950
0.947122037 0.849715233 0.899177611
0.761163771 0.945603609 0.904870152
0.782162786 0.945603669 0.908918619
0.828463197 0.940923154 0.921315312
0.898418665 0.950663984 0.929538071
0.966350555 0.962428689 0.946742654
