Assets/EldamarStudio/100 Retro LUTs Pack/LUTs/cube/Timothy LUT.cube
LUT_3D_SIZE 8
DOMAIN_MIN 0.000000 0.000000 0.000000
DOMAIN_MAX 0.903226 0.903226 0.903226
0.003922000 0.000000000 0.000000000
0.231498629 0.059582997 0.075648546
0.424794197 0.066666998 0.082353003
0.571663618 0.108791992 0.119417638
0.708412349 0.192536384 0.186211184
0.823023498 0.270208985 0.264389724
0.908412576 0.344718277 0.331308991
0.996204793 0.418595791 0.412017643
0.152435541 0.188488543 0.079949096
0.262998521 0.185325637 0.083112001
0.411891520 0.208096549 0.099936545
0.554458916 0.227957085 0.141682193
0.690828621 0.270967990 0.204806745
0.804680705 0.322074294 0.271094084
0.898671687 0.379633129 0.341176718
0.992030382 0.440607190 0.412776649
0.250095010 0.334598184 0.122960098
0.294244528 0.335736722 0.125237092
0.391777277 0.338520199 0.134598181
0.541176558 0.366730183 0.188361645
0.679570079 0.394940197 0.238077179
0.791271687 0.422770351 0.301201731
0.891334474 0.459962100 0.365718186
0.991144776 0.508032799 0.435167700
0.332953990 0.479317278 0.239342630
0.369892180 0.482858837 0.234534815
0.444655538 0.488045275 0.237570912
0.541429222 0.486527264 0.245034978
0.672359347 0.508159459 0.295256287
0.775079131 0.519544303 0.340290755
0.885009646 0.542567909 0.398608565
0.984440148 0.582036436 0.461986244
0.418469191 0.607337356 0.328273177
0.433775723 0.618722558 0.330929846
0.492979169 0.612903297 0.336116195
0.569765985 0.616065979 0.335231185
0.664642572 0.615180373 0.337634385
0.766223729 0.625806630 0.380391717
0.876281261 0.640986502 0.437065244
0.976723671 0.671094179 0.499810159
0.507526755 0.730929732 0.433016717
0.521694899 0.737128556 0.426312268
0.561543465 0.738267064 0.434787989
0.619987249 0.732827485 0.437697649
0.688931227 0.733965755 0.436306179
0.774066687 0.730803192 0.448450714
0.873624563 0.743326724 0.487412989
0.976343989 0.768121481 0.542441607
0.583934307 0.844022870 0.516887963
0.605692565 0.842125118 0.531941533
0.633143246 0.842378557 0.523845375
0.675901651 0.845667541 0.528525889
0.733713210 0.839215636 0.526502192
0.804553986 0.840480804 0.533206761
0.887160301 0.840101242 0.545351267
0.974446476 0.856166840 0.582415760
0.669575751 0.957241774 0.627703965
0.692852378 0.956862330 0.633016944
0.711827755 0.958380640 0.635546744
0.751169801 0.956229985 0.633016944
0.796078146 0.957368553 0.639594793
0.855154872 0.957747996 0.638329923
0.923972249 0.956230223 0.645794094
0.993674755 0.954585612 0.659202814
0.128146544 0.074889451 0.157874644
0.224162087 0.068564542 0.145730093
0.371916652 0.125363901 0.184946090
0.494370371 0.200885639 0.230234176
0.639342368 0.268690914 0.287159920
0.781277418 0.329032272 0.342061818
0.874383688 0.385831803 0.395572573
0.980265498 0.449209511 0.449968517
0.187350005 0.169639543 0.145350635
0.251613081 0.181024998 0.172422096
0.350663751 0.210373536 0.201011732
0.491713822 0.255787551 0.237444997
0.638329923 0.307526618 0.289563566
0.766603410 0.358127803 0.341176718
0.870461702 0.408096105 0.392409980
0.979253769 0.466919363 0.447311640
0.269196630 0.303985089 0.207969651
0.308033079 0.310310096 0.214294642
0.374193639 0.311828107 0.218596086
0.503858268 0.359266549 0.263630629
0.642251790 0.397217065 0.305503070
0.762934685 0.433017015 0.354079276
0.870714784 0.471347332 0.410499364
0.978621066 0.521062732 0.472232342
0.348260641 0.458950162 0.278684258
0.372169286 0.463377714 0.279949635
0.430486739 0.461732835 0.283491194
0.514737368 0.464895755 0.294117540
0.647312105 0.500696003 0.331182361
0.757115543 0.521062374 0.380645186
0.865275025 0.548386991 0.433143467
0.970145404 0.590638459 0.491840541
0.426691741 0.588994622 0.354079306
0.442757964 0.599999845 0.356862545
0.493738174 0.595951796 0.366350651
0.563567281 0.601517797 0.374193639
0.648197174 0.600253165 0.376976371
0.750031292 0.618343234 0.415686518
0.858191073 0.644528866 0.464895725
0.967109621 0.676533759 0.523972154
0.510562956 0.721062481 0.456673175
0.525743127 0.721441925 0.449336022
0.561164081 0.722454190 0.457685083
0.618342996 0.719418168 0.458696902
0.685388863 0.723718941 0.459455997
0.770145714 0.720936000 0.469702721
0.865907550 0.741050005 0.509550691
0.972422540 0.765970886 0.561163962
0.590765536 0.826818585 0.535484016
0.601265311 0.834155560 0.536495507
0.629981279 0.831119537 0.537761033
0.673118174 0.834535003 0.539911509
0.736622453 0.833396614 0.543959618
0.798735201 0.834408581 0.548513591
0.881341040 0.837191880 0.559266269
0.968627334 0.850094914 0.595698774
0.686527669 0.947501659 0.630866468
0.695762157 0.956862330 0.642883837
0.717267334 0.953320801 0.644275784
0.747628272 0.953700244 0.641619325
0.791397631 0.951043546 0.645540595
0.854901969 0.955850780 0.650221586
0.918152988 0.951423109 0.650221527
0.989879608 0.954585612 0.669576347
0.168501094 0.094876900 0.301581293
0.259456098 0.106135547 0.293485552
0.360531211 0.133965999 0.275775015
0.497280508 0.213789091 0.310183197
0.619102001 0.299177915 0.364326268
0.734471917 0.375584722 0.422390997
0.841745794 0.440354288 0.471727103
0.958380640 0.500569046 0.526881874
0.242631465 0.205313087 0.251106739
0.281341106 0.209234998 0.257811278
0.352308631 0.226818532 0.270714611
0.469829559 0.282479614 0.315749288
0.596710920 0.341302723 0.371916533
0.723845720 0.399620473 0.423150003
0.835799992 0.455534548 0.466793090
0.953953087 0.515623033 0.524731338
0.294624090 0.303225994 0.282099992
0.336622626 0.325996101 0.307526708
0.388741076 0.331436098 0.311069191
0.479569972 0.363567203 0.340038210
0.608096063 0.412903279 0.391018182
0.726628304 0.456040561 0.433775961
0.837065101 0.500696063 0.480328768
0.950284779 0.557494998 0.537128210
0.373434544 0.441365898 0.348892897
0.393801540 0.447312266 0.352055728
0.433270216 0.451612920 0.360657722
0.499051183 0.455155283 0.366603285
0.617077708 0.495129347 0.409360915
0.721189022 0.526122749 0.444781572
0.832258224 0.565338373 0.495635748
0.950157762 0.611764729 0.550284922
0.445161283 0.575964391 0.420746297
0.461226702 0.578620970 0.416824996
0.505629182 0.582289398 0.429475278
0.556483209 0.583048463 0.429475069
0.630993068 0.585452259 0.435673356
0.732068360 0.614421189 0.474004090
0.842504442 0.648071170 0.520177186
0.953700006 0.684503436 0.572295785
0.538519919 0.707400680 0.508665204
0.546995461 0.707273722 0.504490852
0.575205505 0.706388593 0.508032739
0.621758521 0.707273901 0.511321843
0.681088030 0.708032668 0.512966514
0.749651790 0.709930360 0.520809829
0.848323822 0.737001777 0.553447127
0.956862450 0.767235935 0.603668749
0.601771295 0.822897077 0.565717816
0.614041865 0.819481492 0.582795799
0.641113400 0.826059580 0.578368187
0.676154315 0.825300515 0.580138981
0.731815457 0.825933099 0.580518603
0.803289115 0.830233991 0.588488042
0.870588422 0.835167587 0.594433546
0.965717971 0.853257358 0.634914696
0.687918961 0.951296568 0.666792810
0.702466786 0.946742654 0.667299092
0.720809758 0.944971561 0.663630605
0.754838586 0.950157881 0.669196546
0.800632417 0.949905097 0.676154196
0.855281532 0.946236670 0.675142646
0.923086226 0.948260427 0.685768485
0.990512192 0.951928794 0.694244027
0.242125288 0.154206276 0.442251623
0.304870099 0.170271739 0.429854751
0.395825267 0.199747086 0.412523627
0.479190648 0.228715986 0.400758922
0.619102001 0.317014635 0.450601101
0.729411840 0.386590838 0.482352734
0.823782265 0.466919273 0.534092605
0.929031968 0.546489596 0.595825613
0.299683630 0.261353642 0.392410100
0.335104465 0.262492090 0.384693265
0.386338115 0.271853268 0.390638649
0.468564272 0.291461110 0.392536253
0.595066726 0.354585618 0.440481007
0.708918750 0.416824996 0.485388726
0.809107900 0.490069538 0.543326914
0.918911815 0.556736231 0.597343564
0.340670645 0.346363187 0.394180983
0.364832550 0.355724216 0.391397744
0.423655629 0.374573201 0.413409442
0.492220074 0.393801540 0.419607639
0.595572352 0.436938643 0.460721195
0.692093313 0.484250396 0.507021010
0.801012278 0.539152145 0.555218101
0.922960103 0.587729275 0.606957793
0.391777277 0.452878267 0.422011644
0.416445524 0.461100727 0.431245923
0.473371178 0.480329007 0.457178950
0.517900229 0.482606292 0.455155283
0.603795052 0.505755663 0.480202287
0.700569391 0.545351148 0.520556748
0.805439293 0.590765297 0.572802305
0.929664552 0.631878793 0.617077768
0.481973380 0.574446142 0.491840631
0.490069747 0.579632759 0.493738174
0.522833407 0.577609062 0.496141851
0.564705670 0.578368187 0.497153640
0.628968716 0.586211205 0.508159637
0.718405724 0.615559757 0.537254870
0.820113957 0.655914187 0.583048582
0.934471786 0.696647406 0.631372333
0.558886945 0.695256054 0.559013009
0.572675645 0.693611443 0.563694119
0.596837521 0.697153568 0.571284115
0.629727721 0.697153747 0.565212011
0.679190636 0.701454997 0.571410358
0.741429389 0.705376446 0.575964391
0.836938381 0.735863268 0.611258566
0.950537443 0.776217639 0.654142976
0.624794245 0.811638534 0.619861007
0.635293841 0.814547956 0.625426948
0.654396236 0.814168453 0.624920905
0.686527312 0.817710161 0.627704322
0.730423748 0.820872843 0.629348218
0.794560313 0.822264194 0.635420561
0.860341311 0.830107689 0.641239882
0.958254218 0.852751434 0.682479262
0.706134915 0.941555798 0.710942626
0.714484334 0.941935360 0.708285749
0.738646567 0.948260427 0.713092864
0.765717745 0.946742654 0.716129124
0.806831002 0.944212615 0.719544590
0.853763580 0.949398816 0.716634870
0.919544637 0.947501421 0.725869834
0.988614738 0.952182174 0.735736430
0.311068982 0.240480989 0.572928369
0.353067517 0.249082997 0.560404956
0.429475069 0.270209104 0.551549375
0.515623093 0.297659993 0.530803025
0.609740555 0.321947992 0.529791415
0.726881742 0.400253177 0.563061655
0.826059580 0.476281077 0.595445871
0.923465967 0.553193927 0.648324013
0.356103748 0.321948051 0.536622345
0.378873736 0.325616747 0.516255379
0.437318206 0.335357159 0.527007997
0.508159637 0.344338924 0.518026233
0.594687164 0.360025525 0.517267406
0.708539188 0.429348260 0.555218041
0.808728337 0.498671740 0.598355412
0.910942554 0.569639623 0.648703158
0.394813269 0.410626173 0.503732085
0.422011614 0.415307075 0.507273734
0.457685173 0.418469191 0.514864028
0.516002595 0.421505392 0.508918524
0.595572352 0.445161283 0.521062374
0.699557245 0.493611366 0.561163962
0.797090352 0.553194046 0.610499620
0.904237568 0.615053654 0.660847723
0.437318116 0.483111620 0.511195660
0.450853795 0.488931179 0.522327781
0.501075447 0.503858268 0.526122749
0.557874441 0.522200823 0.541049778
0.617963672 0.537128627 0.556735873
0.697027087 0.570018888 0.591144681
0.791397870 0.611132324 0.625553668
0.904490829 0.659962296 0.676154494
0.492979199 0.573813975 0.549146175
0.511321843 0.584440351 0.551043391
0.553320408 0.593295276 0.563441098
0.597217143 0.601517797 0.579506874
0.643516958 0.608222365 0.583807349
0.710436702 0.628083408 0.605439544
0.811258376 0.666160762 0.644149184
0.919038594 0.711069047 0.695382595
0.585072756 0.695129216 0.617204428
0.594940186 0.694876611 0.620746195
0.614168465 0.693864524 0.623909116
0.643896461 0.697533011 0.624288499
0.681847155 0.697533011 0.625553429
0.735610723 0.705755889 0.630486906
0.829981029 0.740923524 0.667678714
0.938393414 0.782036543 0.710815966
0.647944272 0.809614062 0.676027596
0.663504004 0.809108078 0.684250474
0.670841217 0.810373127 0.679443419
0.693864644 0.811764657 0.681847274
0.738140225 0.814168274 0.683365166
0.793042481 0.817963362 0.684503734
0.859582365 0.825047314 0.698924601
0.950284660 0.858317673 0.737887144
0.721441925 0.938772857 0.760405004
0.726881504 0.940290630 0.757621586
0.746489704 0.939531624 0.760278165
0.770018935 0.940796793 0.760784268
0.807589829 0.940417409 0.760531187
0.856166840 0.943959594 0.766223729
0.916129231 0.950917006 0.773054719
0.980771720 0.947880983 0.778115094
0.376091003 0.323086739 0.668184757
0.401644528 0.329285026 0.667931736
0.472232848 0.347374827 0.662112474
0.552055717 0.366603464 0.653889775
0.636306345 0.389753729 0.651359975
0.718911767 0.409360737 0.628968716
0.826059580 0.480582029 0.667299032
0.928525925 0.560910642 0.706008971
0.405945450 0.382669032 0.643137515
0.432890564 0.388108730 0.636559248
0.478684485 0.392410189 0.642251790
0.549146354 0.406578153 0.634535253
0.628336430 0.417077750 0.628842652
0.711195767 0.444149494 0.626944959
0.813535511 0.509171486 0.659835458
0.915749550 0.573814094 0.701201618
0.446046740 0.474383444 0.631878674
0.477925271 0.472738832 0.623402894
0.504111409 0.473497838 0.624920726
0.562934697 0.480329186 0.626945257
0.626945019 0.481720388 0.622264385
0.698292077 0.503858089 0.622138083
0.802023947 0.561037242 0.666793346
0.914104998 0.620113790 0.717014432
0.501075625 0.537381351 0.617204487
0.511954665 0.539405465 0.617709994
0.544844925 0.546489596 0.620113790
0.585325480 0.553194344 0.616571546
0.629981160 0.559392571 0.617709994
0.699810266 0.575964391 0.636306405
0.793421924 0.620113850 0.671473801
0.906641364 0.676154256 0.730676711
0.533206701 0.601391554 0.626691937
0.547754407 0.607210517 0.620493233
0.577609122 0.610373259 0.632004917
0.620746136 0.625806689 0.642631173
0.666919470 0.643010974 0.656799436
0.724224985 0.656546533 0.667299092
0.808728456 0.689310551 0.707273722
0.908032775 0.737381339 0.757115602
0.591777503 0.693611443 0.668184698
0.603794932 0.693990886 0.663377583
0.629095733 0.695508659 0.669955432
0.661859632 0.706514835 0.679949701
0.704237938 0.717520535 0.690069556
0.746615708 0.722959757 0.699177742
0.826312542 0.749525428 0.726375580
0.931688547 0.793674469 0.776090801
0.663883567 0.802150249 0.726122558
0.668690920 0.807084084 0.722706974
0.690449059 0.805439293 0.729664326
0.719418287 0.807843149 0.739278913
0.753573716 0.814294577 0.741682410
0.793548465 0.817204297 0.745983481
0.854142964 0.830107510 0.754080057
0.945477724 0.865022182 0.795066178
0.757115781 0.931055963 0.817457497
0.762555361 0.930423677 0.819354713
0.775205612 0.931815028 0.815559804
0.792156637 0.936116278 0.818722308
0.813029945 0.938393176 0.816065848
0.858570635 0.938393414 0.814421237
0.911068857 0.946109891 0.822770357
0.969133735 0.948133945 0.832131565
0.448956579 0.418216556 0.789753318
0.475648284 0.417963535 0.783554554
0.524984360 0.430866569 0.781277597
0.595825613 0.444528639 0.775711536
0.678558230 0.464516103 0.766350329
0.761290014 0.480961561 0.758886814
0.836812317 0.507780015 0.748260558
0.931688607 0.573434651 0.771916568
0.476533800 0.460594356 0.770904541
0.496015280 0.461100817 0.772422671
0.541049838 0.471220613 0.770398557
0.608349144 0.484124303 0.765464842
0.677292705 0.491840452 0.758507192
0.751423120 0.507653296 0.750537336
0.833775938 0.526881874 0.745603561
0.926122487 0.587096572 0.777102828
0.528779268 0.535990119 0.760784268
0.544718564 0.539279044 0.757874548
0.575205624 0.540544093 0.755977452
0.622517526 0.545603931 0.750916958
0.682479143 0.554712057 0.746616304
0.748387277 0.562175632 0.748260379
0.827451229 0.575838327 0.744465411
0.918405950 0.630740106 0.778115153
0.564452946 0.604807258 0.745477617
0.580265641 0.607589960 0.740290701
0.603035927 0.610373259 0.739911199
0.638962626 0.610373259 0.741049886
0.691840351 0.614674091 0.743200660
0.746742249 0.616571546 0.735230803
0.818848848 0.633902609 0.751675844
0.914104819 0.685515404 0.785072625
0.591524243 0.658949971 0.738646507
0.597849250 0.667172849 0.742694557
0.623656213 0.670714557 0.737001657
0.662239194 0.671727121 0.741555929
0.701328516 0.673118353 0.739658475
0.751802742 0.680581927 0.747880995
0.818722486 0.699051142 0.761669815
0.914357960 0.743073881 0.806704581
0.620746434 0.727134585 0.750157773
0.629348576 0.726755023 0.753700256
0.653510451 0.730676711 0.753446937
0.678684235 0.736242771 0.750664175
0.726755202 0.743706226 0.763567090
0.775079191 0.757115543 0.772801816
0.835547268 0.778874218 0.794813037
0.925363362 0.817710042 0.838962555
0.664642513 0.814927518 0.780265570
0.676407576 0.808981717 0.777482271
0.695888281 0.810120285 0.777103066
0.726881623 0.817204297 0.786337912
0.769513071 0.818848550 0.802403450
0.814168453 0.834534943 0.810626030
0.861986041 0.842378557 0.818848550
0.944085777 0.876786947 0.860847533
0.759519041 0.930803180 0.843643129
0.770777822 0.933080494 0.853384018
0.779632986 0.928525925 0.855281651
0.806198359 0.930803180 0.862492144
0.841999054 0.935736775 0.873371363
0.873877347 0.937254906 0.876407146
0.917014539 0.940290630 0.881846786
0.964199662 0.949398756 0.888172090
0.542820990 0.521947801 0.914104819
0.562175512 0.519671082 0.901707768
0.604048014 0.529790819 0.909044981
0.661986232 0.541176677 0.903604984
0.736369133 0.556356728 0.899557114
0.814041674 0.568247914 0.892599583
0.897786260 0.588741124 0.893358767
0.970398486 0.608222783 0.884123743
0.574446797 0.550916851 0.899809778
0.585705221 0.553194344 0.896520972
0.614168286 0.560784042 0.906514823
0.670967877 0.567615569 0.900695503
0.735230684 0.579633355 0.894750118
0.812903285 0.591271579 0.894749880
0.887033522 0.605565965 0.888804793
0.967995048 0.624288321 0.878937602
0.606451631 0.616571605 0.894623578
0.612523913 0.620999217 0.888045669
0.641998827 0.619228005 0.898291826
0.689057469 0.624794483 0.889563501
0.749778569 0.628336608 0.890701950
0.816824794 0.635294199 0.884503543
0.888930917 0.645540476 0.885641932
0.961796403 0.658190966 0.887286663
0.637950778 0.677925229 0.880581617
0.648197293 0.680328786 0.879063725
0.675015569 0.684376836 0.888551652
0.711701393 0.685389102 0.886527598
0.759645581 0.690701783 0.878178418
0.817204535 0.691713989 0.880581737
0.882479250 0.693738043 0.879949450
0.955091596 0.711701393 0.881340742
0.658823609 0.737634003 0.882732809
0.665654659 0.742061853 0.885135889
0.688551605 0.744718373 0.880581617
0.726249158 0.746236742 0.878937364
0.769892335 0.747375190 0.880581617
0.819860935 0.750537634 0.882099569
0.877040088 0.751296520 0.878937602
0.947880924 0.768627107 0.882985353
0.686274648 0.803288877 0.883744538
0.691207945 0.808475494 0.887160063
0.710309803 0.805059791 0.885135651
0.742820799 0.808222711 0.883111954
0.782795608 0.808855057 0.881467402
0.827450991 0.814421237 0.885388732
0.884123981 0.815180063 0.885894716
0.947627842 0.832510769 0.895129681
0.710310102 0.866919756 0.883617520
0.717900097 0.870335519 0.889690101
0.730297267 0.869197071 0.886527598
0.765464664 0.868817508 0.887666225
0.797596335 0.870461941 0.887666106
0.841872394 0.870082378 0.894750178
0.889057815 0.879570127 0.903225541
0.951676071 0.902719676 0.917393923
0.761163771 0.945603609 0.904870152
0.780518591 0.946489334 0.916634917
0.784187019 0.947375059 0.908918619
0.816065788 0.942947447 0.916761637
0.848197162 0.941682637 0.920809448
0.887792647 0.948133945 0.925237000
0.926881790 0.951043546 0.937381208
0.966350555 0.962428689 0.946742654
