Assets/EldamarStudio/100 Retro LUTs Pack/LUTs/cube/Todd LUT.cube
DOMAIN_MIN 0 0 0
DOMAIN_MAX 1 1 1
LUT_3D_SIZE 32
0.031373002 0.058823999 0.121569000
0.034408614 0.058823999 0.115496226
0.046046771 0.060974225 0.118026547
0.059961997 0.062744997 0.120303839
0.072106093 0.062744997 0.117647000
0.084250867 0.062744997 0.117647000
0.101454996 0.065275319 0.125237316
0.118026696 0.065022290 0.127767280
0.133207098 0.063504092 0.125489995
0.148387492 0.066540480 0.125489995
0.163567126 0.063757129 0.122580871
0.180771500 0.064769253 0.123592734
0.201264992 0.065528356 0.125489995
0.225047067 0.062744997 0.125489995
0.243263826 0.062744997 0.125489995
0.266286969 0.065148801 0.127893806
0.293611377 0.066666998 0.129411995
0.323972136 0.066666998 0.128779426
0.354332954 0.066666998 0.125743032
0.384692997 0.066666998 0.125489995
0.418848455 0.060974263 0.125489995
0.454269379 0.053889871 0.123466000
0.487919450 0.050853521 0.117647000
0.527387917 0.047817901 0.117647000
0.566856265 0.037951007 0.117647000
0.607716262 0.028589657 0.119038671
0.651233077 0.022011066 0.121569000
0.699809849 0.012903462 0.121569000
0.740417421 0.003795180 0.110942349
0.781657338 0.000000000 0.107653216
0.822391212 0.000000000 0.106262013
0.858824015 0.000000000 0.094117999
0.031373002 0.064895995 0.124604613
0.037445001 0.067931615 0.121569000
0.044781614 0.070082389 0.119797774
0.056925934 0.071853384 0.122833841
0.070208937 0.071473837 0.122960001
0.090322867 0.068816997 0.117647000
0.097406998 0.068816997 0.125237316
0.115243703 0.071347319 0.127767280
0.133207083 0.071094289 0.123971999
0.148387477 0.069576100 0.119418003
0.154838994 0.075521611 0.125237003
0.177735627 0.076913260 0.126628861
0.200126633 0.077672362 0.127387747
0.222011372 0.074383005 0.125237033
0.240227431 0.068816997 0.122454390
0.268058211 0.073623993 0.127261385
0.295129597 0.074256815 0.127893806
0.323339552 0.072106421 0.125110611
0.351296604 0.069702610 0.119671039
0.387223363 0.069702610 0.122201361
0.418089867 0.069702610 0.124351650
0.452245623 0.067046002 0.125489995
0.488045931 0.066033907 0.123718992
0.530423582 0.062998287 0.123718992
0.572169185 0.059962098 0.119165003
0.612397015 0.051486336 0.114864007
0.653257549 0.043769389 0.112460613
0.696774185 0.037191462 0.112460613
0.734724939 0.028083857 0.112460613
0.780898094 0.018975576 0.107147165
0.826312423 0.014294778 0.101454638
0.864895999 0.012143999 0.085009620
0.033523228 0.075268999 0.131941766
0.039595228 0.076154388 0.122454390
0.047818001 0.077039778 0.121569000
0.055660773 0.077545844 0.119038679
0.066793315 0.076660231 0.119797319
0.086274929 0.075395070 0.120809771
0.101328224 0.077039778 0.125237316
0.110689640 0.077039778 0.127767280
0.129665002 0.078811005 0.125489995
0.146236733 0.077166297 0.122200996
0.159140006 0.080708548 0.121315777
0.173307985 0.082732551 0.123339772
0.197975859 0.084503770 0.125110999
0.219734251 0.082732551 0.123592734
0.243642971 0.080455549 0.124351643
0.269323379 0.081846766 0.128526211
0.295129597 0.083364971 0.131562218
0.322453946 0.080329195 0.127893597
0.352814764 0.077292807 0.120303780
0.386337757 0.079190545 0.124731354
0.422770470 0.081087805 0.123972259
0.454649121 0.079316780 0.123466000
0.490069687 0.076913267 0.121441990
0.530550003 0.073877126 0.125489995
0.568753600 0.072991714 0.120935999
0.611258268 0.068564013 0.114864007
0.651992381 0.061732773 0.109803997
0.694497049 0.058949776 0.109803997
0.738140583 0.054522626 0.109803997
0.776344121 0.048956554 0.106262021
0.825553179 0.042378388 0.101075172
0.868817210 0.039342321 0.086654000
0.032763999 0.086148165 0.133459836
0.041366000 0.086148165 0.127640992
0.049588773 0.086148165 0.124099001
0.058697157 0.086148165 0.120303839
0.064769156 0.083491325 0.114990160
0.079443701 0.083491325 0.119291708
0.098924674 0.084756486 0.124098994
0.112460412 0.088678166 0.127767280
0.125363901 0.087919071 0.124731094
0.143073842 0.087412998 0.124225155
0.160910711 0.087792866 0.121315710
0.178115159 0.091334999 0.122833841
0.196331158 0.090196356 0.123972483
0.217710063 0.090322867 0.124099001
0.244022548 0.091334999 0.126122743
0.270082057 0.092473350 0.129032150
0.298165977 0.093738198 0.129538164
0.321315289 0.091334999 0.128905594
0.354079932 0.088931203 0.121062815
0.387476385 0.091461189 0.125869840
0.422770470 0.093232252 0.131309420
0.459203243 0.095255993 0.126249030
0.492852628 0.089816518 0.120177001
0.530044079 0.086780421 0.123971999
0.569765747 0.086021326 0.120935999
0.606451452 0.087033167 0.116128847
0.649462223 0.080961160 0.110056840
0.692725837 0.079443157 0.108538836
0.739152253 0.078051843 0.109803997
0.779886127 0.077546097 0.104996860
0.822011173 0.076280698 0.098924853
0.870588005 0.074003994 0.090195999
0.028209999 0.095256448 0.125110537
0.040353999 0.095635995 0.127767384
0.049588773 0.095635995 0.128652990
0.058697160 0.095635995 0.127134830
0.068943992 0.094876997 0.118785545
0.075015992 0.094876997 0.118785545
0.094749995 0.095635995 0.120936319
0.112080865 0.098165996 0.122833833
0.124984451 0.102719903 0.124731094
0.140164077 0.099683516 0.121695481
0.160783857 0.097027317 0.119038679
0.180771500 0.099683993 0.121694997
0.198987991 0.102340356 0.126249090
0.217457026 0.100316025 0.129538447
0.241619274 0.103605412 0.129791453
0.266286969 0.103858545 0.128652990
0.293611377 0.103858545 0.126755461
0.323972136 0.104617544 0.121695422
0.354332954 0.104617551 0.118659034
0.387476385 0.107400194 0.123592548
0.422011465 0.108159088 0.128905639
0.458823681 0.108538546 0.133839414
0.495382905 0.108665057 0.124984033
0.529285371 0.106135450 0.124730997
0.568753958 0.105376549 0.121694997
0.609614313 0.105629407 0.115875877
0.646806061 0.108665094 0.112713002
0.692346394 0.102593102 0.106641002
0.740164101 0.101834096 0.107779831
0.782415926 0.103225768 0.103731804
0.822011173 0.106261931 0.096268013
0.870588005 0.109297544 0.090195999
0.034281999 0.104364060 0.122074932
0.046425998 0.107400447 0.122074932
0.052118775 0.107779995 0.122580998
0.058697160 0.107779995 0.126375839
0.068943992 0.107020997 0.130929545
0.087159991 0.100949004 0.127893925
0.098291993 0.106008992 0.127893925
0.110815704 0.107779995 0.125110999
0.121948160 0.109550901 0.122074932
0.137128472 0.111827515 0.121695481
0.155217946 0.111700997 0.121569000
0.177988499 0.113219321 0.123086669
0.198987991 0.114484355 0.125489995
0.217457026 0.112460025 0.126502052
0.238709390 0.121568404 0.132574052
0.265274853 0.120050810 0.125616878
0.293611377 0.119038932 0.124098800
0.323972136 0.120303921 0.124984063
0.354332954 0.125869930 0.124731027
0.387476385 0.128652573 0.127261356
0.418975472 0.127893671 0.121315457
0.453384101 0.127387732 0.118785396
0.492346525 0.129917443 0.121948421
0.531814992 0.132953838 0.118912026
0.567994654 0.132700935 0.123212986
0.609614015 0.129917935 0.118912019
0.652625024 0.127387866 0.109803870
0.692346394 0.132953867 0.106641002
0.737887442 0.132194862 0.103225842
0.782163262 0.132194862 0.097659796
0.824541509 0.133586317 0.091207996
0.870588005 0.136621937 0.090195999
0.032764323 0.118532315 0.124098673
0.039848328 0.116508707 0.124098673
0.051992323 0.119544543 0.124098673
0.058697160 0.118659154 0.122833833
0.068184994 0.117394321 0.125363782
0.082099997 0.115623318 0.122327618
0.100315996 0.119671315 0.129411995
0.114104696 0.120809607 0.127767280
0.124984093 0.120683089 0.125616670
0.136622503 0.123719156 0.129158676
0.157242328 0.121315315 0.121569000
0.173434570 0.123339571 0.123592734
0.196204990 0.128652677 0.125489995
0.218216062 0.131435320 0.125489995
0.246299714 0.133712411 0.127007991
0.269955903 0.133206800 0.128272995
0.297153831 0.134724990 0.124098673
0.327134848 0.137381569 0.126122564
0.359392971 0.141556323 0.128020301
0.384946048 0.142315283 0.123213358
0.422137886 0.147248641 0.124352001
0.456420243 0.146110192 0.116761386
0.494370788 0.146236315 0.116381876
0.533839285 0.151675910 0.113346092
0.573307633 0.154712290 0.114863709
0.611384988 0.154965326 0.115116686
0.654649079 0.152688265 0.107273676
0.698165417 0.156735986 0.106261551
0.740417123 0.157494992 0.098165840
0.780645072 0.157494992 0.096901000
0.823402822 0.160151586 0.091840714
0.870588005 0.166476637 0.090195999
0.029728293 0.135357410 0.127134711
0.039089289 0.130676672 0.125489995
0.049462706 0.133586630 0.125489995
0.059076704 0.132827088 0.125489995
0.068184994 0.129411831 0.124351829
0.080329001 0.128146991 0.126375765
0.095888712 0.133206993 0.125237316
0.112460412 0.137634695 0.126122996
0.128399715 0.135357410 0.124604613
0.140164495 0.137508184 0.129790992
0.159266159 0.136369541 0.129538164
0.176470533 0.134092256 0.125237450
0.197343558 0.135989994 0.125996068
0.222390726 0.144338712 0.125489995
0.248576820 0.152687699 0.125489995
0.267552167 0.148639798 0.120556295
0.299431145 0.148640186 0.125110477
0.328526527 0.153953120 0.125489995
0.361923009 0.156989247 0.127514243
0.390259445 0.160531700 0.123845994
0.419101506 0.162681982 0.119924292
0.458570689 0.167742118 0.119924292
0.495509475 0.166350394 0.115243196
0.531941950 0.172422409 0.112207189
0.573055029 0.176217273 0.113725416
0.613915026 0.179253668 0.111195043
0.654649079 0.180012763 0.104869999
0.700189412 0.183048651 0.102593005
0.741429329 0.185072407 0.101201855
0.780392051 0.186717108 0.092473291
0.819481254 0.188488096 0.088931307
0.867299020 0.196837395 0.083618008
0.024415001 0.152814895 0.128652900
0.035799906 0.149019420 0.127134696
0.047944453 0.149272442 0.125489995
0.060594898 0.152561873 0.125489995
0.066666901 0.147248194 0.125869542
0.078051902 0.144592032 0.134218931
0.095003322 0.146869004 0.132194996
0.107906610 0.151296720 0.127640992
0.126122996 0.154333100 0.122327901
0.144339010 0.154333100 0.125363514
0.163314089 0.153574005 0.129791006
0.178747252 0.152308837 0.130550161
0.197343186 0.151170194 0.130550444
0.227197975 0.151676193 0.127514049
0.248956397 0.167868182 0.127007991
0.266793102 0.169892192 0.121315382
0.290322572 0.167615294 0.116761193
0.327893943 0.171284094 0.124604568
0.361163914 0.174446240 0.124731094
0.391777635 0.178747714 0.123466253
0.422896981 0.182922453 0.120430358
0.455534279 0.187476128 0.117647000
0.495256394 0.190512508 0.117647000
0.531183004 0.195952103 0.115243189
0.570651531 0.200505897 0.114484280
0.613156319 0.202782780 0.111954339
0.655155122 0.206325099 0.104364000
0.700189412 0.209614456 0.098798007
0.741176307 0.211891264 0.097659834
0.778874218 0.216445312 0.095129803
0.819481611 0.221885085 0.085894920
0.865022063 0.227957085 0.073750906
0.012270994 0.167994529 0.125616506
0.021378607 0.171030924 0.128652900
0.032764055 0.169386208 0.127134711
0.047438510 0.169259697 0.125489995
0.063630506 0.171536982 0.125869542
0.069702514 0.171536982 0.128905937
0.091208160 0.168880165 0.129665002
0.105250001 0.169512719 0.129411995
0.117014609 0.172549099 0.128399894
0.144339010 0.175585493 0.125363514
0.165464863 0.172675624 0.125489995
0.180518478 0.171790004 0.125743002
0.196204633 0.172802135 0.129032150
0.218089581 0.175964981 0.136622429
0.242378309 0.182036981 0.133586049
0.268943787 0.188614979 0.130676791
0.297153890 0.191144988 0.124351770
0.327893943 0.192536488 0.118532576
0.358254015 0.198608503 0.121568970
0.388741255 0.198987991 0.124478124
0.420999229 0.201138750 0.123466253
0.455281228 0.206198841 0.120430343
0.492219985 0.214800522 0.117646992
0.537761211 0.217836916 0.117646985
0.578241765 0.223276496 0.112966470
0.619228244 0.226438984 0.105882332
0.661227047 0.227577493 0.098291993
0.700695395 0.233649492 0.098291993
0.743073583 0.234282017 0.090069845
0.781909883 0.239721701 0.085009776
0.822770298 0.249462485 0.079949394
0.874130487 0.261353493 0.070714511
0.003036130 0.191903740 0.116761133
0.012144485 0.189120397 0.119797528
0.023402872 0.194307551 0.124984130
0.035547130 0.192283288 0.125489995
0.050853681 0.190385550 0.125489995
0.069575995 0.192915872 0.125996068
0.090828642 0.190385550 0.131562129
0.108538993 0.190638587 0.129032120
0.121695191 0.192915872 0.125743225
0.146869361 0.193801492 0.122707382
0.162554994 0.193928003 0.119671002
0.181783631 0.190891609 0.123718992
0.200252861 0.190006003 0.124351643
0.222011060 0.191271171 0.124857962
0.230360821 0.194686994 0.116508581
0.266666800 0.205565989 0.118279196
0.299051195 0.212649986 0.125363439
0.330170661 0.216065556 0.127387583
0.358254015 0.219860867 0.121315964
0.391398072 0.223150223 0.118785642
0.423782617 0.227071732 0.117773265
0.458191097 0.231119737 0.112713389
0.494750321 0.236305863 0.105756015
0.534724891 0.242124885 0.100189999
0.580265999 0.245161295 0.097912714
0.622391164 0.250600845 0.092473142
0.664389908 0.255660862 0.086907074
0.703858256 0.266539872 0.089310870
0.745983422 0.267298877 0.081341051
0.788488150 0.272612065 0.072232924
0.826312423 0.279063880 0.066034146
0.865781128 0.283111870 0.058950000
0.000000000 0.218216240 0.123845249
0.003036134 0.213156104 0.116761386
0.006198755 0.214547798 0.115875743
0.018342756 0.220620245 0.119417742
0.032763850 0.217583746 0.119797289
0.058949940 0.215686440 0.121442005
0.088804387 0.215686440 0.126502007
0.106514737 0.214294761 0.130929708
0.120935835 0.216192499 0.125996262
0.143959478 0.216192499 0.121695489
0.167615637 0.216192499 0.124731384
0.184819490 0.218216240 0.119671263
0.203035980 0.216318503 0.123466261
0.225806087 0.216065541 0.121569000
0.244276077 0.215559915 0.117773838
0.262618780 0.221758500 0.116255701
0.299051195 0.230866492 0.116255321
0.331815124 0.236938491 0.123972014
0.360531241 0.241366208 0.116255708
0.391398072 0.248450607 0.114737645
0.424794734 0.251486510 0.113599002
0.458191127 0.257431984 0.108665131
0.493864715 0.261606276 0.099936746
0.535230935 0.267678767 0.097659737
0.577229619 0.275521517 0.093864970
0.621379018 0.279949248 0.089437261
0.664389789 0.285515308 0.083365135
0.706894100 0.293105483 0.081846938
0.746995568 0.298671514 0.076280922
0.789500296 0.300442725 0.063630566
0.831119537 0.308159500 0.054901756
0.866792977 0.310436517 0.048829746
0.000000000 0.244402289 0.127640352
0.000000000 0.241745636 0.123465993
0.000000000 0.240986764 0.118911870
0.002783001 0.241872638 0.117140643
0.014927000 0.247185647 0.116761193
0.040733583 0.242631629 0.118279576
0.072485685 0.241619632 0.120430000
0.103478640 0.242757991 0.122580424
0.117140643 0.242757991 0.124857709
0.138013497 0.242757991 0.119544715
0.167362601 0.243896633 0.123972356
0.186337993 0.244782016 0.123086721
0.207969636 0.246679276 0.120430358
0.226944670 0.246426240 0.120177329
0.254269570 0.243390411 0.119291715
0.275521964 0.247564986 0.120430358
0.297912836 0.250221640 0.117773809
0.331309170 0.256293625 0.114737421
0.362175971 0.262365639 0.109171353
0.395952076 0.271220982 0.109803997
0.424794734 0.278810889 0.107527003
0.458191127 0.281846762 0.108538873
0.491840452 0.287918776 0.099810012
0.533333182 0.295003444 0.095761999
0.575837910 0.302213967 0.092346646
0.618342638 0.311068624 0.086780719
0.661353528 0.317140758 0.079696715
0.706894040 0.320809722 0.072359107
0.747121811 0.327640623 0.064010024
0.788361669 0.333080202 0.056040473
0.830866516 0.336116582 0.038203463
0.870588005 0.341935635 0.030613367
0.000000000 0.269703001 0.113724999
0.000000000 0.272738665 0.122074358
0.000000000 0.272865027 0.124983996
0.002024000 0.271853179 0.123971999
0.007843000 0.269703001 0.124604471
0.019987000 0.269703001 0.121568866
0.047058608 0.269450039 0.118785650
0.081720375 0.270841360 0.115496293
0.113599025 0.273371041 0.112713002
0.131815046 0.273371041 0.112713002
0.164579570 0.276280910 0.116128869
0.184819952 0.277040005 0.114863776
0.202909634 0.277040005 0.114104606
0.229981065 0.277293026 0.116887972
0.257305413 0.274256647 0.113851584
0.280834794 0.278178096 0.115875773
0.303099364 0.279443204 0.113851972
0.328020513 0.278305054 0.109171420
0.361417025 0.284377068 0.106135033
0.400379390 0.292979389 0.107906327
0.431119442 0.301581293 0.105249971
0.458697140 0.309171140 0.101454876
0.492219985 0.312460512 0.104111008
0.531561971 0.321568906 0.092220001
0.573307574 0.328653008 0.084882967
0.615812302 0.335863411 0.077166341
0.658317149 0.344718128 0.067046009
0.703858256 0.350790918 0.054902013
0.744591773 0.359519213 0.043263961
0.786084294 0.366856039 0.034155957
0.828083158 0.372042686 0.024288813
0.870588005 0.375079066 0.000000000
0.000000000 0.306134969 0.113724999
0.000000000 0.309171379 0.113724999
0.000000000 0.303605020 0.117773362
0.000000000 0.300189406 0.113852009
0.001265006 0.300315976 0.106894471
0.001771016 0.306134969 0.115496099
0.026565334 0.303605288 0.114990167
0.066033997 0.302846372 0.111068584
0.104490779 0.304237723 0.105629005
0.122707441 0.306767374 0.100569017
0.155471295 0.309677243 0.109297879
0.182795584 0.308665127 0.107021004
0.206830859 0.307399958 0.104996786
0.236053064 0.307652980 0.107779585
0.260341823 0.310689390 0.107779585
0.292473197 0.312460601 0.111953996
0.315749377 0.311574847 0.108285591
0.335230708 0.308665097 0.101201579
0.355345041 0.314737797 0.106135018
0.394307405 0.320809811 0.100315996
0.429980755 0.325616658 0.096141592
0.462491810 0.331941515 0.090069592
0.498291969 0.339784890 0.085895032
0.534724832 0.348893285 0.079823017
0.576343954 0.358001113 0.074762732
0.618848681 0.365085334 0.066919610
0.660847485 0.372296154 0.054396011
0.700821877 0.381150872 0.036686033
0.746363044 0.389879793 0.029854355
0.790638506 0.397216797 0.018975209
0.832890213 0.402403414 0.009867189
0.870588005 0.405439824 0.000000000
0.002403804 0.337760597 0.096900821
0.000000000 0.335989982 0.099304013
0.002150774 0.339025825 0.105755791
0.001138643 0.335989773 0.110563010
0.001138547 0.336369395 0.106008999
0.007210800 0.334345400 0.104996875
0.001138531 0.335230917 0.099304013
0.039974608 0.337128580 0.100948721
0.086274311 0.337887496 0.097912714
0.116002381 0.337634116 0.093485005
0.155977055 0.335863441 0.097153880
0.185325950 0.340923578 0.104238003
0.211132243 0.341302752 0.100822359
0.239721805 0.342567593 0.100822031
0.264010012 0.343453199 0.098671809
0.293105781 0.344085783 0.096268006
0.321947992 0.345603973 0.102340013
0.343200117 0.342567593 0.095509022
0.364958942 0.345097899 0.090955012
0.395446211 0.348766774 0.090702005
0.429221809 0.356736541 0.086527273
0.463124245 0.361796379 0.080961205
0.499556988 0.369639575 0.074636221
0.535989821 0.381024688 0.064010203
0.576976538 0.387855798 0.055660922
0.620872974 0.395445585 0.048197232
0.663883865 0.401517987 0.037065212
0.703352213 0.408728331 0.026439222
0.738519669 0.420240402 0.014042155
0.789373517 0.429348350 0.009740601
0.832384169 0.436053008 0.003036004
0.865781009 0.440607607 0.000000000
0.002403808 0.371157378 0.087792799
0.000885613 0.369639575 0.089310609
0.000632582 0.367868423 0.089057595
0.003668969 0.368374348 0.093105659
0.001138644 0.371663719 0.098418720
0.005692745 0.371284366 0.096901000
0.004174679 0.367235988 0.091334686
0.002024030 0.370525360 0.082732327
0.055155009 0.375838280 0.086527616
0.101454712 0.374319881 0.085768327
0.142314747 0.371284246 0.087033488
0.182289556 0.372802168 0.090575814
0.211891443 0.375458807 0.094370812
0.240227878 0.377735525 0.091207974
0.267046183 0.379000366 0.085642040
0.294623584 0.377482563 0.085642204
0.323466182 0.377482563 0.082605816
0.349019319 0.378114969 0.086147830
0.375079155 0.379000366 0.075774819
0.404933542 0.380265534 0.076281004
0.432258189 0.384060949 0.072865464
0.464642435 0.393169075 0.068816945
0.501075149 0.399873495 0.062491830
0.537508011 0.410626203 0.050347809
0.578494728 0.418216199 0.038962722
0.619607806 0.425679833 0.028463028
0.664895892 0.432890385 0.017836943
0.706388175 0.440986365 0.012776822
0.745097756 0.449335635 0.008982025
0.781783283 0.458191305 0.002150783
0.835546732 0.467298925 0.000000000
0.870335162 0.474004000 0.000000000
0.000000001 0.406957537 0.086401016
0.000632577 0.408222526 0.086401016
0.000000001 0.405439347 0.082100019
0.001265161 0.403035671 0.077925436
0.003542452 0.401138514 0.073750503
0.000506065 0.409993887 0.078305162
0.000000000 0.407716453 0.078684546
0.000000001 0.406324953 0.072991744
0.008475689 0.411006033 0.067678437
0.075269274 0.414041638 0.073750444
0.121568881 0.413156390 0.075268596
0.163693920 0.412270844 0.074130133
0.203415647 0.415559739 0.076027878
0.237065077 0.412271023 0.076280907
0.268184811 0.414168090 0.068690605
0.296141773 0.413662314 0.067299254
0.324098766 0.412144512 0.067299262
0.352055520 0.412777096 0.062365476
0.382416368 0.415812731 0.056293469
0.412776589 0.416065693 0.058570661
0.441239446 0.417963266 0.057811871
0.468311220 0.421126008 0.052372187
0.504617453 0.430107117 0.045919985
0.540544212 0.438709438 0.033270031
0.580265939 0.446173131 0.023656026
0.622644186 0.454269171 0.014042021
0.663124621 0.463377595 0.003415937
0.708664954 0.475395113 0.000379552
0.750916600 0.482226104 0.002024256
0.790511906 0.488930941 0.002150784
0.829474747 0.495256484 0.000000000
0.881088018 0.504364133 0.000000000
0.000000003 0.440354019 0.068184942
0.003036391 0.446426034 0.068184949
0.001518198 0.443390012 0.063883953
0.001265162 0.440100968 0.060341954
0.003542449 0.440607011 0.058570828
0.000506065 0.446679026 0.046426069
0.000000000 0.447944075 0.050980058
0.000000002 0.445793718 0.049715035
0.006831096 0.444276035 0.046425994
0.035800047 0.444402516 0.052497990
0.102593541 0.450347990 0.058570720
0.152941212 0.447565019 0.051992416
0.194813296 0.447944641 0.045667030
0.230993062 0.454775929 0.045920055
0.267425805 0.448703170 0.048956435
0.296141773 0.450600833 0.043769971
0.324984372 0.451613009 0.039974805
0.355091929 0.452245593 0.035041019
0.385452002 0.455282003 0.022897027
0.415812790 0.455534965 0.025173672
0.448070705 0.457432210 0.028209817
0.479696244 0.459456027 0.028462911
0.510689497 0.460467994 0.024667546
0.544085920 0.466539979 0.009487927
0.580012619 0.475142300 0.005945995
0.621125996 0.485388964 0.004933998
0.666161060 0.496774077 0.003415937
0.711701393 0.505882442 0.000379555
0.751928747 0.512587011 0.000000001
0.791650534 0.520430207 0.000253034
0.831752121 0.528400004 0.000000003
0.875015974 0.534725010 0.000000000
0.002783357 0.482099742 0.024920899
0.005819034 0.485389084 0.027704258
0.004554422 0.485009313 0.025553484
0.001518196 0.483364910 0.022643905
0.001138643 0.484883100 0.022643905
0.000506064 0.486148089 0.020113753
0.000000000 0.487160087 0.018089624
0.001644708 0.485515386 0.020366620
0.002783366 0.483238399 0.017330723
0.011891508 0.483238399 0.017330974
0.079823092 0.489057422 0.017837003
0.142568097 0.485009670 0.021885000
0.190765262 0.483871102 0.016951269
0.229981065 0.492220044 0.015053945
0.261353791 0.491207927 0.013029680
0.295382768 0.487539560 0.013662264
0.326502174 0.489816576 0.011385269
0.359392762 0.490449011 0.010879202
0.394054383 0.489184350 0.009488001
0.421631753 0.495003402 0.016824644
0.451992482 0.496900648 0.010373004
0.484503478 0.499936521 0.007969629
0.517014503 0.501834273 0.006830987
0.555723906 0.505250096 0.004933539
0.591397583 0.511322081 0.001138643
0.629221976 0.519924045 0.002530315
0.670462012 0.530170441 0.003922000
0.709170997 0.539278865 0.003162909
0.752055168 0.548387229 0.000126525
0.789879322 0.554585695 0.001771217
0.830992758 0.564453006 0.001897749
0.877292633 0.576217771 0.000000000
0.003922000 0.520809472 0.007843000
0.003162617 0.523845851 0.005186650
0.007590030 0.524478436 0.007716971
0.005819256 0.522707224 0.005945744
0.003035997 0.525110900 0.005566196
0.000000000 0.526628733 0.004048004
0.000000000 0.528526485 0.004048004
0.000000000 0.526881754 0.005692712
0.002024263 0.526122451 0.005186648
0.002024288 0.528399467 0.002150744
0.040481150 0.526628494 0.002024260
0.123213492 0.526375711 0.005945740
0.175964653 0.522960484 0.007843000
0.218975350 0.530297220 0.006072288
0.264136821 0.528652489 0.006325320
0.293105781 0.530044317 0.003794996
0.328020364 0.528526485 0.002277191
0.363061249 0.531182647 0.001265164
0.400758982 0.530676663 0.001771235
0.426945090 0.534092486 0.006578399
0.456166714 0.536369443 0.009993748
0.488551497 0.537381053 0.000885612
0.522580504 0.538772762 0.000000000
0.554964900 0.543579936 0.000000000
0.595951557 0.548893452 0.000000000
