Assets/EldamarStudio/100 Retro LUTs Pack/LUTs/cube/Todd LUT.cube
LUT_3D_SIZE 5
DOMAIN_MIN 0.000000 0.000000 0.000000
DOMAIN_MAX 0.903226 0.903226 0.903226
0.031373002 0.058823999 0.121569000
0.118026696 0.065022290 0.127767280
0.243263826 0.062744997 0.125489995
0.454269379 0.053889871 0.123466000
0.740417421 0.003795180 0.110942349
0.029728293 0.135357410 0.127134711
0.112460412 0.137634695 0.126122996
0.248576820 0.152687699 0.125489995
0.458570689 0.167742118 0.119924292
0.741429329 0.185072407 0.101201855
0.000000000 0.306134969 0.113724999
0.066033997 0.302846372 0.111068584
0.260341823 0.310689390 0.107779585
0.462491810 0.331941515 0.090069592
0.746363044 0.389879793 0.029854355
0.002909872 0.558254123 0.007843000
0.000000000 0.569386542 0.001644708
0.257432044 0.569765866 0.008096290
0.493611366 0.577862144 0.002909872
0.751549602 0.615179896 0.000000000
0.000000000 0.846299767 0.003795180
0.003288997 0.849588633 0.005186845
0.239089027 0.850853980 0.001265006
0.534471631 0.851486564 0.000000000
0.771789730 0.859329581 0.002656833
0.062112994 0.066666998 0.169639707
0.138646409 0.064389706 0.169639707
0.242251709 0.074510001 0.158507288
0.458570689 0.025047718 0.189247131
0.738899469 0.000000000 0.179759577
0.050980002 0.139911413 0.162808403
0.118658699 0.141555697 0.165085688
0.250221521 0.142821133 0.164706007
0.461859673 0.128779158 0.174572825
0.741049767 0.109550856 0.174825713
0.002277292 0.302213788 0.163440987
0.045667596 0.302466691 0.164073408
0.260973990 0.309044659 0.156862572
0.467046231 0.327007949 0.155597836
0.748639703 0.372169375 0.145856991
0.001012128 0.565717876 0.117267273
0.000000000 0.564832568 0.116887994
0.230360374 0.566730022 0.103225991
0.497153819 0.578874230 0.104617402
0.759013295 0.611258924 0.080076270
0.002530012 0.844528913 0.043769922
0.005312988 0.844275594 0.053004492
0.267931581 0.849209309 0.059708878
0.543579817 0.852498412 0.080075875
0.767868400 0.858064413 0.121568576
0.149778411 0.051612586 0.333585978
0.218469396 0.047691423 0.323086828
0.338140368 0.024035605 0.317267358
0.488678217 0.001265006 0.312080801
0.754838586 0.000000000 0.360404402
0.047691423 0.154332399 0.322201073
0.166476697 0.149399117 0.317267776
0.324098676 0.140543997 0.316888094
0.487665921 0.130803421 0.314864099
0.757115841 0.066540182 0.354458958
0.003922000 0.330929786 0.311321825
0.042378180 0.328652680 0.322453976
0.284503371 0.329664797 0.322454393
0.499430507 0.327387512 0.329411656
0.760658026 0.351928949 0.350663930
0.002023998 0.556609452 0.336242646
0.002909714 0.564453065 0.329917520
0.245287955 0.568753958 0.335736632
0.515749395 0.577862144 0.340797216
0.764958858 0.611891389 0.354965061
0.002656833 0.846932173 0.344085962
0.000000000 0.843643188 0.352688193
0.332700580 0.841619194 0.369639188
0.572422266 0.847564757 0.388614625
0.786844015 0.854775190 0.403795183
0.171536863 0.002909872 0.609361410
0.250348002 0.000000000 0.618722260
0.401897669 0.001012128 0.607969522
0.579633117 0.000000000 0.610246241
0.773054600 0.000000000 0.616571784
0.045920480 0.149398848 0.605692804
0.192789420 0.149778560 0.601771235
0.377356231 0.133080274 0.607716620
0.560784578 0.119038567 0.604680419
0.771537244 0.060215004 0.625300467
0.000000000 0.357115388 0.600000143
0.025047826 0.353194386 0.607084274
0.328905821 0.353193820 0.607589781
0.538899243 0.349019498 0.597849667
0.771031022 0.346363097 0.618469417
0.001012128 0.578747272 0.596711218
0.001644708 0.574825823 0.608349264
0.283364803 0.578494370 0.605060279
0.538646340 0.590639234 0.611132145
0.787476420 0.603415430 0.615179896
0.002909872 0.843643606 0.636052966
0.002909703 0.846679091 0.629854679
0.230233982 0.846552730 0.616318703
0.586211085 0.847564578 0.624035358
0.804553807 0.854395747 0.647818089
0.091335021 0.000000000 0.893231928
0.205819011 0.000000000 0.890701950
0.381783813 0.003289416 0.891966760
0.564326465 0.001265167 0.886401057
0.757241726 0.000000000 0.884250641
0.003288997 0.159645647 0.891966760
0.165970847 0.164199814 0.893484890
0.360910565 0.156103671 0.886780620
0.558380902 0.154585361 0.891587675
0.753320813 0.169007048 0.888804436
0.001265167 0.389879793 0.883997798
0.130043998 0.382036626 0.887792289
0.357874393 0.386590362 0.889436781
0.559772193 0.391524494 0.881214321
0.755976915 0.403035790 0.886148036
0.055787388 0.605945528 0.887033641
0.192156926 0.606577992 0.887539446
0.403795183 0.619354844 0.885135889
0.598482072 0.628210127 0.887792468
0.787476182 0.638076901 0.888804615
0.085009150 0.826691747 0.894496799
0.212017879 0.828589439 0.891334593
0.416318595 0.834534764 0.891334355
0.627957225 0.847564578 0.891966760
0.843769729 0.873750746 0.898544908
