Assets/EldamarStudio/100 Retro LUTs Pack/LUTs/cube/Todd LUT.cube
LUT_3D_SIZE 8
DOMAIN_MIN 0.000000 0.000000 0.000000
DOMAIN_MAX 0.903226 0.903226 0.903226
0.031373002 0.058823999 0.121569000
0.072106093 0.062744997 0.117647000
0.133207098 0.063504092 0.125489995
0.201264992 0.065528356 0.125489995
0.293611377 0.066666998 0.129411995
0.418848455 0.060974263 0.125489995
0.566856265 0.037951007 0.117647000
0.740417421 0.003795180 0.110942349
0.028209999 0.095256448 0.125110537
0.068943992 0.094876997 0.118785545
0.124984451 0.102719903 0.124731094
0.198987991 0.102340356 0.126249090
0.293611377 0.103858545 0.126755461
0.422011465 0.108159088 0.128905639
0.568753958 0.105376549 0.121694997
0.740164101 0.101834096 0.107779831
0.024415001 0.152814895 0.128652900
0.066666901 0.147248194 0.125869542
0.126122996 0.154333100 0.122327901
0.197343186 0.151170194 0.130550444
0.290322572 0.167615294 0.116761193
0.422896981 0.182922453 0.120430358
0.570651531 0.200505897 0.114484280
0.741176307 0.211891264 0.097659834
0.000000000 0.244402289 0.127640352
0.014927000 0.247185647 0.116761193
0.117140643 0.242757991 0.124857709
0.207969636 0.246679276 0.120430358
0.297912836 0.250221640 0.117773809
0.424794734 0.278810889 0.107527003
0.575837910 0.302213967 0.092346646
0.747121811 0.327640623 0.064010024
0.002403808 0.371157378 0.087792799
0.001138644 0.371663719 0.098418720
0.055155009 0.375838280 0.086527616
0.211891443 0.375458807 0.094370812
0.323466182 0.377482563 0.082605816
0.432258189 0.384060949 0.072865464
0.578494728 0.418216199 0.038962722
0.745097756 0.449335635 0.008982025
0.003922000 0.520809472 0.007843000
0.003035997 0.525110900 0.005566196
0.002024263 0.526122451 0.005186648
0.175964653 0.522960484 0.007843000
0.328020364 0.528526485 0.002277191
0.456166714 0.536369443 0.009993748
0.595951557 0.548893452 0.000000000
0.749019384 0.581783533 0.001265167
0.001644712 0.690701962 0.007843000
0.002403711 0.692220271 0.004048003
0.006198902 0.687665999 0.005566292
0.077545628 0.695762217 0.001138644
0.328273177 0.697027326 0.010373102
0.476660281 0.693990946 0.007589993
0.616192520 0.702466547 0.001644712
0.755724192 0.714990556 0.001644712
0.000000000 0.846299767 0.003795180
0.000000000 0.846679330 0.000000000
0.003794989 0.847058833 0.001897736
0.082479469 0.851359785 0.001138644
0.336369365 0.849968374 0.003035997
0.499810278 0.852751434 0.000759092
0.638203800 0.856293321 0.005312988
0.771789730 0.859329581 0.002656833
0.043516546 0.063124545 0.138014004
0.080708094 0.066666998 0.141935095
0.129285097 0.068184994 0.143453091
0.203795090 0.073244549 0.145477548
0.297153860 0.063251354 0.149778813
0.418722451 0.024794530 0.150917456
0.565591097 0.000379548 0.144212291
0.739658415 0.000000000 0.138646275
0.050600551 0.099556997 0.145098001
0.083871000 0.098797999 0.135230556
0.128526002 0.099936545 0.132447988
0.194180995 0.098797999 0.145857006
0.296015203 0.094117805 0.143832728
0.418089628 0.087539554 0.148134187
0.570271790 0.067931555 0.146616191
0.733965755 0.041492999 0.139278829
0.034535095 0.153194442 0.142694101
0.067425907 0.149652109 0.138772994
0.119797193 0.152815014 0.138014004
0.199747100 0.154712558 0.141176105
0.291967183 0.165717646 0.139152452
0.416065931 0.175837830 0.131941736
0.575331867 0.181277826 0.135863289
0.741429269 0.192156628 0.124984346
0.001518095 0.236432388 0.131309539
0.009487906 0.242378533 0.134851098
0.110056639 0.242757991 0.136495903
0.204806730 0.247058734 0.129791349
0.296394765 0.255787432 0.135230646
0.422770292 0.272106528 0.129158646
0.574699581 0.296394736 0.119164996
0.737507522 0.315496355 0.097912759
0.002403808 0.367995083 0.111068554
0.004680999 0.366856515 0.115243092
0.029475266 0.368374616 0.115369901
0.201644540 0.373940706 0.107526906
0.319544196 0.380897909 0.114231355
0.429728329 0.380138934 0.107147351
0.585705340 0.413409472 0.087919369
0.751296163 0.442504585 0.058191191
0.006451812 0.515496731 0.054649014
0.000379548 0.526122630 0.054649010
0.000000001 0.524604499 0.045667373
0.153067634 0.522833645 0.043643627
0.322833627 0.525743127 0.029222177
0.456672937 0.531562448 0.023656078
0.593548298 0.548513889 0.009740719
0.757115901 0.579380155 0.001265167
0.002403711 0.690701962 0.000000000
0.000000000 0.688677788 0.003289004
0.003035997 0.692725778 0.004048101
0.057938270 0.692220211 0.000758999
0.320429981 0.694623470 0.003415642
0.472485721 0.695888698 0.000379548
0.612650096 0.698925018 0.000000000
0.752181768 0.711448193 0.000000000
0.000379548 0.851739168 0.000379548
0.000000000 0.846553087 0.002277285
0.001897737 0.845667481 0.000379548
0.100822203 0.846552968 0.001518189
0.346362710 0.850221395 0.002024167
0.503605187 0.854269266 0.003036184
0.638203621 0.851486564 0.005060443
0.769259751 0.858064413 0.002277285
0.069702998 0.066666998 0.180265903
0.106894545 0.059582900 0.179127455
0.160658091 0.067425899 0.179507002
0.213029996 0.070967644 0.172422096
0.299937189 0.072232910 0.181024998
0.424920708 0.038456365 0.193548098
0.577862144 0.000000000 0.191145092
0.743200421 0.000000000 0.200252935
0.067805447 0.102719903 0.174699187
0.099177547 0.093611538 0.175964549
0.154712528 0.099936545 0.178368449
0.208981365 0.099936545 0.175205544
0.304617375 0.102846093 0.185831815
0.423656076 0.086780354 0.192789286
0.571663380 0.028969267 0.198861361
0.743579865 0.000000000 0.201897264
0.048703101 0.154333085 0.177989006
0.076786995 0.162176102 0.172801644
0.133080184 0.159772098 0.177229896
0.214548081 0.153447196 0.165591449
0.304490983 0.164579108 0.182669103
0.430233926 0.157115743 0.185452268
0.580898523 0.137887180 0.187223285
0.741302848 0.139658347 0.190765262
0.002783356 0.238836274 0.172422275
0.040227812 0.238077179 0.178368360
0.127008006 0.245161191 0.178368360
0.211005643 0.256926090 0.166476667
0.317141175 0.254142851 0.174699381
0.436812371 0.263504028 0.176344097
0.581277907 0.278810978 0.180139378
0.746489227 0.295762479 0.182542801
0.000000000 0.374320269 0.177862093
0.003921904 0.366729796 0.172801733
0.022137919 0.370398283 0.174067006
0.186717540 0.367489010 0.167362556
0.321062386 0.378241450 0.169386089
0.436432719 0.381656945 0.161037371
0.583934367 0.406325072 0.159139708
0.749651968 0.435041010 0.161543325
0.000759096 0.527008474 0.166350201
0.000759096 0.524604678 0.157621905
0.000759096 0.526628733 0.152055815
0.119670987 0.526628733 0.153067723
0.317520529 0.527767420 0.141935199
0.461227357 0.534345269 0.141049996
0.601391315 0.544591963 0.139152452
0.758001328 0.575585246 0.137002081
0.000000000 0.686147988 0.113725200
0.000379548 0.691207767 0.110183649
0.003162904 0.690701962 0.110309906
0.045540731 0.691461146 0.116002291
0.323845565 0.689057469 0.114231281
0.477166206 0.691587329 0.120556481
0.613156378 0.697027326 0.119038485
0.757368565 0.713599086 0.117141187
0.001517998 0.842251658 0.110057093
0.002024167 0.845034599 0.124477811
0.003794999 0.844528735 0.129158914
0.155344650 0.844781935 0.131182685
0.360025287 0.843137324 0.133586094
0.509424448 0.850221395 0.144339159
0.646679401 0.853004396 0.157621771
0.770145297 0.855281591 0.174193442
0.124984354 0.057685357 0.263503909
0.149652094 0.058064904 0.258317381
0.209108189 0.056926262 0.256546557
0.276913643 0.052625000 0.257811278
0.346869290 0.048450556 0.258949846
0.429728359 0.027577272 0.247817725
0.584819555 0.000000000 0.280328989
0.749525189 0.000000000 0.301581293
0.090828992 0.097533450 0.254901826
0.122201093 0.103099450 0.255028635
0.192283645 0.099557094 0.258064628
0.264262825 0.092852645 0.257305741
0.343453646 0.087792896 0.244655624
0.436559051 0.081214450 0.255281389
0.583301604 0.023149913 0.278304636
0.749398768 0.002783356 0.297533274
0.037191816 0.181024998 0.254901826
0.089437000 0.169133201 0.256926090
0.159013197 0.170019001 0.251360089
0.248576730 0.166097105 0.250601083
0.341429383 0.162176102 0.247438177
0.438456565 0.163820297 0.261353433
0.588741541 0.152561545 0.281467348
0.758127570 0.121062465 0.294117719
0.001138644 0.272991627 0.258949637
0.018975101 0.267425627 0.251739621
0.133333191 0.262744814 0.254522264
0.227071270 0.262365282 0.258444279
0.333206743 0.264389664 0.261733115
0.448576450 0.262365282 0.258823633
0.594307542 0.270208985 0.274762988
0.755344748 0.279190272 0.285768479
0.001138644 0.368754178 0.251739651
0.000379548 0.365970910 0.257305533
0.065781362 0.368754297 0.250980437
0.208349094 0.376344025 0.256419927
0.328020364 0.386843383 0.258444309
0.461606741 0.392662734 0.270841181
0.606577933 0.406451672 0.278557926
0.753447175 0.432511002 0.278304905
0.001517999 0.517140985 0.270714521
0.002024260 0.521568477 0.268311530
0.002783356 0.523086667 0.272865534
0.135736823 0.527767360 0.269702613
0.316255271 0.536116123 0.267172992
0.465401798 0.536875248 0.268184721
0.606831372 0.545730591 0.274889380
0.763061345 0.573054910 0.279190630
0.000000000 0.689057231 0.263503909
0.000759096 0.688804567 0.270841271
0.000379548 0.686527789 0.269323379
0.090955116 0.686148226 0.269702941
0.338266909 0.687918901 0.267931819
0.486907095 0.692346215 0.281847000
0.621252179 0.696773946 0.283744633
0.762808383 0.715496600 0.286274642
0.001138644 0.843643606 0.275521606
0.001265167 0.841998577 0.288551569
0.017457282 0.845161438 0.297153622
0.231245682 0.845034599 0.308159441
0.393927902 0.846173227 0.303478450
0.527893841 0.850221395 0.308918327
0.654522479 0.852118611 0.315876245
0.783680975 0.856925786 0.327640623
0.159898996 0.044023003 0.401644349
0.190385908 0.039342005 0.403289169
0.250727177 0.029980909 0.403415382
0.325869471 0.014674360 0.397343725
0.414294362 0.000000000 0.399493992
0.504364192 0.000000000 0.387096614
0.600505769 0.000000000 0.388235092
0.753573418 0.000000000 0.421884656
0.130929992 0.092346795 0.405945808
0.156989351 0.095256358 0.404554039
0.241998553 0.088931449 0.397976011
0.326122910 0.078051746 0.398228914
0.408475727 0.060974170 0.394560456
0.499303907 0.032764360 0.395446181
0.600632548 0.007969811 0.391903728
0.756989062 0.000000000 0.420619816
0.003035997 0.175458282 0.392156661
0.084882997 0.174319744 0.395825714
0.188741103 0.167615101 0.391524255
0.287792534 0.166856110 0.395319372
0.389247179 0.162175909 0.396331251
0.493864745 0.151170194 0.393928081
0.600632310 0.142820910 0.396078438
0.762049496 0.112460561 0.423276335
0.000000000 0.287918806 0.395446211
0.005566002 0.283870637 0.394307733
0.125490010 0.276407272 0.394560277
0.245161280 0.274130285 0.394939989
0.366603374 0.268564284 0.394560456
0.481594145 0.272232622 0.396964282
0.604427755 0.265148640 0.400506079
0.764958858 0.265148610 0.418468982
0.005439805 0.400126547 0.393548548
0.000379548 0.403668731 0.402656376
0.024162199 0.398608357 0.391397566
0.215180174 0.398228824 0.394054204
0.348513365 0.397723377 0.397976190
0.480834991 0.398608357 0.402150810
0.613156378 0.407210469 0.403289288
0.770651400 0.423149824 0.415812582
0.004048004 0.522327662 0.401644349
0.000379548 0.523086667 0.400885373
0.001517999 0.521062851 0.395446181
0.156735986 0.528526247 0.404048175
0.330423385 0.531688452 0.404554129
0.478684187 0.538266718 0.411764562
0.627451181 0.555977464 0.419987172
0.767362475 0.579127192 0.427324444
0.002403808 0.680708349 0.414294362
0.000000000 0.686021388 0.414927155
0.003921806 0.686907053 0.411005348
0.041872256 0.688804746 0.402150542
0.339531749 0.693232059 0.413409352
0.501707554 0.691966772 0.425933361
0.632005274 0.695382655 0.429601461
0.773940384 0.713345885 0.430613369
0.001138640 0.849209607 0.404933572
0.001644715 0.847817957 0.406071991
0.001897738 0.844781756 0.412903100
0.195193008 0.846679449 0.432384670
0.424035341 0.843390286 0.450221181
0.554459035 0.847564578 0.454902351
0.671474099 0.849209309 0.465654552
0.788235188 0.854142725 0.466666371
0.172548994 0.014041752 0.571916461
0.203921810 0.009993747 0.570524812
0.274383098 0.002024260 0.568880081
0.349525392 0.000000000 0.569006801
0.447438389 0.001897740 0.564705491
0.546236694 0.000000000 0.573813736
0.643896282 0.000000000 0.561796188
0.771789730 0.000000000 0.577609241
0.140543714 0.079443358 0.566856265
0.176343992 0.079696365 0.568374634
0.251233548 0.071347192 0.561669827
0.335357279 0.057558645 0.567868352
0.432384461 0.027071355 0.558127642
0.537381291 0.002656546 0.557115734
0.642251551 0.000759096 0.560151935
0.769133449 0.002656833 0.572295725
0.007210908 0.179000735 0.565970778
0.088298544 0.177862093 0.564958811
0.206198722 0.172801748 0.563314199
0.308665395 0.169259906 0.556483209
0.415559918 0.162555456 0.567868471
0.523086488 0.151929095 0.560151637
0.634155631 0.139784917 0.561669827
0.771030843 0.110310107 0.574952424
0.000000000 0.292093277 0.560025215
0.005566196 0.287413180 0.558633685
0.104490645 0.285009205 0.553573608
0.268184692 0.279569894 0.559013367
0.392156720 0.282226533 0.560910940
0.507779837 0.279190630 0.556356788
0.626059175 0.277166158 0.559772372
0.770777881 0.270208716 0.578621328
0.000000000 0.425933361 0.566223681
0.000379548 0.419607818 0.558760107
0.018216375 0.421884835 0.564452887
0.232890531 0.415559739 0.559519172
0.381910145 0.409361184 0.556356907
0.499177724 0.411764562 0.558633924
0.633649528 0.411132276 0.567488968
0.777735353 0.411005646 0.581530929
0.000000000 0.542314708 0.556230426
0.000379548 0.543959558 0.563693643
0.001138652 0.546742439 0.563820481
0.193548620 0.539278865 0.564832389
0.356483102 0.544338942 0.562302291
0.503225744 0.550158203 0.569639206
0.640986860 0.558001220 0.564579487
0.785958230 0.563440740 0.576723635
0.003289004 0.682099581 0.573054671
0.000000000 0.686147988 0.576217473
0.002277289 0.685641944 0.583301663
0.042504732 0.686401010 0.573181629
0.315749824 0.689943075 0.568754017
0.496015191 0.691587269 0.569765687
0.647438586 0.702466547 0.578241706
0.783554733 0.716887832 0.588235497
0.005945744 0.841619372 0.591777205
0.004301164 0.844022870 0.583554447
0.004933830 0.844148934 0.579253852
0.049715269 0.845161438 0.575205445
0.357621998 0.848450422 0.570271850
0.553320467 0.845540822 0.588361740
0.693738163 0.849462330 0.609740436
0.799999833 0.854142725 0.612650216
0.143200427 0.003922000 0.745603561
0.183934256 0.003289004 0.739025831
0.256419986 0.000000000 0.739278734
0.351296723 0.000000000 0.738899231
0.451486290 0.000000000 0.742567539
0.549145997 0.000000000 0.728779256
0.655155241 0.002277288 0.731562316
0.762302279 0.000379544 0.734977961
0.110816173 0.071726836 0.746489286
0.154838726 0.069702998 0.731941819
0.241998747 0.058444064 0.733839393
0.339784920 0.044402450 0.736748934
0.439468831 0.013156092 0.734598279
0.547627985 0.004174544 0.730929852
0.651107252 0.003795287 0.729917526
0.759013176 0.000758992 0.723719239
0.000000000 0.175331995 0.731309295
0.067552373 0.179633111 0.731309175
0.198355302 0.173813999 0.730803549
0.311321616 0.172675639 0.733965635
0.423782259 0.165971190 0.735483706
0.533080220 0.160025358 0.731435776
0.645540655 0.155597672 0.726628542
0.763061404 0.154332533 0.737254798
0.002783356 0.297153950 0.727640808
0.000000000 0.295508891 0.724225342
0.130803198 0.293105930 0.730044425
0.283617973 0.295509219 0.729411900
0.408601940 0.299051374 0.735863090
0.523592770 0.296268016 0.724351525
0.639595211 0.297786206 0.727640808
0.758506954 0.299051374 0.728779078
0.000000000 0.426945001 0.731309295
0.004048003 0.427577376 0.726881742
0.077166557 0.430866390 0.734724581
0.273244888 0.429222286 0.731309116
0.397596449 0.425933272 0.729158640
0.519291282 0.432258099 0.726122618
0.637697458 0.433776289 0.729285538
0.760278165 0.436432838 0.736116290
0.001897740 0.552941442 0.740796566
0.000000000 0.556609869 0.736748993
0.027830726 0.558886886 0.730550289
0.245287836 0.556862473 0.731941998
0.400252908 0.560278058 0.731309295
0.531309247 0.566982746 0.728273273
0.650094569 0.570777774 0.725617051
0.780518472 0.578621089 0.741682470
0.002277288 0.681594014 0.736116230
0.005566292 0.676533818 0.730170965
0.011385290 0.682099640 0.729411662
0.229095206 0.682732642 0.732068181
0.392536640 0.685389102 0.726628542
0.535230756 0.695888758 0.730929792
0.667172551 0.708032846 0.738393545
0.796837211 0.713978410 0.731941700
0.002530012 0.834914267 0.765718043
0.001644715 0.832511008 0.769765496
0.000758993 0.837318301 0.763820291
0.117773242 0.837697685 0.761416912
0.356103987 0.846426249 0.760910809
0.520809710 0.850347996 0.744212151
0.684882879 0.849462450 0.742441535
0.818089783 0.855407596 0.763061106
0.091335021 0.000000000 0.893231928
0.140290886 0.002656833 0.895888746
0.228589267 0.001265168 0.891966760
0.326502264 0.002783356 0.894623578
0.435800195 0.000000000 0.890575409
0.538013816 0.000000000 0.886906922
0.649589002 0.000000000 0.882226586
0.757241726 0.000000000 0.884250641
0.033649661 0.074256793 0.886780620
0.113219440 0.074762546 0.891587317
0.214927107 0.069196828 0.891713917
0.318532646 0.062871635 0.892346382
0.425426841 0.050221428 0.888045788
0.534472108 0.035799891 0.883871078
0.644022882 0.028210338 0.886401057
0.755471230 0.034534860 0.885009468
0.005060156 0.184945911 0.886653543
0.034661915 0.188361630 0.891207874
0.188235104 0.190512329 0.891966760
0.307274014 0.188108817 0.888425231
0.413788706 0.189373985 0.887918770
0.532827497 0.188235343 0.890069544
0.642884314 0.192789420 0.888677895
0.754585683 0.205186799 0.889816523
0.000000000 0.311828107 0.889437139
0.006578449 0.313978255 0.884376645
0.164325982 0.314484447 0.886653781
0.300316453 0.319671094 0.890701950
0.417077810 0.321821272 0.888678014
0.525996089 0.321568340 0.882732630
0.640733540 0.328779280 0.883997202
0.759898543 0.334092259 0.885515451
0.034155592 0.459329545 0.885388970
0.091461092 0.458950162 0.882479250
0.206578106 0.457179248 0.888551593
0.306135058 0.450980157 0.882352948
0.425553322 0.456040710 0.883997262
0.538899362 0.455281794 0.884123743
0.649335742 0.457179368 0.883491755
0.761543274 0.466540158 0.889689803
0.055028293 0.578620851 0.884250641
0.097912319 0.576344192 0.890448987
0.222011685 0.580265522 0.882226229
0.344718486 0.583048701 0.886907160
0.457558781 0.592409909 0.884123743
0.565338433 0.594813347 0.885515451
0.671094537 0.600252986 0.884756327
0.778873861 0.606451690 0.884503543
0.068311200 0.693864226 0.889436781
0.108791508 0.692852676 0.883997083
0.232510954 0.697027266 0.887918770
0.354332447 0.701454699 0.889184117
0.466919839 0.711068690 0.883617520
0.584313989 0.719291508 0.885515451
0.700063527 0.732700706 0.884882748
0.808981597 0.737634242 0.888045788
0.085009150 0.826691747 0.894496799
0.125996023 0.823529422 0.895635486
0.240354314 0.828589499 0.885515451
0.359772235 0.828209937 0.890701890
0.474383146 0.837191582 0.892220140
0.598355234 0.846299767 0.891461015
0.718153119 0.856419981 0.887160063
0.843769729 0.873750746 0.898544908
