Assets/EldamarStudio/100 Retro LUTs Pack/LUTs/cube/Tracy LUT.cube
LUT_3D_SIZE 8
DOMAIN_MIN 0.000000 0.000000 0.000000
DOMAIN_MAX 0.903226 0.903226 0.903226
0.156863004 0.113724999 0.105881996
0.205060452 0.126249000 0.122327998
0.269703001 0.133332998 0.129411995
0.359266639 0.130550355 0.133332998
0.481846988 0.141809195 0.140290990
0.630613446 0.158633739 0.154838741
0.798228800 0.189499989 0.181024998
0.946868777 0.235546961 0.219860956
0.195698544 0.155597553 0.128652990
0.208981544 0.154838547 0.118405998
0.274383187 0.165844560 0.136116460
0.361669719 0.171283633 0.136116356
0.484123975 0.186464190 0.151802659
0.631246507 0.209994003 0.162555248
0.800632536 0.238583550 0.184187278
0.950031757 0.280202657 0.225047812
0.215685993 0.209235102 0.144338906
0.226565093 0.215560004 0.138013989
0.271980107 0.209235102 0.141176000
0.353320271 0.227577642 0.140291095
0.475522190 0.256926298 0.156736091
0.632511199 0.285768479 0.168880343
0.795951545 0.319544405 0.192789376
0.943200588 0.355976939 0.244149044
0.238709643 0.301581293 0.152435347
0.259456098 0.305123538 0.152435347
0.302846432 0.304364622 0.154079646
0.362049282 0.309424281 0.146236643
0.476281166 0.350917161 0.161416799
0.636053503 0.390132904 0.182289734
0.802656591 0.424920917 0.204047933
0.941429257 0.459835261 0.261480182
0.272738993 0.448703378 0.160531193
0.298418641 0.443137258 0.180139348
0.347122073 0.445540458 0.175584987
0.412017375 0.454522818 0.179886445
0.498165548 0.464389354 0.175584987
0.638962686 0.498798192 0.197090641
0.798987567 0.541302979 0.234788179
0.944465280 0.571031153 0.296520948
0.317393988 0.602909446 0.203541979
0.332194775 0.607337058 0.210625976
0.382922173 0.612776697 0.214927644
0.461733013 0.615433395 0.216571629
0.560784340 0.620619714 0.224668175
0.673750460 0.634282470 0.232890725
0.801518261 0.659582496 0.274256736
0.936495781 0.690954924 0.348513693
0.404807270 0.786464274 0.318152964
0.415433109 0.781024575 0.315876275
0.462871373 0.783301711 0.316129297
0.538646698 0.789247215 0.330423921
0.623402715 0.784060657 0.333965838
0.722327471 0.791651070 0.344592035
0.829601228 0.798228800 0.370777845
0.939531684 0.806577802 0.427703768
0.539278746 0.916634798 0.487033576
0.545351088 0.917773485 0.481720567
0.576090813 0.918152928 0.482226312
0.629348397 0.920682907 0.491840601
0.701454580 0.919544578 0.513472378
0.778241694 0.921821833 0.522833288
0.866160810 0.924604654 0.541935563
0.948133945 0.927260756 0.558886409
0.180771545 0.133332998 0.150158450
0.205440015 0.130171001 0.146995559
0.265021980 0.141176000 0.161163554
0.325996190 0.154079646 0.169765547
0.447312176 0.162681639 0.184187189
0.600000143 0.182289734 0.207716808
0.779000998 0.209235013 0.237824544
0.939911187 0.256799370 0.274636537
0.197216541 0.154838562 0.145857006
0.224667549 0.155597553 0.147375017
0.252371997 0.167362556 0.161922663
0.336243004 0.175585002 0.173687443
0.445287824 0.195192903 0.190891549
0.605060220 0.218216538 0.208475813
0.770018816 0.242378533 0.235167697
0.926501751 0.281593829 0.273624122
0.226565182 0.201011643 0.160658002
0.237571090 0.211258546 0.169765547
0.264137000 0.205313087 0.174067095
0.332195103 0.222517192 0.174826086
0.455534548 0.255408108 0.194054455
0.605439663 0.288677752 0.208349288
0.786337554 0.326628476 0.245540738
0.936622143 0.367741913 0.293485045
0.252877742 0.295003444 0.183807552
0.265401661 0.296142101 0.186211556
0.301328540 0.298924655 0.183807641
0.364453077 0.305882633 0.192536458
0.471347660 0.341176569 0.198228985
0.609740794 0.383428007 0.219860539
0.775079131 0.422897071 0.250094742
0.925110400 0.457305551 0.300948590
0.279443622 0.444781542 0.206831202
0.292346776 0.437318027 0.207969651
0.339658618 0.443263441 0.206324935
0.410878807 0.448323935 0.211891443
0.497406542 0.455787361 0.219101727
0.632384896 0.491840661 0.236432463
0.792156637 0.537001789 0.277672380
0.933333218 0.575079083 0.337254554
0.321441919 0.604048193 0.252245516
0.340038180 0.604048193 0.248956472
0.391397715 0.607969701 0.255281389
0.469196469 0.613156378 0.257937938
0.558507144 0.616571844 0.264136523
0.663377702 0.625679791 0.267552495
0.798608065 0.655534446 0.316761553
0.935863197 0.689310431 0.390765160
0.407969564 0.783807993 0.352814376
0.431246132 0.781657279 0.362808317
0.470082074 0.780898452 0.353826821
0.542188466 0.786084831 0.367995083
0.629728377 0.784566998 0.373434395
0.717267752 0.789626837 0.382163018
0.816951513 0.790132880 0.398482114
0.928905487 0.801391542 0.444275737
0.551928997 0.919038296 0.519923806
0.564705729 0.913219512 0.511321843
0.590765178 0.916634917 0.516887963
0.641872227 0.919038296 0.526248991
0.707779825 0.919038296 0.535483778
0.783428252 0.920682907 0.546615660
0.867805123 0.922706902 0.565844119
0.958127499 0.928146482 0.574825823
0.193674996 0.134092093 0.213915199
0.221884996 0.138393551 0.208476007
0.265780985 0.145857096 0.196711004
0.330297559 0.158001363 0.210373461
0.438709557 0.174826086 0.242884189
0.575205743 0.197090641 0.274509728
0.744844794 0.230993077 0.315622985
0.909424722 0.296267986 0.369133413
0.212144449 0.169765636 0.201517999
0.232890993 0.167362452 0.193548098
0.259455979 0.174446538 0.197470099
0.329918116 0.186970457 0.214294657
0.434029281 0.204553992 0.242884085
0.571030974 0.236306444 0.276154578
0.736116529 0.266287118 0.313852102
0.906767726 0.317520708 0.365085185
0.225047186 0.207716897 0.197343186
0.249715537 0.213156193 0.204553992
0.286021203 0.229601189 0.226439089
0.334851742 0.233902723 0.220493451
0.440227568 0.259329468 0.253131002
0.580012679 0.293358803 0.286653996
0.751802385 0.333586097 0.322454304
0.911195397 0.390765190 0.382922173
0.271347106 0.295383006 0.235167891
0.275142193 0.295003444 0.233143643
0.307274014 0.300442755 0.238583550
0.364832610 0.304744005 0.239342555
0.455155075 0.336495638 0.261353642
0.589626670 0.379000455 0.292473018
0.752941191 0.422011286 0.337001711
0.904743671 0.473877490 0.394433558
0.305882215 0.428336471 0.271853179
0.313092649 0.426438898 0.278937191
0.345477372 0.432258278 0.278811187
0.404553920 0.433017254 0.276786715
0.483238310 0.447185189 0.285136163
0.614421129 0.485515386 0.317520529
0.766982734 0.532574356 0.356230080
0.910563052 0.581530869 0.425427079
0.337634385 0.598228872 0.329284847
0.354079276 0.594180644 0.328652680
0.400253206 0.596584380 0.330676794
0.468058109 0.598608315 0.335483730
0.554585576 0.608475626 0.347248733
0.652371764 0.615939081 0.353067458
0.788741410 0.651612520 0.398355573
0.923719049 0.701454818 0.464516073
0.432764173 0.767741680 0.427324563
0.453004539 0.772422552 0.430233836
0.493358523 0.771663427 0.434408456
0.551423311 0.775079012 0.441871911
0.626438737 0.778747439 0.445287824
0.714484453 0.775964618 0.450094640
0.812397420 0.781910300 0.461227238
0.920556426 0.802656710 0.511068881
0.584313810 0.914737701 0.570398629
0.589880049 0.907779694 0.572043121
0.616065741 0.910309613 0.567488968
0.659076691 0.916381955 0.581150949
0.713725030 0.916002512 0.588361621
0.788235307 0.920682907 0.599873543
0.868184745 0.922201097 0.612649977
0.949778557 0.923972070 0.627577364
0.208475992 0.147375003 0.326248914
0.237065554 0.146995544 0.310183197
0.298671901 0.158001363 0.301455081
0.347501636 0.163060993 0.287033647
0.445287853 0.175584987 0.317267179
0.576723814 0.199873477 0.354332626
0.738899171 0.241113275 0.406451583
0.894370556 0.328146785 0.460468441
0.235547453 0.188488543 0.283870816
0.254395723 0.185325637 0.284124076
0.291461170 0.188867897 0.284250289
0.351802379 0.190006554 0.290575385
0.438583374 0.208475992 0.308538973
0.575331926 0.236179724 0.355850816
0.735104144 0.283238560 0.403035820
0.878178596 0.358507127 0.462745130
0.259203374 0.235041186 0.290575385
0.267678559 0.233775839 0.274383515
0.303225994 0.240101442 0.284629852
0.349399179 0.244022742 0.285768360
0.440986484 0.269070417 0.314357907
0.567362249 0.304237723 0.362934619
0.723087013 0.360151678 0.419607490
0.887665987 0.432131737 0.492093593
0.271221012 0.299304277 0.298165649
0.284123719 0.307147264 0.292979181
0.331562102 0.322327644 0.310942262
0.400758922 0.357621640 0.349778622
0.474004179 0.361923069 0.352814645
0.587096810 0.393548548 0.384946138
0.731056154 0.443516910 0.430107594
0.881593764 0.503605306 0.504111290
0.309551001 0.433522940 0.353446990
0.329538435 0.429854363 0.347501367
0.369386613 0.441745579 0.367741734
0.420240611 0.445161015 0.366729915
0.487413019 0.451866269 0.373181641
0.607463896 0.493864834 0.408475816
0.750917077 0.540544093 0.457811534
0.894244015 0.598228812 0.518785596
0.369259715 0.588488102 0.421125859
0.383427799 0.586084843 0.419355005
0.418595642 0.589247108 0.419987172
0.478937715 0.593927979 0.428589731
0.553700209 0.599873543 0.433902562
0.641366363 0.612017810 0.446932346
0.769133508 0.652751148 0.488425165
0.903225720 0.705376208 0.557368636
0.469955921 0.760025263 0.520303607
0.482732654 0.766223848 0.516382158
0.513978601 0.760152042 0.516888022
0.564579248 0.764073193 0.520430267
0.636685729 0.771157205 0.531182826
0.715243459 0.771663368 0.535863101
0.805439532 0.775837958 0.543326795
0.913219512 0.802782893 0.596964061
0.609740615 0.911701560 0.638583064
0.610119939 0.907526731 0.645414352
0.639595270 0.908032596 0.643390119
0.679569602 0.910057008 0.647817731
0.731814921 0.910815954 0.655914068
0.797343552 0.914737642 0.662997961
0.865654707 0.920303524 0.676407397
0.949525595 0.922327578 0.691334605
0.240733802 0.162302196 0.464389354
0.269702911 0.167741999 0.464009911
0.329918087 0.172422275 0.453384280
0.398735166 0.181530640 0.449968517
0.476154387 0.186463982 0.435420573
0.586464465 0.210499540 0.456546545
0.751170278 0.249841988 0.511321902
0.898671448 0.340670466 0.559898853
0.256293386 0.213535547 0.449083030
0.284123719 0.212397203 0.435800374
0.334218621 0.214294642 0.441998780
0.394054353 0.220619634 0.433396727
0.468437374 0.227703825 0.430360645
0.583175004 0.245667353 0.451866180
0.742188096 0.286527365 0.503225803
0.885135591 0.369259924 0.557495356
0.284630120 0.277292997 0.419861078
0.299810499 0.276913524 0.411384940
0.337760925 0.274889201 0.414294362
0.395319462 0.281214386 0.413788795
0.466919482 0.285136163 0.418089449
0.583428383 0.311954707 0.455281705
0.736242771 0.364832193 0.512966394
0.883364856 0.452877879 0.569259644
0.288045555 0.350411028 0.416698366
0.317899823 0.350790471 0.423023373
0.358887017 0.359139711 0.419734299
0.417963624 0.372043282 0.432258368
0.482479393 0.381910026 0.440606922
0.588867486 0.415053457 0.471600115
0.723972023 0.463504344 0.522960186
0.863503993 0.534724712 0.590006173
0.313472182 0.442378163 0.429981381
0.335736752 0.442124933 0.432637841
0.380645066 0.450221390 0.444781542
0.457811832 0.478051811 0.472991556
0.558507323 0.519291401 0.512966514
0.628589928 0.524731398 0.520050406
0.742062271 0.565464556 0.558633506
0.877545655 0.624288142 0.620493412
0.379253924 0.587728977 0.497280180
0.404048264 0.588867605 0.504996657
0.444908202 0.592030346 0.511322141
0.512207568 0.607337117 0.525869668
0.571916401 0.615180194 0.535989881
0.652371883 0.622263968 0.550158083
0.768880308 0.663377523 0.585958004
0.892472982 0.717393935 0.654648900
0.508159339 0.751296341 0.596584380
0.516635239 0.754965305 0.603289068
0.548134327 0.755850732 0.605313182
0.589373708 0.759392798 0.610373139
0.650221348 0.766097486 0.612523556
0.720303655 0.766223848 0.618722439
0.798861265 0.770904362 0.628715992
0.905755699 0.810499728 0.677292883
0.640100956 0.902846158 0.715243578
0.640607119 0.902466595 0.708159208
0.660341442 0.900442600 0.706388235
0.698545218 0.904743850 0.710689127
0.742820740 0.905249953 0.718153179
0.802656412 0.911701620 0.725237370
0.865275085 0.914358020 0.736242771
0.943453431 0.917899966 0.745857179
0.266413987 0.192029998 0.648070693
0.301834285 0.198229194 0.638709903
0.369892091 0.201644734 0.633143783
0.449968517 0.210752890 0.632384717
0.545477927 0.217330739 0.615559459
0.644149184 0.233143732 0.610879481
0.758633792 0.264263004 0.615306973
0.897279739 0.357115775 0.655154705
0.283111721 0.243643284 0.628083646
0.313092738 0.249968082 0.622897148
0.372928470 0.251865834 0.625300348
0.453130901 0.256926090 0.615812719
0.535104156 0.261606365 0.609614074
0.629601479 0.264642447 0.593548477
0.740544021 0.293485075 0.598734736
0.881087899 0.373181492 0.647691131
0.301328272 0.331182450 0.599493980
0.330803275 0.332068264 0.597596407
0.377229869 0.331688732 0.596710682
0.451612920 0.333206743 0.594813228
0.536495566 0.339911282 0.594813108
0.623782098 0.345351160 0.587729216
0.743200421 0.377103090 0.608475685
0.887159824 0.459076673 0.665022254
0.335610628 0.414168268 0.579759777
0.362428635 0.412523448 0.579759836
0.402530193 0.420113742 0.577103317
0.466413647 0.421631932 0.577103436
0.538899243 0.425806552 0.581277847
0.617457211 0.431752145 0.579000831
0.729791403 0.466413558 0.612144351
0.869702816 0.539152205 0.667805254
0.364832252 0.510816097 0.594180644
0.383301735 0.516129136 0.594433546
0.430360705 0.516129196 0.592915535
0.501328170 0.531435668 0.603542089
0.570651650 0.542315066 0.602656901
0.646046877 0.545857191 0.608728647
0.749905288 0.583428264 0.641492724
0.868184447 0.645667255 0.699809968
0.399367452 0.606831491 0.595066488
0.417077929 0.604554296 0.594686925
0.462618798 0.608855247 0.602277398
0.526249290 0.623908818 0.614041567
0.613788724 0.655407727 0.641619444
0.707020700 0.687412739 0.673624456
0.777229309 0.694117486 0.686147928
0.887286663 0.739405453 0.733586431
0.514104784 0.752309024 0.670082331
0.528526485 0.759013355 0.671347201
0.563567281 0.760657549 0.679316819
0.611385226 0.762175798 0.687792182
0.678937614 0.772928715 0.704996705
0.732194662 0.773560822 0.707273543
0.799367070 0.777862310 0.707906485
0.898671329 0.815686405 0.754838586
0.651359618 0.906135261 0.770777702
0.669323206 0.901454508 0.776976526
0.688424885 0.899809957 0.772675455
0.725237191 0.901707470 0.782795787
0.764579117 0.906641364 0.786590815
0.809234619 0.904996634 0.788235426
0.870461941 0.912081063 0.802403390
0.939152479 0.916129053 0.811891258
0.306135297 0.256799579 0.803794980
0.344212532 0.259076297 0.805059850
0.406578094 0.266919672 0.797469556
0.497786194 0.279822886 0.797722876
0.601644397 0.290322363 0.788108587
0.698165536 0.308032990 0.782289803
0.803794980 0.326375276 0.766856253
0.904111326 0.373560756 0.770904243
0.322200835 0.298671544 0.791144490
0.352308542 0.306135088 0.787855983
0.412903398 0.308791816 0.784187436
0.501454830 0.317520529 0.779633284
0.593674719 0.325995922 0.777862251
0.690195978 0.339278817 0.771030962
0.789373875 0.351423293 0.754838824
0.889943063 0.385325581 0.753067672
0.362302274 0.397723377 0.776344180
0.384313345 0.398861825 0.784060717
0.437824368 0.404048175 0.777862310
0.511701643 0.408222616 0.770777702
0.603289068 0.414041549 0.767615318
0.692473173 0.419861108 0.760151982
0.789753497 0.436685354 0.755724430
0.887286663 0.468564093 0.764452934
0.413409173 0.497912556 0.760657787
0.433649540 0.500063419 0.755344987
0.478811026 0.503352463 0.754712164
0.537128270 0.506894231 0.750157833
0.608855247 0.509171188 0.748766661
0.688045740 0.510436296 0.743326843
0.773560882 0.513725162 0.740670502
0.872106433 0.547248244 0.758127689
0.450980276 0.587349474 0.749272525
0.476154357 0.592030227 0.751929402
0.517647266 0.595951498 0.753573656
0.567488730 0.601897836 0.749652028
0.629095376 0.601518273 0.748892963
0.697280288 0.606577992 0.744085789
0.768500805 0.603921413 0.741808653
0.871220708 0.644655287 0.773307979
0.499810278 0.682226241 0.751675844
0.519165218 0.690448999 0.759013295
0.551043868 0.690322816 0.759898722
0.599241018 0.690575600 0.757116079
0.662745416 0.699177921 0.763946533
0.724477828 0.703478515 0.765844285
0.795572042 0.710562944 0.772042990
0.886401057 0.753194213 0.802782953
0.531562269 0.765211582 0.758633554
0.548386931 0.765464962 0.762934804
0.577103257 0.766856253 0.763820469
0.625553608 0.769006848 0.763440907
0.686274469 0.772549093 0.770018756
0.755724370 0.792915881 0.789373815
0.832890332 0.817204237 0.813282847
0.903478682 0.834661722 0.837950706
0.663630426 0.902087033 0.832511067
0.675395191 0.901328027 0.839848220
0.689310431 0.903098881 0.831245959
0.729158640 0.901960850 0.838330209
0.775838077 0.906514823 0.845287621
0.823023379 0.906641364 0.855281532
0.871094048 0.911195338 0.856419921
0.927514076 0.918026805 0.866034091
0.403035939 0.373054594 0.933712780
0.427451044 0.372422606 0.930170357
0.478684366 0.386084765 0.928652644
0.554459214 0.396584600 0.931308985
0.646679163 0.417710394 0.919544578
0.745856941 0.436432481 0.918026805
0.845034659 0.461859465 0.917393923
0.932447553 0.490828454 0.907653451
0.418469161 0.411638141 0.930423558
0.444275886 0.414041340 0.918406248
0.490196228 0.422896832 0.920303464
0.564579427 0.434155494 0.916129053
0.649462402 0.447564811 0.916508615
0.741935551 0.465148777 0.913852215
0.836053193 0.478810877 0.903984547
0.929790795 0.503984630 0.902087033
0.486653686 0.501960754 0.916002572
0.498924762 0.503099263 0.916761637
0.538393021 0.514358044 0.920936048
0.596837223 0.521694899 0.916508615
0.669702649 0.527134776 0.912713528
0.754205823 0.542820871 0.909677505
0.839595079 0.552814424 0.903352201
0.922074854 0.567488670 0.899430692
0.535104215 0.602530122 0.898165762
0.555850506 0.604300797 0.907653451
0.583681345 0.609108269 0.903984547
0.631119430 0.610499620 0.902339816
0.692093909 0.615306616 0.902972758
0.758633852 0.615686238 0.895888507
0.832131207 0.622011304 0.897027135
0.914358139 0.630487025 0.891966760
0.585958242 0.685135782 0.898038924
0.601644397 0.689563572 0.895129561
0.625932992 0.696394801 0.896394491
0.666160882 0.696647763 0.895635426
0.714990318 0.698165953 0.895635426
0.773687601 0.700948596 0.895255983
0.837697387 0.699936986 0.888171852
0.911322117 0.704996824 0.889563560
0.622011364 0.765464485 0.904364347
0.635546803 0.769259512 0.902339876
0.653763711 0.773560822 0.900821865
0.695129812 0.774446666 0.903225660
0.742820680 0.777608812 0.896773756
0.788235426 0.782163382 0.898038983
0.848956347 0.780898511 0.891081631
0.911574781 0.784819603 0.895888746
0.638329923 0.839089215 0.902593434
0.658823371 0.838835895 0.901075065
0.677293062 0.838203728 0.903352261
0.711701393 0.842631400 0.899936557
0.759645700 0.843010962 0.901327968
0.810120225 0.849715352 0.899430335
0.860973954 0.852751076 0.900695503
0.917141020 0.857052565 0.908791661
0.698671758 0.918026805 0.915496767
0.699683487 0.912839949 0.911954343
0.720176876 0.915496767 0.903731763
0.753067732 0.915496767 0.910309613
0.785578609 0.912839949 0.910436451
0.833269954 0.918026805 0.911321998
0.885135829 0.919291615 0.922580838
0.942694843 0.932320833 0.944338739
