Assets/EldamarStudio/100 Retro LUTs Pack/LUTs/cube/Tracy LUT.cube
LUT_3D_SIZE 5
DOMAIN_MIN 0.000000 0.000000 0.000000
DOMAIN_MAX 0.903226 0.903226 0.903226
0.156863004 0.113724999 0.105881996
0.255281717 0.135610282 0.131688714
0.410625994 0.133332998 0.136622414
0.670082092 0.166730002 0.158886999
0.946868777 0.235546961 0.219860956
0.211131990 0.192536697 0.135989994
0.253004402 0.197090700 0.134345278
0.411005676 0.224288404 0.148387417
0.669702828 0.275648266 0.171663120
0.947248459 0.332194656 0.238835961
0.260214984 0.372169375 0.167361990
0.306008965 0.372169375 0.160784423
0.427071393 0.380012363 0.158886582
0.672991991 0.449335665 0.187349871
0.942315042 0.516002178 0.276154608
0.330550134 0.652498364 0.220746115
0.392030120 0.653763354 0.234155580
0.526502252 0.664515853 0.237824529
0.712207258 0.678810954 0.255154997
0.939278781 0.722327352 0.365464956
0.539278746 0.916634798 0.487033576
0.565717876 0.918152928 0.481720567
0.663250744 0.920682907 0.503984571
0.802024126 0.923592508 0.526881576
0.948133945 0.927260756 0.558886409
0.192157000 0.135610282 0.196457699
0.249082983 0.140543997 0.185325712
0.376344085 0.160784006 0.205312982
0.615433395 0.204933867 0.264136583
0.914484441 0.281340957 0.342061818
0.221252277 0.190259412 0.181404278
0.267046273 0.207589701 0.205945402
0.374699384 0.229854271 0.222011283
0.620999396 0.277925372 0.271979988
0.917773485 0.361416489 0.351549506
0.272612423 0.352182090 0.231119692
0.309550673 0.353193790 0.235041112
0.418848664 0.365591407 0.243896395
0.646805823 0.443769962 0.293991089
0.924984097 0.528146684 0.392536372
0.352814674 0.643010676 0.329032242
0.404553950 0.650727630 0.330676705
0.528399825 0.652119279 0.342820942
0.702719688 0.662239134 0.354585379
0.922960103 0.724224925 0.451865762
0.575458288 0.916761637 0.555724323
0.598102570 0.913852036 0.550790310
0.681214273 0.915496588 0.569260001
0.808728516 0.920682907 0.587222874
0.953067541 0.921947777 0.616192162
0.229475409 0.159519002 0.396331787
0.298165381 0.161163718 0.378368080
0.405439824 0.178494409 0.353826374
0.627577364 0.209234580 0.414041668
0.895888746 0.336369604 0.508918643
0.262492120 0.239342406 0.345983386
0.302086979 0.239974394 0.343706548
0.397596389 0.247185394 0.342061818
0.611511350 0.300189823 0.412397087
0.887413204 0.419354796 0.528779089
0.292220414 0.357748389 0.357115805
0.341682494 0.375079066 0.367235661
0.474130362 0.434281796 0.429728180
0.632384300 0.468943834 0.465401530
0.878810823 0.570398629 0.562555552
0.400632381 0.636052966 0.491207957
0.447311819 0.633143663 0.490196109
0.543200135 0.638962448 0.496394813
0.683364868 0.659582555 0.517014086
0.904364169 0.734471679 0.613914907
0.621378779 0.901707351 0.665148139
0.640986741 0.908285797 0.673118412
0.710942328 0.910309613 0.684882998
0.816065609 0.913472354 0.696268022
0.935610235 0.919417799 0.710942328
0.275521874 0.202150255 0.690575242
0.356989264 0.212523580 0.675901115
0.508412540 0.227956697 0.664769173
0.688678265 0.248324126 0.655408263
0.900821924 0.361669898 0.683491230
0.305376261 0.318532377 0.647817969
0.366856396 0.323086411 0.647564650
0.508159280 0.330296844 0.643896341
0.675901532 0.346363127 0.638076961
0.891966999 0.444908351 0.696900964
0.364958823 0.482479095 0.629348695
0.417963266 0.483111501 0.625047505
0.531435907 0.496521384 0.627956867
0.664768994 0.509171486 0.631119668
0.875268936 0.602403641 0.707273662
0.432764113 0.653384268 0.638583124
0.481088161 0.653384268 0.646805823
0.587223411 0.669702888 0.660847425
0.743453205 0.722833335 0.714105189
0.889310658 0.764199793 0.757368624
0.662238955 0.902846396 0.785199106
0.682858884 0.898291826 0.790385723
0.746236205 0.903731763 0.802150488
0.825932920 0.907273948 0.803162754
0.932068348 0.913852096 0.823276579
0.403035939 0.373054594 0.933712780
0.463504493 0.381530762 0.927893758
0.603035748 0.404427588 0.929158330
0.773181081 0.441745579 0.920050800
0.932447553 0.490828454 0.907653451
0.472738445 0.483491629 0.919291615
0.516128778 0.487792492 0.922959924
0.627197742 0.503478467 0.917393804
0.775458455 0.523339748 0.909171641
0.923845649 0.555091500 0.899430633
0.574952364 0.654775381 0.905629218
0.611258924 0.656040609 0.907653570
0.681467652 0.663250744 0.904996753
0.788361907 0.666792870 0.901707411
0.918026626 0.675015748 0.899177313
0.626312315 0.781150937 0.897280335
0.653763473 0.787476182 0.902087092
0.723718882 0.793295205 0.900442600
0.807210922 0.799114764 0.895509005
0.911321759 0.807084024 0.897912741
0.698671758 0.918026805 0.915496767
0.716887772 0.919291615 0.911574960
0.764453232 0.916129231 0.912839830
0.846172988 0.919291615 0.914104819
0.942694843 0.932320833 0.944338739
