Assets/EldamarStudio/100 Retro LUTs Pack/LUTs/cube/Tracy LUT.cube
DOMAIN_MIN 0 0 0
DOMAIN_MAX 1 1 1
LUT_3D_SIZE 32
0.156863004 0.113724999 0.105881996
0.165970609 0.113724999 0.108918384
0.177229539 0.118026547 0.116255775
0.190639153 0.122833841 0.121569000
0.205060452 0.126249000 0.122327998
0.214168057 0.132321000 0.128399998
0.235926643 0.135863319 0.131941676
0.255281717 0.135610282 0.131688714
0.269703001 0.133332998 0.129411995
0.281847030 0.133332998 0.129411995
0.308538884 0.130423874 0.123593003
0.333839506 0.129411995 0.127640739
0.359266639 0.130550355 0.133332998
0.386337996 0.133332998 0.133586034
0.410625994 0.133332998 0.136622414
0.446932405 0.135736808 0.137254998
0.481846988 0.141809195 0.140290990
0.514737129 0.149652421 0.145730570
0.557241976 0.152688041 0.148766965
0.594180703 0.152941003 0.151802644
0.630613446 0.158633739 0.154838741
0.670082092 0.166730002 0.158886999
0.715495944 0.172801986 0.165085509
0.758000791 0.178874001 0.174193904
0.798228800 0.189499989 0.181024998
0.836306274 0.198861346 0.187096983
0.873245060 0.205945998 0.193675071
0.912713408 0.218089983 0.202783450
0.946868777 0.235546961 0.219860956
0.976723135 0.250221401 0.238076940
0.996963620 0.263251364 0.255407572
1.000000000 0.278430998 0.270588011
0.172043383 0.119797774 0.108918384
0.162935004 0.125869766 0.108918384
0.178494379 0.125869766 0.114105001
0.193674773 0.127640992 0.121062614
0.209234715 0.129285395 0.124984160
0.226312831 0.135357395 0.128399998
0.232890770 0.138899073 0.124352001
0.254142970 0.138646334 0.127514392
0.273497701 0.135610297 0.128652900
0.287918985 0.133332998 0.126375601
0.308791876 0.139151990 0.129285470
0.335863262 0.138519615 0.129664734
0.360025227 0.138519615 0.134471640
0.384060621 0.139658034 0.136369392
0.416697979 0.142441392 0.136622414
0.445793599 0.147248387 0.137254998
0.481846988 0.152434990 0.140290990
0.516508520 0.159392610 0.145730585
0.554206371 0.164832026 0.148766980
0.596711159 0.167868346 0.154586002
0.633649886 0.171916381 0.157874659
0.671094537 0.178873986 0.161922619
0.712460339 0.184945986 0.168247625
0.754965186 0.191018000 0.180265903
0.797469914 0.194813281 0.184819698
0.837697625 0.204680368 0.188741297
0.875268698 0.215053737 0.193675071
0.909677029 0.227198377 0.202783450
0.949146032 0.239342362 0.222517788
0.979759514 0.256799340 0.235800147
0.997343421 0.272359192 0.251106590
0.993928015 0.287539393 0.270588011
0.176470995 0.128020227 0.118405998
0.169512838 0.134092227 0.114105001
0.177608997 0.133712992 0.111954227
0.195825323 0.134977832 0.119291387
0.211132228 0.135863230 0.125110537
0.224035323 0.138393223 0.124604940
0.240733996 0.144086227 0.130803227
0.253383994 0.145477548 0.126375929
0.275142193 0.142947674 0.130170897
0.291714251 0.139911279 0.129917502
0.312713653 0.143453538 0.132700861
0.333966047 0.145477548 0.131688729
0.362175763 0.147754550 0.135609999
0.386970013 0.150031507 0.139152259
0.416571379 0.153067425 0.137254998
0.449715376 0.156356767 0.139405221
0.481593966 0.159392774 0.142441601
0.518026531 0.164199769 0.147248775
0.555977225 0.170271784 0.148766965
0.593675017 0.175711349 0.152435243
0.632384717 0.180644989 0.156609967
0.671853364 0.187729120 0.161669642
0.713725209 0.194939762 0.168880016
0.756230056 0.201011777 0.176976815
0.798734784 0.209108055 0.186590701
0.839848161 0.214927435 0.191017985
0.878304839 0.225300536 0.196331352
0.911701202 0.234155878 0.207084447
0.946109653 0.248450741 0.226818785
0.980265558 0.264136702 0.240986735
0.999114394 0.281467378 0.253636569
0.994307220 0.296647787 0.274888992
0.182795838 0.139658153 0.126755163
0.174193382 0.143200159 0.118152834
0.181909770 0.145350933 0.116761386
0.194560155 0.142315000 0.114990160
0.212397382 0.145350710 0.122959994
0.223276228 0.146236330 0.120809771
0.236179650 0.150031477 0.129158676
0.256926000 0.154080003 0.134218708
0.275142193 0.154080003 0.130423993
0.293358952 0.151549667 0.131941676
0.311954528 0.153067872 0.133712873
0.337002099 0.155344844 0.136495903
0.359393120 0.156483471 0.133459523
0.389247179 0.161923006 0.138899043
0.416571558 0.163946748 0.137887418
0.449968398 0.168247819 0.143453360
0.484630018 0.173561171 0.144212380
0.518026531 0.173561171 0.150917411
0.556230187 0.178368166 0.152814835
0.592915893 0.185705334 0.153067812
0.631878614 0.191777319 0.158633575
0.671347260 0.198861182 0.160657838
0.716761112 0.207843021 0.169006497
0.759265959 0.213915333 0.176217645
0.799240649 0.220999435 0.182036862
0.840353787 0.230107486 0.193548307
0.879823029 0.239215910 0.199620321
0.914737582 0.246046990 0.210246891
0.948133945 0.261353970 0.227830797
0.978494346 0.275775105 0.245793909
0.999114394 0.291334540 0.259329349
0.996078014 0.305755854 0.280961335
0.195698544 0.155597553 0.128652990
0.184693009 0.154838547 0.118785314
0.189753100 0.156609774 0.117014319
0.200252712 0.157495379 0.119164996
0.208981544 0.154838547 0.118405998
0.224161923 0.157874942 0.118405998
0.235800326 0.160910785 0.127387539
0.251992553 0.163946718 0.134977713
0.274383187 0.165844560 0.136116460
0.292599946 0.165844560 0.130044460
0.309424222 0.165844560 0.130550444
0.333586067 0.168247834 0.133459985
0.361669719 0.171283633 0.136116356
0.386464506 0.174320027 0.134092033
0.413915396 0.174446538 0.137381420
0.448071063 0.179633081 0.145730436
0.484123975 0.186464190 0.151802659
0.520303130 0.194434002 0.150537968
0.553700387 0.194434017 0.159645602
0.591018736 0.203162909 0.158760369
0.631246507 0.209994003 0.162555248
0.674004138 0.216698408 0.168626994
0.719291508 0.225806043 0.168880016
0.761543214 0.232131809 0.177735448
0.800632536 0.238583550 0.184187278
0.838077188 0.245667398 0.191271648
0.876786649 0.254775167 0.205313444
0.916255713 0.263883531 0.211385444
0.950031757 0.280202657 0.225047812
0.979886115 0.295256495 0.241998941
0.999493957 0.306894481 0.261227101
0.996457577 0.316002101 0.285515904
0.192662939 0.176849931 0.122580998
0.189626545 0.170777932 0.128653005
0.195825547 0.170018926 0.127387866
0.205439866 0.170524999 0.129158765
0.212017953 0.170018926 0.130549997
0.218089923 0.170018941 0.124477997
0.238330320 0.173055321 0.127008319
0.254269689 0.176091149 0.133206934
0.270968020 0.177609101 0.136495903
0.286527991 0.174952924 0.133080065
0.313472867 0.174952924 0.138646051
0.334725142 0.179000929 0.137634322
0.358633906 0.183428228 0.136116356
0.383428127 0.186464041 0.134092033
0.413788885 0.189500421 0.143200412
0.446046799 0.196837738 0.141682193
0.479949266 0.202403679 0.147248268
0.514484107 0.207084000 0.153067648
0.550664008 0.212650001 0.156609997
0.595193148 0.223782703 0.162934959
0.637318432 0.229728192 0.165591255
0.678811133 0.234281987 0.168626994
0.719291508 0.240986437 0.168880016
0.758759916 0.250094831 0.174952805
0.803288877 0.258697301 0.190638930
0.843137264 0.265907913 0.199367672
0.879570007 0.272991925 0.205439940
0.913219333 0.282100290 0.214421049
0.944718659 0.293864846 0.225806713
0.973814130 0.308792174 0.241998941
0.994939983 0.322580904 0.260214984
0.999493957 0.334218860 0.279443115
0.202277005 0.182922319 0.126628995
0.201770931 0.181910321 0.127640992
0.203036100 0.182289541 0.131562218
0.211511999 0.182668999 0.133206844
0.217963547 0.182289541 0.135104313
0.226186320 0.180139318 0.129032314
0.234788001 0.185199320 0.128020316
0.254396081 0.186590999 0.131056279
0.270462096 0.188741222 0.134724677
0.285642475 0.189247161 0.133459508
0.307400227 0.191651002 0.141682312
0.330676615 0.191651002 0.143706322
0.354206294 0.196711004 0.142315000
0.380392343 0.201391324 0.141176358
0.410752505 0.206704408 0.145730734
0.445920289 0.212143987 0.150031522
0.476407200 0.219608054 0.147248521
0.508412123 0.224288628 0.151043743
0.544844985 0.230360657 0.154079661
0.584566414 0.239468381 0.162429005
0.630107522 0.249715403 0.166603252
0.671220958 0.255028337 0.169639125
0.709297955 0.261100322 0.171536818
0.751170218 0.267804891 0.180012807
0.790638566 0.276913285 0.186085001
0.837064922 0.284630001 0.197722986
0.878051758 0.291713983 0.203921750
0.913472414 0.302846104 0.217077851
0.951802313 0.309551299 0.233902335
0.978621066 0.319924057 0.247817859
0.995446026 0.335357249 0.264389575
0.994939983 0.352434993 0.280961335
0.211131990 0.192536697 0.135989994
0.211131990 0.195825696 0.131056279
0.211638063 0.193042636 0.129917935
0.215939283 0.197343409 0.134218708
0.222011372 0.197343409 0.137634456
0.229854926 0.193042636 0.135357276
0.243896380 0.195951998 0.135989994
0.253004402 0.197090700 0.134345278
0.270462096 0.199367598 0.135863096
0.285642475 0.204174221 0.134977713
0.306641132 0.205565855 0.138772875
0.327893257 0.208222702 0.141809002
0.350284278 0.211638346 0.144086003
0.377862364 0.218216404 0.145351037
0.411005676 0.224288404 0.148387417
0.442884326 0.230360404 0.151423201
0.477798909 0.237950593 0.155976996
0.507273853 0.244149685 0.155218273
0.543706715 0.250221699 0.159266040
0.586211085 0.255787343 0.161290362
0.626185894 0.266540140 0.166603252
0.669702828 0.275648266 0.171663120
0.707147419 0.282352686 0.176090986
0.751170099 0.288424700 0.183681190
0.789753258 0.296774000 0.188868001
0.829221964 0.304490715 0.199114650
0.874509752 0.311574697 0.206957698
0.909803867 0.323718697 0.220999435
0.947248459 0.332194656 0.238835961
0.982795358 0.340038151 0.253636867
1.000000000 0.350916982 0.268817276
0.995445967 0.370651394 0.283997715
0.215685993 0.209235102 0.144338906
0.219481081 0.213789091 0.139025792
0.216445088 0.213536009 0.132700771
0.220493078 0.209487990 0.131941989
0.226565093 0.215560004 0.138013989
0.232637763 0.211006001 0.141429156
0.246553004 0.211005881 0.142188326
0.260594636 0.210752726 0.143453285
0.271980107 0.209235102 0.141176000
0.287160456 0.218342707 0.138140380
0.308159322 0.220999092 0.138772994
0.328652352 0.222264260 0.138772994
0.353320271 0.227577642 0.140291095
0.377609044 0.236686036 0.146110058
0.412017792 0.243264094 0.149146318
0.443643600 0.249336079 0.152182296
0.475522190 0.256926298 0.156736091
0.510183513 0.265402079 0.160910532
0.546742857 0.271474093 0.166602999
0.589247346 0.277039826 0.165844351
0.632511199 0.285768479 0.168880343
0.671980143 0.296141982 0.170904219
0.711574972 0.305123091 0.180139080
0.756483018 0.311195105 0.187476099
0.795951545 0.319544405 0.192789376
0.833775938 0.328020185 0.199114650
0.873245060 0.334598273 0.214800999
0.907147408 0.346489280 0.227450982
0.943200588 0.355976939 0.244149044
0.976344109 0.365085304 0.258064419
0.999240935 0.375205606 0.273371488
0.999240935 0.390386015 0.288551897
0.215685993 0.230487496 0.141302511
0.230866387 0.230487496 0.147375286
0.226059482 0.232890725 0.142062202
0.224541485 0.231752023 0.137001991
0.235673487 0.227704018 0.138014004
0.241745502 0.233776018 0.144086003
0.250347853 0.231752336 0.139911488
0.261480004 0.228969261 0.139152288
0.275015712 0.227451101 0.141176000
0.293232471 0.230487496 0.141176000
0.314231873 0.239595115 0.143959388
0.333459944 0.242251500 0.144844994
0.357495129 0.245793656 0.145983636
0.389753044 0.254902065 0.149146453
0.414041787 0.264010429 0.152182072
0.443643600 0.270588487 0.155218333
0.475522190 0.278178692 0.159772485
0.510183513 0.286654502 0.163946927
0.549652040 0.292726517 0.160910532
0.586211264 0.304364532 0.163820356
0.628716230 0.316128969 0.172295988
0.671980143 0.326249003 0.179000616
0.711574972 0.332447499 0.177103460
0.754079819 0.338519514 0.189247489
0.794433773 0.346868813 0.198861778
0.833775938 0.355977178 0.206325471
0.873245060 0.364959061 0.214800999
0.912713408 0.374067426 0.233016983
0.949272573 0.383301646 0.248323798
0.980392098 0.392409712 0.260088682
0.999114394 0.402403504 0.273750961
0.996204555 0.414674044 0.297659516
0.221504986 0.251739860 0.149904877
0.233776256 0.248830006 0.147248775
0.233902872 0.248830006 0.146869227
0.230866864 0.252371877 0.145603985
0.240101412 0.253257394 0.148513541
0.253763735 0.251739740 0.146995872
0.257305413 0.252751738 0.148007870
0.270588398 0.251739860 0.145983875
0.285262734 0.252245724 0.147754639
0.299177974 0.257432371 0.149904877
0.314484864 0.254648983 0.146995738
0.337760985 0.261732876 0.148007870
0.358886629 0.268058151 0.149146229
0.384946048 0.278431714 0.151929125
0.414547801 0.282226413 0.152308583
0.443643600 0.291334778 0.157747999
0.477039993 0.300948858 0.162808120
0.511195242 0.311448574 0.168880284
0.543833017 0.319797873 0.172675774
0.588868082 0.328652531 0.172422737
0.627577543 0.338772744 0.175332129
0.670082390 0.348893017 0.181404129
0.711827993 0.356989235 0.182669461
0.759898782 0.365844607 0.192030132
0.800126255 0.374193311 0.201897413
0.838203311 0.381909877 0.211005792
0.876660228 0.388994098 0.220619991
0.918532431 0.395699292 0.238835990
0.947374821 0.410120010 0.251739651
0.979506493 0.419734061 0.271979809
1.000000000 0.429727852 0.291208178
0.998987854 0.441871881 0.315496743
0.229601249 0.275015980 0.150917262
0.235673770 0.276028097 0.153953373
0.249083251 0.271094501 0.150917232
0.244276091 0.273624510 0.147881150
0.248829991 0.278937489 0.151296720
0.262365669 0.277546167 0.151549682
0.269449651 0.277040243 0.153068006
0.277419388 0.277040243 0.151423275
0.294117898 0.277799159 0.151043743
0.307526708 0.282606006 0.152814522
0.322580576 0.279949635 0.152055621
0.337760985 0.280961245 0.146995738
0.362049282 0.288171887 0.146995738
0.384946257 0.298671961 0.149652034
0.415306538 0.301707566 0.154965267
0.443643600 0.315623045 0.155724257
0.478558183 0.324731439 0.163314059
0.515496373 0.335104495 0.169259578
0.548640311 0.342821240 0.173940688
0.590892076 0.355977416 0.178494737
0.634535432 0.365085006 0.180392474
0.674130380 0.374193400 0.184440255
0.715749502 0.383175254 0.188488483
0.762429118 0.390385866 0.193801105
0.804174483 0.399494201 0.204933554
0.838076890 0.408602148 0.214041576
0.873118103 0.415812671 0.224667862
0.914104581 0.423402876 0.242884248
0.945350826 0.431372404 0.257811666
0.976217151 0.443010449 0.277039915
0.998861372 0.452118874 0.298671573
1.000000000 0.463124514 0.319544733
0.238709643 0.301581293 0.152435347
0.240607396 0.303479016 0.156230360
0.249968767 0.302340657 0.158127874
0.260974467 0.300190002 0.155091509
0.259456098 0.305123538 0.152435347
0.270841002 0.304364622 0.154712066
0.277925283 0.304364622 0.156609684
0.288424760 0.304364622 0.156356931
0.302846432 0.304364622 0.154079646
0.318785131 0.307020783 0.154079646
0.331688493 0.308791846 0.155218005
0.345730245 0.306388348 0.151170000
0.362049282 0.309424281 0.146236643
0.386337996 0.318279654 0.146236643
0.414926976 0.322200835 0.152688414
0.446299762 0.334977597 0.158001363
0.476281166 0.350917161 0.161416799
0.515117109 0.359392971 0.168626994
0.551549971 0.365465015 0.171157330
0.593548775 0.378748000 0.180392012
0.636053503 0.390132904 0.182289734
0.679570138 0.398228645 0.187349871
0.718912005 0.407463491 0.193295360
0.759393096 0.416571617 0.195319101
0.802656591 0.424920917 0.204047933
0.838836312 0.434029281 0.215939313
0.868184686 0.443137556 0.226565123
0.907653034 0.452245176 0.244781882
0.941429257 0.459835261 0.261480182
0.973560750 0.467678457 0.281973571
0.997216642 0.476786643 0.304490626
1.000000000 0.485895008 0.319923997
0.248071000 0.332701027 0.161290005
0.247818038 0.332701027 0.160531044
0.254269749 0.332448065 0.163187742
0.262365997 0.333206922 0.163440838
0.268564492 0.336242557 0.160784006
0.277672112 0.333206952 0.160784006
0.284250617 0.332701027 0.160531044
0.295509338 0.332701027 0.159645721
0.311701119 0.332448065 0.157621965
0.332953483 0.332448065 0.157621965
0.343073845 0.340670198 0.160278127
0.354965031 0.340417087 0.157495052
0.369133294 0.337760687 0.153067604
0.387603015 0.340544015 0.149778962
0.411891013 0.346616000 0.149778962
0.444528610 0.357242048 0.156483233
0.478431404 0.370651215 0.163567036
0.510057092 0.383933991 0.169133052
0.546489954 0.390006036 0.169133067
0.588235736 0.401391715 0.182036370
0.630487502 0.411891282 0.186337739
0.673751116 0.420493096 0.187349871
0.719164968 0.426818073 0.196584016
0.750031769 0.441871971 0.197090060
0.791018248 0.452245295 0.203921288
0.831751943 0.461606652 0.214674011
0.865655005 0.470461935 0.227577120
0.905123353 0.479569554 0.245793879
0.941682577 0.488677830 0.264010042
0.976344109 0.497533172 0.285009354
0.999494016 0.507400513 0.308792055
0.999494016 0.516508102 0.327008069
0.260214984 0.372169375 0.167361990
0.257179350 0.372169375 0.158254385
0.263377637 0.370019168 0.163946643
0.272485733 0.367615640 0.165464580
0.280582011 0.366982818 0.160784006
0.286780477 0.372675300 0.160784006
0.293358386 0.372169375 0.158254325
0.306008965 0.372169375 0.160784423
0.322833717 0.371410489 0.164199904
0.339025468 0.368880808 0.166729569
0.354458839 0.371789902 0.166729569
0.372422248 0.376091063 0.165338263
0.389500022 0.377229571 0.163946763
0.405818999 0.380012393 0.164958566
0.427071393 0.380012363 0.158886582
0.448956192 0.388488173 0.161290392
0.480961382 0.399746805 0.164073423
0.516129136 0.411258399 0.167235985
0.552561998 0.417330384 0.175205827
0.591777384 0.426185757 0.177988470
0.631878793 0.437823981 0.183554739
0.672991991 0.449335665 0.187349871
0.716128528 0.460215211 0.196584016
0.758633375 0.472359240 0.208728820
0.794054091 0.480581790 0.216065526
0.835167289 0.490069389 0.227956638
0.874256611 0.500568986 0.242504478
0.908159018 0.506893933 0.257937849
0.942315042 0.516002178 0.276154608
0.976344109 0.523339331 0.292599559
0.998229027 0.533586204 0.314990371
0.993421972 0.549905241 0.345224828
0.265148818 0.409234583 0.159013003
0.269323379 0.409234583 0.173940375
0.270588219 0.404933572 0.169133767
0.281720161 0.402909786 0.175964594
0.292725980 0.401012063 0.174446598
0.298797995 0.401011795 0.170398608
0.304869980 0.409234583 0.165464506
0.317520380 0.407589883 0.165717900
0.334218979 0.407589883 0.170272082
0.347754300 0.407843262 0.173308119
0.365338475 0.413029701 0.175837800
0.380518317 0.412017852 0.173814058
0.401011646 0.413156599 0.170778155
0.419228017 0.415180415 0.171283841
0.440480381 0.419481397 0.171663612
0.461732745 0.421884567 0.167994797
0.486021161 0.427956969 0.171031177
0.519164920 0.437444568 0.172549218
0.553826988 0.447058588 0.178115159
0.593042374 0.455913961 0.186464444
0.634408474 0.466919571 0.189500064
0.675395489 0.480075717 0.195572451
0.717773318 0.493485302 0.205945596
0.758000791 0.503352582 0.213535815
0.795951545 0.510942578 0.221125990
0.833775938 0.519797564 0.235673457
0.874256790 0.530423641 0.252877861
0.909550428 0.534598410 0.268058211
0.942947447 0.540923417 0.285894841
0.971030891 0.553573787 0.304111600
0.995445788 0.563314378 0.326122552
0.996963978 0.578494787 0.361037195
0.272738993 0.448703378 0.160531193
0.277293175 0.445667386 0.175711572
0.285768628 0.444402367 0.176723585
0.285009384 0.442125201 0.174952805
0.298418641 0.443137258 0.180139348
0.307906002 0.443516821 0.177482992
0.317014396 0.444528699 0.172928542
0.329664379 0.447058678 0.173307702
0.347122073 0.445540458 0.175584987
0.360025167 0.448576868 0.177862287
0.374952555 0.451486379 0.180898309
0.395699114 0.453004450 0.182922065
0.412017375 0.454522818 0.179886445
0.432384193 0.455408335 0.177103192
0.451106578 0.457685143 0.178874403
0.475394994 0.461353749 0.177103177
0.498165548 0.464389354 0.175584987
0.526754916 0.467425764 0.177988797
0.560151935 0.476913393 0.180139050
0.596078396 0.486274332 0.185705364
0.638962686 0.498798192 0.197090641
0.680455327 0.509930313 0.201138377
0.722074449 0.523719192 0.212270990
0.758759916 0.531435907 0.221125990
0.798987567 0.541302979 0.234788179
0.834028959 0.548766613 0.243643165
0.872738957 0.560784161 0.262998104
0.909170985 0.566856384 0.277166605
0.944465280 0.571031153 0.296520948
0.974066913 0.580898166 0.317773372
0.991271019 0.595193148 0.335989952
0.998481810 0.607337356 0.368627012
0.285515577 0.491208106 0.176976547
0.286654383 0.486401111 0.184187368
0.294876993 0.484630108 0.179759800
0.302593410 0.484629959 0.174446568
0.299557507 0.487286091 0.175205573
0.314990193 0.492852837 0.178494915
0.327640623 0.491334796 0.177735656
0.340543985 0.489563406 0.177735567
0.358001083 0.488045186 0.182289571
0.373181462 0.491081595 0.182289571
0.387349546 0.491208106 0.185199276
0.405692488 0.491208106 0.187602729
0.428969145 0.494623750 0.188994050
0.447691143 0.502720118 0.186464444
0.464009970 0.499683678 0.186843976
0.488171935 0.500822365 0.185072750
0.513978362 0.503225923 0.184187129
0.538899481 0.506261706 0.183554560
0.572295964 0.509298086 0.183554560
0.605059981 0.517899752 0.186970338
0.644781590 0.529537857 0.195699140
0.687666118 0.543326676 0.209740967
0.727134466 0.552435040 0.215812966
0.761543036 0.559013128 0.226944983
0.800505519 0.568374157 0.243390277
0.836938381 0.579759181 0.260467976
0.871347427 0.588361681 0.274130076
0.907905996 0.600252688 0.286654294
0.943073630 0.604427397 0.306767702
0.976090729 0.612144113 0.331055939
0.996710598 0.623655736 0.353573531
0.996710598 0.635800540 0.371789575
0.300695986 0.533712983 0.198228955
0.294624001 0.533712983 0.198228955
0.297912985 0.533206999 0.190386012
0.305755854 0.531941831 0.183554977
0.314737141 0.529790998 0.184313983
0.332953900 0.529790998 0.190385982
0.345856935 0.527767360 0.193674698
0.354711980 0.528020263 0.192915738
0.364073098 0.530550122 0.191397980
0.379253477 0.533586502 0.191397980
0.400252849 0.533712983 0.194307104
0.416698247 0.533712983 0.195319057
0.436053306 0.537128627 0.195572019
0.459835976 0.545224965 0.195572078
0.484123945 0.542188585 0.198608458
0.507653594 0.541556001 0.198988020
0.532194912 0.541809022 0.200253174
0.557115555 0.542694569 0.201771379
0.584439993 0.545730948 0.198734999
0.615053713 0.554332614 0.204301000
0.651359677 0.563440681 0.210120007
0.690322280 0.574066997 0.219987169
0.727134466 0.585831523 0.234028995
0.766603708 0.594939947 0.240101025
0.803288937 0.601517975 0.248956308
0.834661305 0.610879004 0.260468006
0.862239063 0.621758163 0.274130106
0.901707411 0.627830863 0.295382440
0.932953596 0.631752133 0.315875828
0.967362344 0.638330281 0.342441350
0.994180918 0.647691607 0.368753970
0.999746978 0.657053053 0.386970013
0.307527006 0.562302351 0.194433987
0.307021022 0.562302351 0.194433987
0.307400227 0.564453125 0.196584225
0.312839985 0.566350579 0.193927824
0.320050716 0.566729724 0.195446014
0.328652859 0.566729724 0.196711004
0.344339311 0.569260061 0.202783018
0.356736362 0.568374753 0.202783078
0.367362440 0.570271969 0.200506359
0.382542849 0.573307872 0.200506359
0.406324863 0.565085709 0.197849497
0.427577227 0.569133699 0.202909350
0.447691292 0.572928727 0.204427361
0.471980035 0.579633415 0.204427361
0.496268004 0.579127312 0.204933435
0.520556569 0.578494728 0.207969815
0.546363175 0.580012500 0.208349362
0.572548926 0.581277370 0.210120440
0.599873424 0.582162976 0.211385041
0.632763743 0.587982774 0.213915363
0.659329474 0.595193148 0.219987363
0.691334665 0.602403760 0.227071479
0.724478304 0.611005723 0.238583341
0.766603708 0.622770309 0.249968365
0.801518261 0.634155393 0.265148371
0.838836014 0.639848053 0.278557658
0.870082140 0.647311807 0.293105513
0.898165762 0.655661225 0.312081128
0.937634110 0.661733329 0.335989654
0.966603100 0.666666746 0.360910535
0.992030203 0.674762964 0.391144812
1.000000000 0.683871388 0.418849081
0.317393988 0.602909446 0.203541979
0.317393988 0.608602166 0.203541979
0.325236976 0.608855247 0.205692694
0.327007741 0.606831312 0.208728313
0.332194775 0.607337058 0.210625976
0.339785010 0.608855188 0.207589984
0.357242286 0.607590079 0.214547738
0.370777965 0.612270713 0.218975455
0.382922173 0.612776697 0.214927644
0.396964222 0.614673972 0.211511984
0.417077720 0.611764610 0.210499868
0.439341992 0.612776697 0.211637989
0.461733013 0.615433395 0.216571629
0.486021727 0.618975461 0.217583776
0.510309696 0.620619714 0.219228476
0.536495566 0.620619714 0.221631795
0.560784340 0.620619714 0.224668175
0.587729275 0.623276055 0.225047737
0.615053713 0.624541163 0.226818502
0.640354156 0.630107403 0.229854345
0.673750460 0.634282470 0.232890725
0.699051142 0.638330460 0.237950593
0.728526235 0.642631471 0.245540738
0.763947070 0.651233435 0.259456009
0.801518261 0.659582496 0.274256736
