Assets/EldamarStudio/100 Retro LUTs Pack/LUTs/cube/Valerie LUT.cube
LUT_3D_SIZE 5
DOMAIN_MIN 0.000000 0.000000 0.000000
DOMAIN_MAX 0.903226 0.903226 0.903226
0.003922000 0.070588000 0.133332998
0.037317991 0.088551708 0.147375286
0.159645826 0.101961002 0.152941003
0.321821243 0.133459985 0.171663120
0.537760615 0.197596803 0.215812817
0.056293406 0.124857992 0.155598000
0.116128691 0.130423695 0.161796272
0.223023400 0.147754416 0.170271710
0.375458658 0.179126993 0.192536131
0.558001161 0.251233548 0.231878683
0.231498986 0.246552393 0.194812998
0.268817395 0.259329677 0.195825279
0.357748389 0.276027828 0.213155985
0.475142121 0.309045106 0.236685827
0.630486727 0.388614804 0.293738395
0.434535146 0.451360226 0.278684258
0.444022834 0.462871552 0.290069699
0.507147551 0.486654252 0.309424400
0.594434023 0.521948218 0.350284398
0.710183799 0.600252926 0.427197814
0.618722618 0.748386562 0.531309605
0.637318075 0.755471230 0.542947412
0.671600223 0.768627167 0.566097140
0.738013744 0.788867772 0.605565906
0.818722606 0.822770417 0.660847425
0.003922000 0.074510001 0.152941003
0.046805698 0.087919287 0.153953284
0.174320117 0.110815704 0.164073423
0.341049671 0.145477548 0.198102430
0.542567909 0.203415826 0.235799938
0.075901404 0.124224991 0.159519002
0.121695399 0.133712694 0.174193710
0.233523399 0.154332832 0.186970413
0.380012393 0.186717540 0.206325129
0.569386363 0.252877831 0.255028397
0.237444818 0.245540693 0.209867001
0.277672529 0.252751708 0.217457101
0.361669391 0.276660383 0.226565704
0.476786822 0.308032960 0.250095129
0.633776009 0.394180894 0.311701268
0.429095238 0.455281228 0.294117719
0.454142690 0.461859435 0.307527006
0.508159399 0.483744562 0.327387959
0.596331418 0.519038439 0.363440692
0.707906544 0.594307184 0.445540786
0.622011483 0.750916600 0.540164471
0.635040939 0.753826499 0.546489596
0.672738910 0.765591264 0.570271909
0.736116052 0.786843836 0.609234571
0.827703893 0.824794590 0.664389551
0.006577994 0.086274996 0.179759577
0.067425400 0.095762290 0.182416409
0.194307387 0.112459995 0.201391831
0.357748240 0.146110132 0.225932702
0.555344343 0.206704661 0.276660413
0.100442693 0.135989994 0.195445582
0.140923277 0.137001693 0.196458131
0.245920390 0.155598000 0.213788986
0.388488412 0.187982544 0.240986705
0.579506814 0.258064508 0.299936682
0.253763825 0.250474423 0.243896410
0.287792802 0.257684946 0.251106977
0.369513243 0.277292818 0.270082384
0.489563674 0.315623134 0.292726278
0.638962388 0.395825356 0.354585797
0.436179817 0.463124245 0.339531809
0.453510553 0.466413409 0.350284517
0.515622675 0.488298386 0.368627518
0.597343147 0.522327542 0.407843530
0.712839782 0.599240780 0.484503508
0.610120177 0.742441177 0.562048972
0.622264504 0.752561271 0.564832449
0.663757205 0.763314188 0.592789471
0.732827067 0.789500415 0.632131398
0.816825032 0.832764030 0.686274171
0.078557998 0.095129870 0.226692125
0.124351405 0.100695580 0.234155580
0.235800266 0.116381995 0.255407691
0.393422127 0.151043996 0.291461140
0.576976597 0.219228387 0.360151798
0.142947286 0.135610431 0.253763258
0.184819698 0.143832982 0.264896005
0.285515547 0.159519151 0.281214416
0.423276275 0.193928123 0.319544554
0.601771057 0.267552376 0.379127115
0.279316813 0.260974407 0.315623105
0.313978404 0.264263391 0.324731112
0.391777366 0.283491492 0.343706518
0.507906556 0.321189374 0.370271981
0.653383791 0.398102522 0.437950790
0.454016149 0.469956130 0.423023373
0.467172682 0.475901097 0.428463250
0.515623152 0.495509535 0.449715525
0.595446110 0.528905392 0.475016266
0.715749621 0.595572591 0.548766255
0.604300797 0.751676023 0.631119609
0.615812778 0.756862879 0.627324402
0.649335802 0.767868578 0.638835907
0.723086953 0.789500415 0.676154494
0.830613434 0.831372559 0.725616515
0.189879626 0.094117999 0.387476444
0.239848331 0.094117999 0.395951599
0.344845206 0.106514581 0.425426573
0.491587520 0.151802823 0.469323397
0.648956597 0.247438461 0.531435728
0.223402679 0.137254834 0.413535774
0.264389813 0.143200576 0.421505570
0.369639635 0.161796287 0.447564602
0.514231205 0.208348960 0.489816308
0.658064425 0.300063342 0.549272478
0.282985419 0.263504416 0.488171756
0.321062416 0.269449383 0.491840422
0.423150063 0.295003235 0.507779717
0.551043928 0.345098108 0.552308559
0.693231821 0.428589344 0.594813168
0.453763247 0.524351418 0.595192909
0.470841259 0.519164920 0.597596467
0.514231563 0.522707105 0.602909803
0.603289127 0.542315066 0.625553429
0.739025593 0.612649918 0.677166581
0.610878944 0.773181438 0.727640569
0.621252656 0.771916568 0.742061734
0.653384030 0.784313858 0.753067851
0.720303714 0.804553747 0.767994583
0.827956617 0.843769729 0.813915193
