Assets/EldamarStudio/100 Retro LUTs Pack/LUTs/cube/Valerie LUT.cube
LUT_3D_SIZE 8
DOMAIN_MIN 0.000000 0.000000 0.000000
DOMAIN_MAX 0.903226 0.903226 0.903226
0.003922000 0.070588000 0.133332998
0.004301451 0.078810550 0.137634456
0.054016192 0.087033898 0.146615997
0.113851637 0.099177644 0.150158361
0.204300985 0.108917996 0.161416799
0.297532976 0.125363991 0.172675520
0.404807270 0.153574005 0.190512285
0.537760615 0.197596803 0.215812817
0.005060451 0.094876997 0.148640454
0.034788545 0.095256448 0.145098001
0.083744094 0.109803900 0.152941003
0.148766279 0.111701444 0.153320551
0.221632004 0.125363991 0.163061202
0.308918744 0.141809002 0.173687547
0.416951299 0.166476548 0.195192799
0.539405346 0.216318503 0.219354689
0.079823092 0.132448003 0.165464908
0.099431001 0.137887195 0.167868093
0.148766205 0.142568097 0.168626994
0.202783093 0.153574005 0.173308089
0.271727085 0.167615086 0.175585181
0.359012932 0.185199454 0.190006256
0.455028564 0.212903097 0.206072003
0.567362368 0.264895827 0.235420823
0.181150913 0.201264992 0.185452357
0.194940090 0.202024087 0.175964639
0.224920824 0.213409632 0.187349901
0.285388917 0.220872998 0.188868001
0.350790381 0.238077179 0.205692634
0.416951001 0.259203166 0.213662356
0.502339900 0.286021620 0.232131630
0.604554236 0.341176450 0.271853179
0.282732397 0.299303979 0.200000003
0.300822198 0.297153741 0.221252009
0.326628298 0.301454991 0.216445088
0.374446392 0.316002637 0.230107546
0.428463161 0.328905374 0.235041186
0.493105739 0.357115448 0.251106739
0.565464795 0.389120460 0.273371369
0.651866138 0.445287824 0.324604839
0.405186743 0.423023462 0.264516264
0.414421290 0.428715736 0.266666561
0.431878626 0.433017105 0.273371190
0.463630348 0.446679235 0.285894990
0.512713611 0.461227357 0.299177796
0.564073443 0.485515475 0.316887975
0.621379018 0.516002297 0.351928800
0.700569272 0.568627417 0.407463610
0.507780015 0.580265582 0.360025555
0.519670963 0.578621268 0.369259834
0.532700598 0.583301723 0.372549087
0.556609929 0.594307303 0.389753282
0.588615000 0.602782845 0.403036058
0.631751776 0.626818061 0.428336263
0.682226539 0.645920277 0.463251531
0.742947042 0.683491230 0.504237950
0.618722618 0.748386562 0.531309605
0.624288380 0.752814412 0.538013756
0.639088988 0.752940834 0.545224488
0.661606610 0.762428939 0.556103766
0.690195739 0.772042751 0.565338433
0.727640510 0.786843717 0.600505769
0.772169530 0.804806828 0.631246209
0.818722606 0.822770417 0.660847425
0.003922000 0.078431003 0.145098001
0.001138547 0.085515901 0.141176000
0.058697093 0.091334544 0.152055889
0.132700741 0.103099354 0.158001363
0.209360927 0.113219544 0.164958641
0.306388527 0.137634456 0.186717197
0.412650287 0.156230256 0.201897740
0.532827199 0.201517805 0.219481379
0.013662547 0.105881996 0.153699994
0.031625547 0.106261544 0.149779007
0.080582090 0.107400090 0.150537997
0.154206082 0.115243092 0.165464997
0.230993181 0.128526181 0.175711721
0.323845714 0.149652004 0.188108996
0.422391027 0.173055291 0.201391578
0.543326914 0.216824979 0.225047097
0.084503189 0.139532000 0.159519553
0.107653543 0.139911547 0.173307985
0.144845098 0.145350650 0.163820192
0.197596729 0.154712558 0.172042638
0.276786715 0.171157554 0.183048546
0.356736004 0.187602654 0.199114293
0.456040621 0.216066003 0.211764738
0.566982925 0.264895916 0.246299624
0.179253280 0.201644540 0.185831994
0.198102280 0.205186278 0.191018462
0.231752172 0.215053737 0.190891549
0.281847179 0.225173712 0.197090551
0.343326807 0.238077179 0.211638108
0.416951030 0.258064538 0.217457443
0.506641209 0.288045496 0.237191468
0.604680359 0.341682523 0.274762988
0.286274642 0.291713923 0.214294538
0.301581174 0.298418999 0.217583537
0.327387393 0.301834524 0.218595996
0.373307735 0.316002548 0.232005194
0.433270156 0.329664379 0.242631435
0.487159967 0.352687925 0.249715179
0.562302291 0.387476176 0.282606095
0.652245581 0.442125440 0.327134669
0.405819178 0.418089628 0.272991747
0.407084465 0.420113921 0.270461947
0.428715914 0.429474831 0.280329168
0.464516252 0.438836217 0.285009503
0.507906556 0.456420243 0.301454961
0.563567042 0.478431463 0.321315527
0.619734287 0.510815918 0.356103748
0.698291957 0.565591395 0.409487993
0.504237533 0.565717995 0.364705563
0.511195719 0.575078845 0.362175554
0.529158652 0.577482641 0.374572814
0.551802635 0.591144860 0.391018212
0.590765476 0.603289127 0.404933780
0.626186013 0.619987607 0.427956641
0.683238268 0.647817969 0.465275288
0.740670323 0.683111787 0.511827648
0.624541461 0.739911556 0.530929804
0.627071679 0.751675725 0.538646460
0.634028852 0.753573418 0.543959320
0.654901981 0.760910749 0.557368457
0.689436734 0.769765794 0.580771387
0.727514505 0.783554733 0.595319569
0.772169530 0.800632238 0.627577364
0.824667633 0.826059580 0.664136529
0.003162904 0.076027997 0.153700098
0.002656546 0.082353003 0.150537997
0.065022096 0.092473097 0.163061097
0.132194981 0.107020639 0.168501005
0.219987184 0.122327901 0.176344082
0.312966466 0.140417099 0.191777259
0.418848544 0.165337995 0.211638287
0.541808665 0.205945566 0.239342138
0.021885000 0.096394897 0.161163554
0.050094996 0.099556997 0.161922559
0.096268088 0.104617447 0.162681550
0.162049189 0.123086900 0.180392087
0.239595264 0.134851098 0.185958192
0.331562012 0.155091807 0.199493736
0.433396727 0.177735373 0.219734341
0.552814662 0.222517088 0.245667532
0.099431090 0.137887195 0.171663180
0.109930545 0.141050100 0.169260085
0.156609997 0.149652004 0.179506987
0.209360734 0.157874733 0.187729448
0.285895050 0.172422096 0.198355094
0.368121386 0.195825085 0.209614351
0.462871552 0.220114097 0.233522996
0.573687673 0.268817008 0.263124675
0.187855989 0.201264992 0.198355287
0.202403635 0.202024087 0.190765545
0.238836184 0.216192290 0.201770738
0.288931191 0.225553170 0.209993988
0.349272370 0.236052826 0.218975633
0.423276722 0.256419837 0.234282076
0.512081027 0.289184123 0.255660832
0.609361410 0.344086021 0.292093456
0.299178094 0.291334271 0.225679994
0.304996729 0.296394765 0.234408796
0.332827181 0.305376381 0.235800087
0.376344025 0.313219279 0.242884174
0.431625456 0.328905374 0.256166995
0.491840571 0.353447020 0.270588458
0.569386303 0.392156690 0.301454782
0.654901922 0.449209154 0.345983267
0.405312717 0.422138065 0.281720757
0.415433109 0.423909009 0.286654174
0.433396816 0.432511210 0.295383006
0.464389443 0.442757726 0.301834524
0.511068761 0.456546277 0.313978374
0.560910583 0.479569733 0.331056356
0.621252298 0.510056734 0.368880212
0.697532892 0.568753898 0.428842336
0.503478825 0.573940575 0.370777667
0.514357805 0.567868173 0.381910175
0.531182408 0.579380333 0.387476385
0.550284564 0.590006053 0.401138723
0.588994145 0.603668630 0.417836636
0.631751776 0.622897029 0.443390280
0.681594014 0.645920277 0.475142270
0.743074059 0.685515165 0.517899692
0.619481504 0.748133719 0.540164351
0.621884644 0.746489465 0.545603931
0.634028852 0.752814353 0.548766434
0.659582376 0.760784328 0.562175930
0.689942896 0.772169590 0.581530631
0.722201109 0.782289565 0.604427457
0.769006610 0.800252795 0.635294139
0.823908627 0.824794352 0.665148616
0.000000000 0.089057647 0.162555635
0.021505451 0.087413348 0.166223899
0.072865099 0.093232095 0.176850349
0.145224646 0.103099354 0.179886341
0.230107382 0.120682992 0.194813445
0.323339462 0.141809091 0.214042008
0.422770262 0.166476637 0.230360284
0.554711759 0.208222464 0.264768988
0.041872449 0.099936642 0.175964639
0.063377991 0.104237996 0.175205544
0.103731640 0.111321993 0.178368449
0.173814192 0.123086900 0.191271096
0.244528741 0.136748642 0.201011747
0.339785159 0.153953448 0.214294553
0.442757815 0.183681339 0.235420838
0.559266031 0.223023459 0.269702792
0.106135547 0.134725004 0.193295553
0.126122996 0.139025658 0.194813550
0.167994648 0.148134083 0.201517999
0.226312369 0.159013093 0.202529639
0.299937010 0.175458282 0.220240176
0.380265743 0.195825294 0.225932732
0.474636555 0.228589460 0.253763288
0.580771625 0.272485971 0.286654264
0.207969636 0.205186278 0.219101638
0.214168549 0.203542277 0.221125901
0.244655535 0.216571733 0.221758187
0.294370264 0.225932613 0.227577642
0.359898627 0.239595279 0.242504835
0.431119651 0.259962261 0.256293386
0.519165277 0.295509219 0.281467348
0.615180314 0.346742451 0.316761434
0.305629551 0.298039466 0.255661011
0.315243632 0.299937189 0.251739621
0.340417534 0.307906270 0.260594636
0.379886180 0.315875798 0.268311620
0.437824368 0.330803007 0.281214386
0.493864775 0.362175733 0.298798501
0.571536899 0.395319194 0.325363815
0.658443987 0.448703200 0.370271862
0.406578094 0.425173998 0.307147384
0.421505362 0.427197903 0.310562730
0.441113114 0.433396816 0.318405837
0.469576120 0.444781452 0.327387452
0.513978302 0.460468292 0.339911371
0.568500757 0.481593996 0.364579707
0.625300348 0.514357984 0.395319462
0.698798001 0.570651412 0.448450357
0.507146955 0.578621268 0.403162539
0.513219535 0.580265582 0.412143916
0.526754916 0.580898523 0.411258817
0.554964900 0.591524184 0.423402846
0.588741183 0.605186641 0.438203633
0.633017242 0.624414921 0.466034293
0.682099879 0.650980175 0.497406900
0.742947042 0.687159896 0.544465363
0.617204428 0.747248232 0.556735933
0.620746195 0.747248352 0.560783982
0.634914815 0.753193855 0.568880260
0.656799555 0.759898901 0.581024468
0.687286615 0.769765794 0.596331537
0.723719060 0.783048689 0.613915324
0.772549093 0.803794801 0.648956120
0.826059341 0.828462601 0.684503555
0.019355187 0.091081999 0.181024805
0.044402186 0.094117999 0.187729448
0.094750188 0.097280100 0.197596192
0.162808284 0.108538538 0.205692545
0.245035172 0.123086803 0.217836991
0.337760717 0.144212380 0.234914273
0.440101266 0.169259995 0.258570552
0.564073265 0.212144166 0.300569177
0.064642541 0.110942543 0.198355094
0.091714188 0.110562995 0.197596103
0.121315382 0.117267452 0.203415543
0.186338082 0.125490010 0.211132348
0.261100709 0.140670553 0.226944834
0.349146068 0.159013182 0.243643284
0.452498257 0.186464101 0.262239188
0.567615628 0.226565525 0.305755824
0.128399894 0.144971281 0.220240176
0.146868646 0.148513541 0.217963085
0.175332010 0.155091986 0.224035278
0.237697646 0.164958641 0.235926896
0.307779998 0.179380089 0.243643090
0.389626831 0.196963727 0.258570462
0.481594175 0.228589460 0.285895079
0.588867664 0.274636269 0.326754987
0.211764827 0.210626185 0.245288089
0.224288538 0.209487826 0.246552750
0.258823633 0.217710182 0.245667532
0.303731978 0.229095429 0.254522383
0.367615819 0.239595279 0.264642388
0.440101177 0.263883561 0.290195912
0.525110722 0.297027081 0.316761523
0.624541461 0.345983356 0.354712158
0.314104974 0.299937189 0.282100171
0.327893674 0.304237753 0.280329198
0.347754270 0.310942292 0.289057165
0.392030627 0.320682824 0.300442636
0.442631394 0.334345162 0.311068982
0.498924434 0.363693923 0.327640742
0.572675526 0.397090375 0.358001441
0.656799614 0.446552992 0.403542191
0.417583972 0.429601729 0.344971716
0.420240641 0.432637751 0.344592184
0.443643004 0.437318146 0.353067547
0.473497748 0.446679235 0.361289948
0.515496492 0.463124722 0.376976937
0.567994952 0.485515475 0.392283261
0.632258058 0.519797623 0.431372672
0.702719510 0.570398390 0.476913452
0.510815978 0.575585246 0.437065095
0.513472676 0.578241706 0.438709736
0.528020203 0.582542658 0.442378372
0.549651861 0.592283189 0.454016268
0.592283368 0.609108269 0.471979737
0.633017063 0.624035597 0.496647716
0.681594014 0.649841845 0.522833645
0.749145865 0.692978919 0.570398450
0.605439425 0.747121692 0.569639564
0.612776637 0.748892963 0.576723516
0.623655975 0.755977273 0.583428025
0.644655406 0.761163771 0.596711040
0.676660657 0.772169530 0.612776577
0.721189022 0.785452485 0.634787977
0.767995059 0.805439115 0.662997961
0.829601228 0.826944768 0.701581120
0.064389735 0.096141741 0.213535741
0.084756732 0.094497450 0.219734535
0.128399998 0.101961002 0.230107635
0.186970279 0.108538643 0.237444997
0.269323200 0.125489995 0.255408198
0.360025465 0.142947733 0.274257004
0.454269081 0.175458282 0.304491162
0.575458646 0.216445237 0.348766625
0.093737990 0.110942543 0.224161997
0.114990473 0.111321993 0.230866730
0.149019539 0.115243092 0.234534919
0.210119918 0.124984346 0.247565091
0.282099932 0.136369288 0.260215193
0.369133532 0.161037445 0.281973481
0.469829440 0.185958445 0.307653487
0.581783414 0.232258141 0.358000994
0.150790647 0.150790632 0.254522353
0.169512659 0.150031641 0.258949906
0.197722927 0.155471444 0.253763467
0.253257632 0.165717736 0.266793370
0.322960019 0.179759637 0.279190719
0.404048175 0.199747086 0.297785819
0.493611813 0.230486915 0.328399718
0.602276981 0.282985628 0.374572903
0.234535009 0.206578285 0.286274731
0.243517101 0.212271094 0.282479435
0.270967990 0.219228372 0.288171977
0.319923937 0.232637286 0.296394736
0.383301646 0.249462530 0.311321825
0.452245623 0.271347553 0.332068384
0.537254691 0.302593321 0.359013200
0.631499231 0.352688193 0.403795362
0.320303708 0.306894183 0.333333641
0.333965749 0.309930176 0.334345281
0.359898835 0.315622985 0.337634385
0.399494082 0.323086619 0.343326926
0.453889906 0.339784980 0.359013110
0.511574984 0.362428665 0.378620893
0.582795680 0.398987740 0.407590151
0.667299211 0.445034802 0.444528848
0.426691979 0.434535474 0.387602478
0.432005018 0.436559200 0.395066559
0.450727731 0.439215571 0.399114460
0.477419645 0.450221479 0.408222824
0.515875936 0.465528011 0.421252280
0.566097677 0.483364701 0.436559230
0.629474998 0.517899990 0.470588475
0.702593505 0.562175512 0.515116870
0.512460589 0.579506576 0.476154447
0.516382039 0.580898464 0.484376818
0.533206701 0.587602913 0.490702271
0.552308440 0.595445871 0.498671532
0.591524482 0.608855188 0.513598979
0.632764041 0.631119549 0.533459723
0.681593955 0.654395819 0.556736529
0.750284255 0.698418856 0.600632370
0.600759029 0.752181768 0.620493472
0.612776518 0.749399006 0.611638188
0.617583811 0.752814353 0.618722200
0.637317836 0.761796474 0.626818478
0.667299449 0.771283865 0.633902490
0.711954594 0.786211610 0.658950031
0.768247604 0.807463229 0.684756637
0.830613434 0.829348564 0.717014551
0.119544566 0.096394710 0.274130285
0.137634277 0.094244003 0.274889290
0.170398474 0.101960808 0.284250379
0.231625557 0.110942349 0.296647251
0.312207460 0.123086803 0.315496445
0.398987740 0.138772711 0.339279026
0.490069568 0.173813999 0.367868543
0.595825672 0.223782644 0.412270904
0.134092242 0.114484094 0.279949725
0.156483084 0.117773518 0.284630001
0.190259188 0.122327998 0.289690077
0.254649132 0.126628548 0.306768179
0.326502115 0.138013899 0.321695268
0.414800733 0.161417007 0.351043552
0.506135106 0.192283258 0.376470566
0.595066309 0.240986630 0.421252340
0.180898100 0.152814895 0.305376351
0.197596535 0.156103909 0.309551030
0.237950653 0.157495186 0.321695000
0.289943010 0.167994738 0.326881737
0.363187432 0.182542995 0.346742541
0.439974546 0.201897278 0.368248045
0.530929625 0.238709360 0.399114251
0.615939319 0.286021620 0.435546994
0.242757991 0.216445640 0.345983267
0.257684886 0.216445640 0.344339252
0.289057583 0.226691812 0.352941185
0.343074292 0.234282270 0.363946557
0.407084256 0.252498358 0.383934140
0.484250724 0.274003983 0.400505811
0.562302291 0.312966287 0.430107594
0.645540655 0.359266281 0.470461726
0.329032272 0.322454274 0.391144723
0.340290815 0.321568429 0.402656734
0.370525002 0.323339671 0.405566156
0.401897401 0.328146458 0.411511809
0.458950341 0.344465464 0.424161643
0.530423641 0.370777726 0.447058558
0.597596467 0.406325072 0.477419376
0.671347201 0.451991975 0.511195242
0.428968728 0.447312027 0.461100549
0.440354288 0.450853527 0.463630348
0.453637093 0.455661058 0.473118126
0.479063749 0.463504255 0.477039933
0.522201061 0.475142181 0.489057720
0.572169423 0.491967201 0.503352463
0.635040760 0.524225175 0.531814992
0.712207198 0.569006860 0.572802126
0.519544542 0.595572233 0.547248244
0.518279672 0.591397882 0.539025545
0.529664278 0.598228872 0.546236515
0.553826571 0.608349264 0.554585874
0.587729156 0.619354606 0.564452648
0.630740285 0.637318313 0.585705280
0.690069616 0.659962118 0.612903476
0.755471051 0.696141541 0.642251909
0.607337058 0.749145687 0.661986113
0.610625923 0.753952980 0.658064485
0.617204428 0.757874787 0.669829071
0.639089167 0.762555361 0.676154375
0.669323146 0.775584817 0.685262382
0.706514478 0.789627016 0.701201797
0.763314068 0.806831002 0.717773318
0.830613434 0.832384288 0.761036992
0.189879626 0.094117999 0.387476444
0.206578255 0.091840714 0.382921875
0.253510535 0.095635995 0.400505602
0.306641430 0.101707652 0.413282752
0.387223333 0.116761386 0.441366225
0.470335424 0.140923470 0.465781212
0.552434802 0.186969981 0.490701735
0.648956597 0.247438461 0.531435728
0.206324950 0.109297827 0.401897788
0.229475081 0.113219246 0.395825326
0.258443892 0.114611007 0.405439436
0.324225068 0.121948160 0.423402935
0.394433647 0.137507841 0.440860152
0.475774527 0.165970907 0.467299223
0.565970898 0.206198826 0.506767750
0.647058725 0.270461619 0.532194734
0.227703959 0.150917172 0.419101775
0.241492614 0.157621711 0.422264278
0.282606095 0.156863108 0.430613548
0.342062086 0.169639453 0.447058946
0.417204112 0.185325831 0.463756740
0.496773988 0.212903082 0.489563376
0.581783533 0.253004700 0.517394066
0.664136648 0.315243542 0.555597663
0.259961963 0.221378639 0.454775453
0.276280850 0.220872998 0.455914170
0.316887826 0.227830455 0.467678487
0.375205278 0.241619647 0.480834782
0.445919991 0.259202987 0.497280061
0.521568537 0.284882963 0.516381621
0.601518095 0.331815064 0.546615958
0.680961192 0.383681089 0.577862203
0.325110584 0.334472001 0.510562778
0.337507844 0.331562191 0.512460351
0.355344445 0.328905463 0.513978601
0.403415352 0.333207011 0.522201002
0.476028025 0.352687985 0.537254751
0.545603871 0.383934110 0.555597842
0.624794543 0.426185906 0.582795858
0.701454818 0.472232789 0.612396955
0.430233896 0.482858628 0.576470494
0.438836187 0.483238101 0.577482700
0.452624768 0.480202287 0.580644965
0.479190737 0.480202287 0.584313750
0.517899990 0.478431284 0.590385854
0.577988744 0.503099203 0.608855128
0.655787587 0.537887454 0.630866647
0.726881623 0.580771506 0.659709156
0.521189094 0.634029210 0.655028284
0.530929446 0.633396566 0.652245343
0.534724891 0.636432886 0.651992500
0.556609631 0.642757773 0.661100447
0.588488340 0.645414054 0.671094120
0.631625593 0.649335980 0.675142050
0.692979157 0.667172551 0.692093253
0.775079072 0.702719748 0.723466277
0.610878944 0.773181438 0.727640569
0.614547551 0.773560822 0.738140583
0.621505439 0.775205493 0.742567658
0.643390238 0.782163084 0.748513401
0.667425632 0.787729383 0.749398768
0.707400441 0.802529633 0.768753648
0.764326513 0.815559804 0.779380023
0.827956617 0.843769729 0.813915193
