Assets/EldamarStudio/100 Retro LUTs Pack/LUTs/cube/Valerie LUT.cube
DOMAIN_MIN 0 0 0
DOMAIN_MAX 1 1 1
LUT_3D_SIZE 32
0.003922000 0.070588000 0.133332998
0.000885613 0.067552388 0.130297378
0.002150774 0.073118225 0.133712992
0.003922000 0.078431003 0.137254998
0.004301451 0.078810550 0.137634456
0.007337064 0.081846938 0.140670061
0.020493317 0.087412998 0.146236643
0.037317991 0.088551708 0.147375286
0.054016192 0.087033898 0.146615997
0.066160977 0.090069517 0.152687997
0.081214868 0.093105868 0.147121996
0.096394733 0.096141741 0.147122264
0.113851637 0.099177644 0.150158361
0.135357067 0.101961002 0.152941003
0.159645826 0.101961002 0.152941003
0.181530789 0.104364187 0.155344814
0.204300985 0.108917996 0.161416799
0.229221702 0.114357576 0.169259563
0.256546915 0.117393978 0.172295958
0.275522023 0.120430358 0.175332353
0.297532976 0.125363991 0.172675520
0.321821243 0.133459985 0.171663120
0.346362978 0.145224512 0.180644989
0.376723826 0.148260906 0.186717004
0.404807270 0.153574005 0.190512285
0.434914619 0.161037311 0.193548322
0.468311071 0.170651123 0.197596073
0.501707435 0.182795882 0.206704453
0.537760615 0.197596803 0.215812817
0.572422147 0.212776735 0.228463173
0.604933143 0.229727581 0.240986988
0.635294020 0.250979990 0.247059003
0.003922000 0.079696387 0.127260998
0.000885613 0.082732774 0.142441377
0.000000000 0.081847385 0.139405221
0.002150774 0.081973448 0.137760624
0.005060451 0.079569548 0.135357156
0.013409063 0.087918937 0.143706456
0.029095642 0.085895315 0.141682073
0.039848384 0.090449385 0.149525642
0.053257480 0.090829000 0.151929304
0.072232977 0.087033913 0.146615997
0.084376991 0.095888510 0.149778873
0.101454601 0.097153611 0.150158137
0.121062279 0.099177644 0.153194264
0.144212425 0.102467000 0.155724362
0.165717810 0.108033001 0.152941003
0.185198978 0.108033001 0.155344814
0.208855182 0.110436186 0.158380806
0.233396754 0.115622565 0.163819999
0.253510535 0.123465970 0.169259563
0.278052330 0.126502350 0.166729957
0.298671633 0.129538253 0.171157613
0.322833389 0.134471610 0.173687384
0.349272877 0.142314628 0.180644989
0.376723826 0.148260906 0.186717004
0.407083988 0.155850708 0.192789003
0.437950581 0.164073288 0.196584299
0.470841378 0.173687384 0.200632468
0.501707435 0.185831502 0.209740847
0.532447636 0.197976276 0.221505374
0.569892108 0.214547947 0.227451205
0.603162169 0.233649582 0.237571359
0.629222035 0.257052779 0.250094593
0.003922000 0.086654000 0.134092003
0.003036387 0.087539613 0.138519615
0.002150774 0.088425227 0.142947227
0.007210773 0.088425227 0.142441168
0.012903450 0.085262321 0.140164316
0.018469064 0.090828709 0.145730704
0.033016868 0.089816548 0.140417457
0.049588930 0.093358934 0.143959478
0.057938095 0.097659908 0.153320909
0.073624499 0.092979230 0.149778515
0.094749995 0.097153902 0.152308866
0.110942505 0.102213509 0.151296735
0.128020182 0.103478640 0.152941003
0.149019808 0.106008969 0.154712230
0.170272171 0.106388219 0.153573588
0.193421751 0.111954227 0.159645811
0.210119963 0.113472417 0.161164001
0.233649775 0.117140763 0.163567200
0.253384024 0.124730967 0.168121010
0.275015950 0.130423576 0.172296122
0.301201940 0.133459955 0.171157777
0.323972017 0.138519898 0.176723763
0.350284964 0.145604029 0.182795763
0.379633158 0.149652034 0.188867778
0.409234762 0.158001482 0.194939777
0.440986395 0.167109445 0.199620456
0.473371297 0.177229702 0.204174772
0.502086997 0.191017985 0.214927450
0.534598410 0.203162655 0.220240206
0.572043121 0.218848944 0.230613425
0.609234452 0.237065196 0.237950817
0.636052966 0.258823991 0.253130764
0.003922000 0.091461159 0.143706322
0.002656839 0.093991160 0.142441168
0.008981999 0.091461159 0.144971162
0.012777160 0.091461159 0.142441168
0.023782611 0.091840610 0.145477548
0.026818225 0.094876774 0.148513943
0.042504478 0.095382839 0.145224839
0.056419700 0.097659707 0.143453538
0.071600094 0.103731908 0.150284842
0.081720494 0.100695521 0.152814522
0.100315996 0.102213711 0.153320879
0.121821344 0.105249897 0.154838741
0.140038118 0.108285509 0.152941003
0.155851036 0.111068837 0.153194040
0.177103400 0.109044582 0.154206172
0.196964145 0.113219313 0.158886641
0.217963189 0.119038351 0.164706007
0.233776122 0.122707151 0.165338427
0.254396170 0.128779173 0.168374047
0.278178543 0.132321179 0.172928542
0.300695896 0.137760729 0.175205827
0.329032183 0.141808987 0.178241953
0.353953332 0.150537834 0.184566990
0.383175015 0.154712096 0.190639004
0.412270725 0.161037132 0.195445836
0.440227628 0.171410665 0.202656522
0.474130124 0.181024984 0.205692902
0.503731608 0.195445701 0.215559989
0.536369324 0.210499495 0.222264156
0.570019186 0.223656118 0.228842199
0.612524033 0.241872132 0.240607202
0.644402146 0.260088831 0.256167173
0.005060451 0.094876997 0.148640454
0.004301158 0.100569449 0.146742612
0.011891321 0.098418996 0.149019539
0.024921158 0.096015446 0.151170015
0.034788545 0.095256448 0.145098001
0.037824158 0.098292060 0.148134395
0.054901864 0.102087319 0.149399459
0.071220540 0.105629444 0.151043832
0.083744094 0.109803900 0.152941003
0.098924488 0.106767513 0.152941003
0.110815547 0.106640995 0.150031880
0.128652334 0.109044798 0.151043743
0.148766279 0.111701444 0.153320551
0.166476995 0.114737064 0.153826550
0.187349856 0.114863545 0.156989425
0.205313250 0.119671054 0.160404757
0.221632004 0.125363991 0.163061202
0.240227580 0.131056443 0.165338427
0.258444399 0.137128457 0.168374032
0.285389364 0.138393551 0.172169358
0.308918744 0.141809002 0.173687547
0.332448006 0.147881001 0.175585121
0.362681508 0.154079512 0.184693471
0.390006006 0.160404563 0.191018462
0.416951299 0.166476548 0.195192799
0.444022954 0.175331771 0.200252667
0.469196588 0.187855989 0.208728507
0.505629301 0.199999988 0.211764902
0.539405346 0.216318503 0.219354689
0.571410358 0.231751859 0.228842199
0.604174614 0.246046960 0.240607202
0.646679461 0.264263004 0.258823991
0.014168063 0.100949004 0.145604059
0.029348450 0.103984609 0.151676059
0.028589707 0.103225842 0.149778783
0.034914933 0.104743838 0.150790781
0.046932545 0.110436067 0.151170000
0.062112927 0.104364060 0.145098001
0.072738864 0.112460323 0.150664061
0.086400926 0.113978289 0.154079780
0.098544933 0.113219060 0.155597851
0.111068487 0.112839520 0.152941003
0.120429866 0.112712994 0.150031880
0.136116445 0.116761506 0.151043743
0.154838860 0.120050937 0.154079646
0.172548994 0.120809838 0.156862944
0.184692994 0.123845443 0.162934944
0.210372835 0.128778920 0.168501005
0.229601249 0.133333251 0.171030924
0.246552557 0.136875421 0.170904428
0.267552018 0.140164077 0.168374047
0.296900779 0.146236777 0.176976353
0.321062744 0.149399191 0.181277737
0.343327016 0.153953001 0.182795927
0.368753523 0.160151511 0.184693471
0.396078706 0.169259906 0.193801105
0.421125859 0.175584927 0.200126633
0.450094700 0.184439912 0.204301193
0.480961055 0.197090134 0.208855003
0.508664906 0.212143987 0.214800507
0.542441547 0.221631825 0.217836887
0.575838089 0.237570882 0.227197900
0.608728528 0.255660653 0.240607202
0.643643022 0.276407003 0.258823991
0.033396319 0.114611320 0.147628322
0.038456708 0.115117252 0.148640320
0.051486317 0.113851868 0.152561545
0.054142997 0.113346159 0.151549682
0.063757092 0.118785642 0.153320551
0.076787248 0.117014647 0.153700322
0.086906999 0.118532315 0.152688324
0.099050991 0.122706994 0.153826609
0.111954093 0.122074410 0.154332682
0.125869334 0.123845637 0.153067514
0.140164196 0.126375318 0.157621562
0.153320566 0.126375318 0.158633947
0.172169626 0.131435677 0.161669672
0.191524357 0.134471700 0.164452672
0.205945626 0.137507901 0.165970668
0.225300431 0.140544131 0.169639483
0.247817636 0.146489635 0.174067184
0.265274882 0.150537744 0.175079316
0.286527306 0.153573379 0.173940673
0.306009054 0.159392387 0.176976353
0.338267058 0.163567409 0.184186995
0.360025465 0.167615309 0.188867673
0.379759610 0.173560828 0.192030191
0.404680401 0.177862227 0.196331427
0.432004958 0.189247310 0.200885609
0.459329307 0.198608294 0.208096310
0.490575373 0.210752442 0.213409051
0.517899692 0.223909080 0.217457309
0.550537169 0.238835812 0.228462830
0.582163036 0.253257394 0.238583177
0.615686178 0.271473616 0.253257275
0.650727272 0.291081309 0.271473676
0.056293406 0.124857992 0.155598000
0.064263076 0.126502290 0.152309000
0.060594704 0.125996217 0.154459223
0.074003868 0.124224991 0.158759996
0.081593856 0.126502290 0.159139544
0.092473149 0.126502290 0.159645945
0.103732079 0.130676672 0.155218288
0.116128691 0.130423695 0.161796272
0.128272891 0.131941691 0.160278082
0.142567918 0.135863483 0.161163703
0.156103566 0.137254819 0.163693711
0.171283945 0.139911413 0.166097254
0.187602684 0.139911413 0.167995006
0.207843021 0.144718379 0.170271710
0.223023400 0.147754416 0.170271710
0.241366491 0.152435094 0.171030805
0.262618899 0.156989276 0.174067184
0.280961394 0.162428856 0.178368405
0.301201701 0.165464759 0.181404278
0.322959989 0.169639423 0.180898353
0.344086021 0.177102730 0.187475994
0.375458658 0.179126993 0.192536131
0.393548667 0.184060499 0.197722718
0.417836726 0.190132901 0.199240908
0.442757696 0.199999973 0.203921571
0.470082045 0.210752651 0.209740952
0.500189662 0.223149762 0.218342707
0.528652430 0.236432880 0.222517446
0.558001161 0.251233548 0.231878683
0.596204758 0.264895409 0.245793879
0.624794364 0.285768569 0.260974079
0.658190966 0.306261688 0.278430998
0.079823092 0.132448003 0.165464908
0.088172004 0.135483816 0.161669999
0.089943089 0.136369199 0.158254325
0.085389167 0.137887195 0.162555099
0.099431001 0.137887195 0.167868093
0.108159155 0.137887195 0.165211946
0.119038641 0.142188087 0.158633679
0.133586392 0.144085720 0.159518987
0.148766205 0.142568097 0.168626994
0.160910994 0.148640096 0.171663389
0.174573183 0.149652004 0.172548994
0.187223256 0.150917172 0.171789899
0.202783093 0.153574005 0.173308089
0.220746130 0.153827041 0.173561051
0.235926494 0.156862780 0.174066991
0.254269600 0.161543086 0.174826086
0.271727085 0.167615086 0.175585181
0.295509428 0.172422081 0.179253981
0.314357996 0.175331965 0.188235134
0.335863113 0.179127261 0.188488349
0.359012932 0.185199454 0.190006256
0.379253387 0.192789197 0.197090134
0.406704962 0.193168670 0.200252995
0.432258010 0.202276915 0.201517999
0.455028564 0.212903097 0.206072003
0.481467515 0.224414647 0.212017670
0.508285999 0.234535053 0.222138062
0.538140059 0.249715447 0.228969082
0.567362368 0.264895827 0.235420823
0.601265311 0.279064059 0.248830080
0.640734017 0.294117659 0.263251364
0.665022075 0.321442097 0.278430998
0.101075500 0.144592017 0.168500513
0.098039120 0.147628412 0.171536908
0.108538792 0.148513988 0.163441002
0.116255499 0.151043981 0.159519479
0.117647022 0.156103984 0.164832488
0.123719029 0.156103984 0.164832488
0.132447824 0.158633649 0.162175685
0.146615997 0.160151497 0.163819999
0.163946599 0.160784110 0.168626994
0.179126993 0.163820505 0.168626994
0.197090760 0.166982621 0.171663374
0.208981723 0.167868003 0.170524746
0.220619649 0.169133171 0.171030805
0.235926539 0.172043040 0.176597446
0.251106888 0.175079420 0.179633066
0.271094292 0.178115174 0.182542801
0.287665993 0.182795495 0.183934480
0.304617077 0.187602490 0.185325980
0.338013530 0.187602520 0.191398010
0.354079366 0.193295017 0.197596490
0.375331938 0.199241012 0.197596267
0.396458089 0.205439985 0.197090134
0.412776977 0.211385459 0.200252995
0.443137020 0.220493078 0.206325009
0.464136571 0.229601294 0.212143987
0.488171965 0.240227461 0.216824681
0.517393589 0.252751052 0.222138062
0.541682363 0.267931432 0.237318426
0.574193239 0.283111811 0.238836482
0.607337058 0.298292160 0.249841943
0.641113579 0.315117061 0.266160488
0.674130499 0.336622477 0.278430998
0.122327864 0.162554994 0.171536863
0.130929485 0.159772396 0.165844396
0.125742868 0.164958999 0.168880224
0.136875317 0.166476995 0.168121442
0.148260742 0.168500990 0.172296315
0.159392744 0.168500990 0.164706007
0.160404742 0.168500990 0.169765994
0.168374568 0.171157584 0.172801867
0.182036847 0.173181638 0.177355871
0.197217256 0.176217496 0.177355871
0.212396860 0.185072869 0.180265740
0.226565644 0.188108474 0.183301613
0.237697750 0.188993871 0.182036504
0.251359880 0.190006003 0.182289988
0.269196391 0.190385550 0.182669446
0.284376770 0.195825741 0.185705066
0.307653189 0.196331561 0.188741311
0.328652412 0.198861450 0.191397995
0.352940857 0.205692768 0.197470009
0.369639218 0.211258739 0.200759366
0.388614595 0.213535741 0.202909872
0.409867227 0.219608009 0.202909604
0.427198350 0.229474992 0.206072003
0.449209750 0.235799968 0.212144002
0.475015730 0.244908154 0.213661999
0.497280329 0.255407870 0.221252322
0.525110781 0.268057942 0.230866805
0.556609750 0.283238292 0.246046543
0.580897808 0.298418671 0.247944117
0.615306318 0.315369785 0.258570522
0.648070693 0.333459556 0.274130464
0.677419126 0.354711980 0.284250736
0.149651974 0.180771500 0.178621247
0.146616131 0.179759637 0.170524999
0.157115504 0.181151003 0.176976487
0.157368660 0.183428153 0.173687249
0.170651704 0.183428258 0.174826279
0.174573004 0.186717242 0.172296330
0.184692994 0.190765247 0.173813999
0.189626694 0.189120963 0.178241700
0.200253084 0.191398144 0.182416260
0.215433493 0.194433764 0.182416260
0.228589386 0.197216868 0.181277603
0.247817501 0.202277258 0.184313998
0.261100620 0.205312863 0.187349617
0.274383277 0.206451282 0.186843738
0.290828466 0.208222508 0.190385729
0.308665037 0.213029593 0.192789450
0.322327644 0.217584178 0.194307253
0.344591916 0.216824919 0.196204990
0.363061011 0.223149970 0.199494019
0.382795334 0.231499255 0.206831366
0.397975743 0.235673487 0.204174995
0.419987261 0.237824231 0.205945998
0.440480947 0.247691497 0.210120261
0.463630617 0.253763527 0.216192260
0.485136002 0.266160786 0.225806251
0.510815680 0.275268793 0.229980916
0.536242962 0.287286311 0.241492987
0.566603661 0.302466691 0.255154788
0.592030227 0.317647070 0.263124496
0.619860649 0.334598184 0.268437684
0.654016435 0.353699833 0.283238620
0.682479501 0.374952257 0.292346716
0.181150913 0.201264992 0.185452357
0.175458670 0.201264992 0.179759607
0.179127276 0.202276856 0.182289645
0.186590791 0.205059797 0.186590642
0.194940090 0.202024087 0.175964639
0.193421692 0.205818996 0.178241938
0.203035921 0.211891294 0.180139318
0.215812624 0.214168355 0.184313715
0.224920824 0.213409632 0.187349901
0.239342138 0.216824800 0.187729344
0.251612931 0.216951281 0.184819773
0.265274882 0.218975261 0.186970264
0.285388917 0.220872998 0.188868001
0.300822288 0.224161625 0.191903681
0.316888034 0.228083402 0.197090283
0.332194626 0.232384622 0.201897457
0.350790381 0.238077179 0.205692634
0.363567561 0.241113573 0.205692634
0.378747344 0.244149327 0.205692649
0.397216648 0.250474364 0.211764708
0.416951001 0.259203166 0.213662356
0.433143258 0.263250917 0.211638615
0.456925988 0.269323617 0.217584118
0.479190290 0.275395632 0.222644001
0.502339900 0.286021620 0.232131630
0.524098277 0.300695926 0.241745666
0.550916731 0.310309768 0.250854075
0.577609360 0.324857712 0.262365639
0.604554236 0.341176450 0.271853179
0.633522987 0.359266222 0.284377187
0.659456253 0.379253477 0.296141982
0.688552022 0.400758922 0.306008637
0.213283002 0.225300029 0.188740999
0.213536039 0.225553066 0.188740999
0.217837036 0.225047067 0.190891773
0.221885026 0.226059198 0.190385967
0.221758485 0.229095519 0.185325995
0.224794090 0.226059124 0.185325995
0.235420674 0.231119633 0.185325995
0.248956695 0.233144030 0.187855959
0.262871921 0.234408990 0.193421960
0.271979570 0.240480989 0.196457580
0.283744752 0.240733996 0.193674877
0.294623733 0.243010774 0.196710989
0.306641310 0.245161071 0.200506002
0.324352026 0.245667070 0.201012000
0.342567980 0.251739055 0.204048380
0.356736034 0.255407870 0.209234998
0.372928262 0.259709030 0.214800999
0.393168598 0.265401572 0.219860956
0.408349037 0.268437982 0.219860956
0.423023403 0.271473706 0.222643673
0.441745728 0.279696494 0.224541053
0.462238997 0.290070027 0.226059258
0.480455011 0.296268493 0.232131988
0.498671830 0.302466989 0.235294133
0.521442056 0.311068803 0.243137285
0.544591725 0.322706699 0.251107007
0.566350102 0.337381124 0.257685095
0.590638876 0.349525899 0.266793460
0.619481564 0.366730005 0.276154220
0.651107073 0.386717200 0.290322423
0.679949641 0.408855230 0.308792055
0.695129991 0.433144033 0.327008069
0.231498986 0.246552393 0.194812998
0.234535381 0.249588788 0.194812998
0.239089400 0.245540828 0.196963772
0.245161384 0.243263826 0.197469831
0.248829842 0.244655415 0.194560125
0.246046454 0.250347883 0.197469994
0.256673038 0.259961814 0.197469994
0.268817395 0.259329677 0.195825279
0.281593978 0.255155295 0.196963772
0.293231905 0.258696973 0.202530354
0.302340239 0.258949965 0.199746966
0.318152964 0.262997985 0.202782989
0.332194686 0.267299056 0.206578001
0.345604390 0.269955814 0.207084000
0.357748389 0.276027828 0.213155985
0.378368199 0.279696614 0.216192380
0.394686997 0.282732606 0.218342990
0.411764801 0.287033379 0.220240414
0.429601371 0.292725950 0.222896576
0.439215750 0.295762330 0.225679934
0.455281407 0.300695807 0.232511148
0.475142121 0.309045106 0.236685827
0.495635420 0.317520857 0.238203987
0.513852239 0.326628476 0.244276002
0.536622405 0.337381542 0.254269391
0.560910702 0.348893195 0.264389634
0.584566772 0.361669809 0.272865474
0.608854830 0.373813868 0.281973839
0.630486727 0.388614804 0.293738395
0.657178640 0.407969564 0.307020992
0.684882760 0.430107594 0.324604988
0.707273960 0.454396397 0.345224828
0.256925792 0.275015593 0.198481813
0.259962171 0.270841181 0.198481813
0.260847777 0.273877561 0.204933584
0.268943787 0.269829452 0.211005643
0.276533782 0.268690795 0.210625783
0.275521666 0.270714790 0.199493945
0.282732427 0.279443592 0.207210809
0.293232054 0.281720608 0.208855093
0.303858101 0.277166784 0.208854884
0.314357758 0.281847090 0.213282958
0.325995833 0.284376770 0.213029921
0.339152217 0.286401033 0.216065794
0.352434784 0.289816588 0.218722150
0.362302214 0.291587740 0.217456996
0.376596987 0.295508981 0.219227985
0.393548608 0.301580995 0.222896799
0.411764979 0.306135565 0.227450982
0.427577764 0.310689569 0.229854554
0.445793808 0.316761583 0.232890636
0.460468143 0.324857324 0.235926345
0.473371506 0.329791456 0.238962725
0.491081625 0.334851474 0.246046990
0.510815799 0.341302961 0.249082983
0.529031992 0.352687895 0.255154997
0.547248781 0.361796051 0.261227012
0.571283758 0.373813957 0.271726638
0.596078396 0.386464059 0.281340986
0.622264564 0.400505781 0.292346627
0.641492546 0.417710394 0.308918774
0.662744939 0.432890773 0.322833538
0.687918782 0.453763545 0.341555983
0.712207198 0.478051990 0.365844786
0.282732397 0.299303979 0.200000003
0.291840762 0.296267986 0.206071988
0.286653996 0.295129597 0.209487766
0.290449142 0.298165977 0.213535830
0.300822198 0.297153741 0.221252009
0.300822198 0.300569385 0.212144002
0.308412522 0.302087307 0.209108129
0.317520469 0.306008995 0.214927480
0.326628298 0.301454991 0.216445088
0.335736692 0.306008995 0.217963293
0.347754180 0.309171498 0.221125796
0.360404640 0.315243244 0.225174189
0.374446392 0.316002637 0.230107546
0.381783396 0.315623194 0.227830231
0.395698607 0.317393959 0.226565376
0.410246789 0.324351579 0.232004806
0.428463161 0.328905374 0.235041186
0.444275945 0.334977984 0.240480617
0.462491989 0.341049969 0.243516758
0.479443550 0.348386854 0.248071015
0.493105739 0.357115448 0.251106739
0.508286119 0.364200115 0.257178992
0.525996208 0.368374377 0.264136493
0.544212222 0.377735406 0.268817216
0.565464795 0.389120460 0.273371369
0.582289875 0.399620503 0.280834675
0.606198370 0.411764562 0.290955067
0.632511079 0.425932825 0.304111183
0.651866138 0.445287824 0.324604839
0.670335114 0.461733371 0.336496085
0.695129573 0.479570150 0.356988937
0.721315145 0.503858149 0.385578990
0.307653546 0.319417715 0.204427555
0.321568936 0.319417715 0.215939119
0.319924176 0.318785131 0.219101757
0.315369695 0.321315289 0.221505389
0.323719084 0.323592603 0.218848556
0.323972136 0.331688911 0.224414572
0.331562281 0.331941813 0.221631557
0.340038002 0.330550134 0.220493272
0.349145651 0.331182539 0.223909035
0.358254045 0.331182539 0.220872641
0.368374169 0.334724844 0.224667549
0.380518496 0.340543866 0.230739906
0.393928140 0.346995175 0.235673919
0.405566156 0.344212532 0.238709599
0.416951150 0.344212532 0.236432970
0.430360556 0.350790769 0.241745755
0.443643540 0.357495338 0.247817755
0.461859524 0.361163706 0.250853986
0.480075568 0.367235720 0.253889591
0.497027129 0.373307705 0.260341674
0.512080967 0.380644858 0.264516383
0.525869727 0.389120668 0.269955546
0.541050076 0.398102522 0.281720072
0.558760166 0.404174536 0.284756482
0.581530511 0.414800555 0.289057702
0.601644635 0.427577317 0.295509428
0.617837071 0.439722091 0.305629194
0.641998529 0.451866120 0.320809573
0.661606610 0.471347332 0.341429621
0.679822922 0.489690155 0.357621938
0.699936569 0.506894529 0.369133532
0.733332992 0.531182528 0.402529985
0.334978014 0.346742958 0.225679994
0.344086379 0.346742958 0.234788373
0.347249001 0.344592184 0.231246173
0.347501785 0.346869141 0.229475021
0.351043552 0.353953451 0.234028980
0.354079902 0.350917071 0.234028995
0.361922652 0.353953362 0.234534994
0.369386464 0.354838997 0.235673711
0.376470834 0.355597913 0.239468992
0.385578513 0.358507007 0.245161459
0.388867855 0.364326030 0.242125094
0.398734927 0.368121326 0.245919988
0.413156301 0.372801989 0.250853688
0.429854989 0.377609015 0.253890038
0.435926974 0.377609015 0.256926417
0.452118933 0.382416010 0.259456187
0.465275228 0.388741046 0.262998194
0.477039993 0.394560158 0.266034424
0.495256007 0.400632977 0.269070029
0.507906020 0.406704962 0.277672350
0.522453845 0.412776977 0.282732755
0.538393259 0.419101983 0.287792832
0.556230485 0.425427020 0.296900511
0.571410835 0.431499004 0.299936920
0.593674898 0.442125022 0.307526708
0.613788605 0.455660671 0.317520380
0.629981041 0.470082164 0.329918057
0.651233435 0.482226938 0.345098406
0.672738791 0.499683946 0.357621968
0.691966951 0.518152952 0.374319971
0.711068571 0.537001610 0.392409623
0.733332992 0.558507025 0.414674044
0.370651752 0.390765369 0.249715716
0.374193400 0.390765369 0.244908035
0.379000783 0.392916143 0.249715433
0.382163376 0.391144931 0.246932372
0.386337757 0.393042386 0.249968380
0.386970311 0.392409801 0.254775375
0.392536372 0.391903728 0.252245694
0.398102432 0.394687086 0.253637016
0.403795272 0.396584660 0.256673098
0.412902892 0.399620265 0.260721385
0.421758264 0.402783096 0.263630509
0.426818371 0.406830817 0.264642626
0.438582987 0.409867048 0.267678708
0.454649031 0.414041758 0.268817365
0.465781003 0.416572094 0.269323409
0.476660609 0.421379089 0.277166784
0.489563555 0.427451074 0.279443711
0.499936610 0.432890505 0.280582368
0.516002357 0.436811954 0.281467766
0.531435788 0.445667386 0.287286699
0.545477509 0.449842125 0.298292339
0.560657918 0.455028743 0.306009144
0.576976895 0.461353749 0.315117180
0.592157245 0.472738743 0.323465914
0.609614313 0.481088012 0.333333582
0.630107284 0.492726088 0.345730364
0.646679044 0.506008744 0.359266132
0.663377404 0.518152952 0.372169793
0.684629738 0.530297697 0.382036507
0.707653403 0.550031900 0.399367183
0.728779316 0.570145667 0.419480950
0.750031710 0.591398120 0.440733373
0.405186743 0.423023462 0.264516264
0.402530074 0.426818460 0.269829422
0.407463521 0.427071482 0.268311232
0.409234732 0.430107564 0.267552137
0.414421290 0.428715736 0.266666561
0.418975472 0.428715736 0.271220744
0.414547741 0.426818460 0.273498058
0.428842425 0.428462744 0.268817306
0.431878626 0.433017105 0.273371190
0.436432272 0.438329995 0.279823214
0.443643332 0.439468622 0.279063851
0.456419706 0.442504942 0.283997267
0.463630348 0.446679235 0.285894990
0.476786762 0.450221479 0.286148012
0.487286448 0.451613158 0.287792742
0.497532845 0.455154985 0.293105781
0.512713611 0.461227357 0.299177796
0.522960067 0.466666877 0.300822377
0.535610437 0.469702512 0.303352714
0.548893094 0.476407081 0.308918744
0.564073443 0.485515475 0.316887975
0.579253852 0.488551587 0.327008247
0.594307721 0.493864477 0.334978223
0.607716918 0.504237711 0.340543836
0.621379018 0.516002297 0.351928800
