Assets/EldamarStudio/100 Retro LUTs Pack/LUTs/cube/Vickie LUT.cube
LUT_3D_SIZE 5
DOMAIN_MIN 0.000000 0.000000 0.000000
DOMAIN_MAX 0.903226 0.903226 0.903226
0.156863004 0.113724999 0.105881996
0.270335704 0.139531717 0.133332998
0.444654971 0.145098001 0.137887418
0.698418975 0.186337993 0.181404129
0.936369658 0.265527993 0.241998971
0.213409290 0.211511701 0.142820716
0.268690974 0.214421004 0.143453285
0.439089090 0.247817978 0.158507288
0.688298523 0.297533244 0.187349692
0.933712780 0.353826642 0.266160816
0.270714819 0.400252789 0.171916410
0.322707117 0.405186504 0.175205410
0.454522401 0.415306360 0.182416409
0.682732284 0.474130213 0.220366985
0.925237238 0.523086786 0.312081218
0.340417117 0.669070244 0.270841241
0.400252849 0.668690681 0.270208985
0.534598529 0.674256861 0.287539542
0.705250144 0.682732284 0.296395004
0.919417739 0.724225104 0.394560218
0.544212639 0.914231598 0.511701584
0.572169304 0.909550786 0.506894469
0.658570230 0.916129231 0.523592591
0.795951605 0.919671059 0.544085741
0.940290630 0.923339844 0.567994535
0.197722718 0.141176000 0.205312982
0.262491703 0.144465432 0.199746698
0.403162539 0.176850110 0.223655984
0.645161152 0.229854286 0.289057404
0.903351903 0.325742811 0.368880391
0.226185992 0.208222702 0.196457699
0.282099724 0.224920988 0.213156402
0.403162509 0.246173263 0.233775690
0.638962626 0.307021141 0.292346835
0.907906234 0.393168628 0.379759640
0.291587383 0.385578513 0.261606812
0.331815094 0.388488382 0.256672680
0.437824100 0.397976071 0.263504416
0.656293571 0.467299104 0.320177108
0.903352022 0.543453574 0.412397087
0.374066979 0.659203291 0.364706129
0.420240521 0.655660927 0.360025108
0.535863578 0.663756847 0.372801840
0.699683845 0.672991991 0.389879823
0.905882478 0.726755202 0.474889398
0.578620851 0.908032715 0.567994714
0.598481596 0.910183787 0.564326465
0.674256980 0.911828101 0.574699342
0.800379455 0.919670939 0.594560206
0.936748862 0.924604654 0.616824567
0.234661579 0.161416590 0.412650377
0.314484388 0.171283990 0.400252789
0.432890803 0.186337575 0.377988815
0.643516719 0.246552840 0.435926676
0.884123743 0.378114760 0.523972213
0.272612393 0.261227101 0.363946676
0.320050269 0.262871385 0.361669391
0.416192085 0.270714790 0.363946676
0.623909295 0.335230947 0.433902532
0.867425442 0.454902083 0.541176558
0.315117002 0.395066768 0.383934200
0.356356382 0.406451523 0.393042356
0.490448803 0.457811773 0.446679384
0.640481114 0.490828663 0.480329096
0.867172718 0.582036793 0.569639206
0.435294122 0.640860260 0.509171128
0.472485960 0.647185564 0.509171307
0.557495534 0.651360273 0.517014503
0.687286258 0.664136410 0.536622524
0.887033522 0.735357106 0.610499620
0.617583752 0.903099179 0.661100388
0.635800183 0.899430513 0.667299390
0.704364359 0.904996634 0.679570079
0.805945516 0.909930527 0.688678205
0.929790914 0.922074616 0.710942149
0.297153860 0.229601249 0.675901115
0.370398700 0.239089534 0.670588553
0.518279552 0.262618691 0.658190966
0.689563394 0.293358862 0.653384268
0.884123743 0.405312896 0.679190278
0.336116433 0.345350832 0.646173656
0.390765518 0.348892957 0.644276023
0.516002417 0.358760089 0.634787977
0.674889386 0.373814106 0.627830267
0.876280606 0.477545768 0.686401069
0.388867974 0.503984928 0.627577543
0.435547262 0.500695944 0.626312554
0.546742737 0.514737248 0.629222274
0.663377523 0.528146923 0.631372452
0.858950138 0.614800751 0.703352094
0.458191127 0.659203291 0.642631412
0.495761812 0.656293392 0.643263578
0.592156529 0.671600282 0.657558560
0.725869238 0.710183263 0.698418975
0.883364797 0.756229937 0.748386919
0.651106894 0.895888746 0.773434758
0.671979487 0.898292124 0.783175349
0.734724641 0.900442600 0.795572460
0.815559626 0.906008780 0.798481941
0.923212945 0.916887701 0.818722010
0.422643602 0.396584600 0.923339784
0.482985675 0.404680640 0.914104819
0.608222604 0.431878597 0.909551203
0.769386232 0.465527892 0.900821924
0.921947718 0.509044766 0.886653781
0.488045603 0.501454651 0.903351903
0.527893722 0.509930491 0.903984547
0.631751716 0.521062613 0.898165464
0.767615199 0.537381053 0.889310598
0.916128755 0.561543524 0.886021674
0.571663618 0.657305360 0.883997619
0.608981371 0.659582436 0.881467223
0.674257219 0.660594583 0.884756148
0.777482629 0.666160464 0.883365214
0.907653570 0.675648212 0.884883046
0.617330790 0.774573088 0.885768473
0.642884195 0.779633045 0.892599642
0.708286047 0.785072505 0.884756327
0.798734963 0.787982047 0.883491457
0.901201725 0.794939756 0.884503484
0.668437779 0.911574781 0.891966760
0.686780453 0.911574781 0.896774054
0.750790656 0.908285975 0.901201606
0.830740094 0.911828041 0.897406459
0.931055903 0.932447612 0.916634798
