Assets/EldamarStudio/100 Retro LUTs Pack/LUTs/cube/Vickie LUT.cube
DOMAIN_MIN 0 0 0
DOMAIN_MAX 1 1 1
LUT_3D_SIZE 32
0.156863004 0.113724999 0.105881996
0.169007003 0.116761386 0.111953996
0.179000765 0.121947996 0.113724999
0.193169162 0.126755163 0.117520161
0.213662550 0.129411995 0.125489995
0.228842929 0.129411995 0.125489995
0.249083310 0.137001678 0.130549997
0.270335704 0.139531717 0.133332998
0.289310992 0.137254998 0.134850994
0.301455021 0.137254998 0.140922993
0.333965868 0.134345129 0.129538000
0.359266251 0.135357261 0.129538000
0.383934289 0.139532000 0.135609999
0.414295018 0.145098001 0.140923038
0.444654971 0.145098001 0.137887418
0.477419406 0.147501811 0.142061993
0.510816157 0.155092001 0.149652198
0.546110094 0.165338427 0.157495424
0.588615000 0.168374032 0.160531044
0.622770429 0.171410352 0.163567364
0.659962237 0.178241730 0.172295988
0.698418975 0.186337993 0.181404129
0.734724522 0.192662984 0.184693471
0.768121719 0.204807013 0.193801105
0.801518261 0.212396994 0.202909291
0.836306274 0.221252322 0.212017670
0.872233033 0.234408990 0.221126065
0.905629396 0.252624989 0.230234444
0.936369658 0.265527993 0.241998971
0.968501151 0.279443175 0.259456158
0.993042350 0.295508981 0.282479554
0.996078014 0.313724995 0.309803993
0.162935004 0.125869766 0.102846384
0.165970609 0.128905386 0.111953996
0.182416156 0.129790992 0.118026547
0.196711153 0.132827163 0.119797774
0.214042008 0.135863453 0.122833848
0.231878549 0.138519615 0.125489995
0.247058943 0.141049936 0.128020316
0.267299324 0.144212395 0.133586377
0.290069699 0.143326998 0.135610297
0.313598990 0.143326998 0.134851009
0.331561983 0.146236867 0.135104001
0.360278368 0.145477772 0.131561995
0.386970401 0.146363392 0.134471640
0.417836666 0.148640394 0.138393342
0.453763366 0.154206395 0.140923038
0.479316980 0.156609595 0.145098224
0.510816157 0.162681803 0.149652198
0.544845104 0.171410576 0.155724183
0.582543015 0.174446821 0.163567439
0.625047803 0.183048427 0.166603044
0.659203112 0.186590731 0.167741612
0.694370747 0.193422124 0.175331861
0.729031980 0.201771379 0.184946492
0.771157324 0.213915393 0.199873880
0.806831181 0.223782673 0.206704780
0.840986609 0.233396754 0.215053707
0.874256670 0.245035052 0.224161685
0.902593017 0.255661368 0.233270064
0.935990095 0.271220505 0.245034590
0.966729939 0.287286401 0.264263004
0.991777182 0.303731978 0.285894990
0.999114394 0.319797784 0.306767613
0.171157777 0.135863230 0.108412229
0.174193382 0.138899386 0.113219388
0.183680773 0.139784768 0.118026547
0.201897547 0.141049936 0.125363842
0.216825008 0.143327221 0.127261221
0.227956995 0.142820835 0.124984063
0.250095099 0.148007318 0.125869542
0.268564492 0.151043713 0.132194921
0.289057791 0.151549771 0.137254998
0.312207490 0.151549771 0.135610282
0.332953751 0.154459104 0.137633994
0.357242018 0.157495499 0.137633994
0.385705531 0.157622010 0.138772637
0.415812790 0.157874972 0.141555995
0.446552813 0.162049219 0.142694354
0.481973588 0.170018971 0.148133829
0.512333989 0.174572766 0.152688414
0.547627926 0.181151003 0.154459208
0.585578978 0.182669207 0.157495201
0.623276770 0.193422198 0.167488649
0.660088718 0.198734805 0.170524731
0.695509136 0.203795135 0.172801763
0.731308997 0.212776989 0.182542726
0.769765794 0.220872998 0.193675146
0.807716548 0.235041291 0.206325233
0.839974642 0.244149670 0.213788897
0.872359097 0.255028695 0.223402768
0.904617190 0.264136672 0.234155446
0.935104489 0.276407659 0.250221521
0.968501151 0.293358475 0.265907496
0.992156744 0.311574966 0.287665993
1.000000000 0.328020215 0.305882007
0.181530997 0.148766324 0.117520161
0.183301777 0.150537550 0.119291387
0.191524327 0.151423156 0.122327775
0.201138332 0.150158003 0.124099001
0.219355002 0.152814835 0.132447615
0.228968993 0.150664061 0.129031986
0.248956472 0.156483158 0.130549997
0.270335704 0.159645721 0.131688535
0.291587889 0.163441002 0.138519838
0.310309827 0.164453000 0.138519838
0.330170870 0.166097283 0.140164122
0.356736422 0.167868271 0.139911160
0.384060800 0.170904651 0.141049519
0.414548039 0.171284124 0.144085869
0.443896413 0.174319729 0.145098001
0.477166444 0.180897802 0.151170164
0.512333989 0.187223151 0.155724034
0.549398720 0.194560140 0.159392834
0.588867962 0.197090164 0.158254042
0.623023748 0.203162551 0.162808165
0.661353886 0.213409588 0.173054725
0.696774304 0.218469203 0.177102983
0.735863149 0.227577493 0.183174983
0.770018995 0.234788164 0.191144750
0.807716548 0.245161429 0.202530161
0.842504621 0.256293654 0.213282511
0.869828999 0.265402049 0.222896963
0.903984666 0.274509847 0.235041156
0.937634468 0.288804650 0.252498478
0.971031129 0.303226084 0.271979958
0.994686961 0.319671124 0.290196002
1.000000000 0.337128133 0.308412015
0.193674996 0.166603550 0.125869542
0.192916006 0.166603550 0.126628548
0.199367777 0.166224003 0.128399774
0.207969993 0.164958939 0.130550444
0.214042008 0.162681550 0.129411995
0.232257992 0.162681550 0.132447600
0.252624869 0.169892311 0.137633994
0.272232860 0.174446538 0.140796542
0.290828884 0.175205544 0.140796542
0.312080503 0.181277543 0.140796542
0.331941754 0.181909993 0.141555548
0.357115954 0.182669088 0.139531717
0.386338085 0.183807641 0.138393357
0.413662463 0.186844036 0.141682059
0.446805835 0.189879671 0.144844964
0.480581790 0.195319086 0.152308807
0.514357746 0.200252742 0.159139812
0.548639715 0.204427525 0.161669552
0.588108957 0.216571540 0.167741552
0.620746732 0.219101533 0.166982904
0.657938480 0.225933015 0.172295988
0.699051559 0.236306414 0.183174998
0.738393426 0.245414048 0.189120516
0.769260287 0.254522443 0.194939554
0.806451797 0.263251305 0.205566019
0.842378199 0.271726996 0.216698408
0.875521600 0.279064059 0.226691574
0.902845979 0.288172424 0.238836333
0.937001586 0.304111511 0.255154967
0.972675323 0.320177197 0.274762720
1.000000000 0.334851533 0.294749975
1.000000000 0.346995533 0.312965989
0.205819011 0.181783929 0.128905937
0.199746996 0.181783929 0.134977937
0.205439776 0.179633155 0.135736927
0.215813011 0.177103162 0.137507841
0.226186007 0.174826324 0.138519615
0.232257992 0.177861929 0.129411995
0.250474632 0.182921931 0.132447615
0.269196928 0.187855721 0.135989711
0.287413090 0.189626932 0.137760937
0.306008548 0.190385923 0.137760937
0.335989743 0.193548054 0.143579945
0.358254254 0.198102504 0.142567679
0.383301705 0.202024236 0.140670061
0.410626084 0.205060035 0.141682059
0.437950462 0.208096415 0.147754833
0.473497659 0.213535860 0.153320938
0.509424388 0.219607860 0.161416799
0.545351028 0.225173920 0.166982591
0.582036972 0.231751949 0.164705962
0.624288797 0.243895933 0.173561305
0.660974443 0.250221401 0.176850185
0.698418975 0.256293774 0.184439987
0.735357046 0.260594428 0.195192516
0.771789849 0.269702822 0.198228911
0.809487879 0.276533931 0.208601937
0.843390584 0.285894990 0.220746383
0.872738957 0.297533065 0.232890800
0.905882359 0.312460423 0.247943938
0.933206737 0.321568847 0.257431895
0.963820398 0.333965898 0.273371398
0.989879966 0.347501576 0.291208297
1.000000000 0.362175941 0.306894004
0.210373327 0.194434002 0.137001678
0.209361330 0.194434002 0.138013676
0.214041546 0.194434002 0.137634456
0.221884996 0.194307491 0.138519838
0.231499314 0.193801776 0.140796542
0.241872326 0.192536384 0.135989934
0.250474632 0.198102325 0.139532000
0.267046273 0.199241042 0.140923321
0.284376860 0.201265320 0.143074095
0.302593321 0.204807326 0.144845322
0.324857771 0.207716435 0.143074006
0.353194267 0.210752577 0.147122264
0.380012631 0.217457637 0.148513645
0.410120010 0.223529637 0.151296645
0.437444389 0.228842735 0.152814835
0.469576389 0.231878519 0.156483203
0.505882323 0.240860373 0.159392685
0.542314768 0.248956621 0.164831996
0.578747630 0.255028665 0.167488649
0.613156140 0.259076327 0.167994723
0.653763592 0.269323081 0.177103087
0.690828979 0.276028007 0.183428124
0.727387786 0.280834824 0.193927824
0.766223788 0.289943218 0.201771230
0.802656531 0.296774328 0.209361017
0.841872334 0.302846313 0.224035323
0.874256790 0.312713325 0.238456994
0.905629396 0.325869411 0.251612842
0.933712780 0.338267148 0.261480153
0.966350317 0.349146277 0.281214476
0.991144955 0.362175912 0.299936980
1.000000000 0.377356321 0.313472331
0.213409290 0.211511701 0.142820716
0.218342990 0.209866986 0.141176000
0.221505642 0.211511701 0.143959478
0.226818413 0.208981708 0.140923530
0.232511446 0.210879445 0.142061710
0.243390277 0.210373044 0.137760937
0.256293595 0.214927405 0.147248700
0.268690974 0.214421004 0.143453285
0.283870786 0.213662475 0.145730376
0.301201969 0.219734699 0.150537774
0.323972166 0.222896829 0.151043832
0.349272549 0.227577254 0.148766547
0.377735555 0.231751993 0.150664285
0.410373062 0.240354314 0.155724287
0.439089090 0.247817978 0.158507288
0.467931688 0.253130913 0.159266204
0.502846599 0.257684708 0.163819999
0.538646221 0.269576401 0.165338159
0.574066997 0.277672678 0.171410412
0.611005425 0.280961335 0.173560694
0.649841487 0.289436728 0.179253429
0.688298523 0.297533244 0.187349692
0.724857748 0.303731889 0.195951983
0.764326632 0.312839866 0.206578195
0.799873531 0.316381961 0.214041695
0.834914625 0.325237304 0.221758336
0.872865081 0.332827419 0.238962993
0.904364109 0.344971389 0.253383994
0.933712780 0.353826642 0.266160816
0.963061333 0.365970939 0.279317141
0.992409945 0.379000574 0.303984970
1.000000000 0.394180983 0.317647010
0.218722194 0.232764095 0.146615997
0.227830380 0.230486795 0.143579796
0.229601771 0.230992869 0.144718453
0.233649895 0.231752098 0.148513928
0.235167995 0.226818636 0.145857096
0.244655252 0.229854345 0.140544087
0.257305324 0.233143643 0.146869138
0.272485673 0.233396679 0.151043683
0.288424999 0.228842080 0.142694190
0.303605407 0.234914854 0.151802585
0.326754987 0.240354314 0.154332876
0.351549238 0.244655102 0.154838741
0.380012274 0.250727087 0.153700098
0.410120010 0.256546110 0.153700098
0.439974725 0.264642507 0.158760101
0.468690783 0.273624182 0.162302002
0.500569344 0.279696196 0.164579093
0.537634492 0.287033170 0.170018673
0.571283996 0.299177915 0.175964937
0.608728409 0.303731710 0.180771634
0.648576438 0.310942084 0.186843634
0.689816356 0.321821272 0.194940090
0.726502061 0.327894002 0.200885579
0.766603708 0.336369187 0.211132005
0.801518261 0.340923160 0.221758187
0.834914625 0.344971299 0.229348332
0.868311048 0.357115984 0.236432984
0.901707411 0.369259983 0.254143000
0.933206737 0.377609164 0.267425716
0.964326382 0.386464030 0.286401153
0.987096965 0.399493665 0.302466959
0.999240935 0.414674073 0.320683002
0.230866984 0.254016519 0.152687997
0.239974588 0.254016519 0.149652377
0.236179769 0.253889978 0.146616191
0.235167831 0.254016519 0.146489680
0.244275615 0.254143059 0.148893490
0.256420374 0.257179409 0.148893490
0.265907645 0.255155146 0.143579856
0.278557718 0.252498329 0.143326759
0.294497013 0.250094503 0.145730600
0.312712997 0.250094473 0.148766965
0.333712399 0.261986256 0.149146482
0.355091274 0.267678708 0.151296750
0.380012274 0.271979481 0.154079646
0.410120010 0.277798504 0.156736493
0.437444389 0.280834943 0.156736493
0.467299104 0.293738276 0.164199665
0.500569344 0.303984970 0.169892192
0.537634492 0.311321974 0.173055068
0.577103019 0.323465973 0.176091462
0.610752404 0.330044001 0.184819654
0.646299481 0.335989505 0.191776991
0.683997393 0.343326658 0.197975785
0.723466456 0.352182031 0.203921974
0.765971303 0.358254015 0.206957608
0.801518261 0.366729766 0.221758559
0.834914625 0.374066979 0.236685947
0.868311048 0.381404012 0.248576999
0.901707411 0.393548012 0.260720968
0.935104489 0.405692667 0.267805010
0.968374610 0.415812731 0.288424879
0.992789328 0.426818073 0.314610958
0.996204555 0.441998482 0.332826972
0.243010998 0.278178751 0.152941003
0.240480617 0.278178751 0.152814507
0.240986779 0.276027977 0.149778903
0.240986824 0.277798891 0.149272710
0.250853539 0.280708432 0.152308673
0.265528023 0.278684795 0.154839009
0.275142461 0.279190868 0.157368690
0.289183855 0.278178751 0.155723870
0.305629075 0.277925521 0.156736001
0.321694851 0.280075729 0.157621622
0.337001741 0.282985598 0.157748133
0.358254135 0.287033856 0.155724391
0.380645156 0.290322751 0.155850872
0.407463878 0.296900749 0.157369003
0.437444389 0.307906300 0.162681997
0.467172593 0.315749675 0.165085196
0.502087176 0.326881677 0.170145184
0.539911211 0.334345132 0.174446568
0.577103019 0.341935754 0.182036966
0.616572082 0.351296395 0.190638661
0.652118742 0.361290336 0.197849482
0.688551247 0.369386613 0.202909604
0.725869596 0.376597226 0.207337111
0.760025084 0.385451883 0.218722105
0.797975838 0.389247149 0.226312280
0.832005143 0.398481846 0.239848092
0.866413891 0.408601999 0.253510177
0.904617250 0.420746595 0.272864997
0.932700634 0.424920768 0.285009623
0.965591252 0.436305940 0.298671693
0.991903722 0.448323458 0.321821600
0.998987854 0.463503867 0.342061847
0.249082729 0.300442725 0.156989008
0.246046871 0.308539242 0.156989008
0.249082774 0.308412731 0.152814522
0.249841988 0.304111511 0.151043743
0.258949786 0.306767941 0.153700009
0.274130195 0.307020903 0.158380687
0.288298577 0.308539242 0.163440675
0.295762241 0.308539242 0.164831996
0.312460274 0.307780147 0.164073095
0.328905463 0.308285773 0.162808269
0.346110106 0.311322123 0.162808269
0.363314241 0.316382229 0.160784006
0.384566635 0.317520589 0.161163732
0.408222735 0.322707057 0.163440794
0.436811954 0.331309497 0.169513255
0.471220583 0.343074054 0.169133455
0.503099203 0.352182448 0.175205454
0.540923119 0.360657752 0.178621247
0.577355981 0.366730183 0.183554977
0.612523556 0.377609164 0.190638915
0.653889894 0.382922232 0.199746996
0.689563334 0.394687235 0.206957862
0.725110769 0.402783245 0.212397009
0.762302101 0.409993619 0.224541515
0.795951545 0.418595761 0.234408289
0.832384288 0.423023492 0.244908333
0.865907848 0.433902502 0.258064508
0.900822401 0.446046889 0.277798682
0.931688547 0.450221658 0.291081369
0.960784078 0.458570451 0.306768119
0.988614619 0.470714480 0.324984252
1.000000000 0.484756261 0.345097989
0.250979990 0.327387273 0.163060993
0.250221372 0.336116403 0.164199650
0.253636986 0.340797007 0.161036998
0.261986017 0.339405656 0.158633634
0.268058091 0.334092647 0.157874644
0.280961573 0.336369365 0.160910651
0.293864667 0.337128311 0.165843993
0.308665633 0.338519990 0.167488649
0.317014545 0.340038002 0.168247551
0.334850997 0.338140160 0.165970832
0.351929098 0.339784861 0.168121651
0.370145649 0.342568010 0.168374375
0.389500290 0.347501636 0.164199635
0.411258668 0.350790292 0.170018673
0.438583046 0.356862813 0.175205827
0.471979588 0.366603613 0.176344186
0.504617155 0.377229810 0.178241551
0.538013518 0.386338055 0.186084941
0.573940337 0.392915994 0.186591014
0.609867036 0.403415650 0.192157015
0.647817492 0.412144363 0.200126737
0.688298285 0.416192621 0.207210869
0.721695364 0.427957147 0.216192007
0.758127928 0.435041279 0.228336811
0.794180930 0.443390280 0.241619349
0.830107331 0.452245623 0.252118677
0.866540134 0.458823711 0.264263451
0.898165882 0.470335275 0.281214625
0.928525925 0.475648463 0.295255989
0.958886325 0.483997583 0.313219398
0.984819591 0.494370610 0.328779608
1.000000000 0.506008625 0.346236646
0.252498060 0.363820046 0.168880031
0.254775435 0.367615432 0.171916425
0.260721058 0.368880302 0.171157256
0.269323051 0.370145202 0.171157196
0.279949069 0.367489040 0.172549039
0.286021858 0.367489040 0.166477039
0.295129687 0.365464777 0.168247730
0.308918387 0.364326060 0.167235672
0.326122940 0.365085095 0.166223943
0.341302544 0.371157110 0.169259548
0.356735915 0.371663064 0.174699694
0.373940498 0.371663064 0.178241774
0.393295646 0.372801691 0.178620994
0.415054023 0.375838012 0.173308030
0.442378402 0.381909996 0.176344410
0.473497778 0.389879823 0.179127231
0.504364133 0.398988187 0.183427989
0.532700539 0.408096462 0.189373583
0.566097021 0.417204082 0.192409977
0.604807079 0.426565439 0.198482037
0.644275725 0.435673743 0.206198737
0.682732284 0.443770051 0.213535905
0.719038486 0.449842066 0.216824532
0.749525785 0.458823919 0.228842810
0.784693539 0.467931747 0.245034993
0.822011590 0.477039695 0.260973990
0.860721111 0.485895067 0.273371100
0.897153854 0.495003432 0.285515875
0.928272963 0.501201987 0.300569206
0.959645331 0.510815978 0.320809424
0.984060585 0.522454083 0.341682643
0.999240994 0.528526068 0.350791037
0.270714819 0.400252789 0.171916410
0.264642835 0.412396789 0.174952805
0.275522172 0.401138365 0.177988634
0.287539810 0.397469819 0.182289571
0.297786266 0.400885373 0.187476411
0.295129448 0.400885373 0.175585404
0.308791906 0.403415710 0.179633409
0.322707117 0.405186504 0.175205410
0.337760985 0.406071901 0.170271665
0.350410908 0.404554248 0.178367928
0.368501157 0.407716364 0.178494409
0.386084795 0.408095807 0.177735835
0.405439645 0.409234434 0.178241774
0.427198023 0.412270755 0.179380029
0.454522401 0.415306360 0.182416409
0.477039784 0.418975204 0.183048993
0.506894171 0.426312596 0.185199216
0.538393140 0.435420811 0.190132573
0.569133401 0.444528461 0.198481977
0.605313122 0.456420124 0.207084358
0.644275725 0.466034055 0.213662401
0.682732284 0.474130213 0.220366985
0.719038486 0.480202794 0.225932911
0.752434909 0.486274809 0.235041320
0.789753437 0.495256126 0.247058988
0.825806677 0.504364073 0.263250977
0.860468090 0.512966394 0.279696047
0.894117415 0.519291401 0.294623464
0.925237238 0.523086786 0.312081218
0.962681711 0.532068312 0.331435978
0.989373803 0.546868980 0.353320986
0.990132570 0.564958811 0.372043401
0.279316992 0.439089388 0.182162985
0.275648206 0.444022596 0.182795584
0.280328989 0.445414364 0.179380193
0.292473346 0.437318236 0.185451999
0.303858548 0.440354049 0.193042204
0.312966675 0.434281796 0.180898190
0.320303321 0.441619098 0.186337993
0.330550015 0.441366494 0.185831994
0.344212383 0.442884326 0.180518493
0.359645784 0.443137258 0.189626470
0.377608955 0.445920527 0.185198992
0.397849470 0.446932405 0.187223256
0.417583615 0.446932405 0.186084986
0.438836038 0.448703557 0.187855765
0.461859405 0.451739162 0.190891609
0.486780584 0.454775423 0.189120993
0.512586772 0.456293613 0.192156985
0.544465125 0.462745368 0.196078390
0.574826002 0.471853435 0.201644793
0.610752702 0.481340706 0.213156343
0.645287693 0.493484974 0.222264737
0.682732284 0.502087057 0.227830663
0.719291508 0.508286238 0.232763976
0.757241905 0.516634941 0.244149089
0.790638804 0.522706985 0.257811487
0.825679958 0.533080161 0.272865325
0.858064353 0.542694628 0.290575504
0.891461194 0.548766613 0.305755407
0.929411650 0.552181780 0.321188837
0.956230402 0.562302113 0.346489549
0.985199392 0.575964332 0.369639575
0.988234997 0.594180763 0.390891999
0.283871204 0.478558183 0.192789197
0.288424999 0.481593788 0.195825189
0.290954769 0.478810757 0.193042383
0.300063133 0.478305161 0.188235208
0.308791995 0.481340826 0.199114189
0.320556730 0.476786435 0.196078166
0.330676854 0.478304505 0.189500123
0.344212174 0.482352704 0.196458191
0.352561265 0.480835080 0.191904187
0.370018959 0.483870894 0.198734894
0.388235360 0.483870864 0.199367389
0.408475637 0.484882981 0.197849452
0.429728031 0.484882981 0.199747190
0.450980425 0.484882981 0.199494153
0.472232759 0.486653745 0.199999779
0.497406781 0.488171786 0.201264992
0.520177364 0.495762378 0.199747190
0.549904943 0.494497389 0.205186620
0.579380214 0.499178141 0.208222777
0.613788724 0.509804010 0.216571808
0.648323715 0.519291580 0.226818532
0.683744371 0.530423403 0.236938789
0.720683157 0.537255049 0.242124990
0.758759916 0.547754645 0.257052392
0.793674827 0.553067386 0.266919464
0.827071667 0.559139371 0.282099843
0.857052207 0.570018947 0.300696045
0.888425112 0.576090991 0.317899942
0.924098551 0.582542539 0.333080202
0.957748175 0.592662513 0.354079336
0.981151402 0.605186343 0.380898178
0.992789209 0.618469179 0.401518196
0.290702403 0.517394125 0.205060124
0.299683988 0.519164741 0.207336992
0.304743826 0.518911719 0.206957772
0.309677154 0.516002297 0.205186814
0.319164991 0.518279552 0.202909529
0.325742990 0.520809174 0.214294583
0.334977895 0.521315098 0.206198245
0.349019557 0.521947682 0.201264828
0.366476655 0.522074223 0.205819413
0.381657034 0.525110602 0.205819413
0.401012123 0.522959828 0.211638406
0.420620233 0.521947682 0.214294985
0.441872627 0.522580087 0.213662416
0.463631004 0.522327125 0.213662416
0.485642344 0.521947682 0.211005569
0.510436773 0.522580087 0.213409379
0.535357594 0.526122332 0.214927569
0.557875097 0.537002087 0.214927569
0.585199594 0.530930102 0.217963189
0.617457390 0.539658546 0.223782137
0.650221288 0.549272656 0.231751710
0.683744371 0.557748377 0.241239563
0.723086953 0.566982567 0.253383547
0.759518981 0.579127312 0.270588219
0.793042243 0.585072815 0.280328989
0.826439083 0.589500129 0.291840643
0.858823657 0.596078217 0.307021052
0.886148036 0.602276683 0.328020424
0.919417739 0.609740317 0.345224798
0.951043367 0.621125698 0.365717888
0.978115022 0.634282112 0.388867587
0.999367416 0.640354156 0.407084405
0.311954021 0.553826988 0.229348928
0.308918417 0.550790608 0.217204183
0.309298038 0.556862831 0.213029802
0.312081009 0.560911000 0.212523863
0.319165021 0.560784459 0.215053558
0.331309021 0.557748020 0.218089953
0.342947662 0.557747960 0.216824666
0.358127981 0.559392691 0.214420989
0.375585079 0.561416984 0.214927047
0.390765458 0.561543465 0.214927047
0.414673954 0.561670005 0.220746040
0.434408545 0.561416984 0.224794298
0.454016656 0.562555313 0.225300357
0.475775033 0.564832032 0.222770050
0.503099382 0.561796427 0.222770050
0.525110781 0.563820183 0.227324635
0.548386931 0.565084994 0.230107993
0.573054731 0.567362249 0.230107993
0.600380003 0.573434949 0.230107993
0.630486965 0.575711608 0.235926956
0.661100507 0.581404030 0.243896186
0.691714287 0.587729096 0.253004104
0.723086953 0.594307065 0.262491941
0.759518981 0.606451809 0.274635971
0.791397572 0.614041984 0.285009325
0.823402643 0.619860947 0.299430639
0.855787218 0.626439035 0.319165081
0.883112311 0.635547400 0.334345460
0.918405890 0.639089048 0.355344802
0.951043367 0.646173239 0.377861917
0.977862000 0.655787587 0.401264578
0.996331036 0.664642990 0.422264069
0.316508353 0.584693015 0.234155640
0.319038749 0.587223351 0.230360940
0.322454363 0.586337745 0.228968933
0.327514231 0.588488221 0.228463024
0.335104108 0.587349594 0.229221910
0.342441738 0.589120805 0.227451295
0.357115418 0.588614762 0.233017355
0.371157378 0.586970031 0.230740011
0.387476087 0.587729156 0.230360463
0.402656496 0.589753389 0.232384726
0.423782349 0.595319390 0.229854360
0.444022864 0.593295693 0.229854614
0.463377982 0.593675077 0.232511356
0.484883338 0.596710742 0.234914675
0.509677410 0.598735154 0.237444371
0.534598589 0.600505948 0.244655177
0.554712355 0.602023721 0.248071015
0.576470494 0.602656305 0.247438431
0.601644993 0.606578350 0.245287657
0.631752014 0.604300976 0.250854343
0.662112474 0.609234393 0.253131360
0.694497287 0.615306616 0.259582579
0.728526473 0.621379077 0.268943489
0.762302339 0.628210187 0.283744365
0.794180930 0.635800421 0.298165619
0.827324688 0.641872346 0.311069012
0.861606717 0.648450434 0.329032362
0.891207933 0.657558799 0.346489429
0.915876269 0.669323385 0.361669838
0.946489453 0.676280975 0.382669181
0.974952579 0.683618128 0.407716513
0.998861372 0.688930988 0.434661716
0.325236976 0.624541163 0.248576730
0.328273386 0.625679851 0.243643373
0.333459973 0.630360484 0.246805951
0.338267148 0.626565337 0.242251575
0.346868932 0.623782039 0.241366088
0.357495129 0.629854441 0.248956665
0.371157408 0.626565456 0.245920733
0.383048445 0.628210187 0.251992732
0.398481756 0.626438916 0.250474483
0.414800465 0.628336668 0.252372235
0.432004869 0.630487204 0.249588862
0.455028504 0.634281993 0.252245247
0.474383622 0.631246388 0.250347972
0.496142000 0.632764161 0.255155027
0.522074699 0.635800123 0.261480063
0.542567849 0.636938691 0.263630539
0.568374395 0.639974654 0.266666561
0.590259075 0.639721632 0.267552137
0.617077947 0.640227675 0.268311232
0.639342487 0.641492844 0.269829452
0.667805195 0.642251492 0.272106737
0.696141720 0.646299481 0.273118615
0.728905737 0.650600970 0.280708224
0.762302160 0.656672955 0.295888633
0.793421805 0.662745476 0.311069012
