Assets/EldamarStudio/100 Retro LUTs Pack/LUTs/cube/Vickie LUT.cube
LUT_3D_SIZE 8
DOMAIN_MIN 0.000000 0.000000 0.000000
DOMAIN_MAX 0.903226 0.903226 0.903226
0.156863004 0.113724999 0.105881996
0.213662550 0.129411995 0.125489995
0.289310992 0.137254998 0.134850994
0.383934289 0.139532000 0.135609999
0.510816157 0.155092001 0.149652198
0.659962237 0.178241730 0.172295988
0.801518261 0.212396994 0.202909291
0.936369658 0.265527993 0.241998971
0.193674996 0.166603550 0.125869542
0.214042008 0.162681550 0.129411995
0.290828884 0.175205544 0.140796542
0.386338085 0.183807641 0.138393357
0.514357746 0.200252742 0.159139812
0.657938480 0.225933015 0.172295988
0.806451797 0.263251305 0.205566019
0.937001586 0.304111511 0.255154967
0.218722194 0.232764095 0.146615997
0.235167995 0.226818636 0.145857096
0.288424999 0.228842080 0.142694190
0.380012274 0.250727087 0.153700098
0.500569344 0.279696196 0.164579093
0.648576438 0.310942084 0.186843634
0.801518261 0.340923160 0.221758187
0.933206737 0.377609164 0.267425716
0.250979990 0.327387273 0.163060993
0.268058091 0.334092647 0.157874644
0.317014545 0.340038002 0.168247551
0.389500290 0.347501636 0.164199635
0.504617155 0.377229810 0.178241551
0.647817492 0.412144363 0.200126737
0.794180930 0.443390280 0.241619349
0.928525925 0.475648463 0.295255989
0.283871204 0.478558183 0.192789197
0.308791995 0.481340826 0.199114189
0.352561265 0.480835080 0.191904187
0.429728031 0.484882981 0.199747190
0.520177364 0.495762378 0.199747190
0.648323715 0.519291580 0.226818532
0.793674827 0.553067386 0.266919464
0.924098551 0.582542539 0.333080202
0.325236976 0.624541163 0.248576730
0.346868932 0.623782039 0.241366088
0.398481756 0.626438916 0.250474483
0.474383622 0.631246388 0.250347972
0.568374395 0.639974654 0.266666561
0.667805195 0.642251492 0.272106737
0.793421805 0.662745476 0.311069012
0.921188831 0.694370747 0.377608806
0.420493275 0.783554554 0.360657543
0.434914529 0.778241694 0.357242525
0.472232550 0.779253840 0.359898657
0.538140297 0.785831809 0.370777547
0.616445184 0.783301711 0.374699265
0.717393994 0.789753318 0.389373809
0.815559566 0.793674827 0.406072259
0.921695054 0.805186689 0.451739550
0.544212639 0.914231598 0.511701584
0.560025394 0.910183787 0.509171546
0.580012560 0.910309613 0.505123436
0.633776009 0.912839949 0.515496373
0.696141601 0.915243447 0.530423582
0.773687422 0.919924021 0.543073595
0.856040418 0.918406188 0.547375023
0.940290630 0.923339844 0.567994535
0.191397995 0.133332998 0.154459000
0.213283002 0.130170986 0.150917456
0.277925551 0.149778903 0.169765547
0.347501636 0.162681550 0.176344097
0.473244995 0.179886445 0.195192903
0.626692176 0.206072181 0.222517282
0.782669485 0.238077089 0.258191109
0.923086643 0.291587502 0.304996818
0.205060467 0.166224003 0.157242462
0.236053005 0.166982993 0.165844560
0.271221012 0.175585002 0.173687443
0.358507633 0.192409545 0.184566543
0.479443401 0.215559900 0.204301268
0.630613446 0.241745546 0.232005283
0.775584996 0.270208985 0.252624840
0.912080944 0.314357907 0.299810231
0.237571090 0.223403096 0.178368449
0.252877623 0.223782539 0.177988902
0.286527544 0.221758187 0.177988902
0.359646082 0.246426448 0.188108996
0.477419525 0.277293086 0.206451535
0.626692116 0.312207550 0.231119469
0.786843956 0.350284487 0.265907735
0.924098492 0.390765339 0.320429862
0.265022010 0.327893734 0.194307283
0.277546018 0.327514201 0.201138452
0.320176631 0.329411745 0.200632289
0.385199547 0.336116284 0.197849557
0.496015280 0.369766086 0.215812638
0.628969431 0.409740567 0.246046990
0.771283865 0.441745579 0.279569894
0.909171462 0.475015640 0.330423564
0.295509189 0.470335037 0.227830365
0.313092828 0.470841169 0.237065360
0.362049192 0.471852928 0.232257932
0.428209841 0.478937536 0.237824440
0.518152833 0.485515356 0.242758185
0.638456583 0.512966335 0.261985809
0.779759347 0.551169991 0.301454991
0.915622950 0.584566653 0.369259804
0.334977537 0.623023033 0.284630030
0.360278457 0.622643471 0.286401004
0.405313015 0.623908997 0.288804263
0.474383622 0.630233884 0.294876635
0.565338552 0.633269966 0.300189644
0.666540265 0.639089286 0.310815990
0.789499998 0.663124919 0.349525809
0.917393982 0.699936688 0.415686369
0.425300300 0.778367877 0.390385658
0.445034802 0.781530738 0.391397834
0.485135823 0.781783760 0.395825356
0.548260570 0.779759884 0.400505722
0.627071559 0.783048928 0.411891192
0.714610994 0.784313619 0.413409054
0.805818856 0.785831809 0.426565379
0.911954343 0.799114347 0.471979916
0.551928997 0.910563231 0.533586323
0.569259763 0.913852036 0.536748886
0.593042493 0.908539057 0.537887335
0.638583183 0.911954343 0.540164351
0.700442791 0.915876210 0.545350790
0.773181498 0.916382074 0.561543345
0.859076381 0.921568334 0.571789801
0.942947447 0.926122308 0.584693372
0.200759098 0.141935095 0.231878281
0.230107546 0.145098001 0.224541545
0.283744097 0.151296899 0.218722194
0.349019647 0.166983008 0.229601175
0.464642555 0.192030087 0.259456009
0.601138711 0.226818725 0.295383096
0.748134077 0.270841092 0.340796888
0.898291767 0.338140160 0.395192921
0.221884996 0.178747892 0.211258650
0.243010998 0.183048546 0.198988095
0.276280642 0.183428094 0.209234998
0.351043373 0.199873284 0.230739728
0.459455937 0.227703825 0.265275419
0.595825672 0.264136881 0.301328331
0.741935551 0.300695807 0.337508112
0.887665987 0.358760089 0.386337608
0.239848182 0.224161997 0.215433195
0.261480451 0.235926986 0.214674205
0.304870099 0.249968082 0.238204092
0.356103659 0.255787551 0.240481094
0.459076434 0.282732189 0.269449979
0.600505769 0.318405867 0.309803754
0.752814770 0.366603404 0.351676106
0.896268010 0.421758324 0.409107983
0.275901198 0.323592365 0.254395753
0.297153890 0.320430189 0.257431746
0.331562102 0.331056654 0.260088384
0.379632831 0.336116284 0.262492180
0.476027846 0.364705712 0.280455291
0.602277398 0.405313134 0.315623194
0.752688408 0.446426362 0.358127803
0.890069366 0.492346436 0.415686250
0.319923908 0.462871552 0.296774268
0.332068354 0.458570808 0.302340269
0.366729915 0.462871552 0.303099275
0.427071184 0.467552274 0.304743975
0.503732085 0.473118365 0.311828077
0.622390807 0.507147551 0.343453735
0.765591502 0.552435219 0.386211395
0.895002961 0.594433784 0.445667148
0.363946736 0.615180194 0.360657722
0.378747523 0.612017870 0.357748181
0.415939182 0.613662124 0.364073366
0.485009462 0.617204189 0.370525092
0.562428653 0.623022974 0.375838071
0.657685161 0.626945019 0.384566486
0.777482688 0.661606848 0.418343097
0.904111326 0.703984857 0.485515475
0.450221568 0.771031082 0.447944283
0.474256784 0.768374562 0.461227238
0.508918464 0.772422552 0.461859643
0.560404897 0.774446547 0.466287106
0.628210187 0.775585115 0.471347362
0.707021058 0.775964618 0.470461547
0.803162396 0.782669365 0.486148179
0.907400429 0.797469676 0.527767241
0.581403852 0.907020867 0.585452139
0.593421698 0.905123413 0.578873992
0.608855009 0.907147467 0.580265403
0.652625144 0.912460566 0.587855577
0.714104652 0.915243447 0.592662692
0.778368056 0.914104819 0.604174674
0.856925607 0.919038355 0.612523675
0.935736775 0.925110698 0.631498873
0.223023638 0.156356648 0.343074292
0.248450190 0.155597553 0.330550283
0.310689628 0.163440645 0.319038630
0.374952614 0.173687637 0.311701268
0.471600175 0.196711197 0.335231066
0.598734915 0.228336632 0.371663541
0.748893261 0.283111900 0.417077929
0.881846786 0.371410608 0.478558004
0.248197556 0.201011643 0.318026274
0.261353552 0.209740549 0.302973181
0.308791995 0.208096549 0.303099275
0.368627548 0.205692649 0.305882603
0.461353362 0.229980737 0.333333522
0.593421876 0.268690884 0.373181731
0.738013804 0.325489908 0.426059276
0.869955659 0.399620622 0.484756351
0.265781105 0.257811189 0.302593738
0.272232711 0.259708822 0.305503070
0.322074413 0.268817186 0.310942292
0.372928262 0.269070476 0.314105183
0.461353451 0.297660083 0.338267177
0.584693074 0.338393301 0.389626652
0.730803430 0.392662734 0.442504585
0.870588422 0.458570600 0.504743576
0.279696286 0.326755285 0.318911999
0.305755913 0.332195073 0.316508174
0.351170093 0.351422727 0.337634206
0.420366645 0.383934289 0.367741913
0.487286389 0.388235480 0.376343906
0.600000262 0.420999527 0.408475608
0.730423927 0.467552274 0.448576868
0.861733139 0.523845434 0.509045064
0.326375544 0.461353362 0.368880391
0.351929188 0.462112576 0.383048475
0.391777247 0.467931747 0.390891999
0.439848006 0.474636376 0.390385807
0.508791685 0.479696542 0.396584719
0.616951227 0.510689318 0.425300360
0.746742487 0.555344462 0.480708450
0.879949391 0.611764908 0.535736680
0.394307733 0.602150559 0.444402009
0.410499394 0.601518214 0.442883909
0.444149196 0.603036225 0.446679085
0.495762378 0.609361470 0.448703378
0.567868352 0.614547908 0.456926107
0.647817492 0.626691997 0.469070256
0.760657609 0.659582376 0.503478527
0.886021435 0.707020819 0.565970719
0.484376937 0.757242143 0.538140595
0.503478527 0.761416852 0.532827139
0.527387619 0.760278165 0.533206522
0.575205922 0.761796176 0.540417254
0.638962984 0.768121123 0.542694569
0.710689485 0.770651579 0.552688181
0.793674529 0.776344240 0.559518933
0.892220140 0.803036213 0.598608077
0.607210517 0.902719617 0.637697756
0.618216395 0.902087033 0.641745806
0.635040998 0.903352201 0.642125249
0.672738433 0.903731763 0.641239643
0.721189141 0.906514823 0.653763652
0.788108647 0.912839949 0.659076691
0.856925666 0.913978577 0.667425752
0.931055903 0.920682907 0.686021626
0.249209374 0.175584987 0.482479185
0.282985389 0.181024805 0.477292717
0.344086111 0.188108891 0.469070286
0.421252429 0.197849557 0.464516163
0.492726386 0.209107980 0.451992184
0.608096242 0.240101248 0.472991467
0.750537276 0.296014994 0.513852000
0.885009766 0.383933991 0.561543167
0.269196540 0.235420540 0.465907365
0.299051523 0.233143538 0.461986363
0.347122073 0.237824440 0.460088700
0.413282722 0.240986541 0.449209630
0.491081476 0.250727385 0.446932644
0.603542030 0.277798742 0.470841378
0.742188275 0.331309170 0.510309935
0.869576395 0.409361035 0.563061357
0.292346984 0.302340180 0.431499362
0.313092738 0.303605497 0.435420573
0.353447050 0.303858161 0.437065303
0.406957835 0.305123419 0.431499183
0.478684276 0.313346088 0.437065274
0.594054103 0.345730633 0.468058020
0.735610366 0.404807270 0.519924223
0.861733317 0.483491808 0.575079024
0.307906181 0.378494382 0.433143586
0.334724903 0.373181820 0.437444717
0.374193549 0.387729257 0.440227568
0.434029192 0.401138484 0.454775631
0.499430805 0.412903190 0.455028385
0.602783084 0.444402099 0.489816606
0.722833574 0.490196258 0.536116064
0.850221157 0.554079831 0.596458077
0.337002218 0.465907574 0.453510374
0.358886987 0.471979707 0.452371746
0.398735285 0.478558183 0.464389563
0.474762976 0.503984690 0.487160265
0.560278416 0.533459544 0.521695197
0.629474878 0.544465423 0.529664457
0.737381399 0.576597214 0.563440919
0.863250911 0.633902431 0.621378958
0.410752922 0.605818927 0.517647386
0.427197814 0.603921592 0.515622973
0.468690842 0.607084274 0.524224997
0.530802906 0.620366454 0.544718623
0.585958183 0.623908758 0.549778521
0.653763533 0.629728377 0.553067446
0.758760035 0.671726823 0.591271222
0.873877347 0.715369880 0.645034850
0.525490105 0.752941072 0.602403462
0.533965886 0.754332721 0.609234750
0.560657561 0.756736577 0.611638367
0.594180822 0.757874966 0.616445184
0.651612639 0.767741680 0.619734406
0.716255188 0.769765794 0.626691997
0.785831809 0.772422552 0.630613565
0.886401057 0.804174542 0.674762666
0.632510781 0.898671448 0.707526803
0.632258356 0.897533119 0.704491019
0.657938063 0.896900356 0.704870343
0.688804567 0.902466595 0.708665431
0.732321382 0.905249953 0.714231133
0.794307292 0.908159554 0.720050812
0.854902029 0.912333846 0.729664743
0.930550277 0.915623009 0.737001657
0.286021471 0.217457250 0.640480697
0.315496534 0.217836797 0.636432707
0.384061098 0.228715986 0.629601598
0.461100638 0.240101337 0.626565456
0.555471182 0.254648983 0.615812480
0.650094450 0.272106707 0.606831491
0.756357014 0.305629730 0.615686476
0.884630024 0.399999976 0.655660927
0.294876546 0.273371071 0.619481266
0.332068563 0.276660085 0.617330670
0.386717439 0.278052002 0.621125638
0.460594356 0.285895169 0.613662004
0.542694569 0.292852372 0.605439603
0.632131696 0.301075339 0.596584678
0.738646269 0.338646740 0.599241138
0.869196832 0.414041638 0.646679521
0.331056327 0.358760178 0.608728409
0.350158274 0.360404909 0.590891838
0.396078438 0.356735915 0.593674541
0.462618738 0.362681985 0.594939888
0.545603931 0.366856724 0.593168736
0.629854381 0.377609074 0.587855697
0.743200600 0.412650377 0.611385167
0.866919816 0.489437163 0.665401816
0.356735826 0.435673714 0.583301485
0.376723260 0.436938554 0.582922220
0.421379089 0.446046740 0.581657052
0.476154387 0.447944283 0.579633474
0.548640072 0.451866239 0.582289875
0.617077470 0.455028355 0.579000831
0.726881564 0.492852747 0.613156497
0.848576903 0.560911000 0.661859214
0.388741195 0.531435668 0.591524482
0.409361005 0.531056225 0.590765297
0.450474381 0.532194793 0.589879513
0.511575043 0.545224369 0.598482013
0.583681405 0.556862473 0.603795171
0.649082899 0.563946486 0.613409400
0.741935253 0.595825672 0.644781768
0.857811630 0.649209380 0.698798239
0.426818460 0.618722498 0.597090244
0.447185278 0.608349025 0.602150440
0.485388726 0.618848383 0.597723007
0.542567790 0.628589749 0.617330432
0.616319001 0.656925976 0.639848113
0.693484962 0.677798986 0.666034460
0.766982555 0.694117486 0.678431451
0.873497665 0.731688678 0.719797432
0.529032111 0.752309024 0.670588255
0.544971466 0.761163831 0.668184698
0.576850057 0.756736577 0.676786542
0.618089557 0.757115960 0.687412858
0.673877239 0.768247783 0.700316191
0.722327471 0.768121123 0.700695693
0.791903555 0.773687780 0.703732073
0.887412608 0.809867442 0.744338989
0.650600731 0.897153616 0.768121541
0.660088599 0.892979205 0.769765794
0.679316938 0.898544908 0.765464664
0.710815787 0.897786021 0.774952471
0.752561808 0.900695622 0.781783819
0.800632536 0.904996634 0.783048749
0.863124549 0.906641364 0.789121032
0.924730897 0.917140841 0.800505519
0.331308991 0.286527276 0.786464274
0.360025555 0.290195823 0.781910300
0.422138005 0.299810290 0.778747380
0.505629599 0.311195612 0.779126942
0.599241138 0.328779280 0.769386530
0.693611741 0.343326986 0.761164010
0.792030573 0.363946557 0.752182007
0.884123743 0.413156211 0.751675785
0.346869290 0.329285115 0.776976705
0.371916533 0.342315257 0.764326096
0.431245893 0.339911342 0.771790266
0.510815859 0.350031465 0.764705777
0.592915416 0.363567084 0.758760214
0.688298702 0.374572903 0.752055526
0.785325766 0.391524553 0.740290523
0.874256730 0.423529506 0.750158131
0.394687176 0.425300479 0.759392560
0.415180385 0.428336442 0.763567209
0.457558483 0.428336650 0.754585326
0.525616646 0.436179459 0.753700376
0.606451392 0.441619277 0.751423061
0.689437270 0.451107174 0.746616066
0.777229428 0.459456265 0.741808832
0.868564188 0.495635718 0.747754574
0.440227628 0.513598979 0.742188156
0.456925809 0.519165277 0.739026010
0.496394575 0.523086548 0.741429329
0.549398899 0.524225235 0.738266885
0.614800453 0.526881576 0.735989928
0.685768723 0.528526127 0.732067883
0.760151923 0.529285252 0.727640569
0.856546462 0.565338492 0.742694438
0.472359478 0.595319331 0.736242771
0.486780703 0.599241257 0.741303086
0.527134597 0.604680479 0.737001657
0.577609003 0.607969761 0.736369491
0.630613565 0.610246480 0.738772631
0.694117248 0.612650275 0.729664803
0.759013474 0.610120177 0.730170548
0.857432067 0.651486397 0.758886576
0.508033037 0.680328965 0.736369252
0.529032171 0.687286496 0.749525726
0.555723846 0.686907113 0.743579924
0.599620640 0.692219853 0.745730281
0.658443987 0.696521163 0.752309024
0.718912005 0.704870701 0.752688468
0.781151295 0.708665788 0.758001268
0.875521898 0.748893142 0.792789578
0.530297279 0.763946593 0.752814531
0.547754884 0.757368505 0.739784777
0.577356100 0.760657549 0.747375190
0.618216276 0.764579535 0.743200660
0.678431511 0.767741621 0.755977392
0.745604038 0.786970019 0.776597261
0.821125865 0.805439234 0.793674827
0.893231928 0.824920714 0.824920714
0.661732912 0.894244015 0.816445529
0.665274918 0.892473221 0.818216205
0.680455565 0.899557114 0.817583621
0.719417989 0.898165464 0.824667692
0.761036992 0.901960313 0.832511067
0.815686524 0.906514823 0.847185552
0.862997770 0.906894386 0.848323882
0.922327340 0.915369928 0.856546402
0.422643602 0.396584600 0.923339784
0.445920169 0.399494052 0.914484382
0.498165727 0.407716513 0.911574781
0.567868233 0.422137946 0.912966430
0.651360035 0.442504942 0.904996634
0.743832707 0.463756859 0.901074946
0.832637727 0.484376907 0.896774054
0.921947718 0.509044766 0.886653781
0.438582867 0.433649302 0.912460506
0.455661058 0.439848036 0.898798227
0.506261826 0.445161611 0.904870391
0.577229738 0.455028355 0.896647692
0.655281305 0.470461488 0.902213573
0.741555691 0.483364761 0.896774054
0.828209996 0.501075029 0.886527479
0.916634798 0.523339748 0.879190385
0.499430716 0.519924104 0.897532880
0.520430028 0.523086429 0.900316358
0.548134089 0.531688690 0.904237509
0.602530003 0.535103917 0.896268129
0.672106326 0.542441607 0.896520853
0.751423180 0.550031781 0.889816701
0.830866396 0.560657442 0.886527598
0.914104819 0.576723814 0.881467581
0.549652278 0.607337117 0.882858574
0.559519291 0.609614193 0.890069544
0.588614583 0.613029599 0.889184117
0.629981041 0.614421308 0.886907160
0.688172042 0.616951227 0.884124041
0.752055466 0.620872974 0.876660526
0.825426936 0.623782039 0.874383450
0.901960611 0.627957106 0.874256611
0.575205564 0.679569781 0.881340802
0.596078396 0.687286556 0.885641992
0.622264326 0.692093670 0.885262549
0.661859453 0.693990946 0.882099867
0.709550798 0.692852557 0.877419412
0.765338480 0.697533011 0.877039850
0.826944828 0.697153866 0.873624623
0.899936616 0.703352153 0.877292633
0.612776518 0.758127809 0.889310658
0.622770429 0.760784566 0.891207993
0.646679163 0.762681663 0.889057398
0.680708587 0.765338480 0.884376824
0.726122677 0.769639075 0.880202472
0.782289684 0.770524681 0.884250700
0.838330269 0.770777881 0.877672374
0.902972698 0.776217401 0.879443407
0.634661555 0.833143353 0.890701950
0.642504871 0.833143473 0.885895073
0.665022075 0.833143592 0.887666225
0.697280228 0.834787786 0.885641992
0.742314756 0.835294008 0.888804495
0.793421805 0.837571263 0.884376943
0.850474358 0.842251956 0.894750237
0.905629516 0.854775250 0.895129740
0.668437779 0.911574781 0.891966760
0.677925169 0.911574781 0.899683714
0.699430704 0.912839949 0.892725825
0.729917586 0.910436392 0.896394730
0.768121421 0.904996634 0.896141410
0.819607615 0.910815895 0.894623816
0.873371303 0.914484382 0.909804165
0.931055903 0.932447612 0.916634798
