Assets/EldamarStudio/100 Retro LUTs Pack/LUTs/cube/Wanda LUT.cube
LUT_3D_SIZE 8
DOMAIN_MIN 0.000000 0.000000 0.000000
DOMAIN_MAX 0.903226 0.903226 0.903226
0.168626994 0.137254998 0.129411995
0.208981559 0.137254998 0.129032448
0.291587889 0.137254998 0.125489995
0.406957626 0.137254998 0.127134994
0.572422385 0.134851187 0.123086803
0.748260438 0.131309256 0.107906260
0.884882987 0.135610282 0.098039001
0.993547976 0.143832833 0.087539844
0.173308000 0.182289541 0.128652990
0.216824546 0.178747997 0.129032448
0.295888633 0.183048546 0.131815091
0.416825086 0.188868001 0.124351643
0.571031153 0.196710899 0.115749359
0.734598160 0.206199005 0.104490809
0.871853292 0.203036100 0.091587745
0.989879608 0.206578553 0.081340887
0.201517999 0.266413987 0.127134904
0.240227640 0.274257004 0.121568903
0.315749288 0.279696196 0.116128996
0.453257620 0.298924625 0.110689096
0.604807258 0.314990193 0.091840900
0.760025442 0.318532526 0.076912999
0.897406280 0.319038481 0.073118292
0.997216821 0.318026274 0.067931846
0.224161997 0.426818192 0.065907367
0.269829541 0.436812282 0.071474075
0.363314390 0.440354019 0.071094625
0.482732624 0.441239923 0.054648727
0.626944840 0.454269469 0.035799921
0.762302399 0.448830187 0.029348621
0.882858813 0.443390280 0.029095713
0.992156625 0.436812103 0.044149153
0.248576805 0.601012170 0.001518192
0.301454723 0.607716799 0.001518192
0.393422008 0.607337356 0.002403808
0.517267287 0.599493980 0.000379548
0.646552980 0.600379348 0.000000000
0.776217520 0.591271400 0.001518192
0.898165524 0.575964391 0.000000000
0.998734832 0.573181331 0.046932410
0.290069997 0.760658026 0.001897740
0.339152545 0.759266376 0.000000000
0.423908859 0.759392560 0.001138644
0.538393319 0.752434969 0.004048004
0.663883567 0.746869206 0.003415545
0.789500237 0.738646686 0.004048004
0.906768262 0.724098444 0.000000000
0.998734832 0.711575031 0.090955168
0.332953691 0.851866245 0.000000000
0.372548819 0.867172718 0.004681000
0.441999018 0.862112463 0.009867087
0.544718266 0.863630295 0.018216563
0.651107013 0.859709263 0.026565457
0.780771315 0.849968493 0.039848093
0.900568962 0.844022810 0.066160835
0.996204793 0.825680137 0.152308613
0.418722600 0.970271945 0.225553408
0.440860242 0.981277585 0.244402602
0.501454949 0.979379773 0.251486599
0.579506814 0.977229655 0.252751410
0.678051770 0.972675443 0.263756961
0.787729263 0.967615783 0.280961275
0.899557412 0.962428629 0.291714042
0.993421853 0.959771752 0.328779578
0.168626994 0.141176000 0.169006541
0.205819458 0.137634456 0.162302107
0.284882635 0.140417099 0.166224003
0.409740269 0.131435454 0.161163643
0.570524931 0.122454099 0.156862810
0.741176486 0.113345742 0.149904817
0.877166271 0.114231266 0.144718260
0.994939983 0.120050907 0.129791260
0.177230000 0.174066991 0.163947016
0.214041993 0.185831994 0.162681550
0.293485552 0.179127440 0.162302092
0.416445553 0.180645451 0.159266114
0.562302351 0.185831904 0.150537997
0.723592699 0.192536354 0.143073544
0.864642859 0.190891549 0.131056085
0.988487959 0.187982082 0.132321090
0.186211452 0.270335197 0.154079556
0.245414108 0.268311530 0.154459089
0.312966645 0.275395572 0.152561456
0.447312176 0.291081756 0.142694101
0.600885510 0.301581085 0.139911443
0.748639941 0.306388080 0.129791453
0.878304541 0.306008637 0.125743255
0.992283285 0.309424102 0.123845898
0.209740549 0.419101804 0.122833453
0.261733204 0.424288362 0.125996366
0.347628206 0.421125442 0.119671360
0.469702423 0.428589910 0.118912362
0.613156438 0.438077033 0.104743645
0.748007476 0.438709378 0.106641099
0.879822850 0.432764024 0.107147187
0.989626586 0.431752294 0.118532345
0.240860015 0.584566593 0.054649360
0.282100201 0.588867843 0.048450265
0.380391836 0.593169034 0.054649264
0.503478706 0.588867843 0.052751809
0.640606999 0.590512633 0.047564648
0.765211880 0.578621030 0.046805549
0.890575588 0.567741930 0.082605734
0.994560421 0.563693821 0.121821545
0.279949099 0.739911318 0.010373445
0.323971987 0.745730519 0.010246635
0.415812641 0.748766541 0.012523826
0.531436026 0.739785075 0.021631990
0.658317387 0.736242950 0.027324533
0.785958290 0.731182635 0.046173628
0.901454985 0.715116799 0.081720270
0.994939983 0.702973008 0.152055532
0.317773730 0.849715590 0.049209651
0.356356561 0.857937992 0.072232910
0.428462833 0.853384137 0.075268559
0.526248813 0.850600958 0.090449005
0.647311985 0.849462330 0.101328097
0.774699509 0.842378497 0.122580811
0.895382702 0.845667541 0.150157824
0.996204793 0.827071548 0.202150151
0.406578064 0.971284091 0.250600696
0.442631185 0.976217806 0.272865444
0.495382607 0.978620768 0.278937429
0.575205147 0.968754113 0.278304964
0.677672327 0.969133615 0.289310336
0.781530797 0.964073360 0.298038870
0.893485010 0.961543381 0.313599139
0.995192707 0.959139645 0.341176271
0.170904085 0.141176000 0.217078105
0.210879102 0.141176000 0.220999092
0.282100022 0.138013899 0.228083193
0.411637843 0.122074351 0.240607187
0.592283368 0.059329819 0.240607098
0.744338989 0.000000000 0.222264349
0.886401176 0.019607998 0.221126005
0.994939983 0.044781800 0.223909080
0.183934450 0.180391997 0.217837095
0.216445088 0.172042638 0.215053648
0.297786117 0.174446538 0.218596101
0.424288660 0.167868108 0.226439089
0.578874171 0.141176105 0.223023444
0.732447684 0.145983905 0.217837006
0.879949510 0.146995544 0.217457563
0.991777062 0.153953254 0.217710376
0.173308089 0.262492180 0.224921092
0.222264439 0.267932117 0.222517177
0.322833180 0.274257004 0.226439089
0.451739609 0.282099992 0.224921092
0.603289306 0.289184093 0.225679994
0.751549363 0.289184093 0.218596101
0.882353127 0.288424999 0.217077911
0.996204793 0.293738186 0.227830276
0.168247551 0.423908919 0.199999839
0.238709658 0.423149794 0.211511999
0.350917190 0.423149914 0.215433091
0.475648016 0.427071810 0.208728641
0.619481444 0.428336352 0.202276736
0.752434969 0.429981172 0.217204556
0.882479072 0.428969026 0.213662177
0.992030382 0.425806731 0.226691827
0.210879192 0.578241467 0.191144899
0.263251185 0.586084604 0.187982187
0.377103001 0.590133190 0.191145092
0.502719820 0.590891957 0.190765455
0.638709366 0.584566474 0.191271186
0.761669576 0.575584948 0.194560632
0.887918949 0.568121374 0.214547798
0.993801355 0.564579546 0.240354270
0.267552555 0.742820740 0.206704184
0.315875977 0.741808891 0.203542203
0.407590210 0.739785075 0.206324831
0.525110245 0.740670264 0.203794912
0.656167209 0.733080149 0.206704184
0.782036543 0.727261245 0.212903187
0.900189757 0.709677458 0.222643733
0.994939983 0.699304223 0.260594547
0.307906091 0.846426427 0.213156357
0.347501546 0.848071277 0.222390726
0.426312178 0.850348055 0.226186097
0.524225175 0.848323822 0.232511088
0.648070991 0.844781756 0.239342362
0.769513071 0.844022870 0.250600904
0.895129561 0.841745555 0.268184662
0.990891755 0.827451050 0.299557090
0.397217095 0.966603458 0.323465884
0.434788048 0.968500912 0.343327016
0.498419076 0.971031070 0.347880810
0.572802186 0.969892502 0.348386884
0.670461893 0.966729879 0.351423174
0.779759467 0.960530877 0.364452928
0.891714275 0.957495093 0.379506469
0.991777241 0.953826547 0.404553860
0.178747997 0.141176000 0.330170631
0.220999181 0.138519540 0.333333552
0.310309976 0.127893999 0.335610539
0.418722630 0.114231355 0.344718248
0.596584737 0.036306277 0.375332296
0.756862581 0.001138644 0.363693893
0.891081572 0.000000000 0.352561563
0.997469962 0.002403812 0.349778622
0.178114995 0.180392087 0.334092647
0.221505538 0.172548980 0.333713084
0.310689539 0.165844560 0.334092557
0.430993170 0.154459193 0.347881198
0.590638578 0.126755252 0.359266460
0.740796685 0.087159999 0.350663841
0.883997500 0.067678630 0.341302633
0.992915750 0.109803818 0.340670377
0.171537355 0.266793549 0.339911252
0.226312548 0.267172992 0.348892927
0.333207011 0.267552465 0.355724245
0.461985826 0.268437535 0.357748538
0.612650275 0.266034454 0.355217934
0.762555420 0.258570284 0.345856935
0.888424933 0.272991717 0.346236378
0.995066166 0.281973481 0.352941126
0.137760654 0.425553620 0.354964912
0.216445193 0.424794704 0.363820642
0.334092647 0.424794734 0.348387271
0.481594265 0.428336263 0.353826523
0.619607568 0.427197903 0.347248644
0.750158072 0.424920917 0.344085902
0.882226586 0.427071571 0.353193998
0.994939983 0.423782289 0.359519094
0.131056339 0.584945977 0.338013649
0.224414617 0.588867843 0.341302723
0.359772205 0.595699191 0.344338804
0.501581252 0.589373946 0.338393182
0.643010795 0.585831821 0.339531809
0.767741740 0.574825823 0.345857024
0.886401057 0.567362487 0.365085274
0.993548214 0.563440919 0.379380107
0.258697003 0.741556108 0.359266520
0.311954111 0.741429329 0.360404998
0.406325012 0.741429329 0.365591615
0.523086548 0.738267004 0.364326268
0.653383732 0.734345317 0.366729975
0.785705209 0.730929732 0.360404998
0.895762146 0.710436404 0.368754238
0.993042290 0.704490900 0.400506020
0.300442636 0.850727618 0.363693982
0.347627848 0.853510261 0.367741644
0.427577466 0.851992488 0.371284068
0.528399765 0.851233244 0.373307914
0.645793915 0.847058654 0.378241479
0.766477048 0.844781637 0.380518556
0.903478801 0.838456571 0.397596538
0.996204793 0.828969300 0.411385089
0.399240822 0.963946819 0.435800195
0.434787989 0.970525086 0.443263650
0.489436805 0.970272183 0.450094640
0.576976478 0.968754113 0.450980455
0.672865331 0.965591431 0.453004628
0.778874159 0.963567257 0.462365687
0.895888567 0.956229985 0.468058139
0.992915809 0.956229985 0.492220223
0.182795808 0.132447988 0.482479185
0.236812189 0.125110537 0.477039993
0.329917908 0.111448102 0.477039993
0.447564811 0.088930912 0.488298625
0.590512574 0.025553819 0.495762378
0.757115424 0.001518192 0.514484584
0.890322566 0.000000000 0.498292089
0.996204793 0.000000000 0.490069538
0.168880448 0.164958745 0.477419525
0.225426555 0.172675714 0.477419555
0.326375753 0.157242462 0.480581731
0.448830247 0.141682342 0.484882981
0.593421817 0.117520548 0.486021608
0.745477617 0.064010352 0.496647358
0.878051937 0.048703637 0.484629929
0.992409945 0.097280242 0.483617842
0.133586004 0.262492180 0.494244188
0.206704572 0.259203196 0.503732085
0.327640802 0.259329289 0.502972960
0.471727014 0.253890097 0.500948727
0.616698205 0.252372116 0.504617274
0.756989479 0.252245396 0.496394724
0.888678253 0.259203196 0.490449101
0.993674815 0.288804471 0.498165756
0.110562809 0.422138065 0.501960576
0.203035995 0.421379179 0.508286297
0.327387482 0.417836845 0.505882382
0.479822725 0.416192114 0.495255828
0.623656213 0.417709917 0.495762199
0.752941191 0.424415171 0.490196347
0.885894895 0.432257980 0.500063002
0.990891755 0.438962817 0.502846360
0.125869378 0.582289577 0.502973139
0.225300550 0.594054163 0.510942161
0.358001262 0.590133190 0.507906318
0.497659981 0.587729394 0.497533381
0.645035148 0.580771446 0.495129555
0.760531008 0.579506874 0.504996896
0.880835056 0.569766164 0.507526994
0.993421793 0.569639206 0.509930551
0.267298996 0.739279151 0.513978422
0.322453916 0.738772929 0.514104962
0.415433168 0.735863388 0.513472557
0.527261317 0.737128556 0.512080729
0.649083138 0.731182635 0.507400632
0.777102947 0.725743055 0.509297967
0.897785842 0.714737236 0.513472497
0.992915809 0.710689247 0.532700837
0.333586276 0.848956585 0.510183215
0.365085304 0.851107061 0.514737189
0.432005018 0.851992369 0.513346136
0.523339391 0.849588990 0.510942280
0.645667195 0.848830044 0.513219237
0.766476870 0.847944260 0.509424448
0.896521270 0.846426487 0.520809591
0.991650879 0.827830493 0.536242843
0.392283440 0.964832425 0.556609631
0.416824967 0.972296000 0.554206192
0.481214464 0.968247890 0.556862772
0.563187718 0.968754172 0.556736290
0.665275097 0.962049067 0.559772015
0.774446428 0.963693798 0.563693702
0.890701830 0.958127797 0.569892406
0.993168771 0.957621634 0.585198939
0.184313998 0.117773518 0.618975461
0.241745546 0.113093004 0.623023033
0.342061847 0.095888905 0.625300288
0.462618530 0.053004626 0.633396864
0.596837521 0.002024260 0.630866945
0.738266706 0.000000000 0.632511199
0.881594002 0.000000000 0.628463209
0.993674815 0.000759092 0.618848443
0.161922738 0.162808552 0.620999455
0.226059616 0.154459000 0.619228005
0.331688643 0.143200457 0.622264028
0.452878058 0.122707359 0.623782158
0.592915714 0.087666355 0.626185894
0.744718492 0.025680363 0.630233884
0.879569769 0.013409346 0.617963672
0.992409945 0.078558065 0.618469417
0.109424427 0.250727206 0.629601598
0.191271186 0.255407900 0.630866706
0.325363725 0.246299922 0.640480697
0.460341722 0.242504731 0.639468729
0.608981729 0.233016923 0.638330460
0.758886755 0.231372535 0.632131338
0.886653900 0.250221431 0.622517467
0.989879608 0.279190451 0.622643650
0.078051746 0.407589912 0.642757714
0.179886252 0.401644379 0.635800362
0.314357936 0.400885254 0.635800362
0.465907574 0.404807270 0.635167480
0.618469179 0.403289080 0.637950838
0.758760095 0.404807270 0.629728377
0.878684223 0.423656166 0.623402536
0.988361418 0.440101177 0.628210187
0.127640992 0.567741632 0.645793915
0.213535473 0.571916521 0.648576558
0.346615821 0.573434472 0.643137455
0.484503537 0.569513202 0.639974594
0.628842652 0.574699819 0.641113043
0.760025442 0.575079381 0.630613446
0.872612298 0.581657171 0.637444735
0.989626706 0.593421936 0.652751088
0.256546736 0.736875474 0.650474489
0.310942292 0.734218657 0.647185266
0.409740448 0.735863388 0.648070991
0.521821439 0.727640867 0.646299481
0.645793915 0.721821427 0.650221467
0.765970707 0.714990735 0.650221467
0.879063845 0.714611173 0.654522419
0.990891993 0.709044993 0.662618518
0.335610509 0.844022870 0.638709486
0.381783545 0.844402313 0.644655287
0.446553081 0.847058594 0.645414293
0.540164649 0.844276071 0.651739299
0.644655526 0.844655275 0.646299541
0.759519458 0.845920086 0.646679044
0.893358529 0.840733826 0.653889775
0.990765214 0.834155500 0.658317745
0.441492736 0.960404694 0.678178430
0.471093893 0.962681890 0.676786542
0.519923925 0.964832485 0.684882879
0.573181570 0.963187754 0.681087911
0.647311985 0.962302446 0.670461535
0.762808263 0.959771752 0.669576585
0.881594002 0.963946819 0.678937256
0.992409945 0.958506942 0.690954924
0.188235000 0.097407006 0.762934804
0.239974812 0.093991168 0.769765854
0.344971299 0.064516000 0.765464783
0.460088551 0.016065720 0.770651579
0.604048371 0.000000000 0.773181438
0.743959427 0.003922000 0.769765794
0.891714275 0.000000000 0.774067223
0.993674815 0.000000000 0.749146342
0.159266010 0.141808793 0.758886814
0.219987258 0.138899088 0.761037111
0.330676913 0.124857716 0.759139717
0.460720986 0.104491003 0.768880188
0.598608375 0.059203103 0.767994881
0.748640001 0.005692640 0.769639313
0.896141708 0.003542258 0.772169530
0.995825231 0.056040581 0.748133898
0.076786637 0.237444803 0.774193347
0.182921991 0.241113350 0.773308218
0.312207162 0.237444818 0.771663427
0.456546724 0.231498837 0.771283925
0.604174495 0.226439103 0.775711536
0.753194273 0.217710286 0.774825990
0.894750059 0.223782286 0.773181260
0.990132689 0.269955754 0.747754633
0.002783356 0.388488263 0.771790266
0.135230824 0.384060651 0.777356267
0.296268106 0.386843562 0.773434162
0.448956549 0.388994366 0.772928596
0.608096361 0.392030746 0.772801995
0.757621527 0.391271651 0.777482927
0.896773934 0.404174268 0.772422314
0.990765214 0.433017254 0.751676202
0.078431197 0.556230247 0.776344001
0.182289451 0.557368696 0.777229548
0.320556283 0.558507383 0.781024694
0.465275347 0.558254063 0.780771613
0.610499442 0.556356549 0.774826169
0.756103456 0.559772134 0.779633105
0.894117296 0.563314378 0.771031201
0.987349629 0.581783652 0.758886695
0.214674279 0.718279719 0.775079250
0.274130344 0.725237191 0.788235307
0.370398462 0.721315503 0.782795429
0.493611574 0.717393875 0.785958409
0.623023391 0.716255426 0.777229548
0.759519458 0.709044993 0.783934057
0.875268519 0.720176995 0.779380023
0.984313369 0.722833633 0.782795668
0.323465973 0.852498233 0.772422552
0.357115567 0.848703265 0.765591145
0.430993289 0.849335730 0.770777822
0.538140237 0.847944260 0.779126942
0.648956180 0.845414340 0.775078952
0.758254230 0.844402313 0.781910300
0.880961537 0.840733826 0.783554554
0.985072374 0.839721739 0.792662740
0.449589252 0.959013343 0.788867533
0.467046142 0.958506942 0.790891826
0.506008923 0.962428629 0.790132761
0.589879453 0.959898651 0.791524351
0.680455327 0.960784256 0.795699000
0.765338182 0.958886504 0.801644206
0.874130130 0.959898651 0.797723055
0.987855911 0.955976963 0.804807067
0.175079003 0.067931846 0.904996634
0.234661713 0.057938181 0.907653451
0.338266850 0.023656098 0.904237568
0.461986125 0.000000000 0.905249953
0.606325150 0.000000000 0.911448240
0.741049528 0.000000000 0.909550726
0.887792289 0.003542456 0.906261802
1.000000000 0.000000000 0.907526970
0.142567888 0.126881704 0.905123055
0.211385265 0.122327715 0.908918619
0.322200924 0.107906558 0.905376196
0.458949924 0.082099982 0.908159554
0.598608375 0.036306109 0.904111326
0.744465232 0.005692640 0.905502737
0.887666166 0.004301262 0.903225601
1.000000000 0.005692640 0.904237628
0.036685839 0.235167533 0.901834011
0.162428901 0.237318367 0.902466774
0.303731918 0.230739921 0.911068738
0.448703647 0.226059347 0.911574781
0.592030525 0.217837095 0.903731763
0.746868968 0.214547992 0.906135261
0.889057457 0.221885026 0.905375957
1.000000000 0.237571120 0.907779813
0.000000000 0.376723289 0.910057008
0.077672303 0.380265743 0.912333965
0.276027799 0.379127085 0.911195278
0.435420454 0.380645275 0.912333965
0.590512335 0.382668942 0.906135261
0.740164399 0.385452300 0.907779992
0.889563322 0.394433916 0.906388581
0.997469962 0.406831086 0.906767726
0.002656833 0.539784968 0.904490948
0.090449259 0.545098007 0.910942614
0.273497581 0.540796816 0.908918619
0.437697440 0.541049778 0.911701620
0.593295395 0.543453336 0.907526910
0.737128556 0.548387229 0.910183787
0.888298452 0.551549375 0.914104819
0.998481929 0.559772253 0.908665597
0.150537699 0.707653463 0.905375957
0.212903187 0.709550679 0.910815895
0.329791307 0.706514716 0.912207544
0.459582418 0.702466607 0.913978577
0.593674958 0.699051440 0.910816014
0.734598219 0.700948656 0.912333846
0.883744419 0.702087224 0.917014480
0.993674755 0.709677756 0.907526791
0.269955456 0.853510380 0.905376196
0.316255718 0.853384018 0.911448538
0.395066291 0.851359844 0.909677565
0.499177843 0.848197401 0.917520404
0.619101763 0.846679211 0.916382074
0.747248471 0.841619492 0.913093090
0.868058145 0.838456571 0.914104819
0.985957921 0.845034659 0.916761637
0.416065782 0.972928822 0.910183787
0.440101326 0.972295761 0.907906234
0.496900856 0.972169697 0.904364049
0.567488849 0.970271945 0.910183430
0.671221018 0.967362404 0.906388640
0.776723742 0.961922884 0.906388640
0.878684282 0.957621336 0.917393923
0.968753815 0.957241774 0.933839679
