Assets/EldamarStudio/100 Retro LUTs Pack/LUTs/cube/Wanda LUT.cube
LUT_3D_SIZE 5
DOMAIN_MIN 0.000000 0.000000 0.000000
DOMAIN_MAX 0.903226 0.903226 0.903226
0.168626994 0.137254998 0.129411995
0.268058419 0.137254998 0.127767280
0.482605785 0.140543580 0.124857575
0.784693241 0.134345129 0.106894128
0.993547976 0.143832833 0.087539844
0.188614696 0.242884696 0.129411995
0.285388708 0.247817978 0.122201003
0.526122510 0.280202687 0.111701168
0.796710670 0.293231696 0.080708295
0.998734832 0.290954977 0.074509837
0.235293999 0.528272986 0.008982025
0.367488801 0.535230696 0.007716600
0.587222815 0.536875367 0.005819428
0.809108138 0.525996089 0.003542295
0.998735011 0.511954427 0.048576966
0.296141982 0.773814142 0.002909872
0.404427290 0.783934236 0.002656578
0.597596824 0.777735353 0.006577994
0.819860995 0.765971124 0.000000000
0.998734832 0.742441118 0.109677441
0.418722600 0.970271945 0.225553408
0.482985675 0.979127049 0.246173292
0.623782635 0.976849794 0.260088176
0.817077935 0.967615783 0.288045406
0.993421853 0.959771752 0.328779578
0.168626994 0.138899282 0.198102415
0.265401989 0.137254998 0.207589686
0.498039097 0.102213718 0.215433285
0.789879858 0.039722025 0.198481694
0.994939983 0.072865292 0.199114695
0.177103013 0.241239995 0.203668699
0.288677692 0.246173680 0.205945402
0.522833526 0.263503969 0.203668281
0.790512383 0.267425835 0.193548411
0.997469962 0.265148699 0.204300866
0.198988304 0.513219416 0.174193710
0.343579710 0.521442056 0.175205410
0.576723754 0.523086429 0.173561126
0.804174423 0.510689437 0.180771708
0.995192707 0.503858268 0.208349109
0.289563596 0.766603112 0.158633530
0.395192713 0.772169411 0.165844113
0.586970389 0.769259989 0.176597252
0.813409448 0.758128107 0.180265695
0.996204793 0.733965993 0.241872355
0.400000095 0.968627691 0.302213460
0.473877519 0.972801924 0.329664469
0.616571367 0.973308086 0.333839148
0.807084143 0.960783899 0.350790441
0.991524160 0.956862688 0.383807480
0.184313998 0.141176000 0.400252789
0.293232113 0.126122579 0.403162539
0.504237354 0.086148024 0.415306389
0.787223399 0.000632584 0.433269918
0.994307399 0.000632584 0.412650228
0.153194308 0.234408692 0.418595821
0.294876397 0.231119275 0.419860810
0.533586383 0.223909125 0.426059514
0.787223399 0.211890981 0.417204231
0.994307399 0.243389964 0.421884805
0.126122579 0.508032382 0.430866420
0.301707715 0.512334108 0.428969204
0.570145786 0.511321843 0.423656017
0.796710730 0.501834273 0.428336799
0.995572388 0.497026950 0.440227389
0.265528440 0.764326394 0.430613667
0.388741255 0.763693869 0.436559081
0.584819674 0.761037230 0.437191665
0.808475554 0.751928866 0.437571228
0.994560122 0.735990107 0.466666669
0.395699233 0.963061213 0.486653954
0.465907931 0.967615604 0.497659564
0.613915384 0.966350615 0.499683797
0.804933250 0.960531235 0.504617095
0.993548155 0.960531235 0.529158413
0.185325861 0.112713128 0.653384268
0.313219577 0.095635876 0.667046249
0.529664397 0.006704891 0.666792929
0.780771255 0.001012128 0.670967996
0.993927836 0.000000000 0.654522419
0.124098428 0.221631840 0.675395310
0.292219788 0.216698691 0.671600401
0.533839107 0.200379267 0.678810775
0.798102379 0.180771694 0.672865212
0.994939983 0.237191513 0.655534387
0.078557879 0.492346793 0.683491707
0.296900809 0.493991077 0.690196157
0.554712296 0.494623512 0.678431571
0.798734963 0.496647537 0.668690681
0.994307399 0.516002357 0.670335293
0.272738993 0.759140015 0.678810954
0.390006274 0.764958978 0.677166522
0.582795680 0.754206121 0.681973398
0.797343135 0.748387098 0.683618128
0.992409945 0.742441118 0.702340245
0.445287824 0.963440776 0.705249906
0.511068940 0.964326382 0.718785465
0.619228244 0.962428629 0.711448371
0.791144788 0.959519088 0.703984976
0.995192647 0.956989050 0.716761231
0.175079003 0.067931846 0.904996634
0.310183525 0.034788154 0.904996634
0.532320976 0.000000000 0.905123413
0.780771255 0.000000000 0.910309613
1.000000000 0.000000000 0.907526970
0.072612494 0.206577823 0.899556994
0.273624688 0.199114695 0.909297705
0.522454202 0.185705408 0.908665299
0.782036722 0.169766113 0.909930468
0.996457875 0.188235089 0.903731763
0.006577994 0.457684815 0.916761637
0.234029248 0.462998241 0.914864182
0.517899811 0.468184829 0.908918619
0.778494537 0.475142509 0.908665538
1.000000000 0.489183962 0.911574841
0.180392474 0.745351136 0.905629218
0.316129148 0.744465351 0.908918440
0.535484016 0.736622512 0.912586927
0.770777881 0.735610247 0.912080824
0.991397798 0.744086325 0.906767726
0.416065782 0.972928822 0.910183787
0.479443163 0.971916676 0.907653213
0.615938962 0.967615604 0.911701560
0.804554164 0.958886445 0.907653451
0.968753815 0.957241774 0.933839679
