Assets/EldamarStudio/100 Retro LUTs Pack/LUTs/cube/Wanda LUT.cube
DOMAIN_MIN 0 0 0
DOMAIN_MAX 1 1 1
LUT_3D_SIZE 32
0.168626994 0.137254998 0.129411995
0.168626994 0.137254998 0.126375601
0.177229539 0.139405221 0.129790992
0.191903993 0.139911160 0.132068157
0.208981559 0.137254998 0.129032448
0.218089923 0.137254998 0.125996053
0.242378324 0.137254998 0.128020316
0.268058419 0.137254998 0.127767280
0.291587889 0.137254998 0.125489995
0.312839538 0.137254998 0.125489995
0.342820734 0.134345129 0.128399864
0.373181492 0.135357261 0.129411995
0.406957626 0.137254998 0.127134994
0.446173042 0.137507960 0.121821970
0.482605785 0.140543580 0.124857575
0.523845553 0.136369005 0.123086810
0.572422385 0.134851187 0.123086803
0.625173688 0.136622429 0.124857575
0.670714974 0.133586034 0.121821955
0.710689366 0.130550355 0.113219634
0.748260438 0.131309256 0.107906260
0.784693241 0.134345129 0.106894128
0.821125984 0.137128487 0.109424494
0.857558787 0.134092093 0.100316092
0.884882987 0.135610282 0.098039001
0.916128993 0.135863319 0.093864694
0.954080045 0.134344995 0.086780928
0.984439969 0.140416995 0.089816540
0.993547976 0.143832833 0.087539844
0.996078014 0.145098001 0.086274996
0.996963620 0.146868989 0.088045985
1.000000000 0.152941003 0.094117999
0.168626994 0.146363392 0.132447615
0.168626994 0.146363392 0.132447600
0.177229539 0.146363392 0.125110775
0.194433987 0.145983607 0.126755387
0.215053543 0.144086003 0.129411995
0.224161923 0.149398997 0.129032448
0.243390322 0.144338995 0.128526390
0.266413718 0.144971713 0.134345278
0.290069729 0.146363392 0.133839101
0.315875947 0.146363392 0.122454390
0.345857143 0.146363392 0.125363514
0.376217365 0.145477772 0.128399864
0.406577885 0.146363392 0.128273353
0.440860093 0.146363392 0.125110611
0.485642195 0.146616355 0.130929574
0.526881933 0.147248775 0.129158810
0.570904553 0.145477772 0.121568620
0.619101703 0.146995813 0.116381615
0.664642990 0.148766428 0.115749195
0.710183382 0.145730749 0.118279576
0.748260438 0.146489650 0.112080999
0.782669246 0.148513392 0.106894389
0.815180480 0.149525508 0.103605494
0.854522407 0.152308866 0.100316092
0.888677895 0.149272487 0.095762290
0.919417977 0.152181983 0.096394710
0.954080045 0.154585391 0.094876684
0.984439969 0.155597389 0.092852928
0.993547976 0.156356394 0.090575553
0.997849226 0.157242000 0.089310609
0.997343421 0.158127606 0.089310609
0.993928015 0.162049398 0.091081612
0.170777768 0.155471236 0.137633994
0.170777768 0.157622010 0.122580223
0.183680773 0.155471236 0.129032001
0.195825562 0.154206395 0.130044386
0.215433314 0.152308777 0.136116460
0.228083700 0.158380777 0.127261221
0.238709554 0.158633783 0.133712992
0.268184632 0.154206067 0.132068276
0.291207999 0.156230330 0.136116102
0.314357758 0.157622010 0.126502484
0.344591975 0.157622010 0.124478124
0.376976460 0.159645736 0.125489995
0.408601910 0.158633873 0.127261221
0.440986842 0.158128008 0.125489995
0.484630227 0.161922991 0.127766997
0.527767599 0.161922991 0.124478027
0.570272386 0.161922991 0.124478415
0.615812838 0.161922991 0.117393970
0.662871957 0.163440809 0.115875766
0.701960564 0.165212125 0.110056579
0.741808653 0.164073765 0.107400231
0.778241456 0.165844545 0.103352226
0.811005712 0.165844545 0.099810228
0.846426129 0.166856676 0.098798096
0.885642052 0.167489260 0.095762290
0.917646706 0.164452866 0.091335006
0.950284660 0.167741835 0.091587774
0.982289732 0.169386551 0.090196453
0.995698750 0.167235777 0.091461167
0.996457577 0.170777753 0.084882803
0.998734832 0.171536773 0.086400829
0.996457994 0.173308000 0.090195999
0.172548994 0.167109162 0.137381166
0.176344156 0.166350394 0.127513930
0.182922006 0.168880388 0.121441931
0.202403158 0.165844321 0.126755148
0.214547947 0.163188159 0.140417457
0.228842929 0.167489171 0.130550057
0.245287836 0.168501168 0.129285157
0.262871414 0.169386446 0.135610282
0.295509100 0.168627158 0.132574096
0.314231187 0.172169492 0.129538476
0.342820734 0.171031162 0.125237286
0.377735585 0.171790063 0.125489995
0.411131978 0.175964326 0.124351643
0.445035040 0.173561171 0.123719089
0.486527652 0.177609146 0.121694833
0.527767599 0.178874150 0.120682999
0.571537197 0.180138990 0.116634868
0.612776935 0.180771559 0.118406266
0.658823848 0.181404158 0.115370028
0.700062990 0.184187517 0.110562794
0.735230625 0.185326159 0.102087006
0.772675276 0.185326159 0.101075128
0.809234500 0.185199648 0.101454660
0.842630923 0.184060991 0.098039001
0.875521839 0.184060991 0.093232289
0.912081122 0.185199633 0.091335006
0.942441165 0.182669312 0.086274996
0.975079000 0.184946612 0.086274996
0.994939983 0.183934480 0.085135989
0.999493957 0.183681294 0.084882803
0.995572209 0.189753309 0.081087604
0.997470021 0.190512314 0.090195999
0.173308000 0.182289541 0.128652990
0.181657389 0.176976547 0.135104448
0.187223226 0.178747535 0.133713007
0.197849169 0.181024611 0.129032448
0.216824546 0.178747997 0.129032448
0.228969321 0.178747997 0.132068053
0.251612991 0.179127544 0.128652543
0.274256706 0.180012822 0.128399536
0.295888633 0.183048546 0.131815091
0.317141056 0.189120546 0.128779471
0.344971418 0.187223420 0.123972453
0.378874213 0.186970547 0.123592734
0.416825086 0.188868001 0.124351643
0.450221539 0.194687039 0.121315971
0.489436954 0.194813550 0.115369715
0.529664814 0.195572540 0.115369804
0.571031153 0.196710899 0.115749359
0.615812659 0.199746668 0.113092586
0.652245522 0.202783063 0.110056967
0.696647346 0.205439910 0.109044999
0.734598160 0.206199005 0.104490809
0.769639671 0.206199005 0.099557132
0.808981538 0.206325516 0.108286001
0.842630923 0.203795195 0.099936642
0.871853292 0.203036100 0.091587745
0.901961088 0.203668684 0.085895449
0.934851587 0.206578553 0.085895449
0.965211511 0.206578553 0.085895449
0.989879608 0.206578553 0.081340887
1.000000000 0.206578553 0.078810550
0.998988032 0.207969993 0.080708154
0.992915988 0.214042008 0.089816548
0.179380000 0.197469935 0.122580998
0.182416394 0.197469935 0.131688610
0.190765232 0.196457937 0.135989830
0.203921169 0.196204767 0.132447839
0.222896546 0.193927616 0.125996053
0.225932926 0.196963996 0.125996053
0.250727355 0.199494317 0.129032314
0.274256706 0.198735222 0.128905937
0.296268195 0.197469935 0.128399938
0.320177436 0.198228925 0.122707479
0.353067786 0.201391801 0.125490129
0.381404191 0.205439940 0.124984063
0.415306717 0.209361285 0.124351643
0.453257173 0.212903023 0.121315971
0.486654311 0.215939403 0.118279584
0.530676723 0.220872924 0.112333938
0.570651472 0.222896934 0.110816002
0.610499680 0.224035442 0.110309936
0.655281961 0.227071822 0.110056959
0.697279990 0.227324873 0.104237996
0.734598160 0.225933194 0.102972999
0.769007266 0.224414989 0.099430941
0.805945873 0.224541500 0.096142001
0.842377901 0.227577895 0.096142001
0.873750567 0.227324873 0.092346653
0.904996693 0.225933194 0.086907074
0.937887192 0.224921048 0.082859069
0.968247950 0.227830932 0.082859069
0.990638733 0.227830932 0.082859069
1.000000000 0.227830932 0.081846938
1.000000000 0.228716314 0.082732543
0.998987973 0.232257992 0.086780936
0.180391997 0.220240638 0.126628995
0.188488394 0.220240638 0.130676612
0.200126782 0.222390860 0.133332998
0.209993482 0.222770318 0.133459836
0.225047097 0.221378639 0.127640769
0.234535262 0.222264260 0.125489995
0.255281329 0.220240638 0.125489995
0.280961424 0.223276600 0.126881674
0.303858310 0.224288315 0.126122773
0.328146666 0.227830321 0.121822000
0.361164182 0.230740190 0.119418129
0.398608565 0.233776048 0.122454263
0.432510972 0.239342272 0.122960322
0.472232372 0.244022951 0.121062934
0.512460232 0.249336064 0.115749262
0.553067565 0.249968648 0.112713486
0.598481894 0.255787641 0.106768005
0.637950778 0.257179081 0.102846436
0.677799344 0.256419957 0.097153679
0.718026698 0.256673008 0.099177994
0.754838347 0.260467976 0.091208264
0.788235366 0.259329438 0.088298552
0.822897315 0.257811636 0.083997361
0.854522288 0.258444220 0.083997361
0.886400819 0.261480004 0.081720650
0.919544637 0.260341674 0.081467323
0.953573644 0.257811636 0.079822682
0.983933866 0.258823752 0.079822682
0.991144776 0.259203315 0.082353003
1.000000000 0.259203315 0.082353003
0.999114394 0.260974288 0.083238609
0.997469664 0.265654653 0.086274996
0.188614696 0.242884696 0.129411995
0.192789391 0.242884696 0.130803332
0.202909783 0.246679634 0.130043998
0.219355002 0.248450413 0.128779158
0.229980692 0.248450413 0.126882002
0.242125154 0.248450413 0.127640769
0.262744993 0.245920300 0.125489995
0.285388708 0.247817978 0.122201003
0.311195463 0.250853807 0.122201003
0.337254733 0.256040394 0.120050773
0.370271891 0.260847569 0.117014423
0.407716930 0.265528142 0.116381839
0.444908351 0.268564016 0.116002582
0.483617753 0.274130702 0.114990585
0.526122510 0.280202687 0.111701168
0.565338254 0.283111989 0.104743816
0.606324911 0.286147982 0.100190006
0.650348008 0.290954977 0.095383003
0.687793016 0.288930714 0.089310735
0.727008402 0.287033409 0.086400948
0.764326394 0.289183706 0.086780556
0.796710670 0.293231696 0.080708295
0.829854548 0.290954977 0.078431003
0.866286993 0.290954977 0.078431003
0.895002842 0.289943129 0.076154292
0.925363600 0.291587412 0.070335336
0.960784316 0.288804621 0.072865002
0.992282987 0.287665993 0.075142004
0.998734832 0.290954977 0.074509837
1.000000000 0.290954977 0.075775005
0.999114394 0.290069580 0.080202594
0.996078014 0.293864697 0.086274996
0.201517999 0.266413987 0.127134904
0.203035995 0.267173082 0.127134904
0.207210675 0.269956112 0.125743225
0.223150089 0.274257004 0.126502052
0.240227640 0.274257004 0.121568903
0.251992196 0.274257004 0.124604903
0.271726519 0.273244858 0.124604575
0.292978913 0.274383098 0.121441908
0.315749288 0.279696196 0.116128996
0.346110106 0.282732576 0.116128996
0.380139053 0.289437205 0.113978229
0.415306658 0.293991208 0.112966098
0.453257620 0.298924625 0.110689096
0.487160027 0.302467018 0.104870066
0.529158652 0.309045076 0.104364000
0.567615569 0.311195314 0.097912714
0.604807258 0.314990193 0.091840900
0.644908190 0.321062177 0.085768908
0.684503973 0.321315199 0.085515894
0.722454369 0.318532556 0.081467383
0.760025442 0.318532526 0.076912999
0.794433951 0.320556283 0.076912999
0.824920535 0.320556283 0.076786518
0.865527928 0.320556283 0.076154098
0.897406280 0.319038481 0.073118292
0.926122308 0.317394197 0.068817340
0.956483126 0.317394197 0.062238995
0.989626527 0.314610869 0.068310991
0.997216821 0.318026274 0.067931846
1.000000000 0.319797188 0.066666998
0.999114394 0.320429802 0.070335492
0.996078014 0.317394197 0.085515901
0.207589999 0.296774030 0.118026510
0.213661984 0.299810439 0.118026510
0.215180010 0.300569534 0.118026510
0.228209853 0.302087367 0.122959994
0.255408049 0.304617047 0.130676508
0.264516413 0.304617047 0.112460516
0.283871263 0.307147354 0.112966195
0.305123657 0.309930265 0.114104509
0.327894062 0.313092589 0.113092609
0.355218500 0.316129029 0.110056989
0.391398221 0.324984372 0.110056989
0.423655927 0.327894002 0.109930471
0.456672788 0.329285383 0.107653476
0.493232042 0.332827061 0.101834446
0.532700419 0.341935426 0.098798059
0.572295904 0.341302693 0.093484998
0.610120356 0.341555715 0.090322517
0.647944570 0.345350981 0.088804521
0.690449476 0.351422995 0.082732514
0.724478364 0.348893344 0.082479514
0.760025442 0.347755015 0.076533742
0.794433951 0.347881496 0.070840992
0.824920535 0.347881496 0.070714511
0.858317673 0.347881496 0.067678891
0.889816463 0.347881496 0.062492479
0.920050323 0.347755015 0.057938319
0.950411141 0.347755015 0.056166992
0.980771899 0.347755015 0.062238984
0.990006447 0.347628474 0.065654822
0.995951951 0.346110284 0.066666991
0.999114394 0.344971597 0.070208974
0.996078014 0.347755015 0.082479522
0.210752875 0.332953721 0.108918130
0.219733983 0.333080262 0.111827999
0.227956772 0.338266879 0.107527003
0.232763857 0.341050029 0.107273847
0.249968216 0.344465613 0.113345675
0.276786923 0.349525630 0.112839997
0.290955305 0.346995294 0.107273676
0.311448723 0.349272549 0.106261715
0.334219128 0.352308542 0.104996875
0.361543536 0.355344355 0.104111478
0.391777724 0.355470866 0.101075128
0.428209990 0.360531271 0.099051386
0.461479932 0.362555534 0.097027361
0.496394902 0.365591586 0.092726126
0.535863221 0.369386256 0.087033585
0.572928429 0.373687685 0.088804811
0.611891150 0.374699414 0.082732677
0.649715245 0.377102852 0.077293009
0.687666118 0.378620863 0.071220994
0.727387547 0.381910235 0.067931645
0.759139538 0.382922113 0.064010136
0.792536259 0.382922113 0.057937875
0.824667513 0.380898356 0.055913653
0.852498710 0.378114998 0.052878033
0.881341279 0.375838280 0.052119132
0.911068797 0.375205874 0.051486447
0.943453252 0.375205874 0.051486194
0.983428001 0.375205874 0.050347995
0.995192945 0.372549027 0.053763155
0.996204793 0.374067187 0.058570690
0.997975767 0.375079125 0.067046575
0.998987854 0.378114998 0.085262865
0.215812996 0.371410221 0.091713756
0.222896874 0.375458747 0.096774392
0.234028757 0.379759759 0.099430747
0.244402319 0.383301765 0.094623908
0.253510505 0.385578930 0.095762268
0.277292877 0.390006244 0.097153939
0.303099334 0.390512168 0.099177688
0.321568668 0.389120489 0.096141711
0.344339103 0.391777337 0.093105912
0.371663511 0.394813269 0.091840751
0.401897728 0.394939750 0.090955138
0.432258517 0.394939780 0.083870754
0.467552155 0.399114519 0.080835141
0.501202047 0.402783245 0.077798977
0.538899601 0.404048085 0.073497757
0.577988565 0.409108043 0.066540055
0.612903178 0.409108430 0.066540442
0.650094688 0.409867167 0.060341757
0.685136259 0.408475518 0.057052743
0.724351645 0.411258876 0.051739652
0.756229997 0.410499781 0.048703268
0.786464274 0.412270516 0.043769881
0.818722248 0.410373241 0.040860269
0.847944200 0.409234613 0.039721910
0.879317284 0.408222526 0.040986747
0.910815954 0.405186564 0.039595429
0.942441106 0.404553980 0.041872267
0.978873849 0.404553980 0.043390460
0.994180560 0.401897669 0.045667160
0.997975767 0.400632501 0.052245203
0.996963620 0.402530253 0.059456341
1.000000000 0.404427499 0.076154746
0.224161997 0.426818192 0.065907367
0.231372640 0.430613697 0.068564497
0.244022638 0.434408903 0.071347594
0.257305324 0.436812282 0.074130237
0.269829541 0.436812282 0.071474075
0.287286639 0.439089000 0.071474075
0.311954319 0.438456565 0.070588402
0.340543985 0.439594924 0.072612435
0.363314390 0.440354019 0.071094625
0.390638798 0.443390399 0.068817243
0.420873016 0.442378283 0.064136729
0.451233506 0.442378283 0.061480120
0.482732624 0.441239923 0.054648727
0.516635120 0.447058886 0.051613107
0.553953469 0.447944283 0.048576951
0.590512395 0.450474292 0.040733568
0.626944840 0.454269469 0.035799921
0.660341322 0.450601280 0.033396721
0.693738580 0.447058946 0.033396717
0.730424047 0.447311997 0.031246360
0.762302399 0.448830187 0.029348621
0.790638924 0.444781929 0.027324362
0.821252644 0.444402426 0.024794709
0.853636920 0.443390280 0.026818715
0.882858813 0.443390280 0.029095713
0.916508615 0.440860271 0.030487040
0.950916767 0.438835859 0.029475423
0.980012476 0.439468265 0.036179997
0.992156625 0.436812103 0.044149153
0.996078014 0.435547292 0.053004194
0.996963620 0.435547292 0.064769194
1.000000000 0.435547292 0.074636638
0.235293999 0.503984988 0.033270001
0.244402394 0.504238009 0.030234326
0.259455979 0.504490972 0.029348940
0.276154131 0.503731906 0.030360809
0.292852581 0.501075089 0.033016969
0.308032960 0.501075089 0.033016969
0.330803037 0.498545319 0.028968971
0.359772086 0.498798341 0.027071647
0.390892088 0.501581132 0.029854873
0.418216497 0.504617512 0.032890476
0.448703736 0.501834154 0.022390973
0.479823023 0.500822067 0.018342970
0.511068702 0.500189662 0.017457357
0.544718087 0.497407019 0.014927032
0.584187210 0.500442624 0.011891423
0.618595779 0.501075089 0.004807232
0.652245224 0.502087176 0.000000000
0.685388684 0.503732026 0.000000000
0.718785942 0.497660011 0.000000003
0.751676440 0.494370699 0.002530325
0.781783760 0.494623750 0.005566289
0.809867263 0.494877040 0.007337000
0.840480983 0.488931507 0.007463513
0.876913786 0.485895127 0.013409034
0.904491007 0.484883070 0.016951289
0.932700694 0.482353061 0.019354967
0.965338111 0.477799028 0.021632062
0.989626825 0.480834633 0.030740442
0.997469962 0.478557885 0.044908162
0.998228788 0.477546066 0.059835181
0.996710598 0.477040023 0.076660164
0.999746978 0.477040023 0.094876967
0.235293999 0.528272986 0.008982025
0.244402394 0.531309366 0.005945638
0.255661011 0.533712626 0.005060187
0.269069999 0.536116123 0.005060187
0.284503251 0.537507832 0.005692609
0.317141324 0.537507832 0.005692609
0.339911401 0.534977496 0.010752607
0.367488801 0.535230696 0.007716600
0.395446002 0.537507832 0.005060187
0.415180117 0.538013875 0.005566122
0.448324203 0.535230517 0.005692607
0.485136241 0.534218431 0.003162596
0.519291699 0.535357058 0.003162596
0.550790846 0.536875367 0.002783045
0.587222815 0.536875367 0.005819428
0.619481206 0.537507832 0.005187006
0.653510392 0.535989642 0.001771224
0.688045561 0.534850955 0.000000000
0.718785942 0.534092009 0.000000000
0.746616364 0.530803323 0.000000001
0.779000700 0.527767062 0.002530324
0.809108138 0.525996089 0.003542295
0.837444603 0.522327840 0.001391519
0.873877406 0.519291461 0.004427910
0.903478861 0.516255677 0.005819429
0.931562304 0.513852119 0.010626320
0.963061452 0.511195481 0.019354710
0.995698869 0.514231801 0.036812436
0.998735011 0.511954427 0.048576966
0.998228788 0.512460649 0.061353378
0.996078014 0.512207627 0.078557573
0.996710598 0.507399976 0.103984565
0.242504805 0.564579368 0.001518196
0.244402394 0.560404956 0.000885613
0.262112767 0.567741811 0.002150774
0.277545780 0.571283758 0.001138643
0.292346328 0.573561013 0.000000000
0.313598990 0.571536779 0.000000000
0.339405805 0.576217234 0.000253004
0.365338504 0.573181331 0.004680713
0.394939989 0.573940575 0.002403804
0.419734031 0.573940575 0.002403803
0.447691619 0.571030736 0.000000000
0.483112007 0.567994833 0.000000000
0.518785477 0.565338373 0.000000000
0.549652278 0.565085530 0.000000000
0.586084723 0.571536779 0.000885612
0.617710412 0.571536779 0.001518196
0.651106775 0.570018947 0.001518196
0.685641706 0.566982806 0.000000000
0.714231372 0.565211594 0.000000000
0.746616364 0.562428951 0.000000000
0.777735710 0.559392810 0.000000000
0.809108138 0.556356430 0.001518196
0.836685479 0.553193927 0.000000000
0.870841026 0.547880828 0.000759100
0.902719736 0.547121763 0.001518196
0.931562304 0.545603991 0.005692858
0.961923003 0.543579876 0.015812872
0.993421614 0.542821229 0.032131888
1.000000000 0.545350969 0.052245777
1.000000000 0.544085801 0.062618554
0.998481810 0.543833017 0.077672191
0.998481810 0.537760615 0.103478812
0.248576805 0.601012170 0.001518192
0.256166995 0.599494398 0.000000000
0.265148759 0.598102570 0.000632582
0.283871144 0.604680538 0.003668969
0.301454723 0.607716799 0.001518192
0.316635132 0.606957436 0.001518192
0.340923637 0.606957555 0.000000000
0.365338504 0.609614074 0.000126516
0.393422008 0.607337356 0.002403808
0.423782229 0.607337356 0.002403807
0.452751607 0.602909327 0.001012129
0.483112007 0.601391256 0.001518192
0.517267287 0.599493980 0.000379548
0.547628045 0.594686985 0.000000000
0.581530809 0.599999726 0.000000000
0.613156199 0.601897180 0.000000000
0.646552980 0.600379348 0.000000000
0.682352543 0.597976148 0.000000001
0.711448014 0.595825374 0.000000001
0.742820919 0.592789352 0.001518192
0.776217520 0.591271400 0.001518192
0.807590187 0.588235319 0.000506064
0.834914684 0.585199058 0.000000000
0.865528107 0.580518365 0.000000000
0.898165524 0.575964391 0.000000000
0.925742924 0.574572682 0.000000000
0.955850720 0.574446142 0.008728875
0.986211002 0.572422445 0.021885248
0.998734832 0.573181331 0.046932410
1.000000000 0.571410179 0.070209123
1.000000000 0.573181152 0.084629953
1.000000000 0.569639206 0.109551191
0.252245158 0.633143544 0.003289424
0.266160399 0.636179924 0.002150603
0.277672380 0.636179745 0.000000001
0.289943159 0.636306107 0.000632585
0.305882543 0.638583481 0.003289424
0.321568906 0.641113222 0.003289424
0.346236736 0.639721870 0.001391678
0.371916562 0.637697935 0.000000000
0.395825207 0.637697935 0.000000001
0.426186025 0.637697935 0.000000001
0.455914199 0.632510960 0.000000001
0.486907005 0.631119132 0.002024257
0.518532276 0.630486727 0.002783357
0.548893034 0.630486727 0.000000000
0.579253793 0.630486727 0.000000000
0.609614134 0.630486727 0.000000000
0.641745389 0.628968716 0.000000001
0.677545547 0.625933111 0.000000001
0.710942030 0.625933111 0.000000004
0.741555750 0.623782337 0.002150782
0.773813725 0.621378541 0.003289424
0.804553807 0.620999098 0.004174862
0.832131863 0.617836952 0.001264990
0.860468268 0.614294648 0.001264990
0.891081691 0.609614134 0.001264990
0.920935929 0.605566025 0.000000002
0.945730209 0.603035688 0.001012004
0.975964427 0.603035688 0.009993871
0.993674815 0.601770699 0.037064955
1.000000000 0.598861158 0.066287026
1.000000000 0.595698714 0.092979431
1.000000000 0.601770699 0.120303862
0.258317947 0.660468102 0.000253032
0.267425567 0.663504422 0.006325027
0.279190570 0.666540265 0.003036000
0.293612003 0.670334995 0.000000002
0.311954558 0.675015569 0.000253032
0.333206952 0.671979964 0.000253032
0.356483042 0.671980023 0.000253032
0.381024480 0.670082271 0.000000000
0.404554099 0.668058097 0.000000001
0.426186055 0.668058097 0.000000003
0.453636914 0.665148973 0.000000006
0.485262305 0.665907681 0.002024261
0.519544303 0.666413605 0.002783359
0.554965079 0.663883924 0.000000003
0.585325837 0.663883924 0.000000000
0.615686595 0.663883924 0.000000000
0.646046937 0.662365735 0.000000001
0.677545547 0.659329593 0.000000004
0.710942030 0.656293988 0.000000007
0.741555750 0.656293988 0.000000007
0.773813725 0.652245462 0.000253035
0.804174244 0.648703039 0.002277028
0.829095483 0.648197055 0.007336993
0.862491906 0.642125070 0.007336993
0.890828311 0.638583302 0.007336993
0.918658674 0.636686027 0.004554010
0.945730209 0.636432946 0.001012012
0.973055303 0.636432946 0.007084024
0.992662907 0.631119967 0.032004856
1.000000000 0.627324760 0.061353408
1.000000000 0.625806630 0.089690059
1.000000000 0.629095972 0.114231125
0.278305382 0.729538500 0.000000000
0.284630328 0.727008164 0.000505997
0.300189734 0.727893770 0.004427770
0.314864188 0.727767229 0.001518196
0.331182927 0.728146851 0.000000000
0.347628295 0.725110650 0.000000000
0.371410370 0.724604726 0.000000000
0.397343069 0.722959995 0.000000000
0.423529297 0.721441805 0.000000001
0.448830247 0.723466098 0.000000004
0.473118246 0.723339677 0.005566003
0.500442624 0.718279719 0.005566004
0.532321036 0.716761470 0.005566293
0.566603065 0.713978410 0.002530325
0.596963823 0.713978410 0.000000001
0.629727781 0.711575150 0.000000000
0.660467982 0.711195767 0.001518192
0.690828502 0.708792150 0.002783358
0.722074807 0.703605711 0.002783361
0.752687752 0.703352749 0.005566004
0.788741231 0.701454997 0.001771008
0.821884811 0.697279990 0.000000000
0.847944379 0.695255756 0.002276996
0.873371601 0.689183772 0.002276996
0.902213991 0.683111727 0.002276996
0.930929661 0.680961370 0.006451658
0.959645391 0.680455446 0.012397358
0.986969948 0.678178787 0.032131366
0.993042469 0.672865808 0.067425810
1.000000000 0.670335770 0.102340207
0.999114394 0.669197083 0.134851322
0.997216642 0.670335770 0.161037102
0.290069997 0.760658026 0.001897740
0.292346984 0.763314307 0.003794996
0.312713742 0.760531008 0.000253034
0.325869769 0.760531008 0.002024260
0.339152545 0.759266376 0.000000000
0.354332924 0.760784507 0.000000000
0.380897999 0.758380711 0.000000000
0.395319432 0.761669695 0.001644708
0.423908859 0.759392560 0.001138644
0.455787748 0.760151923 0.000000002
0.482100010 0.758380711 0.002024003
0.512207270 0.756229997 0.004048004
0.538393319 0.752434969 0.004048004
0.569259822 0.750410736 0.002530260
0.599620581 0.750410736 0.004427580
0.630486727 0.749904752 0.001897740
0.663883567 0.746869206 0.003415545
0.693991303 0.745857179 0.005186841
0.723086953 0.741049945 0.003922000
0.761037529 0.740543962 0.002909651
0.789500237 0.738646686 0.004048004
0.824921131 0.734598458 0.000000000
0.852498472 0.730676651 0.000000000
0.882100105 0.726375461 0.000000000
0.906768262 0.724098444 0.000000000
