Assets/EldamarStudio/100 Retro LUTs Pack/LUTs/cube/Wayne LUT.cube
LUT_3D_SIZE 8
DOMAIN_MIN 0.000000 0.000000 0.000000
DOMAIN_MAX 0.903226 0.903226 0.903226
0.000000000 0.003922000 0.000000000
0.130423635 0.000000000 0.003922000
0.278178185 0.003922000 0.000000000
0.425427288 0.003922000 0.001138644
0.575079381 0.010878997 0.011765000
0.734471679 0.037065253 0.021378737
0.879317284 0.069576286 0.053890284
0.989753127 0.112586975 0.100948796
0.023529001 0.126122996 0.003542452
0.134725094 0.133586541 0.000000000
0.278557658 0.138266638 0.006704550
0.421125740 0.144212186 0.003542355
0.566097617 0.149652094 0.015306646
0.719291270 0.159013286 0.032132000
0.854142964 0.170145378 0.057938285
0.987855792 0.183554813 0.097153701
0.073624194 0.279696196 0.000759098
0.177482530 0.286400735 0.007843099
0.301581293 0.287539184 0.003795094
0.449335814 0.292599648 0.016698545
0.599367499 0.300822198 0.039847996
0.749525666 0.307526737 0.063757256
0.881720245 0.311068833 0.091460995
0.990512192 0.316635102 0.125995979
0.135230988 0.441366255 0.029221639
0.223909095 0.441366255 0.041492999
0.343706459 0.445793927 0.043643281
0.474888921 0.451359928 0.056672640
0.612397432 0.449462473 0.052624732
0.742567778 0.443263680 0.088172086
0.863251269 0.440101266 0.108918630
0.984692812 0.437824279 0.150411099
0.205439806 0.593169153 0.065148808
0.265654981 0.608981371 0.075395539
0.379253387 0.605819166 0.079949193
0.498292178 0.602276742 0.088045545
0.638709366 0.599493980 0.101074994
0.760151446 0.593169153 0.114231184
0.877799332 0.582416117 0.147881180
0.989626586 0.571916580 0.190006152
0.282479525 0.762681723 0.149399012
0.327767313 0.768374443 0.150411263
0.420240104 0.762302756 0.158127993
0.531815648 0.753573596 0.167741895
0.652498603 0.748892963 0.165085480
0.783807456 0.740670443 0.182036728
0.896647573 0.722580314 0.209993735
0.994939983 0.711068690 0.245161369
0.340797275 0.856799543 0.213661984
0.376344115 0.864642560 0.223023564
0.449588984 0.857432008 0.227830365
0.541429281 0.859709263 0.233902276
0.648829877 0.848703325 0.239089549
0.763820469 0.843769789 0.248577014
0.881594002 0.842378557 0.261353552
0.986590624 0.827450991 0.301581115
0.443516791 0.965085447 0.363820612
0.475015819 0.975331962 0.374319762
0.525616944 0.972169697 0.385325670
0.597975791 0.971663594 0.388867825
0.683997154 0.962175608 0.395445943
0.781151414 0.958380818 0.401011854
0.888804555 0.955850780 0.417710215
0.991144776 0.949272633 0.439721614
0.000379548 0.000379548 0.106894545
0.126502544 0.003542452 0.117899641
0.272991717 0.003162904 0.119038187
0.412776381 0.005060451 0.119797282
0.562808156 0.023023544 0.132321075
0.724731266 0.045793738 0.142314643
0.862998128 0.072359540 0.156736091
0.986084759 0.111068688 0.168627232
0.017583545 0.122580543 0.119417638
0.149652109 0.130044088 0.114358090
0.271853089 0.131182626 0.122201093
0.413282633 0.138646096 0.124225356
0.560151398 0.147248283 0.131182730
0.698798418 0.155471355 0.139531896
0.845034778 0.168501094 0.149905115
0.973560750 0.183554813 0.166856498
0.075521640 0.275016010 0.126502439
0.177482545 0.276534110 0.130044088
0.298039645 0.281214297 0.128399983
0.438329935 0.285515547 0.139784634
0.588741004 0.292979300 0.148133993
0.728272915 0.296521455 0.151170194
0.856799781 0.299304098 0.159645796
0.987349629 0.307906389 0.183428198
0.138140649 0.422138005 0.134472191
0.210119918 0.428210229 0.133333534
0.322833836 0.426185995 0.142820731
0.454775453 0.431751996 0.149525285
0.594686925 0.434535354 0.151422933
0.726375818 0.433522940 0.166350633
0.858191073 0.429601640 0.179253370
0.976217628 0.432004839 0.202277005
0.196204737 0.578747571 0.148133904
0.255408198 0.585325360 0.153447077
0.362808287 0.588488281 0.158633634
0.485388815 0.587729156 0.160531193
0.617584050 0.583428025 0.169639453
0.744844735 0.575964510 0.175837919
0.867172658 0.567362189 0.198861375
0.983807504 0.569386542 0.233396575
0.277039766 0.742441475 0.199620545
0.318912297 0.746236503 0.203289017
0.410120010 0.741303325 0.208981276
0.519923866 0.741429448 0.214168429
0.645414591 0.737887561 0.215686336
0.766729712 0.729158878 0.219861269
0.883617818 0.716255426 0.242251620
0.991144776 0.707527161 0.279063702
0.329032272 0.838962555 0.234914377
0.363567382 0.845287859 0.249462560
0.431372643 0.848703384 0.257179111
0.527387619 0.846426547 0.259835571
0.637571156 0.839215577 0.268437475
0.755091727 0.833396733 0.276533812
0.875648320 0.835041106 0.293358386
0.985325515 0.822011590 0.326501817
0.440353900 0.961543381 0.371663302
0.471853077 0.969386339 0.389879853
0.520936370 0.966603398 0.400632799
0.593168795 0.964073300 0.397596538
0.676154315 0.961796045 0.403795332
0.783301890 0.956736088 0.412017554
0.883617818 0.950664043 0.426185697
0.989120603 0.949146211 0.454016119
0.003035996 0.003162904 0.235041186
0.124857634 0.000000000 0.244022638
0.267173082 0.000759096 0.248324186
0.424668193 0.003162904 0.259329289
0.570272386 0.000000000 0.256926090
0.725995958 0.006198998 0.266413987
0.864516258 0.061859805 0.274383277
0.984692812 0.110689238 0.277672261
0.016445002 0.121062547 0.233016834
0.145350650 0.125363991 0.246426538
0.275016099 0.127641082 0.250727206
0.416825116 0.131182641 0.250727296
0.564073265 0.140417188 0.259835660
0.708412349 0.147248477 0.259835541
0.844275832 0.164958835 0.259708732
0.976217568 0.183301985 0.276407391
0.072106004 0.271853179 0.248324186
0.167994738 0.275016099 0.255787641
0.297660083 0.278937101 0.248197287
0.440733731 0.283997625 0.264389724
0.586843371 0.289184093 0.267172903
0.727640808 0.296647877 0.270462006
0.855661213 0.300189793 0.275142401
0.985831678 0.307147175 0.295888752
0.113472186 0.424288452 0.256673098
0.198102176 0.425933182 0.260721177
0.326881826 0.430234015 0.264262855
0.456040710 0.432637811 0.267805070
0.598734915 0.428336442 0.273245156
0.726501882 0.432005048 0.278811187
0.853510320 0.431245923 0.283870935
0.975458562 0.435167730 0.299051374
0.182542995 0.575964391 0.269702792
0.247185647 0.582669020 0.273371160
0.362049192 0.582163274 0.268690884
0.479949623 0.585072815 0.278178215
0.612776339 0.579127371 0.275901109
0.743706405 0.575584948 0.286400765
0.864389539 0.571284056 0.300063282
0.982795596 0.571157277 0.320556283
0.269323349 0.737761080 0.302593082
0.315749407 0.744592071 0.303984880
0.403288931 0.740670443 0.303099185
0.517900169 0.737128735 0.312587082
0.637191594 0.730423570 0.309803933
0.767362416 0.723718822 0.317646950
0.876660526 0.708791733 0.328273118
0.985578775 0.709677756 0.355850726
0.320430189 0.839974761 0.320430189
0.358253837 0.842884064 0.335357398
0.429348588 0.841872096 0.336116165
0.524984241 0.838203490 0.338646442
0.636306167 0.838456571 0.346742362
0.754206121 0.834155679 0.352182180
0.873877406 0.837697446 0.364705473
0.981277406 0.823150098 0.400000244
0.437191635 0.956482887 0.425047159
0.469829232 0.960025072 0.440986872
0.514484227 0.962428629 0.450221270
0.592030346 0.959771752 0.450094730
0.676281214 0.956230104 0.458823532
0.774066865 0.951928973 0.459076881
0.878684282 0.948260427 0.475648195
0.988361597 0.949398816 0.497279882
0.010626356 0.002276998 0.369386643
0.138266727 0.000000000 0.379632831
0.278937101 0.000379548 0.377229631
0.423149973 0.000000000 0.390638649
0.582922399 0.000000000 0.398355722
0.734598100 0.001138644 0.403921634
0.863630533 0.029221639 0.402403623
0.987476170 0.110436514 0.402656257
0.017204095 0.120682999 0.365338713
0.144845188 0.122580640 0.376596630
0.280961543 0.125743449 0.379253417
0.417583972 0.126881897 0.380771279
0.574320257 0.132068351 0.392663091
0.711827755 0.136242986 0.386211365
0.850980341 0.148134187 0.393801540
0.977862179 0.180139169 0.393295467
0.056420095 0.268817097 0.393801540
0.170524746 0.272232652 0.386970192
0.310815752 0.277419180 0.397217184
0.450980633 0.278937101 0.399620384
0.589247346 0.285262167 0.407083899
0.725995898 0.288045466 0.397596538
0.860847592 0.298165649 0.403162539
0.986337543 0.315749168 0.411258668
0.118279286 0.422770262 0.396457911
0.195825189 0.431119621 0.405312926
0.322707176 0.434661388 0.406451285
0.460847616 0.431119621 0.400885284
0.595192552 0.427577466 0.403668731
0.730929494 0.429981261 0.405692399
0.859202921 0.431625575 0.409234643
0.981530607 0.437065095 0.413915128
0.150663838 0.579253376 0.409614533
0.225047633 0.583428025 0.405945271
0.353826642 0.587476552 0.408222377
0.487539262 0.582289398 0.405186266
0.625806689 0.582669079 0.402783066
0.745730579 0.573181510 0.413789064
0.858570635 0.571284175 0.422264278
0.982415795 0.574699521 0.440480620
0.274130255 0.740923464 0.431625545
0.320050627 0.740037978 0.433396399
0.412650526 0.738772750 0.438836277
0.519291520 0.732321143 0.433017045
0.642378569 0.728652716 0.438963085
0.764959097 0.724983990 0.440733731
0.875016034 0.711321831 0.439974934
0.985199153 0.711068690 0.475015700
0.330676705 0.837317944 0.436559290
0.372296184 0.843769789 0.453889996
0.437950373 0.840986550 0.448197156
0.530677021 0.842378557 0.446679294
0.638330102 0.840860367 0.452877998
0.756230116 0.835040927 0.459456086
0.875395298 0.835673630 0.472486019
0.980138779 0.825933039 0.490069747
0.447058827 0.957368612 0.520050406
0.474003673 0.962302446 0.522074699
0.531561852 0.961796284 0.529411554
0.600758791 0.957368612 0.530044317
0.675395310 0.955091596 0.535736740
0.776217639 0.950537562 0.538393199
0.881087840 0.948007762 0.552561641
0.988614798 0.948260427 0.570777833
0.022643996 0.000000000 0.509297967
0.147248283 0.000379548 0.518659174
0.283491284 0.000759096 0.509930193
0.427324653 0.000000000 0.521315753
0.579886436 0.001518192 0.537381172
0.735356987 0.001518192 0.543959379
0.862618566 0.013914993 0.532700479
0.983048737 0.103604950 0.532194734
0.033776194 0.121062450 0.505502701
0.151676267 0.124225348 0.514737189
0.281593859 0.120556384 0.510309696
0.428209931 0.122580640 0.519418240
0.570777833 0.122707263 0.519038737
0.713725269 0.128526285 0.523718953
0.849715233 0.142188445 0.521315694
0.979126811 0.173561066 0.521062672
0.050094996 0.266413987 0.525743306
0.169386283 0.268311530 0.536749005
0.307147175 0.270335197 0.533586323
0.446932614 0.273497909 0.535104275
0.596331298 0.277419299 0.542188168
0.733965933 0.280075729 0.532321095
0.861353576 0.291461021 0.533839285
0.985072553 0.315369934 0.534724951
0.100949086 0.426059365 0.535736442
0.194181085 0.425679833 0.542821229
0.321442038 0.424161911 0.539152086
0.462491810 0.421631902 0.539278805
0.599620581 0.422897071 0.533333480
0.727767229 0.429981172 0.533712804
0.851992190 0.435040921 0.531688690
0.977482498 0.447817951 0.545477629
0.156609803 0.574446142 0.548513353
0.231498733 0.588614941 0.554459035
0.352561474 0.586338103 0.546869099
0.481087983 0.582289577 0.541049838
0.619102001 0.578368187 0.547628343
0.736242950 0.578873754 0.547754347
0.858191073 0.579127312 0.546995163
0.978747606 0.578747749 0.555977225
0.285641819 0.738393307 0.565338373
0.337381572 0.737254918 0.568753779
0.421378762 0.735610723 0.571663499
0.525237143 0.731562078 0.574952543
0.641240120 0.727766812 0.566603184
0.761416972 0.725743055 0.564958990
0.873877585 0.716634929 0.571663439
0.981024742 0.714990735 0.587729275
0.356609821 0.833143294 0.564199984
0.399747282 0.846046925 0.578241587
0.455408096 0.844149351 0.574573100
0.536495864 0.843390048 0.574066699
0.637950659 0.840227365 0.573687196
0.755091727 0.838583231 0.574699640
0.872991681 0.836179256 0.582795501
0.979379773 0.829475105 0.595066547
0.452624947 0.957115650 0.611385167
0.482605904 0.959139824 0.619481564
0.527387559 0.956230104 0.622897089
0.594939947 0.959519148 0.624668181
0.681087971 0.954332590 0.626565576
0.775458694 0.951549351 0.627956748
0.874636471 0.949146152 0.634408832
0.987349570 0.948260486 0.650600791
0.037318259 0.000000000 0.646299481
0.155091807 0.000000000 0.654142976
0.292599827 0.001138645 0.652877808
0.431246012 0.001138644 0.659203112
0.573434591 0.000000000 0.665907443
0.712840021 0.001897740 0.660088718
0.852751315 0.001897740 0.664642751
0.980644822 0.082732782 0.653510571
0.035294000 0.111954279 0.631372452
0.150917366 0.112333827 0.637823999
0.286780208 0.113219447 0.648576677
0.426186174 0.114358090 0.650980353
0.564326108 0.110815637 0.646173239
0.712839961 0.112460345 0.653636932
0.847817719 0.130297437 0.652625144
0.974446595 0.166476861 0.648576558
0.034535099 0.259203106 0.659329593
0.171790004 0.263124555 0.664263248
0.304617077 0.260088176 0.663630724
0.442251831 0.261100829 0.663757205
0.582542717 0.261226833 0.661606789
0.726755202 0.266034454 0.664010227
0.858823359 0.277166277 0.664516389
0.977988601 0.309298068 0.659961998
0.084630013 0.406325281 0.660341203
0.178241387 0.409487486 0.669449627
0.311321825 0.405060112 0.666413665
0.446679085 0.409487635 0.664136410
0.593421876 0.411511838 0.668184459
0.732827246 0.412270814 0.663504362
0.851233184 0.423276633 0.653889894
0.973054707 0.444655269 0.663757086
0.149778441 0.562934816 0.667425632
0.233270168 0.562681794 0.679949284
0.339531720 0.571536958 0.672865391
0.470209002 0.562049091 0.667931914
0.607463598 0.563314378 0.668564200
0.736622512 0.572675586 0.666793466
0.853763521 0.575838327 0.670714736
0.973434389 0.587223232 0.684123933
0.274257004 0.725110471 0.688045740
0.323972046 0.728779435 0.694370449
0.408096164 0.729538321 0.701328397
0.517900169 0.723592818 0.689057708
0.630866349 0.717014492 0.682099879
0.744465470 0.712966442 0.679569781
0.859582305 0.711448252 0.684630156
0.971663654 0.717014492 0.694117546
0.356862724 0.834408581 0.687665880
0.389500320 0.838710070 0.678431094
0.453510582 0.834155500 0.682479322
0.543580174 0.834535003 0.692093730
0.644908190 0.832637727 0.693358481
0.751549423 0.838330507 0.691334724
0.868564308 0.835673749 0.690322459
0.972549260 0.829728246 0.708792031
0.471473545 0.950663984 0.720050454
0.505629301 0.951169968 0.720936179
0.546616197 0.950284779 0.723086536
0.604048252 0.953320563 0.721442163
0.671980023 0.948639929 0.719038725
0.769006670 0.949272811 0.721188784
0.871473849 0.947628260 0.726881504
0.980897725 0.949398816 0.736369550
0.045414288 0.000000000 0.780265570
0.159519359 0.000000000 0.788235545
0.294624090 0.000759096 0.792156637
0.430486947 0.000000000 0.791397572
0.572043002 0.000000000 0.789879739
0.714611173 0.000000000 0.788235545
0.853130817 0.000000000 0.787096858
0.979506612 0.065907612 0.789373755
0.026312452 0.113725096 0.776090980
0.157621801 0.108538836 0.781404257
0.291208148 0.107779838 0.787855983
0.431119382 0.109297737 0.785831630
0.567489088 0.104617357 0.784313560
0.710309684 0.105756000 0.784819782
0.845034838 0.108412348 0.783554554
0.970525086 0.153699890 0.775584996
0.012650003 0.250600904 0.787349701
0.151297003 0.253383934 0.792789698
0.294750214 0.253763378 0.787602603
0.430107504 0.256925970 0.792536080
0.577482522 0.255408108 0.792156637
0.717520535 0.262871563 0.794433653
0.857938111 0.267805099 0.793548346
0.982795477 0.298798531 0.782163024
0.021631915 0.396331549 0.790385544
0.151549548 0.396584749 0.790638626
0.295003265 0.397469908 0.795699000
0.434914291 0.400252998 0.789753258
0.582542658 0.403921515 0.794180870
0.716508627 0.407716632 0.789879560
0.859835923 0.410878897 0.793168902
0.972549260 0.432258070 0.783681095
0.132954091 0.550031543 0.787223339
0.214547545 0.550790489 0.798228920
0.325110465 0.553067565 0.799114406
0.453004450 0.553194106 0.800505877
0.590765357 0.550031543 0.795319557
0.724857569 0.559519291 0.802403450
0.862112463 0.563440919 0.793801367
0.969765961 0.579633057 0.785704911
0.258444428 0.706894219 0.807590127
0.304617345 0.712333977 0.805692375
0.385199577 0.709550858 0.806198359
0.496900916 0.708412468 0.804427624
0.616698205 0.706768215 0.803921521
0.735863447 0.704870462 0.802783012
0.862871289 0.710436702 0.805313289
0.962428451 0.718279421 0.804427743
0.339152575 0.839089572 0.798608541
0.375837982 0.840354264 0.805059850
0.439595401 0.842378557 0.806451559
0.541429222 0.834535003 0.805945575
0.633143663 0.835167587 0.805566132
0.750410736 0.836179256 0.812144220
0.862618566 0.830613554 0.809361219
0.970271945 0.834535003 0.815812886
0.479822904 0.945477784 0.806577802
0.489943236 0.952561796 0.818342924
0.535736620 0.950284660 0.814041674
0.606704831 0.947122097 0.817963541
0.687539637 0.945857167 0.824541092
0.780012608 0.948007703 0.830360293
0.866666555 0.944844782 0.832004964
0.973308206 0.944465399 0.837950528
0.056167167 0.000000000 0.918026805
0.159645557 0.000000000 0.918785810
0.290702105 0.001265167 0.923465788
0.430613458 0.000000000 0.918026805
0.572422564 0.000000000 0.921315432
0.709550679 0.000000000 0.921315491
0.846805751 0.009107991 0.916382074
0.975458801 0.069829434 0.915496767
0.033902623 0.111321807 0.910563231
0.154459372 0.111069083 0.918658733
0.284123927 0.108538836 0.910183787
0.426312566 0.111321807 0.911322176
0.562934816 0.110815637 0.915623009
0.705376208 0.116634794 0.918785691
0.843263865 0.125996083 0.910942674
0.984060585 0.156103820 0.915496767
0.004554276 0.251486301 0.914231777
0.143453389 0.253130913 0.919165254
0.288045436 0.256672949 0.918279648
0.427830368 0.256546646 0.919544578
0.567741930 0.258190960 0.918026567
0.708539128 0.263251096 0.916128874
0.846173465 0.273371369 0.918279290
0.985451877 0.291334659 0.922454059
0.004301157 0.389626920 0.912587047
0.131309077 0.389373869 0.912333965
0.280961454 0.392916024 0.918026507
0.425047457 0.397596419 0.921442151
0.566856563 0.399873435 0.911827803
0.707273781 0.401897371 0.912587047
0.845161378 0.412017286 0.920303822
0.979126751 0.425174266 0.916508675
0.082099773 0.540164530 0.921821654
0.182795733 0.543959439 0.923592508
0.300316125 0.544212401 0.917773545
0.435167819 0.541935563 0.918026805
0.572169185 0.546236396 0.917773426
0.711575031 0.552308440 0.921062708
0.847311914 0.556609631 0.919165015
0.979379773 0.568500817 0.923718989
0.239721894 0.695255935 0.925995767
0.290322453 0.694749773 0.927640676
0.369892299 0.697406352 0.920429766
0.481214404 0.693864524 0.920809627
0.596584380 0.694623649 0.920050561
0.717520714 0.697912753 0.925110757
0.852625012 0.698292136 0.923718870
0.978621066 0.709044993 0.925616801
0.346489459 0.823150098 0.921062469
0.377482384 0.832890570 0.922327340
0.438583255 0.831372440 0.923465967
0.526502132 0.830234170 0.920430005
0.627577424 0.830360532 0.923465788
0.739784837 0.829475164 0.924225092
0.847564757 0.832131326 0.921947777
0.971284270 0.833269835 0.921947777
0.463124782 0.953320801 0.932574451
0.480581909 0.958506942 0.929031789
0.527640641 0.954585612 0.929031909
0.594180584 0.954838574 0.927008152
0.676533937 0.953446984 0.927261114
0.772801697 0.950663984 0.929158568
0.866033971 0.942820966 0.932068050
0.961036921 0.944085836 0.936369658
