Assets/EldamarStudio/100 Retro LUTs Pack/LUTs/cube/Wayne LUT.cube
LUT_3D_SIZE 5
DOMAIN_MIN 0.000000 0.000000 0.000000
DOMAIN_MAX 0.903226 0.903226 0.903226
0.000000000 0.003922000 0.000000000
0.245540693 0.001644708 0.000000000
0.495003372 0.010499994 0.003922000
0.772928238 0.044149127 0.030487126
0.989753127 0.112586975 0.100948796
0.059202701 0.245540693 0.000000000
0.260594696 0.251106977 0.000000000
0.521189213 0.262238979 0.026818415
0.789247274 0.273624271 0.059203122
0.992283165 0.288045526 0.121694818
0.181783825 0.533459783 0.053004406
0.340037823 0.543326795 0.062492117
0.576091230 0.542694807 0.087033406
0.794433951 0.527007997 0.113472544
0.992409945 0.517899811 0.184566796
0.282479256 0.773814142 0.144339129
0.401517838 0.784566998 0.172042832
0.587476254 0.778367937 0.182922542
0.808096290 0.764958978 0.200252980
0.993674815 0.744718432 0.262618691
0.443516791 0.965085447 0.363820612
0.510183811 0.974193633 0.386084765
0.636179388 0.968880773 0.393295169
0.809487641 0.958380818 0.404048055
0.991144776 0.949272633 0.439721614
0.004554003 0.001644708 0.206957698
0.238330111 0.000000000 0.216445416
0.498292357 0.001644708 0.227577403
0.769006848 0.041872434 0.244908705
0.984946072 0.115496270 0.255660832
0.059202701 0.242251694 0.220999420
0.261227131 0.247817993 0.221631989
0.510689437 0.256293416 0.234408692
0.768627584 0.265781105 0.237065271
0.988614798 0.278557837 0.262998223
0.160151586 0.512840092 0.237950981
0.323339671 0.523719013 0.248450398
0.557368696 0.525363684 0.249082997
0.786211371 0.510942519 0.263124734
0.991144776 0.510689437 0.297280103
0.283491552 0.758760154 0.277546108
0.392663121 0.769259691 0.292725950
0.581277549 0.765970647 0.293991119
0.795698822 0.752561629 0.299177706
0.988108635 0.737507999 0.343706250
0.436685771 0.959519088 0.412903160
0.502339780 0.967235982 0.430486768
0.633902669 0.959392488 0.443896055
0.803162158 0.952940881 0.448703200
0.989879608 0.949652076 0.483870924
0.011132416 0.001265006 0.436179370
0.244275689 0.000632584 0.438456655
0.493738234 0.003289416 0.455154806
0.755597532 0.000632584 0.463630378
0.981404185 0.093738213 0.457052410
0.044781711 0.231499404 0.450853705
0.260215402 0.233776107 0.451866239
0.512966514 0.242251709 0.465907693
0.762049258 0.246173277 0.461986095
0.982416034 0.278304696 0.467931658
0.132700577 0.501454413 0.471347421
0.300063014 0.510689437 0.485515505
0.546615839 0.504743814 0.480582237
0.770904243 0.507399976 0.486148059
0.986084759 0.513978839 0.491840780
0.287792802 0.750537395 0.487792820
0.392536551 0.760784149 0.498924553
0.574699402 0.753573537 0.497280121
0.789500117 0.749272287 0.499936670
0.979127049 0.742441297 0.531688809
0.448703647 0.953953207 0.557241797
0.510689378 0.958253920 0.571284115
0.628968954 0.956483245 0.577482224
0.802276790 0.949652135 0.581024647
0.989247203 0.946742594 0.605060160
0.038330127 0.000000000 0.683744371
0.257938296 0.002909872 0.692852557
0.506134927 0.001644712 0.696141720
0.753320277 0.003922000 0.695509136
0.983427942 0.081467614 0.686654270
0.042378008 0.225553408 0.699304581
0.268690825 0.229474828 0.704870403
0.515875995 0.228842571 0.702846408
0.765717983 0.232131407 0.701961160
0.981783628 0.274383068 0.693864703
0.119797453 0.489057392 0.702593565
0.294244230 0.500569105 0.705502808
0.532194436 0.492979378 0.712966144
0.775838137 0.497280121 0.705250144
0.980771363 0.521189213 0.699051380
0.287413150 0.747375190 0.706262052
0.395446002 0.758128107 0.725616574
0.576597393 0.750916958 0.717899978
0.774826288 0.747375250 0.716002285
0.969892681 0.749651968 0.728779137
0.478305101 0.952940941 0.739279091
0.535230458 0.951296806 0.750664234
0.643390357 0.951296806 0.751296639
0.794054210 0.952055633 0.750031412
0.976849794 0.949398816 0.761163771
0.056167167 0.000000000 0.918026805
0.257305712 0.001012124 0.921695054
0.495635808 0.000000000 0.917394221
0.744465351 0.000000000 0.921062469
0.975458801 0.069829434 0.915496767
0.014927176 0.220619708 0.914484441
0.253383696 0.222011685 0.914484680
0.493991077 0.222644120 0.919038653
0.739911556 0.232890815 0.917141020
0.985704899 0.257432252 0.919671059
0.009487625 0.462239236 0.923339784
0.259582549 0.469449818 0.921568692
0.503478825 0.475395381 0.924604774
0.747375250 0.484250516 0.920303524
0.985325396 0.504237354 0.920050323
0.263504446 0.729664445 0.920935929
0.365844548 0.733333528 0.921695054
0.546616256 0.730423868 0.923592508
0.754206359 0.728779137 0.924857676
0.980138779 0.742188394 0.925869584
0.463124782 0.953320801 0.932574451
0.519291818 0.953320801 0.931815088
0.635673583 0.953320742 0.929158330
0.798355401 0.949652135 0.930170596
0.961036921 0.944085836 0.936369658
