Assets/EldamarStudio/100 Retro LUTs Pack/LUTs/cube/Wayne LUT.cube
DOMAIN_MIN 0 0 0
DOMAIN_MAX 1 1 1
LUT_3D_SIZE 32
0.000000000 0.003922000 0.000000000
0.021252386 0.003922000 0.003036387
0.053257547 0.003922000 0.003922000
0.090955153 0.002656839 0.003922000
0.130423635 0.000000000 0.003922000
0.169892788 0.000000000 0.003922000
0.209361315 0.000000000 0.001391678
0.245540693 0.001644708 0.000000000
0.278178185 0.003922000 0.000000000
0.308539003 0.003922000 0.000000000
0.347627848 0.003922000 0.000000000
0.387096763 0.003922000 0.000000000
0.425427288 0.003922000 0.001138644
0.461607039 0.004428000 0.003922000
0.495003372 0.010499994 0.003922000
0.535610557 0.009361196 0.008728996
0.575079381 0.010878997 0.011765000
0.612777114 0.016950993 0.011765001
0.655282021 0.023023007 0.011765004
0.695003390 0.029095715 0.014547647
0.734471679 0.037065253 0.021378737
0.772928238 0.044149127 0.030487126
0.809487522 0.047564983 0.039468993
0.848956764 0.059709001 0.045541000
0.879317284 0.069576286 0.053890284
0.908032954 0.080075979 0.065781295
0.938899159 0.091714062 0.078937069
0.972296298 0.100822441 0.081973448
0.989753127 0.112586975 0.100948796
0.997849226 0.124730960 0.118659176
0.998229027 0.139531583 0.133839592
0.992156982 0.160784006 0.149020001
0.000000000 0.022138000 0.000000000
0.030360773 0.022138000 0.000000000
0.058064386 0.028589774 0.000885613
0.092725933 0.031246386 0.000885613
0.130803093 0.029981226 0.000885613
0.172928408 0.027324386 0.000885613
0.202276930 0.032384384 0.000885613
0.244654983 0.033396386 0.004933705
0.283491105 0.035041094 0.007590388
0.311574608 0.037318386 0.003036387
0.347754329 0.037318386 0.003036387
0.387096763 0.039342128 0.005060127
0.423150003 0.040353999 0.004933646
0.456040323 0.040607031 0.004428000
0.495003372 0.043896381 0.009994000
0.533206761 0.047565192 0.009994000
0.572043002 0.047312159 0.010246808
0.609740734 0.049715571 0.010626181
0.652245581 0.053383783 0.017837003
0.694750369 0.062239137 0.020619648
0.732574463 0.068564385 0.023655739
0.768880486 0.074509904 0.029474998
0.803415537 0.077799246 0.036812112
0.842883945 0.087033391 0.051612999
0.877799034 0.094623387 0.059962284
0.910815954 0.101580992 0.069070309
0.944465101 0.109930061 0.079949066
0.975331903 0.119038433 0.088045448
0.992789447 0.125489980 0.099050969
0.999114394 0.138646185 0.112080812
0.997343421 0.152055368 0.127387807
0.989120603 0.166855991 0.149020001
0.004300999 0.055407770 0.000000000
0.028209999 0.057558544 0.002150774
0.060721003 0.059709318 0.002150774
0.098671317 0.063757390 0.003415613
0.137887090 0.062871777 0.003542000
0.173307866 0.061606616 0.000000000
0.207463309 0.066160545 0.000000000
0.239721403 0.068943545 0.000000000
0.281720191 0.068184644 0.006831225
0.310436279 0.068438038 0.006325224
0.348639727 0.072865546 0.003922000
0.387096763 0.074889287 0.005945740
0.424288630 0.075648189 0.006704646
0.456166834 0.074383289 0.003922000
0.493738204 0.073624186 0.006198994
0.533206761 0.078810804 0.009614226
0.569639206 0.081847191 0.011132419
0.607336938 0.083112188 0.009361199
0.651359975 0.086147815 0.012397203
0.689563751 0.092599362 0.020240422
0.728273451 0.096014999 0.027071511
0.763694108 0.100569129 0.029601775
0.797343493 0.103858501 0.033649758
0.836811960 0.112966642 0.046805907
0.871726811 0.115496546 0.059582509
0.905123651 0.122959852 0.070082203
0.940796852 0.129284844 0.080961064
0.974446595 0.135104209 0.093358442
0.991524041 0.145856768 0.096520975
0.994307220 0.153699964 0.113978162
0.996204793 0.166350365 0.126375586
0.994686782 0.177229539 0.146869227
0.012902999 0.092346482 0.001265161
0.036685709 0.095382549 0.001771226
0.062744938 0.097153768 0.003922000
0.094876476 0.100190155 0.002656839
0.142314717 0.097533323 0.005692549
0.175331861 0.097533323 0.002277162
0.210752636 0.102593318 0.001265161
0.243263409 0.104111157 0.002529999
0.278937101 0.105629154 0.001771097
0.309803843 0.104111478 0.006325160
0.346363008 0.106009156 0.003668710
0.385831594 0.110056899 0.004680902
0.423023492 0.110815808 0.005439517
0.456925929 0.108033158 0.003162839
0.494370788 0.106008902 0.005186839
0.531941891 0.110183313 0.008855190
0.568374395 0.113472350 0.009361193
0.604300678 0.117141150 0.014294984
0.649841785 0.120809354 0.014421199
0.687033534 0.124098323 0.019987524
0.722201109 0.127640486 0.025300737
0.758633912 0.127640486 0.034408867
0.792283356 0.130676791 0.035547342
0.829475105 0.139784902 0.046553001
0.863124549 0.140797153 0.054902155
0.896521330 0.142441466 0.064516135
0.930929899 0.150537223 0.078178219
0.968121707 0.153573617 0.094876595
0.991018295 0.163314298 0.098039001
0.993801177 0.174952358 0.109171316
0.991271138 0.182289764 0.129538134
1.000000000 0.190639153 0.145098001
0.023529001 0.126122996 0.003542452
0.051992610 0.128779158 0.001265161
0.077166542 0.130423635 0.001771226
0.103605315 0.130929708 0.002656839
0.134725094 0.133586541 0.000000000
0.174193472 0.133586541 0.003036387
0.213282958 0.138646543 0.004301451
0.248197541 0.140164375 0.005566289
0.278557658 0.138266638 0.006704550
0.311954081 0.144338638 0.003668935
0.346489608 0.142441422 0.001771129
0.383554786 0.143073827 0.002403707
0.421125740 0.144212186 0.003542355
0.454269111 0.141429543 0.000506032
0.493358672 0.141429543 0.006198543
0.531183004 0.146236539 0.013029544
0.566097617 0.149652094 0.015306646
0.601265073 0.150537536 0.013915436
0.646805584 0.156609550 0.026059456
0.683997273 0.157115549 0.030613808
0.719291270 0.159013286 0.032132000
0.752940834 0.161037549 0.034408867
0.789247036 0.161164060 0.043389991
0.822644114 0.169765741 0.052245356
0.854142964 0.170145378 0.057938285
0.885515213 0.169512957 0.062365986
0.918785214 0.172548592 0.069070511
0.958254278 0.175584987 0.090322882
0.987855792 0.183554813 0.097153701
0.997217000 0.193674967 0.108285852
0.993927956 0.203542158 0.125363976
1.000000000 0.206578553 0.143580005
0.023529001 0.162554994 0.000506065
0.059961773 0.162554994 0.003542452
0.086274609 0.167362481 0.001265161
0.111828096 0.168627635 0.000506065
0.140797094 0.166982919 0.000000000
0.177229866 0.166982919 0.000000000
0.214168578 0.172042936 0.005566064
0.249462694 0.174825937 0.007337064
0.280835032 0.173560962 0.006325002
0.308918446 0.171663791 0.000632552
0.351043671 0.174825922 0.006325063
0.387982517 0.174825937 0.006830999
0.424921215 0.175331861 0.007337064
0.460341901 0.174825937 0.006578031
0.490701854 0.174825937 0.003542422
0.532194614 0.179632932 0.014041926
0.569133282 0.184187114 0.020619739
0.603794754 0.186717287 0.022011066
0.643769979 0.190005928 0.023023076
0.680961668 0.190511942 0.032384425
0.719291627 0.192409664 0.036685806
0.754712224 0.194433928 0.039215870
0.786211371 0.194560438 0.043389991
0.819607854 0.197596848 0.049462002
0.853004336 0.199367806 0.060594637
0.884503305 0.198861867 0.068437986
0.915370047 0.199873745 0.074509993
0.946110308 0.202909380 0.081214495
0.980265737 0.208601922 0.097153872
0.996710956 0.215179965 0.108538896
0.998987973 0.222264200 0.120809667
1.000000000 0.227830932 0.131435990
0.041239321 0.206577957 0.000000000
0.065021776 0.206577957 0.000506065
0.099304318 0.208728731 0.001391678
0.127261311 0.211891636 0.001265161
0.156230092 0.210499957 0.002150774
0.188361868 0.210499957 0.000000000
0.219734639 0.210499957 0.000000000
0.261100680 0.214927241 0.004427709
0.299557269 0.215812638 0.007590223
0.333966166 0.214547798 0.010372998
0.360657722 0.217331082 0.008349322
0.399114490 0.216318697 0.012397062
0.436685652 0.216951281 0.015179997
0.474762768 0.218595922 0.018216031
0.511954606 0.220872641 0.019734420
0.551929176 0.220872641 0.021505803
0.594434023 0.226691633 0.028716126
0.631499052 0.230107307 0.032384314
0.669070601 0.231245667 0.036179326
0.708286047 0.231498629 0.041998357
0.742821038 0.233396381 0.047311738
0.777988553 0.235420644 0.050348125
0.808475733 0.235420644 0.053763628
0.841872215 0.236053228 0.064642645
0.870714545 0.241366312 0.070714638
0.903604984 0.241872311 0.082352981
0.935610175 0.242884308 0.091713995
0.967995167 0.247944191 0.101833992
0.980771422 0.251106948 0.110815801
0.992915869 0.253636956 0.124224961
0.996710956 0.259076536 0.138140202
1.000000000 0.266793638 0.152182326
0.059202701 0.245540693 0.000000000
0.082099795 0.245540693 0.000000000
0.102087319 0.249335751 0.001644708
0.138014153 0.251106977 0.002909546
0.167994708 0.250727534 0.005186837
0.193295151 0.249462694 0.002150773
0.233523339 0.251106977 0.006577994
0.260594696 0.251106977 0.000000000
0.305376202 0.253383696 0.003036389
0.345730782 0.253383696 0.010373231
0.375584990 0.256293565 0.012776872
0.407969475 0.256926149 0.012144452
0.443263620 0.256167054 0.017457062
0.481720090 0.259203374 0.023782032
0.521189213 0.262238979 0.026818415
0.561416805 0.262871414 0.031499092
0.602403820 0.265907407 0.036053285
0.644149542 0.270714402 0.039847989
0.681594253 0.270714402 0.045920007
0.719165385 0.270714402 0.051992420
0.754838705 0.272612154 0.056166735
0.789247274 0.273624271 0.059203122
0.820999444 0.273118198 0.062618978
0.854395866 0.274636418 0.074763000
0.883238256 0.277545691 0.085641988
0.913345635 0.282226384 0.091713980
0.945730209 0.282479405 0.102846056
0.976850331 0.286274403 0.113851696
0.992283165 0.288045526 0.121694818
0.994307220 0.290954977 0.135863379
0.993927956 0.292726189 0.150664002
1.000000000 0.301075697 0.169639707
0.073624194 0.279696196 0.000759098
0.096394770 0.279696196 0.000759096
0.118026868 0.282479197 0.002150775
0.139532149 0.286021203 0.004427938
0.177482530 0.286400735 0.007843099
0.196837083 0.284124106 0.005945935
0.235800177 0.285388976 0.011511677
0.275015980 0.287539184 0.011385103
0.301581293 0.287539184 0.003795094
0.344086081 0.287539184 0.006831485
0.378620863 0.291207969 0.012776997
0.414041519 0.292979211 0.014800998
0.449335814 0.292599648 0.016698545
0.483238220 0.295383006 0.025553193
0.522707224 0.297912657 0.029095510
0.562175751 0.299304187 0.034535091
0.599367499 0.300822198 0.039847996
0.639469028 0.306261599 0.046552565
0.679064035 0.306388080 0.052751105
0.714231730 0.306388080 0.058823615
0.749525666 0.307526737 0.063757256
0.782416165 0.309297949 0.065275133
0.818595886 0.306388080 0.068564504
0.851359844 0.308791906 0.080076098
0.881720245 0.311068833 0.091460995
0.911827624 0.314104795 0.102339983
0.944718122 0.317141175 0.108412124
0.972296238 0.317394167 0.117267534
0.990512192 0.316635102 0.125995979
0.995825231 0.319164962 0.139152393
0.993168890 0.323086202 0.153700396
0.999240935 0.329158992 0.174952805
0.085768968 0.316128999 0.003795491
0.103984967 0.316128999 0.003795487
0.131056547 0.316128999 0.003795488
0.158254489 0.316381991 0.003922008
0.183554545 0.316761553 0.004807494
0.210878938 0.319797933 0.010879488
0.240354136 0.320050985 0.014041681
0.276407212 0.321821749 0.014041717
0.313725293 0.323971987 0.012903492
0.347122490 0.323971987 0.018975489
0.383807480 0.329790980 0.024921000
0.420113504 0.333712757 0.026945004
0.455407917 0.334345341 0.028083650
0.489311010 0.331815004 0.031625971
0.528779328 0.331815004 0.037697963
0.568247736 0.334345341 0.043643482
0.603162348 0.335736990 0.048197292
0.636432648 0.336622417 0.052624572
0.678937554 0.339658022 0.061732974
0.710183740 0.339784503 0.067931488
0.744592011 0.339784503 0.074003510
0.778873801 0.339911044 0.076913133
0.809487522 0.339784503 0.074636512
0.839848340 0.339784503 0.083744913
0.872612298 0.339911044 0.092979185
0.905755639 0.341429204 0.103604980
0.938646138 0.344465584 0.114484131
0.969006896 0.347501934 0.120556898
0.991271317 0.345098168 0.134724617
0.999873459 0.347501487 0.151296407
0.998861372 0.353446960 0.165085390
0.996204555 0.359519035 0.168880031
0.100822121 0.352561742 0.015559997
0.110309996 0.352561742 0.006831130
0.134977773 0.350410968 0.011132128
0.165844277 0.352181882 0.016445287
0.195825085 0.355850399 0.020619998
0.225679800 0.358886778 0.016571999
0.253004193 0.359392852 0.020113677
0.284629703 0.361037552 0.024794417
0.320809186 0.363314629 0.027071770
0.356356591 0.363314629 0.030992996
0.386843860 0.363314629 0.028336871
0.423276365 0.365338624 0.034408867
0.459709138 0.366350740 0.036179870
0.494877040 0.365591586 0.037192002
0.529032350 0.368247718 0.037950996
0.563693762 0.370651543 0.046426188
0.602150559 0.373687536 0.051486321
0.637950778 0.374446452 0.055787440
0.675901115 0.372928649 0.064895846
0.712839842 0.373181611 0.071220875
0.743453622 0.373181611 0.077292867
0.775838137 0.372169465 0.082352996
0.806198895 0.370271742 0.083618343
0.836558998 0.370271742 0.092726037
0.866919696 0.370271742 0.097280413
0.898292303 0.368880421 0.105123177
0.929664850 0.368374735 0.114231065
0.960025012 0.369007319 0.117900029
0.987728953 0.377356023 0.131941944
0.998861372 0.377102852 0.147122055
1.000000000 0.380897850 0.159772396
0.998987854 0.386969864 0.162808001
0.113978505 0.388994515 0.021631740
0.133206621 0.391018242 0.012523870
0.149146289 0.388868004 0.018216252
0.176470667 0.387096763 0.025553413
0.207210511 0.391650766 0.032005157
0.234281868 0.396331429 0.022643741
0.266160846 0.398861229 0.026186191
0.295129508 0.397216946 0.029221801
0.326628357 0.399494171 0.033396740
0.359265983 0.400758982 0.035167515
0.393927723 0.400758982 0.038456608
0.426312238 0.402783245 0.041492734
0.461606652 0.403921872 0.046426378
0.497153997 0.404554486 0.047565024
0.532321155 0.404048085 0.049336247
0.565717995 0.405060053 0.042378191
0.599114418 0.408096433 0.053004384
0.636938870 0.409867167 0.057558671
0.673371315 0.406831205 0.063883714
0.705755413 0.404553980 0.072233006
0.740290880 0.402656734 0.080202736
0.769766152 0.402530253 0.085389130
0.799114704 0.400632501 0.088425249
0.829475284 0.400632501 0.093738355
0.861859560 0.402656227 0.104364276
0.895003319 0.402656227 0.110183656
0.926629007 0.400253057 0.119291447
0.956988990 0.398735255 0.125363439
0.984692812 0.400632650 0.134977818
0.997849226 0.407969475 0.150158167
0.999114394 0.408475518 0.162681997
0.997975767 0.412270516 0.166856259
0.135230988 0.441366255 0.029221639
0.157242283 0.442125171 0.022391025
0.177229539 0.441998690 0.024920994
0.196964145 0.441366255 0.033523157
0.223909095 0.441366255 0.041492999
0.248197272 0.445920259 0.032384414
0.278937310 0.448323578 0.034281995
0.311828256 0.448070645 0.039848574
0.343706459 0.445793927 0.043643281
0.372169435 0.448450089 0.044402283
0.405945361 0.448576570 0.045667283
0.439215511 0.449462175 0.052877635
0.474888921 0.451359928 0.056672640
0.508539021 0.454143286 0.059455995
0.544971228 0.451992512 0.061606769
0.580139041 0.451359928 0.057179034
0.612397432 0.449462473 0.052624732
0.645793796 0.451233685 0.064136922
0.681720614 0.448197305 0.068184689
0.714863956 0.444022566 0.079064004
0.742567778 0.443263680 0.088172086
0.774952590 0.441239923 0.095256478
0.802783012 0.440986931 0.098545142
0.835167825 0.438962907 0.103605539
0.863251269 0.440101266 0.108918630
0.895762324 0.440606922 0.119671009
0.931183159 0.440100849 0.129791409
0.961543262 0.437065065 0.140164167
0.984692812 0.437824279 0.150411099
0.997849226 0.440227896 0.163061172
1.000000000 0.445414335 0.180012584
0.997216642 0.445667267 0.187349632
0.169639051 0.515243053 0.043896031
0.186843768 0.513219416 0.040860355
0.205313027 0.511828005 0.042125259
0.225300193 0.512839854 0.046426158
0.246426061 0.516002059 0.046805967
0.270714819 0.516002059 0.046805967
0.300063014 0.515749037 0.050347708
0.332827091 0.514863789 0.054775417
0.366224140 0.512334049 0.060594965
0.402656943 0.512334049 0.066666961
0.433270007 0.512081027 0.061859995
0.463883519 0.512334049 0.065654770
0.497153640 0.512334049 0.071093999
0.536622107 0.512334049 0.071853034
0.573054850 0.512334049 0.071853034
0.609234571 0.512081027 0.072106063
0.642631352 0.509045005 0.071600065
0.674130499 0.503858447 0.073497571
0.707526982 0.500822067 0.082605988
0.742441714 0.495256037 0.096521340
0.770145714 0.494623750 0.107400283
0.794433951 0.496648014 0.114990160
0.824920535 0.496521533 0.118279502
0.861226857 0.490576029 0.127387866
0.887033224 0.488804996 0.130929992
0.912460268 0.487413377 0.135104373
0.942315161 0.484882981 0.144718125
0.972675860 0.481846601 0.159898490
0.990006149 0.483870864 0.172422647
0.997849226 0.486654222 0.185578763
1.000000000 0.489437401 0.202276587
1.000000000 0.492473006 0.223528996
0.181783825 0.533459783 0.053004406
0.187855825 0.542568147 0.049968027
0.207210764 0.538393259 0.051233348
0.230360568 0.536116004 0.060594410
0.255281419 0.537507474 0.069955431
0.273750424 0.543327212 0.043769583
0.303099215 0.540796876 0.056419902
0.340037823 0.543326795 0.062492117
0.376850098 0.545224547 0.066160895
0.405692548 0.542694807 0.069702573
0.436306298 0.539784968 0.072865441
0.468690664 0.541429639 0.076027982
0.501454651 0.542694807 0.079316773
0.536622107 0.542694807 0.077925026
0.576091230 0.542694807 0.087033406
0.610120177 0.540291011 0.089437202
0.642631352 0.536369383 0.087286815
0.674889505 0.531562388 0.085642233
0.713598967 0.531182826 0.094749965
0.735863388 0.528146446 0.101074994
0.765971005 0.526375413 0.107147314
0.794433951 0.527007997 0.113472544
0.824920535 0.526881516 0.121315889
0.858317673 0.523845851 0.130423516
0.890069366 0.520177066 0.144085854
0.918532312 0.517773628 0.153320640
0.947881103 0.515749753 0.162428886
0.972675860 0.518279374 0.172043249
0.992409945 0.517899811 0.184566796
0.999367416 0.518532395 0.193168968
1.000000000 0.519164979 0.204680383
1.000000000 0.519797385 0.223528996
0.196331799 0.561290562 0.062112797
0.204806983 0.567995131 0.051865615
0.213029757 0.570651770 0.061732773
0.234535307 0.571410239 0.063251153
0.259962350 0.574066579 0.071600266
0.280202627 0.572042823 0.064515859
0.310942441 0.575332224 0.062998116
0.341302782 0.573940575 0.071600087
0.376976490 0.576217532 0.073877186
0.404301316 0.573181450 0.075268514
0.436938733 0.574952722 0.075901061
0.465275258 0.571916342 0.078937449
0.497912645 0.571916580 0.083491646
0.531815112 0.570651770 0.083744608
0.571284235 0.570651770 0.090702213
0.608348966 0.570651770 0.095002994
0.638709784 0.567615390 0.096521191
0.669449925 0.563693762 0.094750173
0.707147181 0.563693762 0.102087028
0.734724581 0.560911000 0.103605002
0.761669636 0.559772372 0.109676994
0.792030454 0.558760226 0.115243316
0.822390795 0.557368577 0.124351688
0.853510678 0.556609631 0.133459911
0.886907279 0.553573489 0.144844800
0.917393744 0.550537467 0.157115668
0.946742296 0.548007786 0.167236075
0.971031070 0.549146175 0.180139437
0.992409945 0.542314827 0.184693158
1.000000000 0.551169991 0.202150345
0.999114394 0.554332554 0.212270588
0.997596204 0.554332554 0.225932807
0.205439806 0.593169153 0.065148808
0.219101995 0.599241138 0.065148413
0.229727954 0.601012170 0.066286966
0.241366342 0.601012170 0.077672191
0.265654981 0.608981371 0.075395539
0.290322721 0.607463360 0.076154441
0.317141324 0.605945706 0.073118322
0.348893374 0.605819166 0.076154292
0.379253387 0.605819166 0.079949193
0.407337308 0.603541911 0.081467383
0.435926855 0.606325209 0.082985193
0.469829440 0.605313122 0.085009448
0.498292178 0.602276742 0.088045545
0.531056046 0.599747002 0.090828799
0.566730022 0.601012170 0.094370797
0.600759149 0.599493980 0.098039381
0.638709366 0.599493980 0.101074994
0.666666925 0.596457779 0.102972560
0.701328218 0.595572352 0.109930187
0.729411542 0.592789352 0.110436186
0.760151446 0.593169153 0.114231184
0.788488269 0.590133011 0.119291320
0.817837000 0.586211145 0.127387658
0.848197460 0.586211145 0.136495709
0.877799332 0.582416117 0.147881180
0.911195695 0.579379678 0.158633500
0.941176236 0.577356040 0.169259936
0.966476858 0.578368187 0.185452431
0.989626586 0.571916580 0.190006152
1.000000000 0.572422385 0.200632155
1.000000000 0.584060788 0.223655567
0.997596204 0.584693372 0.236558989
0.211638153 0.626565516 0.066540144
0.229854748 0.632005095 0.078051575
0.242504999 0.635673523 0.083111770
0.255914152 0.633776128 0.086148009
0.271853536 0.634914577 0.092220001
0.301454574 0.641239524 0.089943342
0.327387631 0.639089286 0.083744653
0.353700399 0.636685789 0.079949431
0.384061009 0.634408534 0.083111599
0.414421052 0.634408534 0.089184374
0.439595163 0.636053383 0.091714121
0.470714927 0.635673881 0.094750248
0.505502999 0.633902490 0.097786337
0.535863042 0.630866170 0.100822017
0.566223800 0.633143544 0.101201564
0.596584618 0.630739927 0.102972791
0.630234182 0.629854143 0.107273944
0.667805135 0.629221737 0.108412147
0.698166013 0.626186073 0.117520556
0.726375759 0.623149753 0.118911996
0.756862700 0.623276293 0.122074574
0.787855685 0.623529375 0.127767131
0.812270939 0.614547491 0.130929992
0.842124999 0.613535523 0.139531687
0.870841265 0.609614134 0.150284573
0.900316656 0.605566025 0.162302464
0.932701051 0.603035688 0.171410084
0.960025430 0.605945587 0.189247310
0.985325575 0.602277160 0.196710736
0.997849226 0.601391554 0.207463324
1.000000000 0.606578171 0.223655581
1.000000000 0.609614551 0.250979990
0.229854986 0.659962058 0.084757000
0.248071000 0.662998378 0.093864620
0.257685065 0.670588255 0.096774027
0.268058211 0.671347201 0.097027056
0.283997595 0.665275455 0.098292053
0.305249989 0.674383044 0.104364038
0.332321316 0.670588017 0.104617074
0.357748419 0.668058097 0.102213755
0.384061038 0.667805016 0.101201884
0.414421082 0.667805016 0.104364045
0.441871911 0.664895892 0.104617082
0.470967561 0.664390028 0.106894299
0.502972662 0.665275395 0.109930396
0.535863101 0.667299032 0.112966068
0.566223860 0.664263368 0.116002455
0.596584618 0.659330010 0.116382003
0.628463209 0.658064783 0.121189222
0.661733091 0.659582615 0.126628965
0.692094088 0.656546950 0.120556988
0.722454071 0.653510571 0.124098651
0.752561510 0.652372003 0.126881778
0.782163143 0.651612878 0.131182998
0.809234619 0.647943974 0.137002036
0.836558998 0.641871989 0.143074051
0.866413593 0.638583302 0.151676297
0.896521330 0.636686027 0.163820699
0.926629007 0.636432946 0.177482888
0.953953385 0.636432946 0.186590493
0.981277764 0.636686027 0.201770887
0.995951951 0.634408772 0.217710406
1.000000000 0.633902669 0.234788328
1.000000000 0.636939049 0.250980049
0.270335734 0.732321084 0.139152408
0.282985747 0.729791522 0.142694727
0.292599738 0.732827306 0.143200338
0.301201731 0.736875057 0.141302913
0.316002458 0.732321322 0.139405549
0.339658678 0.727008462 0.138266742
0.355851084 0.728526413 0.139278740
0.383807719 0.726249456 0.137634441
0.411132127 0.726249456 0.136116639
0.439468414 0.726249456 0.139152259
0.464136600 0.720556319 0.142062098
0.493485242 0.717520654 0.146110088
0.524984360 0.716761708 0.147628099
0.558127820 0.717900097 0.147121742
0.588488579 0.717394114 0.147627801
0.616445541 0.714357913 0.143453389
0.647944570 0.710183620 0.144212574
0.681340873 0.708792150 0.148893371
0.713851988 0.703605711 0.147122398
0.746995389 0.706135333 0.157748371
0.777355850 0.701201737 0.160784468
0.805692613 0.698418617 0.164832726
0.831372738 0.695255756 0.170904726
0.861353278 0.689183772 0.176976740
0.886400938 0.685389042 0.183048740
0.915749669 0.682353079 0.191651046
0.945604384 0.679949343 0.203036308
0.972928762 0.675395370 0.212143913
0.986970305 0.675395370 0.229222015
0.997722983 0.677166581 0.244528919
1.000000000 0.677925467 0.264389962
1.000000000 0.680961370 0.287160099
0.282479525 0.762681723 0.149399012
0.300316244 0.761543393 0.158127666
0.306261986 0.766603708 0.172042966
0.313599139 0.768374443 0.156356588
0.327767313 0.768374443 0.150411263
0.356609851 0.763820708 0.161037043
0.375205576 0.762302756 0.160530984
0.390385956 0.762302756 0.158886701
0.420240104 0.762302756 0.158127993
0.449841529 0.762302756 0.162302256
0.474256754 0.756482959 0.163440853
0.502593517 0.754332244 0.162808239
0.531815648 0.753573596 0.167741895
0.563188016 0.754079700 0.166729778
0.591904104 0.752434969 0.168374479
0.623656034 0.751928926 0.171157479
0.652498603 0.748892963 0.165085480
0.684882939 0.745857179 0.166983157
0.717014313 0.741049945 0.168247998
0.754206181 0.739532113 0.175585002
0.783807456 0.740670443 0.182036728
0.814168274 0.734598458 0.186084986
0.840480983 0.730676651 0.192283496
0.870841026 0.726375461 0.200126737
0.896647573 0.722580314 0.209993735
