Assets/EldamarStudio/100 Retro LUTs Pack/LUTs/cube/Wendy LUT.cube
DOMAIN_MIN 0 0 0
DOMAIN_MAX 1 1 1
LUT_3D_SIZE 32
0.101961002 0.074510001 0.050980002
0.104996607 0.077545613 0.054016385
0.105881996 0.078431003 0.054901998
0.107147157 0.077166162 0.054901998
0.110183448 0.074889451 0.055281546
0.113219060 0.077925064 0.058317933
0.116255321 0.080961324 0.061353676
0.117647000 0.082353003 0.062744997
0.118406095 0.083112098 0.063504092
0.121442482 0.086148478 0.066540480
0.121569000 0.086274996 0.066666998
0.125616997 0.086274996 0.064642742
0.131688997 0.088551998 0.065021999
0.137760997 0.094623998 0.071093999
0.143832996 0.100695997 0.077165999
0.154711992 0.106767997 0.083238609
0.165338188 0.114358187 0.090828799
0.173181579 0.122201420 0.097406588
0.176217973 0.125237048 0.094370984
0.187603012 0.131056011 0.102466650
0.195951998 0.137127995 0.109676994
0.204047993 0.143200263 0.115749255
0.216065496 0.149399474 0.121821992
0.225173905 0.158507109 0.127893999
0.234282285 0.167615280 0.136242703
0.244781986 0.175331980 0.145350665
0.257937998 0.182922065 0.154459074
0.276153982 0.198102444 0.163567454
0.297026813 0.213282809 0.172675818
0.320050389 0.230233938 0.188868165
0.345224559 0.246679202 0.209234968
0.372548997 0.258823991 0.227450997
0.111068614 0.077545613 0.057052772
0.101961002 0.074510001 0.038835999
0.107147381 0.079696395 0.048323609
0.110183224 0.080202229 0.054395936
0.113219157 0.077166162 0.057938386
0.116255447 0.074889451 0.058317933
0.116761386 0.080455393 0.056293678
0.119291708 0.080708295 0.059961997
0.120683387 0.079316616 0.062744997
0.121442489 0.080075711 0.063504092
0.127387986 0.086021960 0.063630611
0.129664734 0.088298738 0.065654866
0.134724617 0.091587611 0.068058386
0.140796676 0.097659610 0.074130386
0.146869391 0.103731602 0.080202386
0.155344591 0.107400417 0.083871193
0.163819999 0.112839997 0.089310996
0.171410173 0.120430179 0.095635809
0.179253593 0.128273442 0.097406596
0.187855974 0.134092405 0.099936977
0.195951998 0.140164390 0.106641382
0.205060124 0.146236390 0.113725513
0.219101891 0.152435124 0.121948473
0.228210300 0.161543503 0.130929619
0.237318099 0.170651674 0.139278904
0.249209270 0.181151375 0.146995381
0.263504058 0.191018462 0.154964998
0.279190391 0.201138839 0.166603059
0.300063193 0.216318518 0.175711438
0.321315557 0.231498793 0.186590582
0.347881168 0.248450205 0.204047814
0.381657392 0.264896005 0.224414602
0.111574769 0.080581777 0.058823999
0.117520384 0.075395390 0.049209230
0.104111224 0.076660231 0.046046775
0.110183224 0.081467390 0.058190774
0.113724999 0.080202229 0.063377678
0.114990160 0.077166170 0.054522451
0.117647000 0.079570003 0.060594678
0.119291708 0.083997712 0.060847707
0.121569000 0.082732551 0.064895771
0.121569008 0.082732551 0.064895771
0.129538223 0.086400971 0.064895771
0.135610208 0.092473224 0.068943769
0.138772637 0.095635645 0.072106354
0.143579811 0.100442745 0.076913260
0.147754833 0.104616992 0.081087999
0.160531193 0.112586804 0.089057811
0.166603193 0.115623191 0.092093803
0.172042757 0.121062763 0.096268229
0.179632977 0.128652975 0.097786047
0.190891579 0.134977996 0.105123356
0.198102698 0.141049996 0.110056996
0.206198767 0.147121996 0.116128996
0.219987497 0.153320506 0.124098726
0.229095906 0.162428916 0.133206874
0.240354478 0.169386506 0.140164286
0.252245426 0.179886207 0.147880986
0.266919762 0.192030355 0.154964998
0.280455440 0.202783450 0.167108983
0.305249810 0.217204124 0.174446598
0.324730933 0.234155402 0.192409709
0.348260403 0.252371728 0.206957355
0.382163227 0.273118228 0.225679770
0.113599159 0.083618164 0.061353996
0.119417995 0.078811005 0.056546386
0.118532382 0.076660231 0.058190774
0.109677158 0.078431003 0.059961997
0.115749158 0.082226388 0.069070004
0.117520161 0.082732230 0.054775231
0.120050482 0.082226485 0.061100319
0.123086542 0.085262552 0.066919707
0.126122937 0.088298932 0.068437904
0.126629010 0.088804998 0.067931838
0.131562293 0.090449288 0.067931838
0.138646156 0.095509157 0.071979836
0.145856813 0.100442514 0.076913483
0.149652123 0.103984877 0.080455191
0.154712260 0.109044738 0.085515581
0.162302345 0.114357956 0.088298641
0.171410352 0.120430030 0.094370961
0.176344141 0.124098837 0.098671570
0.183681175 0.130170852 0.100569010
0.192789182 0.136242837 0.107653201
0.201138318 0.142315164 0.114864156
0.209234834 0.148387164 0.119924031
0.221378848 0.154712155 0.125995979
0.231625900 0.164958909 0.136242747
0.243010983 0.173055157 0.141809002
0.252751499 0.179380149 0.147880986
0.268437982 0.191524163 0.155471072
0.282100171 0.203668728 0.168374151
0.306261778 0.215939283 0.179000661
0.332068086 0.235420242 0.188108936
0.352055341 0.255408049 0.212397203
0.381657153 0.279696167 0.228716165
0.122707449 0.085515901 0.066666998
0.119291611 0.083997615 0.064389609
0.118405998 0.081340775 0.066287003
0.118405998 0.079569548 0.069829002
0.119164996 0.079569548 0.070208549
0.125237003 0.088677935 0.058064546
0.129158765 0.088804767 0.065401547
0.131815284 0.088678285 0.072232708
0.134851098 0.091714092 0.074509904
0.137887493 0.094750479 0.071473517
0.138014004 0.094876997 0.071346998
0.142062008 0.098924994 0.075395092
0.148134097 0.103478901 0.079949193
0.156989455 0.106767543 0.083238550
0.165970564 0.115749411 0.092220411
0.171789810 0.120809801 0.092473194
0.174826190 0.123845801 0.092473187
0.179380432 0.127134532 0.096394956
0.191524476 0.133206561 0.105502583
0.198482007 0.139658093 0.112207100
0.204174548 0.145350933 0.117899932
0.211890996 0.152182445 0.123339869
0.224161491 0.158254474 0.126628503
0.236559272 0.169892550 0.138519555
0.249082983 0.180139288 0.144212291
0.258823544 0.187476441 0.147880986
0.266919583 0.194560543 0.155091524
0.285136342 0.206704542 0.170271888
0.307906479 0.216571823 0.185452253
0.333965689 0.233775914 0.196457982
0.360784203 0.258064181 0.207463652
0.385073006 0.282353014 0.231752455
0.131815061 0.079443134 0.066666998
0.125743061 0.088551514 0.069702610
0.124477997 0.089184001 0.065274999
0.124477997 0.088677935 0.063757002
0.125236988 0.088677935 0.064136550
0.131309003 0.088677935 0.067172937
0.137381002 0.095256001 0.070208937
0.139658064 0.096521065 0.074003935
0.140923098 0.097786099 0.075268902
0.143959492 0.100822479 0.077545524
0.144086003 0.100949004 0.077418998
0.148134008 0.104996994 0.081467509
0.151929006 0.108792000 0.085262865
0.153953061 0.109803930 0.086274929
0.160025060 0.115875930 0.092346929
0.173813790 0.124857798 0.096521191
0.180898190 0.129917800 0.098545194
0.185199410 0.132953584 0.102213994
0.194560081 0.136242956 0.108538978
0.203921422 0.145098299 0.117647298
0.208728746 0.149905130 0.122454122
0.214294806 0.156483054 0.127008066
0.224161491 0.167362079 0.132700503
0.239341915 0.173434868 0.141808912
0.254016340 0.185072929 0.149145946
0.265907645 0.192536324 0.151929006
0.276027918 0.197596192 0.154964998
0.294243962 0.209740937 0.167235494
0.312460721 0.221884921 0.182415858
0.337002069 0.237064943 0.197596237
0.364326477 0.258064181 0.213029593
0.391144991 0.282353014 0.234788060
0.135863319 0.088551641 0.069196679
0.134851322 0.090069711 0.069702610
0.135230541 0.094876550 0.072738774
0.135609999 0.095256001 0.070335321
0.136748552 0.095635548 0.070714772
0.144971326 0.097786322 0.073750608
0.148513645 0.100315996 0.076787002
0.151296645 0.103098996 0.079570003
0.152055547 0.103858091 0.080329098
0.155091494 0.106894486 0.083365165
0.155218005 0.112080999 0.088551641
0.161290258 0.114105254 0.090575382
0.167868316 0.119671315 0.096141666
0.170904353 0.122707285 0.098671705
0.174699634 0.126501992 0.097912997
0.183174834 0.130170792 0.103984997
0.193548381 0.137507990 0.108665317
0.197596744 0.141555905 0.112713575
0.202909380 0.144592300 0.116888329
0.214547351 0.150664359 0.123213358
0.217962995 0.159772247 0.128526255
0.224414796 0.165085256 0.133586124
0.236685336 0.174067110 0.141049832
0.249462545 0.182542488 0.145351231
0.260088354 0.190891966 0.154459029
0.274762660 0.201391667 0.160783991
0.287665993 0.208222643 0.165085122
0.305881977 0.220366880 0.177229628
0.326628327 0.235041305 0.189500123
0.350158274 0.252498478 0.206451267
0.381910503 0.273244590 0.225047186
0.417457640 0.297533005 0.247944325
0.145477697 0.099051282 0.075521708
0.142188698 0.099051282 0.075521708
0.142694637 0.102846220 0.077672474
0.148260251 0.103352152 0.079443701
0.149398699 0.102593154 0.080202699
0.154711932 0.103099220 0.084503472
0.157115608 0.111069091 0.082606032
0.160152003 0.112460412 0.088930994
0.162429094 0.113219313 0.089690089
0.167235941 0.116255477 0.092726476
0.169006705 0.120556697 0.097027279
0.170145258 0.122960247 0.099430732
0.176976636 0.125996351 0.100189641
0.182795674 0.131309316 0.104743712
0.188614696 0.134345293 0.105882414
0.194813609 0.139025807 0.110056996
0.202403411 0.143579990 0.116128989
0.209740981 0.149651989 0.122200981
0.215812743 0.153700262 0.126249254
0.222264424 0.157875016 0.130424008
0.230107412 0.164199963 0.134598255
0.234155416 0.172295704 0.139658123
0.248450205 0.178621262 0.148513511
0.259076804 0.189247102 0.151549906
0.270588428 0.196711004 0.159139693
0.283870697 0.207210690 0.166856349
0.299810141 0.217078000 0.173434347
0.318026394 0.229221985 0.184440166
0.340543509 0.245667502 0.198228970
0.362048864 0.264389873 0.215559646
0.392030448 0.286527663 0.237317875
0.433017284 0.310815722 0.263124704
0.159139901 0.109677091 0.086148098
0.155345008 0.107400000 0.083112098
0.152056009 0.112460092 0.085262671
0.153573930 0.114737257 0.088551901
0.162681639 0.112460546 0.088172451
0.163820192 0.110183157 0.093106002
0.164579093 0.117520645 0.092852898
0.166223809 0.123845905 0.091967382
0.169259995 0.124605000 0.099556997
0.178368375 0.127640605 0.102593385
0.182416111 0.129917860 0.105629221
0.184187099 0.131688893 0.107400000
0.185325742 0.133586541 0.107020549
0.188362062 0.136622146 0.104490936
0.196457669 0.139658421 0.110056996
0.204680502 0.144339085 0.116128989
0.209993988 0.149651989 0.121442094
0.216698572 0.156356558 0.128146499
0.228716105 0.162555099 0.134344995
0.233270362 0.166603357 0.136875257
0.238963082 0.171536982 0.140670449
0.245541081 0.177608982 0.144971222
0.257685095 0.183681011 0.154079571
0.267425895 0.194560200 0.158380806
0.278052092 0.202909470 0.165970787
0.293738186 0.212523982 0.174446329
0.311448157 0.225174069 0.182037055
0.329411805 0.237571076 0.191650733
0.352941066 0.252751648 0.204553798
0.377735347 0.275016069 0.220999256
0.405692250 0.295636058 0.242631182
0.442125082 0.319924116 0.272992015
0.168247506 0.124857478 0.101328485
0.171283901 0.115749098 0.089184485
0.167489007 0.119923778 0.088298716
0.164200023 0.123845644 0.092599526
0.165718049 0.121568941 0.097280070
0.174826428 0.124604546 0.094244465
0.178494647 0.127387807 0.101707682
0.181404218 0.130803302 0.103605241
0.184440404 0.133712620 0.102593392
0.187475994 0.136749014 0.105629005
0.193674505 0.136875495 0.108665392
0.197596267 0.139025748 0.111701228
0.200506151 0.143073812 0.113472007
0.203542471 0.148766935 0.113598555
0.206578076 0.151802570 0.116634943
0.217077479 0.154838830 0.122200996
0.224414721 0.158001304 0.126755193
0.228842586 0.162428573 0.131182909
0.237950996 0.171536967 0.140290543
0.244402513 0.177735493 0.140923008
0.252245724 0.183680996 0.144845009
0.260215491 0.189752996 0.150790974
0.266793489 0.195825025 0.157115966
0.278937519 0.201897830 0.166223586
0.288678259 0.210499674 0.175078794
0.303479135 0.222264171 0.184187144
0.323592901 0.237318084 0.194181070
0.338772476 0.252498448 0.209361449
0.362049162 0.262239307 0.218975112
0.389879853 0.284123927 0.230107427
0.424288511 0.310562700 0.245288089
0.469449490 0.329032511 0.266920000
0.174446732 0.134218872 0.101961002
0.186211243 0.130929470 0.104364119
0.184946090 0.130423635 0.098671898
0.183428168 0.135483712 0.100189716
0.184693322 0.135736674 0.103857994
0.183681071 0.133712932 0.103352062
0.190259129 0.139278874 0.107906125
0.193674713 0.142694712 0.113345705
0.196711093 0.145730644 0.114358097
0.199747264 0.148766488 0.117394261
0.202782884 0.151802868 0.120429859
0.208854869 0.151802868 0.123466253
0.212776631 0.153953105 0.126502082
0.215812951 0.158254132 0.128272861
0.218848586 0.163946569 0.128652409
0.221884817 0.166982800 0.131688803
0.234029055 0.171536982 0.138773069
0.243896425 0.175964445 0.145224854
0.253004819 0.180518836 0.152055785
0.256546497 0.184060514 0.155597389
0.262492001 0.190005988 0.159518868
0.270588279 0.196078271 0.163567126
0.278810978 0.202403724 0.165844142
0.290955007 0.214041799 0.172169834
0.305376291 0.222391278 0.181277439
0.318532646 0.234282032 0.190385669
0.335737050 0.248956114 0.199494064
0.350917250 0.261733294 0.209867448
0.376723498 0.279569834 0.230360791
0.403035998 0.296521157 0.245793685
0.434029162 0.320809454 0.260214984
0.473497868 0.341049999 0.275395125
0.190639243 0.145350993 0.112081252
0.192662984 0.142315120 0.109044604
0.196078479 0.141556025 0.109803505
0.193042085 0.145857245 0.110563055
0.195698842 0.148892969 0.114357956
0.200885564 0.145856932 0.116002247
0.203415245 0.148387253 0.119038507
0.207842961 0.152814537 0.123465799
0.210879147 0.156609729 0.125742987
0.213915229 0.160910517 0.127514213
0.218975633 0.159898877 0.128526121
0.224035501 0.164958984 0.133585989
0.228968859 0.166097641 0.134345368
0.232005030 0.169133469 0.135610223
0.235041082 0.173434243 0.137380987
0.240101054 0.179126799 0.141809061
0.244655237 0.182163179 0.144845054
0.256419986 0.187729239 0.152308732
0.264136702 0.192156956 0.158380747
0.267678887 0.195193157 0.161669910
0.276407242 0.200126514 0.168501005
0.282732248 0.206198514 0.172675505
0.291081488 0.212397486 0.173054978
0.305123270 0.222644255 0.181024536
0.317520261 0.234535277 0.191398218
0.334092319 0.245034963 0.200505823
0.349905312 0.259582311 0.210626066
0.365085691 0.273244917 0.222770438
0.388867736 0.286653966 0.236432523
0.416192114 0.308412373 0.255914122
0.447058767 0.331688821 0.274130225
0.484630257 0.355218261 0.288551241
0.210752994 0.158633634 0.126122996
0.208855242 0.156736374 0.122327507
0.209108278 0.156989634 0.121694639
0.208981752 0.157242626 0.121947668
0.205945373 0.162176087 0.126881897
0.214294866 0.159139693 0.128399700
0.218848959 0.161163956 0.131435663
0.221884713 0.164199919 0.134471923
0.225679994 0.167994633 0.138266638
0.229095161 0.174066648 0.139025643
0.233902737 0.173687503 0.140164286
0.241113633 0.174446642 0.143073633
0.247185647 0.180518627 0.146868631
0.250221252 0.183555022 0.144339025
0.253257424 0.186590865 0.147374868
0.258697003 0.190891638 0.151675954
0.264769286 0.196584180 0.157369092
0.270841271 0.200252980 0.161037281
0.276913285 0.206324995 0.167109296
0.282479376 0.209614351 0.169259995
0.291208267 0.214547992 0.174952745
0.302340150 0.221632123 0.184061125
0.308791637 0.227830619 0.184567124
0.322960198 0.235926896 0.191650748
0.339278907 0.247311980 0.204174563
0.353067309 0.259456277 0.214927599
0.371790051 0.272106230 0.225553274
0.388235420 0.287286431 0.241366073
0.413662255 0.304364264 0.256166905
0.440860063 0.324730992 0.272991389
0.469069868 0.352561802 0.292093575
0.507780015 0.380645275 0.310562640
0.229475066 0.173814029 0.138772994
0.229475066 0.173308030 0.138520032
0.230866730 0.175205767 0.139658257
0.233144030 0.177735955 0.141429037
0.233017519 0.177356482 0.141808540
0.229981124 0.174320087 0.138772935
0.231752351 0.176091313 0.140543714
0.235547349 0.179127276 0.144338712
0.238330066 0.182415992 0.146869034
0.244402066 0.188487992 0.152941033
0.247817904 0.191903904 0.156356871
0.254396200 0.193168998 0.159392744
0.262366027 0.195446000 0.161796063
0.268691003 0.201771036 0.162049040
0.271726608 0.204807416 0.165085420
0.277166039 0.207590237 0.168121248
0.282985389 0.211891055 0.172422335
0.289311022 0.218216017 0.178747982
0.295383036 0.224288031 0.184819996
0.303984731 0.227830350 0.185831994
0.314990491 0.232764050 0.189626992
0.326122940 0.239848122 0.196205124
0.335483551 0.249083012 0.205313504
0.347754836 0.255408049 0.208602160
0.366477311 0.265781045 0.220493317
0.385452360 0.278178334 0.233143657
0.401897162 0.291335016 0.243517026
0.423149526 0.306514591 0.261732996
0.452371627 0.329664707 0.279949605
0.483491421 0.355218202 0.299683779
0.514105082 0.384946197 0.321947634
0.544465125 0.421379030 0.343200058
0.253763795 0.188994408 0.156988978
0.253763795 0.182922408 0.153953373
0.249462262 0.182416409 0.147248641
0.250347883 0.186843827 0.144465417
0.254396379 0.192536116 0.145224422
0.254269868 0.189500466 0.150916934
0.253763795 0.188994408 0.150410995
0.260974377 0.191271275 0.157621399
0.266666800 0.193547994 0.162555084
0.262618810 0.194559991 0.155977413
0.268690825 0.200632736 0.162049428
0.272106141 0.204048157 0.165464729
0.277545840 0.207589984 0.169639274
0.283871382 0.213915020 0.174193785
0.292978942 0.223023400 0.177229404
0.298418373 0.223655984 0.180265799
0.302972585 0.225806594 0.183301628
0.307906538 0.230740234 0.188235149
0.316635400 0.239468426 0.196963996
0.322707385 0.245540410 0.203035980
0.333206803 0.250980437 0.207842976
0.344339103 0.258064687 0.212903112
0.353700310 0.267298996 0.217457488
0.368880749 0.279443800 0.226565897
0.385705382 0.288045496 0.236685812
0.405945629 0.300569028 0.249462381
0.426438957 0.316129059 0.261480033
0.450474650 0.336875319 0.276913404
0.479696155 0.360025436 0.295129389
0.515369952 0.382542968 0.313345969
0.551170409 0.408602357 0.336622387
0.583934247 0.442631394 0.367488801
0.268437982 0.199367806 0.158380806
0.266034186 0.198102802 0.162555382
0.268184960 0.198482022 0.168121770
0.266666442 0.200000152 0.165591434
0.271220744 0.205692604 0.165970773
0.273244977 0.204680741 0.163946792
0.275648773 0.206577986 0.162554994
0.275648773 0.208222702 0.167488694
0.283238769 0.211258501 0.176596895
0.283744782 0.212902784 0.174067274
0.286906987 0.216318727 0.172295988
0.290955245 0.220367253 0.176344261
0.296267956 0.223402962 0.180518597
0.303352207 0.227956831 0.186337948
0.308159381 0.232764214 0.189373568
0.314863771 0.239468798 0.194813609
0.322453976 0.245540783 0.197849602
0.327893764 0.251233548 0.202782780
0.335230947 0.256799638 0.213661954
0.341555983 0.265527785 0.215180010
0.353320718 0.271600246 0.223149732
0.366982907 0.279696763 0.230739921
0.379127264 0.290069580 0.236559272
0.394307703 0.297659785 0.241113082
0.411764771 0.309803993 0.254775465
0.431372434 0.323213100 0.267046332
0.452624857 0.340417653 0.279696554
0.475015879 0.361670017 0.294876426
0.502213717 0.383175403 0.315116763
0.541429341 0.409234941 0.336875170
0.579506755 0.434408724 0.360784352
0.611384988 0.466286987 0.394180775
0.289689988 0.213029996 0.164453194
0.286653996 0.217584178 0.173561186
0.283364981 0.215180606 0.174193770
0.285136193 0.216951385 0.182036981
0.287918836 0.220114201 0.185705200
0.290954918 0.222391188 0.184187174
0.295509100 0.223403051 0.176091060
0.298418999 0.226438701 0.176596686
0.299178094 0.229475081 0.184187084
0.304491192 0.232510895 0.187223479
0.307653308 0.235546857 0.187476128
0.312207222 0.240101442 0.190006450
0.316381991 0.244276181 0.194181189
0.325110227 0.247438371 0.200000152
0.330676615 0.249209598 0.203035772
0.336116195 0.254649162 0.208475411
0.340670377 0.263757199 0.214548185
0.350411177 0.274003774 0.218216375
0.358254164 0.277040154 0.228589386
0.367362171 0.285641849 0.234155178
0.376090914 0.294370472 0.236811921
0.391271323 0.300442994 0.245920315
0.406578153 0.311701477 0.255028665
0.423149914 0.321948200 0.260847300
0.440607369 0.332574189 0.272991449
0.460215002 0.344718516 0.288171828
0.482479453 0.363694191 0.300442994
0.505755782 0.385958403 0.314610690
0.532321155 0.407210797 0.330550194
0.564199507 0.432005137 0.359645337
0.607969761 0.461986154 0.383934170
0.640227556 0.493611366 0.415433198
0.316255152 0.232511133 0.182163551
0.315116942 0.240354374 0.191144988
0.311195552 0.239342555 0.192915976
0.308285981 0.237065554 0.189373985
0.308665514 0.237444997 0.195066541
0.311701208 0.243263975 0.200885579
0.316634715 0.244908541 0.194939971
0.320429832 0.245920420 0.190385833
0.323466092 0.248956069 0.193421647
0.326502472 0.251992464 0.196458042
0.330803245 0.254395694 0.199493676
0.335863113 0.259456068 0.205186486
0.341935128 0.265528560 0.211258978
0.348007143 0.271600574 0.217330977
0.356735945 0.272359550 0.220746115
0.363440543 0.277166545 0.225553125
0.369892299 0.285642117 0.232257918
0.372928530 0.295888543 0.236432955
0.385072559 0.298924923 0.242504984
0.398481727 0.307526797 0.250727206
0.409360856 0.316634893 0.257305294
0.419860661 0.325996131 0.261733115
0.434914559 0.332068115 0.270841479
0.452118725 0.345730454 0.279949248
0.471600115 0.359898537 0.294243813
0.490575612 0.372675300 0.306261629
0.512840152 0.385832101 0.322454065
0.540164530 0.409867108 0.334977537
0.566856325 0.432131350 0.349652201
0.596457660 0.456293285 0.372169465
0.630360365 0.485009134 0.405059755
0.669829547 0.521441996 0.429348588
0.328400016 0.256799996 0.209488019
0.334472001 0.259835601 0.206451625
0.335484028 0.259076834 0.211132050
0.336242855 0.259583026 0.211132050
0.339025587 0.264769465 0.207210600
0.342061967 0.267805070 0.210246995
0.345098317 0.271094352 0.213535681
0.346742958 0.272233009 0.213662043
0.347754925 0.273244888 0.214674100
0.350790560 0.276280552 0.217710495
0.359645933 0.276407063 0.220746130
0.366223991 0.280708522 0.227830261
0.372295976 0.286780983 0.235547036
0.378367990 0.292852998 0.241619036
0.384439975 0.298924983 0.247691020
0.390765011 0.304490983 0.251106799
0.399873406 0.312081158 0.257432163
0.409361422 0.320177376 0.263757408
0.412397057 0.323213011 0.260721028
0.430107743 0.331815392 0.266793042
0.444022954 0.340923727 0.275015771
0.455913961 0.351043999 0.282606006
0.468311042 0.362428993 0.289057523
0.480455816 0.368501008 0.298165917
0.502213955 0.384440005 0.314104944
0.523213029 0.400758654 0.323718995
0.543200314 0.416192174 0.328526109
0.570525408 0.434408933 0.349778473
0.595192969 0.458443940 0.372928649
0.621505141 0.482479393 0.392662942
0.651106775 0.508791924 0.414168209
0.685010016 0.539658070 0.438457012
0.376723379 0.295003384 0.242378384
0.377229393 0.295256346 0.242125347
0.379000366 0.296141744 0.241239741
0.380265534 0.296268225 0.244781882
0.382542551 0.299683571 0.243643537
0.380771309 0.297912806 0.241872326
0.383807719 0.300948411 0.244908690
0.388488382 0.303984702 0.247944370
0.392283380 0.306641400 0.250600725
0.397343278 0.311701268 0.255660892
0.400632590 0.314611107 0.253131211
0.409740984 0.314611107 0.252118826
0.416572094 0.319165379 0.257052362
0.422391057 0.324984342 0.262871414
0.425932705 0.328525990 0.266413718
0.434408516 0.337001801 0.274889499
0.443896085 0.344971567 0.278684527
0.454775393 0.353447378 0.284630001
0.459961802 0.358633757 0.288045377
0.471347481 0.364452720 0.296141714
0.487665981 0.379253834 0.304111481
0.499683499 0.391018599 0.313219607
0.510309756 0.401264906 0.321188867
0.527767539 0.409993738 0.330297261
0.546742976 0.425173730 0.346236378
0.570525050 0.441998392 0.361669719
0.591524243 0.457684875 0.370272100
0.612018108 0.475901634 0.389247149
0.639342546 0.499430686 0.407843381
0.667298973 0.523719132 0.433649898
0.700062931 0.552435338 0.455787688
0.739152372 0.588488102 0.478178740
0.411258459 0.323086739 0.260594755
0.415053457 0.326881707 0.268184751
0.418848455 0.330676734 0.271979719
0.418848455 0.326881588 0.266919732
0.421252280 0.328525841 0.267552525
0.421252280 0.333080381 0.270588547
0.419481039 0.335104138 0.266919553
0.424161732 0.338140160 0.269955933
0.431751937 0.341176391 0.273750722
0.440101206 0.346109748 0.279822737
0.443263590 0.349272579 0.280961603
0.446552992 0.352182478 0.281720459
0.454522729 0.354459465 0.279822707
0.460847765 0.360278428 0.284376740
0.467172772 0.363314033 0.289057404
0.475015521 0.371157259 0.296900779
0.482605726 0.378747463 0.304490983
0.493990839 0.387476295 0.309171289
0.502593160 0.394813478 0.316508442
0.516129196 0.402783215 0.319671094
0.526375711 0.410752445 0.328779489
0.541555583 0.425933123 0.338899732
0.552940965 0.435167462 0.349145949
0.572928488 0.446046621 0.361796349
0.589626968 0.460088462 0.375838190
