Assets/EldamarStudio/100 Retro LUTs Pack/LUTs/cube/Wendy LUT.cube
LUT_3D_SIZE 8
DOMAIN_MIN 0.000000 0.000000 0.000000
DOMAIN_MAX 0.903226 0.903226 0.903226
0.101961002 0.074510001 0.050980002
0.110183448 0.074889451 0.055281546
0.118406095 0.083112098 0.063504092
0.131688997 0.088551998 0.065021999
0.165338188 0.114358187 0.090828799
0.195951998 0.137127995 0.109676994
0.234282285 0.167615280 0.136242703
0.297026813 0.213282809 0.172675818
0.122707449 0.085515901 0.066666998
0.119164996 0.079569548 0.070208549
0.134851098 0.091714092 0.074509904
0.148134097 0.103478901 0.079949193
0.174826190 0.123845801 0.092473187
0.204174548 0.145350933 0.117899932
0.249082983 0.180139288 0.144212291
0.307906479 0.216571823 0.185452253
0.159139901 0.109677091 0.086148098
0.162681639 0.112460546 0.088172451
0.169259995 0.124605000 0.099556997
0.185325742 0.133586541 0.107020549
0.209993988 0.149651989 0.121442094
0.238963082 0.171536982 0.140670449
0.278052092 0.202909470 0.165970787
0.352941066 0.252751648 0.204553798
0.210752994 0.158633634 0.126122996
0.205945373 0.162176087 0.126881897
0.225679994 0.167994633 0.138266638
0.247185647 0.180518627 0.146868631
0.264769286 0.196584180 0.157369092
0.291208267 0.214547992 0.174952745
0.339278907 0.247311980 0.204174563
0.413662255 0.304364264 0.256166905
0.289689988 0.213029996 0.164453194
0.287918836 0.220114201 0.185705200
0.299178094 0.229475081 0.184187084
0.316381991 0.244276181 0.194181189
0.340670377 0.263757199 0.214548185
0.376090914 0.294370472 0.236811921
0.440607369 0.332574189 0.272991449
0.532321155 0.407210797 0.330550194
0.411258459 0.323086739 0.260594755
0.421252280 0.328525841 0.267552525
0.431751937 0.341176391 0.273750722
0.454522729 0.354459465 0.279822707
0.482605726 0.378747463 0.304490983
0.526375711 0.410752445 0.328779489
0.589626968 0.460088462 0.375838190
0.678051770 0.534345448 0.444655389
0.597216547 0.492979288 0.390385836
0.611638248 0.500569284 0.407337010
0.626059651 0.503858447 0.407463759
0.648323894 0.521568894 0.420619905
0.665907800 0.539152265 0.438203543
0.707653224 0.567868114 0.465654522
0.747501493 0.597216547 0.497533232
0.815559804 0.644275904 0.547627926
0.837318420 0.693484545 0.591397762
0.858950317 0.699430764 0.576091170
0.868690431 0.702846408 0.599367559
0.882985353 0.714231193 0.607084036
0.901707768 0.730297387 0.617836952
0.924731076 0.752182066 0.640986621
0.943579793 0.779127300 0.677166402
0.973054588 0.813915253 0.719924390
0.112966001 0.078431003 0.058444452
0.113724999 0.078431003 0.058823999
0.122327901 0.087033898 0.067425899
0.139532000 0.096395001 0.072865002
0.168121547 0.117140837 0.092852548
0.201011926 0.144465536 0.115117185
0.240860432 0.169639543 0.140543833
0.306134969 0.212903261 0.177355826
0.118405998 0.083112001 0.063503996
0.126248986 0.090954997 0.071346998
0.128526092 0.092472993 0.065401547
0.153573886 0.108159184 0.084630094
0.179127350 0.128146648 0.103858352
0.207210734 0.147627741 0.119797282
0.245161086 0.173940569 0.144845292
0.301960558 0.214041814 0.175838113
0.155977100 0.112080999 0.094876997
0.163820192 0.122327901 0.088551998
0.175585002 0.124605000 0.099556997
0.189247549 0.137128189 0.111322001
0.212397188 0.155091986 0.124605000
0.238077074 0.176723629 0.140670538
0.281088293 0.205186293 0.166730002
0.345477492 0.253890097 0.211891338
0.201644540 0.158633634 0.124098539
0.214294642 0.156609997 0.126881987
0.220493540 0.167235732 0.135104552
0.244402289 0.177735269 0.145603985
0.264389843 0.196584180 0.156609997
0.287792534 0.214927539 0.174573094
0.330550224 0.246426269 0.199873626
0.402403355 0.293991268 0.240354076
0.284376979 0.220872998 0.170271844
0.285009205 0.223276183 0.179000542
0.300063193 0.228336632 0.184187189
0.317646831 0.240733713 0.193042547
0.344971538 0.263124377 0.216571838
0.376976728 0.287286371 0.234788179
0.432131559 0.326375782 0.268943816
0.524857581 0.397090107 0.329917669
0.410246670 0.320935994 0.259582520
0.415686458 0.327514231 0.268058211
0.430487245 0.334977478 0.275522172
0.446932256 0.350664288 0.285262704
0.479443192 0.375205785 0.303984910
0.522707283 0.408855200 0.334598184
0.585452378 0.454143167 0.368627280
0.678810954 0.531309247 0.438203543
0.588994384 0.472738534 0.386843830
0.610879123 0.491461068 0.396710575
0.617077827 0.493232071 0.401771098
0.636685431 0.514484227 0.418089896
0.665274918 0.534471750 0.436306179
0.696015477 0.559266269 0.455914021
0.734345317 0.589753151 0.485894859
0.793042123 0.630486786 0.521694899
0.838962376 0.687286317 0.590386033
0.861353695 0.691587448 0.581657052
0.858191133 0.701328516 0.590638876
0.877545595 0.708791733 0.601644576
0.898418605 0.725110590 0.612523794
0.922327518 0.749019444 0.641619146
0.939152479 0.776470602 0.672991693
0.974319577 0.813915253 0.711195111
0.109803997 0.074510001 0.054901998
0.114484094 0.079190098 0.059582900
0.125489995 0.083871000 0.067425899
0.144971281 0.100315996 0.076787002
0.174826086 0.123845898 0.097280100
0.208096355 0.148513645 0.119923994
0.249841988 0.177862093 0.147248387
0.306388319 0.221125811 0.181277722
0.123086996 0.081087641 0.062365547
0.127766997 0.089816451 0.071347095
0.139532000 0.096394993 0.074383184
0.156356558 0.112840094 0.088172443
0.186970353 0.135230646 0.104237802
0.213535547 0.159519255 0.127007991
0.254269719 0.180139288 0.151549742
0.308285832 0.223782644 0.184819683
0.152814895 0.116002098 0.095636003
0.163820103 0.120303549 0.095256448
0.176344082 0.131688893 0.106641091
0.193168744 0.140670449 0.110056639
0.213915184 0.153573990 0.125363901
0.246806085 0.178621083 0.148007467
0.285895109 0.210752904 0.169259802
0.352814704 0.258696884 0.217963219
0.219481185 0.153447181 0.132068440
0.221378729 0.165338293 0.130423546
0.228716075 0.170398548 0.136243090
0.247185647 0.180518642 0.148386627
0.265528262 0.197343186 0.157369077
0.290069729 0.216445535 0.176470742
0.338646621 0.250853747 0.205060184
0.412523896 0.302846074 0.252498239
0.289057195 0.220872983 0.178621188
0.291840643 0.227198184 0.178873733
0.300822169 0.230233982 0.189500183
0.319164813 0.244781837 0.195445746
0.342947274 0.263883471 0.208981484
0.378874391 0.288424790 0.234788179
0.437824398 0.328020364 0.269323289
0.525363803 0.399493873 0.328779280
0.407843381 0.325743079 0.261226833
0.414547741 0.328652471 0.268058121
0.424288452 0.336116195 0.273624718
0.446932256 0.351423383 0.283744752
0.480708450 0.375331908 0.305629611
0.518153429 0.408096105 0.334598213
0.581910133 0.455787480 0.370398074
0.678557694 0.535483778 0.441619277
0.590891778 0.476786762 0.385831833
0.603921354 0.485515296 0.391777277
0.619860709 0.496015429 0.406072080
0.639848232 0.509044826 0.419860899
0.659076512 0.529032528 0.434535176
0.692472994 0.553826928 0.452751309
0.736748874 0.584819555 0.482858568
0.802783310 0.636053383 0.538013816
0.843263507 0.683744311 0.568880379
0.850600779 0.688677847 0.574699461
0.864263117 0.695508838 0.583048701
0.875015557 0.707526565 0.597596407
0.895888507 0.723718941 0.613535643
0.919291377 0.745477200 0.635547221
0.940291047 0.774825871 0.670208633
0.972928584 0.811258376 0.711195409
0.114863642 0.079569645 0.059962351
0.117267452 0.081973456 0.062365547
0.122707352 0.087413348 0.067805350
0.149652004 0.104237996 0.080708288
0.179506987 0.128525987 0.099430993
0.209234983 0.150031641 0.120303638
0.251106948 0.176596925 0.149145931
0.313852161 0.227830440 0.188361824
0.125743344 0.087033898 0.063377991
0.130043998 0.090196095 0.071726643
0.143453196 0.100316092 0.078305095
0.161416993 0.116761282 0.091713995
0.184060901 0.135610193 0.111701444
0.220999375 0.155850902 0.128399894
0.262112558 0.186464190 0.156736195
0.325743228 0.229095817 0.192409649
0.157494992 0.119924091 0.090575650
0.167362556 0.118658736 0.092093647
0.175078720 0.129284993 0.103858352
0.196331561 0.143832639 0.113978542
0.220493644 0.158633649 0.130043983
0.250727296 0.182542890 0.150411189
0.295003265 0.216571733 0.179759741
0.365591347 0.265401661 0.219101861
0.222517282 0.161416993 0.132827356
0.220114097 0.166856274 0.140291095
0.232257724 0.171157539 0.142568097
0.252245277 0.183302000 0.153067634
0.269829601 0.202023983 0.162808284
0.301454991 0.224794284 0.179633021
0.348766625 0.257937938 0.210246921
0.425553411 0.309677243 0.256166875
0.293485343 0.223655730 0.183301806
0.298039436 0.227198079 0.185325533
0.306767821 0.236179531 0.193927839
0.321568549 0.248323992 0.206451640
0.344971567 0.263503939 0.216951385
0.384440273 0.295129478 0.241872281
0.440101206 0.334724754 0.279949516
0.528526187 0.403415710 0.336874992
0.415053457 0.326881707 0.266666740
0.422390699 0.331941575 0.272485971
0.430613369 0.340164542 0.279190630
0.450474203 0.353447080 0.288804352
0.484250516 0.378115177 0.308791906
0.523592532 0.410120338 0.336622477
0.588108838 0.458570629 0.375964850
0.677039623 0.531688750 0.439342290
0.596078157 0.479443192 0.389753282
0.604933739 0.490575641 0.401391447
0.613535821 0.494623572 0.406072259
0.635926485 0.511448145 0.415053904
0.661227226 0.533459902 0.438709885
0.698039293 0.557748199 0.462365627
0.736748517 0.588235199 0.486274183
0.809108078 0.639089048 0.536496043
0.844275713 0.680581927 0.575964391
0.848450065 0.685135722 0.577482522
0.855534434 0.699810386 0.591271341
0.870967448 0.706767797 0.595825434
0.895635545 0.721568465 0.610373080
0.916508317 0.743959308 0.635547280
0.943327069 0.774825871 0.672865152
0.970398426 0.818089545 0.724478185
0.119165190 0.082353003 0.067299187
0.121569000 0.085136354 0.068944000
0.131688893 0.088551894 0.072865091
0.153574005 0.107020639 0.092473000
0.181024790 0.130044177 0.106514804
0.216951177 0.154332802 0.126502246
0.257811278 0.184060797 0.154332697
0.319670767 0.230233967 0.199114606
0.135989740 0.095256448 0.067552343
0.136369199 0.100316189 0.076533742
0.152814895 0.106261641 0.086907089
0.167235643 0.119924001 0.099810354
0.186843544 0.140670538 0.114104547
0.229980737 0.163314342 0.135104343
0.264516354 0.190385908 0.161796346
0.321315795 0.234155357 0.193675026
0.173308089 0.122201189 0.112207197
0.174446538 0.125743359 0.094370544
0.188108891 0.130803093 0.105629191
0.198987991 0.145730376 0.120303638
0.224035293 0.162176087 0.133965984
0.256167173 0.186084747 0.155471444
0.300696075 0.217710271 0.182416081
0.365591317 0.268817008 0.225426972
0.215433285 0.162935093 0.137128100
0.231625646 0.166476637 0.137507841
0.233775914 0.172675550 0.144085988
0.251359969 0.187223285 0.159772277
0.274509609 0.203288823 0.166350633
0.303732097 0.226691827 0.189373881
0.352182269 0.257937938 0.215939283
0.421631724 0.309804052 0.259582549
0.294496983 0.226312175 0.184060797
0.300442517 0.225932717 0.191271007
0.308665395 0.236558989 0.195066288
0.328905433 0.253004193 0.205186382
0.353953183 0.272486150 0.226312175
0.392410010 0.299810201 0.249715179
0.445540458 0.337508082 0.281214386
0.533080161 0.402656615 0.332068384
0.419607460 0.325743079 0.265907735
0.425047278 0.331182659 0.274383515
0.435673714 0.340923548 0.280708730
0.454396009 0.357368708 0.289310545
0.485768735 0.378874362 0.309930265
0.528273463 0.411385000 0.340164542
0.593295455 0.461986184 0.376470357
0.679063797 0.533839405 0.444908291
0.599620342 0.485262364 0.392915756
0.609614015 0.488424987 0.402277112
0.617583632 0.500189662 0.410879463
0.634535134 0.510689139 0.423782200
0.665401757 0.535357356 0.440607369
0.700442791 0.557495534 0.466666758
0.739025891 0.593295574 0.494623542
0.815939069 0.646932065 0.543832898
0.836559176 0.678557754 0.568627238
0.842251778 0.682858884 0.569133162
0.851486206 0.691966772 0.584693372
0.867805183 0.706135631 0.596204758
0.892472804 0.723718941 0.616571784
0.916887581 0.744338572 0.638456583
0.940923274 0.773687243 0.675395250
0.973940432 0.815053523 0.720177054
0.127387732 0.092093736 0.072485738
0.131688803 0.092599809 0.074889451
0.143832833 0.100695640 0.081214361
0.155977100 0.112839900 0.093358904
0.185705185 0.134724796 0.111195184
0.219228476 0.156609997 0.129158989
0.264010012 0.189120546 0.163314253
0.323718905 0.230107650 0.195699066
0.142314553 0.102213539 0.085009739
0.149905011 0.102720000 0.086021475
0.155218095 0.111321993 0.087792896
0.176344097 0.125363901 0.101834089
0.193422094 0.138646275 0.113978542
0.229095727 0.166476741 0.139025733
0.266666710 0.190638542 0.162048995
0.323086619 0.234788060 0.195825696
0.176596820 0.129664630 0.110183358
0.181277722 0.133586347 0.110436283
0.191144988 0.138646185 0.115876094
0.204554096 0.147248372 0.125363797
0.232384548 0.166476637 0.138266727
0.260088503 0.189626992 0.162175998
0.302593440 0.221758187 0.186717436
0.376470536 0.268311143 0.225933045
0.222011536 0.167235732 0.137760997
0.227956891 0.169892386 0.141682282
0.237318367 0.176217377 0.147627741
0.256925881 0.187982380 0.157748535
0.275648266 0.207463488 0.172296092
0.308032632 0.227703989 0.196837544
0.350158006 0.255787402 0.217963636
0.418975413 0.309677452 0.267046183
0.298671931 0.228589371 0.186590999
0.304237843 0.234029263 0.192536384
0.315243512 0.240860537 0.201265097
0.331688821 0.250980556 0.208601922
0.352055728 0.274383396 0.226691723
0.390765190 0.298165470 0.248070985
0.441872001 0.333839208 0.281341016
0.524857819 0.395572275 0.332194716
0.426565439 0.332700461 0.281720459
0.428083628 0.334218681 0.277419508
0.443390101 0.344465464 0.287286341
0.459076792 0.361290097 0.296647370
0.486527711 0.378874332 0.314357728
0.526375651 0.408855200 0.338519722
0.588994026 0.459076881 0.377229482
0.664895236 0.521189392 0.435547203
0.593548298 0.479696274 0.400252789
0.603288829 0.488298357 0.404048175
0.614294529 0.498418540 0.408349365
0.632764041 0.505502641 0.419734299
0.657178998 0.525996149 0.441745937
0.691081464 0.556483448 0.460215271
0.733839273 0.589247525 0.494244009
0.817710042 0.645161271 0.549019337
0.828842461 0.673244715 0.575078666
0.843516827 0.679443300 0.568753719
0.843263507 0.687539339 0.580265343
0.862618506 0.697406590 0.592030346
0.884882748 0.714863718 0.606957436
0.911701441 0.739152431 0.629474699
0.939784646 0.775584996 0.675395131
0.974066854 0.817077696 0.722453773
0.141809002 0.098671995 0.086274996
0.143832833 0.103984743 0.086654447
0.154459000 0.111321993 0.095635995
0.174319923 0.121694922 0.103099354
0.195825383 0.140290990 0.119038276
0.226312280 0.162934706 0.135483697
0.268563986 0.195066288 0.167615280
0.331941366 0.236811802 0.206957519
0.152561277 0.105629280 0.085389286
0.153700009 0.110562995 0.091587991
0.163440645 0.118026547 0.103099450
0.186590910 0.133712754 0.114737444
0.204174548 0.146868825 0.123212926
0.234534830 0.171157643 0.143327177
0.274509817 0.197723031 0.170272022
0.326249242 0.235294089 0.204933524
0.187349796 0.130044177 0.109677278
0.184440240 0.137507826 0.117267363
0.193421990 0.144212186 0.121442094
0.212270692 0.156736284 0.130929992
0.235800087 0.172422275 0.144971281
0.265528083 0.195066184 0.165338099
0.313219577 0.227957278 0.198228985
0.376090974 0.272485793 0.235926524
0.227577627 0.173181280 0.144085988
0.233775914 0.173813999 0.144085988
0.244529083 0.180139080 0.151549548
0.260088295 0.191145003 0.163693994
0.282352746 0.206704468 0.178621188
0.312839806 0.231372625 0.199493989
0.358886629 0.260214925 0.223276630
0.420240462 0.309424341 0.268817008
0.302340209 0.232511282 0.190259278
0.304364562 0.236179724 0.204427376
0.314105004 0.241113365 0.209108174
0.324730903 0.250347823 0.211891249
0.350031585 0.265528202 0.228716001
0.391903818 0.293990821 0.252877980
0.444781721 0.330423743 0.287286371
0.513725102 0.389626831 0.330550253
0.427957028 0.339026183 0.286527455
0.440607250 0.345983297 0.291587651
0.448196977 0.350664198 0.298671722
0.462239206 0.362555444 0.307653487
0.486527652 0.379253805 0.320050269
0.520556450 0.404680759 0.342188269
0.581530452 0.451612532 0.377609015
0.657431781 0.512586534 0.432258189
0.584819555 0.476660281 0.395319551
0.597849548 0.479317009 0.393168986
0.607336879 0.489057243 0.411638558
0.627450883 0.503605187 0.422896922
0.652118802 0.522074580 0.441239744
0.681087852 0.550284743 0.459961802
0.738013744 0.583175242 0.492346227
0.807969332 0.636685371 0.541302621
0.821631908 0.668564558 0.574066877
0.835673809 0.672738671 0.564706028
0.836558998 0.678557634 0.576850116
0.852371752 0.690575421 0.587096691
0.877039433 0.708285570 0.601138413
0.903478861 0.734725058 0.626818299
0.931941628 0.769259572 0.668690562
0.970145166 0.818848670 0.728778899
0.158253998 0.115116984 0.099430986
0.162555441 0.111448295 0.098418549
0.173434719 0.122327901 0.109297730
0.188108802 0.135863349 0.116128810
0.211005822 0.154712155 0.133838981
0.247564897 0.175837919 0.154079840
0.295762271 0.209107995 0.190512434
0.361163795 0.255154967 0.235673785
0.163693994 0.119418114 0.100316092
0.170904815 0.117773429 0.107779674
0.182542995 0.129917681 0.111321993
0.195952103 0.142947346 0.124351658
0.220999196 0.161416799 0.141050100
0.256419897 0.184440345 0.164579615
0.298165560 0.213409454 0.191018090
0.362808168 0.259456098 0.231246099
0.193801329 0.142694190 0.129664823
0.200758800 0.148260713 0.118405811
0.201265082 0.151296899 0.128525987
0.224920988 0.163820088 0.144971281
0.248450086 0.179886147 0.158127889
0.281973362 0.206704661 0.180518821
0.328905553 0.240986541 0.211638197
0.401391536 0.291966975 0.261859804
0.224667847 0.175964639 0.144212484
0.243010908 0.175078735 0.151422918
0.249336109 0.185705096 0.161290094
0.265401661 0.198987991 0.172675639
0.288171887 0.217330828 0.188994437
0.321695179 0.240354285 0.213282824
0.375964612 0.277166486 0.242378458
0.444275707 0.328146607 0.286527812
0.301960826 0.228463024 0.202150390
0.310689539 0.235040903 0.208855063
0.308791995 0.236558989 0.207969353
0.324478179 0.247185439 0.217457145
0.354712367 0.269450158 0.237191632
0.395825535 0.297280133 0.265527993
0.453004330 0.341808707 0.298671633
0.529917777 0.409740806 0.349905163
0.438583463 0.350410730 0.299050987
0.447438121 0.357748181 0.306388527
0.455914199 0.358001202 0.310562968
0.461100549 0.363187551 0.315749615
0.472232461 0.365717888 0.314357817
0.510183632 0.398481905 0.344591975
0.583175182 0.451233089 0.384819895
0.659835398 0.514610827 0.440101266
0.625047088 0.504617512 0.422264546
0.630360365 0.513725340 0.438709825
0.639215767 0.516887784 0.436939001
0.648197532 0.524351835 0.444402546
0.666033924 0.535357356 0.452371746
0.688045800 0.553447187 0.469576478
0.733333170 0.580392063 0.495256543
0.803921759 0.638077319 0.542820632
0.832258403 0.683111608 0.575711429
0.844022334 0.690954506 0.588994265
0.846046567 0.686400652 0.593548298
0.860721231 0.698545158 0.603162408
0.871347308 0.709171593 0.609867394
0.905502617 0.732574582 0.638330042
0.932574451 0.765338242 0.675268412
0.970524609 0.816571355 0.734471321
