Assets/EldamarStudio/100 Retro LUTs Pack/LUTs/cube/Wendy LUT.cube
LUT_3D_SIZE 5
DOMAIN_MIN 0.000000 0.000000 0.000000
DOMAIN_MAX 0.903226 0.903226 0.903226
0.101961002 0.074510001 0.050980002
0.117647000 0.082353003 0.062744997
0.143832996 0.100695997 0.077165999
0.204047993 0.143200263 0.115749255
0.297026813 0.213282809 0.172675818
0.145477697 0.099051282 0.075521708
0.160152003 0.112460412 0.088930994
0.188614696 0.134345293 0.105882414
0.234155416 0.172295704 0.139658123
0.340543509 0.245667502 0.198228970
0.253763795 0.188994408 0.156988978
0.260974377 0.191271275 0.157621399
0.292978942 0.223023400 0.177229404
0.344339103 0.258064687 0.212903112
0.479696155 0.360025436 0.295129389
0.446679384 0.351423234 0.277799129
0.463630378 0.374572933 0.292219937
0.507400513 0.401770800 0.317773372
0.580012381 0.457305253 0.365212232
0.714484036 0.563946784 0.470461607
0.837318420 0.693484545 0.591397762
0.862871528 0.705376387 0.597090304
0.890322208 0.721568167 0.609107971
0.930044472 0.758001268 0.649082541
0.973054588 0.813915253 0.719924390
0.107526705 0.076786712 0.054901998
0.120935991 0.082353003 0.064389706
0.156609699 0.110183276 0.087919287
0.213156417 0.155597582 0.132067993
0.308412254 0.218848839 0.180518821
0.144465417 0.104616992 0.082732700
0.161163718 0.118026696 0.094497278
0.197469994 0.139911413 0.111827992
0.246552989 0.178874120 0.145477295
0.342441678 0.250853688 0.208349094
0.247185394 0.187982291 0.151043832
0.258950382 0.194180995 0.158886582
0.289690375 0.219733983 0.180518821
0.341429383 0.258697271 0.211258411
0.479316890 0.360910863 0.294117510
0.454395980 0.353320241 0.286021680
0.461985797 0.367741823 0.298671722
0.505376518 0.398481816 0.321947843
0.573814273 0.450094819 0.366729945
0.713725209 0.562301934 0.465148628
0.848323643 0.685262442 0.569133401
0.860721290 0.697027087 0.585831702
0.885768533 0.717014432 0.604553580
0.928146720 0.754332542 0.647944212
0.973687470 0.813282371 0.714990675
0.117647000 0.082353003 0.062744997
0.125490427 0.090196416 0.070588417
0.160784006 0.116381995 0.092852995
0.220113695 0.159898862 0.130170986
0.317899972 0.225680232 0.187096804
0.155597582 0.114105120 0.086907417
0.166729987 0.120303407 0.098038994
0.198102415 0.143832996 0.115370125
0.252371997 0.182415992 0.151296705
0.352561384 0.254775494 0.211258829
0.252371967 0.185704991 0.157621413
0.259203106 0.202403694 0.161163718
0.294243962 0.223023400 0.185704991
0.358380377 0.265528411 0.219101980
0.478305191 0.356609344 0.299051195
0.449462235 0.356230110 0.292473257
0.468690723 0.370018929 0.300948977
0.505376518 0.398481816 0.322200954
0.580012381 0.454396099 0.373307943
0.715496182 0.564579248 0.461606771
0.834155798 0.676407576 0.577735186
0.848829746 0.693231702 0.583048820
0.877925396 0.709804058 0.603921175
0.922580719 0.749399185 0.638962448
0.967868447 0.811258376 0.716002345
0.129411995 0.094117999 0.074510001
0.142820716 0.099683709 0.082732551
0.174952686 0.125237122 0.101707868
0.235420987 0.166730002 0.139278993
0.325489938 0.231625631 0.197976097
0.169006705 0.122580700 0.103605285
0.182036847 0.131056130 0.105502866
0.208222702 0.149399117 0.126502290
0.263883740 0.188361824 0.158886567
0.367362350 0.265275091 0.225426927
0.260973960 0.193547994 0.163820282
0.271346986 0.203415826 0.173307985
0.301454395 0.230233982 0.192915574
0.361669660 0.272738814 0.232511267
0.479570180 0.357241929 0.306894213
0.466034114 0.364073128 0.311069131
0.478810847 0.374572933 0.307780117
0.509930372 0.402024090 0.334345251
0.579000473 0.453384221 0.372928232
0.701327980 0.552814782 0.460847795
0.829095244 0.669955552 0.575331748
0.838962555 0.688804448 0.583048701
0.870461583 0.704870284 0.599620461
0.914484560 0.746489584 0.641872227
0.974066794 0.815306544 0.718405664
0.158253998 0.115116984 0.099430986
0.170398533 0.119291708 0.106261864
0.199494243 0.143200412 0.122327402
0.257432103 0.183428124 0.159645826
0.361163795 0.255154967 0.235673785
0.190259159 0.135357156 0.123592824
0.196457878 0.143200591 0.126502112
0.224920988 0.166097417 0.146489412
0.284503579 0.211511701 0.184060708
0.395825475 0.284629792 0.251992613
0.268690586 0.202024415 0.173940822
0.275269002 0.205312997 0.179506704
0.305376381 0.230866566 0.203415573
0.374825954 0.276027977 0.245920405
0.495888591 0.371663630 0.327260941
0.482100248 0.383048564 0.326881379
0.494623840 0.396457970 0.337634385
0.509930551 0.404933631 0.347627729
0.559519410 0.437950552 0.373434275
0.695509017 0.543706238 0.466160774
0.832258403 0.683111608 0.575711429
0.845287502 0.688930750 0.591271281
0.869449854 0.707274020 0.609234869
0.914104700 0.738899291 0.646173239
0.970524609 0.816571355 0.734471321
