Assets/EldamarStudio/100 Retro LUTs Pack/LUTs/cube/William LUT.cube
DOMAIN_MIN 0 0 0
DOMAIN_MAX 1 1 1
LUT_3D_SIZE 32
0.137254998 0.047059000 0.070588000
0.134218603 0.050094616 0.070588000
0.135483772 0.048829775 0.070588000
0.142315000 0.047059000 0.069323160
0.154079556 0.047438450 0.067046449
0.163187936 0.050474066 0.070082061
0.167235672 0.053510323 0.070588000
0.171916410 0.054901998 0.072232708
0.179506987 0.054901998 0.073750906
0.191651002 0.054902002 0.070714518
0.197975993 0.057811871 0.073497869
0.206072256 0.058823999 0.068437748
0.216318995 0.059962351 0.063883640
0.228968993 0.063250996 0.066919968
0.247184977 0.069322996 0.069955580
0.265401602 0.077798799 0.068184808
0.285136193 0.083871193 0.069702998
0.308285952 0.086274996 0.075142413
0.338646024 0.086275004 0.078178026
0.363440722 0.091841005 0.072864994
0.395319462 0.096015260 0.062998004
0.430740118 0.098039001 0.057938125
0.464515984 0.098039001 0.066414006
0.507020831 0.098039001 0.060341999
0.549525559 0.095762290 0.054269426
0.594813287 0.091335006 0.045414023
0.643896222 0.084756933 0.033270001
0.695509255 0.075648561 0.021126013
0.741808712 0.053257372 0.014295013
0.782036364 0.027197856 0.008223019
0.824667752 0.006072009 0.003922000
0.882353008 0.000000000 0.003922000
0.137254998 0.053130999 0.073624387
0.140290603 0.059202999 0.067552388
0.139404997 0.055787385 0.067552388
0.145350948 0.054396160 0.070082389
0.156736404 0.056546837 0.072738998
0.163187936 0.059582449 0.073118448
0.164706007 0.060088385 0.068564385
0.170525089 0.060973998 0.069196679
0.179506987 0.059456002 0.071473613
0.191651002 0.054902006 0.070714518
0.195066124 0.066539995 0.073497869
0.205060124 0.071979605 0.072485745
0.217457637 0.075142257 0.068816997
0.232258424 0.077925391 0.069702610
0.253257751 0.078431383 0.069955580
0.269069970 0.082100190 0.068184808
0.286653996 0.088425383 0.065148808
0.307020962 0.092979416 0.066034190
0.332574010 0.095382623 0.069070406
0.365718096 0.098165974 0.066540025
0.396458119 0.102087252 0.064516000
0.430740118 0.106134996 0.059962127
0.464515984 0.110183001 0.060468487
0.507020831 0.110183001 0.057305612
0.547248244 0.107906289 0.048956327
0.593168557 0.103479013 0.043516681
0.642884195 0.095888942 0.036306262
0.689437270 0.081720561 0.024161626
0.730423748 0.069956020 0.009361484
0.782289505 0.045414627 0.005693000
0.830233932 0.020746578 0.003036392
0.879316628 0.006072000 0.000885613
0.135104224 0.063503996 0.074510001
0.140290618 0.065274999 0.070588231
0.145477548 0.067045994 0.070968002
0.145477548 0.063503996 0.068438001
0.152941465 0.065654770 0.070588447
0.157242239 0.068690836 0.072359227
0.164706007 0.067046002 0.071600229
0.169639707 0.068690710 0.072106227
0.177988991 0.069196776 0.073371008
0.187350005 0.065907776 0.070588000
0.197216898 0.072991773 0.073497869
0.206324756 0.079064034 0.070462003
0.219607875 0.082732551 0.070714772
0.234535217 0.084756747 0.072738774
0.250094831 0.086654000 0.072738774
0.268690944 0.091208033 0.072485812
0.285388738 0.094244413 0.067932002
0.306135356 0.099683993 0.064895771
0.333459795 0.104237810 0.066413961
0.361796319 0.107273586 0.061733413
0.397090703 0.112207711 0.064389773
0.430740118 0.114484549 0.061859645
0.464515984 0.118026547 0.056546714
0.507020831 0.118026547 0.053510319
0.551549792 0.120050289 0.048070714
0.592409849 0.114231341 0.038962692
0.641239882 0.107906297 0.032890871
0.688425303 0.099304341 0.020746112
0.735104561 0.084630020 0.008096097
0.785199285 0.067172833 0.005313207
0.838456929 0.036179833 0.004301235
0.882732570 0.007843000 0.000000000
0.135862991 0.075648323 0.077040002
0.139404997 0.076913163 0.070208773
0.141682386 0.075648323 0.066413611
0.146489680 0.075648323 0.074510001
0.148007780 0.075268775 0.068438001
0.153700233 0.076533936 0.068817221
0.159266159 0.078304842 0.071853161
0.168374538 0.077292703 0.073876999
0.177482918 0.079569995 0.077672102
0.184061006 0.079570003 0.072106160
0.193422005 0.084124163 0.073497869
0.206831157 0.088172100 0.072992004
0.221252143 0.090069838 0.069196999
0.236559033 0.090575837 0.074256971
0.249715149 0.094623573 0.073244840
0.265401602 0.098798156 0.070714839
0.283617973 0.104617186 0.071474001
0.304364115 0.108918563 0.067931987
0.334724963 0.115623161 0.069196992
0.362302363 0.118911803 0.062365830
0.394054294 0.122580476 0.060088996
0.432511061 0.126628995 0.064136997
0.466919512 0.126881987 0.055914134
0.508285999 0.129159003 0.051739097
0.554332793 0.127640858 0.043896008
0.599747121 0.127640486 0.038962692
0.642758012 0.118532225 0.028842939
0.690575838 0.113978617 0.015939271
0.741682589 0.104111187 0.007590024
0.787982166 0.087919161 0.001011982
0.844781995 0.064895749 0.005313001
0.888804972 0.024288479 0.000000000
0.140037552 0.087792993 0.081214458
0.141176000 0.090069607 0.070967995
0.139025778 0.089563765 0.061353769
0.138519838 0.088551991 0.060468160
0.142314553 0.087413445 0.073371455
0.154459327 0.084377065 0.067299455
0.159772232 0.088930994 0.072106451
0.165338159 0.091334544 0.075774841
0.174826086 0.091713995 0.078051552
0.183934480 0.091713995 0.075015932
0.191271558 0.094244316 0.074889451
0.201897711 0.098418832 0.074130453
0.217836991 0.099936545 0.074130453
0.235800028 0.100189574 0.074130453
0.250980407 0.106135085 0.071220584
0.267299235 0.110562794 0.066540003
0.285135984 0.114357993 0.065022185
0.304743558 0.120683014 0.067172989
0.335104406 0.129791409 0.073244989
0.362681925 0.133712739 0.066160634
0.393801272 0.136748731 0.061227191
0.429854244 0.139152542 0.058064904
0.472485483 0.139405534 0.057811912
0.512460709 0.145477548 0.051739193
0.557621956 0.142820999 0.041872010
0.604807138 0.138140410 0.033143587
0.650347590 0.134471610 0.028842939
0.695888698 0.125364006 0.013662565
0.749019504 0.118532427 0.008349168
0.796331167 0.107906274 0.004301018
0.839468360 0.090702422 0.000379548
0.894118011 0.063377991 0.000379548
0.130929932 0.099936999 0.072106063
0.140037552 0.096900612 0.075142451
0.139025778 0.099177778 0.069196999
0.138519838 0.102467000 0.065148935
0.142314553 0.105629444 0.067299455
0.151422933 0.096521065 0.064263068
0.161037385 0.101074994 0.073371068
0.165844232 0.102213711 0.076280773
0.172169253 0.101201840 0.075774841
0.183934495 0.103857994 0.078051545
0.198861867 0.103857994 0.077925064
0.204427674 0.112460569 0.073877066
0.214041695 0.117394224 0.071094066
0.229728028 0.115369961 0.071094066
0.244908407 0.118406348 0.071094066
0.267298996 0.126755059 0.070588000
0.291587263 0.130296990 0.071094185
0.316128552 0.132573992 0.072233006
0.338140041 0.138899043 0.067172989
0.365718156 0.145224780 0.064895637
0.396837652 0.148893133 0.062744997
0.432258040 0.151929140 0.059202936
0.472485483 0.154585928 0.051739141
0.518026710 0.160657942 0.045667127
0.558001280 0.159898654 0.039595004
0.601770997 0.156356677 0.031119339
0.647311985 0.152814880 0.023023196
0.692852318 0.146616399 0.013662565
0.743706465 0.137508109 0.003795180
0.795825481 0.128905669 0.001012001
0.844528973 0.117014401 0.000885608
0.894118011 0.099809989 0.003415935
0.131941676 0.112080999 0.073118322
0.138519615 0.109044611 0.073624387
0.143326774 0.110309772 0.076660231
0.142315000 0.112080999 0.074256673
0.144085869 0.114863999 0.073877223
0.148893252 0.112207383 0.070841387
0.158001006 0.113219641 0.075395323
0.165464684 0.116002642 0.077672325
0.170145184 0.116129316 0.074510001
0.178747982 0.120936155 0.075774841
0.193801224 0.118532315 0.078431003
0.202909872 0.124604568 0.076407261
0.213282958 0.132827342 0.074256673
0.231499314 0.132826999 0.075648002
0.248956412 0.133586094 0.075648002
0.266539961 0.141429469 0.070841007
0.286021173 0.150537521 0.069070198
0.309930116 0.153573647 0.068185009
0.336875349 0.155850649 0.062112994
0.371284068 0.154332399 0.058823641
0.398608714 0.167995155 0.055787262
0.431752235 0.172169507 0.055154681
0.469955772 0.172042996 0.050600529
0.515496373 0.173308000 0.042125322
0.561037481 0.177103281 0.033776037
0.603794932 0.175964639 0.026059341
0.648829818 0.173561320 0.017457001
0.692346394 0.167489320 0.010373140
0.743200421 0.158760503 0.003795180
0.794813514 0.151423350 0.003541982
0.844655514 0.143959656 0.003289008
0.891587675 0.133712962 0.001391678
0.131688714 0.125869706 0.077799000
0.131182715 0.124478020 0.072865292
0.140037775 0.125742763 0.076660231
0.144338995 0.126249149 0.078431003
0.145098001 0.126249149 0.077672005
0.146869227 0.127513990 0.073371232
0.153320685 0.128399611 0.076281004
0.160784006 0.129791290 0.074130297
0.168374181 0.131309479 0.071853384
0.176217973 0.137381688 0.074510001
0.187729135 0.134724826 0.072485842
0.203415513 0.138140246 0.074762553
0.215180635 0.144971639 0.074003935
0.235167995 0.148513377 0.076786712
0.247817978 0.152687699 0.076786712
0.264389724 0.156609505 0.073624007
0.290195912 0.162681893 0.070588000
0.307400256 0.170904696 0.068311289
0.334724993 0.172928706 0.064263277
0.365718037 0.175079048 0.057685349
0.404680729 0.178747475 0.054648969
0.435041249 0.191904128 0.049588583
0.471726984 0.190259412 0.047311530
0.515749633 0.190259412 0.038203906
0.561290145 0.192536280 0.034029424
0.605439544 0.195572674 0.024921045
0.651233077 0.195319638 0.015812645
0.696014822 0.190385997 0.008602006
0.744844675 0.184946582 0.002530012
0.796457827 0.174320012 0.003541982
0.845414460 0.166477010 0.006072009
0.890196025 0.158886984 0.000000000
0.128652900 0.141809002 0.081593908
0.125616893 0.142568097 0.074003711
0.129411906 0.141682312 0.074130103
0.139025897 0.144465163 0.077672102
0.144338906 0.141809002 0.077672102
0.144338906 0.144465163 0.072359100
0.149399102 0.144212201 0.073118322
0.154712006 0.144971102 0.070335388
0.164579093 0.144971102 0.065022089
0.176723868 0.151043862 0.074130476
0.187476218 0.150664136 0.070967905
0.198102415 0.153700188 0.069449835
0.216698453 0.158633649 0.070967548
0.237191871 0.161923006 0.073244907
0.244276002 0.170524672 0.072232902
0.259076804 0.174825907 0.070588201
0.281847179 0.178621188 0.069070004
0.315243542 0.181657583 0.070334993
0.337001979 0.187603116 0.070587985
0.364579469 0.193675116 0.062239349
0.399873555 0.200506002 0.056167159
0.439595252 0.206325233 0.051106967
0.476154476 0.209488094 0.041872077
0.518026710 0.210753098 0.032131709
0.563567281 0.212270901 0.027577907
0.609234273 0.213788688 0.024921244
0.653257191 0.216319010 0.016318906
0.702086926 0.213535652 0.007463560
0.747627676 0.211258844 0.004048011
0.798734546 0.206704870 0.002023983
0.849968255 0.194560111 0.006831105
0.892473102 0.182416081 0.000759096
0.125616506 0.160025015 0.078557514
0.131688491 0.163061410 0.075521909
0.132953510 0.157368734 0.074383482
0.135989502 0.155091494 0.074636482
0.141302511 0.160025015 0.074636489
0.141302511 0.160025015 0.074636489
0.146363154 0.157621831 0.074383482
0.150790766 0.158001274 0.071221009
0.158507094 0.160151511 0.068058483
0.179759488 0.160151497 0.074130483
0.194813371 0.166223526 0.077419132
0.199620485 0.171916515 0.076027781
0.207210511 0.176850334 0.073244840
0.225047082 0.180139005 0.070208520
0.237191856 0.186211005 0.064136520
0.256293803 0.190006316 0.063124515
0.280329198 0.194560498 0.062997997
0.309171528 0.199873596 0.064262986
0.342567980 0.202909991 0.070334978
0.372675747 0.208855510 0.062239341
0.406704962 0.216824740 0.055028513
0.442378610 0.224794269 0.048070639
0.476154476 0.230740488 0.038836461
0.515622914 0.236812502 0.026691671
0.562049091 0.238077492 0.016951326
0.610499263 0.236812308 0.011005839
0.659329176 0.234535009 0.007210513
0.710942268 0.234535009 0.001138522
0.749146104 0.234408498 0.005565988
0.796710789 0.236053228 0.004048020
0.850347757 0.234029248 0.001138608
0.901581526 0.221884489 0.003795482
0.116761133 0.181150869 0.072612002
0.117014125 0.178368270 0.087033376
0.129537895 0.179253876 0.077546000
0.132068157 0.176217735 0.077040002
0.133965865 0.178241745 0.081087999
0.144085869 0.178241745 0.086147994
0.144085869 0.178241745 0.078557685
0.152688131 0.177229866 0.075774841
0.160277992 0.178241745 0.073244900
0.170777604 0.178241745 0.077166133
0.177482858 0.186969876 0.077419132
0.194686994 0.188993871 0.076407261
0.204553992 0.193295419 0.072232999
0.219481021 0.197849751 0.067425840
0.239594951 0.198608741 0.064010002
0.258949906 0.207083926 0.062744997
0.284756511 0.214168191 0.061227195
0.313472539 0.221631855 0.058570717
0.342314988 0.226944968 0.055534128
0.375711381 0.229981363 0.053257484
0.409993589 0.237824112 0.046300136
0.447438508 0.244907990 0.039215747
0.484756827 0.249209508 0.030234138
0.521441936 0.258064866 0.023656061
0.565464854 0.259582877 0.009234592
0.612017453 0.260974199 0.003036130
0.658570170 0.261985928 0.002024001
0.705376267 0.264389724 0.000759006
0.756989419 0.261732906 0.007969820
0.799999952 0.261479884 0.005439673
0.849462152 0.259835631 0.000000000
0.899051130 0.249715596 0.001012129
0.111701258 0.202403247 0.078684509
0.111701258 0.199367628 0.077672392
0.116381779 0.198482245 0.079569742
0.127766997 0.197217077 0.077546068
0.127008274 0.197216988 0.083238713
0.130930021 0.200505972 0.081088006
0.141050011 0.200505972 0.078557685
0.149272710 0.202150702 0.076027714
0.160278261 0.201012239 0.072232910
0.166350275 0.198482245 0.070208535
0.172422469 0.205186635 0.074383005
0.180519000 0.212270498 0.070335008
0.201012000 0.212270498 0.067299396
0.217710063 0.216571987 0.062619001
0.240733653 0.220113993 0.061353844
0.261986047 0.229348421 0.062744997
0.283238471 0.235420436 0.061227195
0.312713534 0.242884234 0.056926429
0.342821002 0.248956248 0.049462315
0.373687655 0.254269361 0.042125098
0.408981740 0.259202987 0.035294011
0.446426392 0.267172515 0.029095493
0.486148179 0.271220982 0.020872764
0.528272986 0.276533902 0.011005750
0.573561132 0.282858968 0.010246977
0.620493531 0.284250677 0.000632584
0.666666567 0.287286431 0.000000000
0.712207258 0.290322423 0.000000000
0.759013414 0.288045675 0.001897567
0.810626090 0.286780506 0.005692748
0.857558131 0.285009503 0.000885608
0.906135023 0.277040243 0.002024256
0.107527003 0.223655641 0.081720710
0.104111359 0.221758381 0.074889615
0.108412363 0.220872998 0.072359227
0.116761357 0.220746472 0.072232679
0.122074351 0.218089640 0.082100354
0.119797647 0.222643644 0.073751062
0.127135009 0.223655641 0.071979679
0.140923411 0.224161699 0.069955707
0.155344918 0.227198079 0.073750995
0.162176013 0.222264647 0.066540159
0.170524999 0.225553632 0.067425646
0.182036594 0.229348645 0.067678645
0.193421990 0.234281987 0.063883640
0.216698050 0.235041022 0.061353963
0.237444818 0.241998628 0.062239353
0.262745172 0.250600636 0.060088836
0.286274552 0.260467827 0.057811555
0.309424490 0.263504237 0.052878376
0.342314988 0.269070268 0.043264028
0.375205725 0.277419269 0.036432642
0.410499811 0.284629643 0.026185913
0.447944731 0.288677633 0.019101521
0.487286597 0.294497371 0.013156010
0.529790938 0.298545361 0.003035997
0.577609122 0.303858250 0.001138644
0.623909295 0.309677303 0.004807325
0.671980083 0.312713563 0.001771063
0.717520416 0.315749198 0.001138644
0.765338421 0.313472480 0.000000000
0.814421058 0.313345999 0.003415642
0.866033733 0.311574996 0.001644651
0.914863646 0.305502981 0.003922000
0.099430941 0.245414034 0.070082001
0.092599645 0.245920092 0.067552388
0.093738034 0.244908035 0.068058260
0.101581000 0.245161071 0.071094126
0.112713002 0.245667070 0.073751003
0.112713002 0.245667070 0.067679003
0.118785642 0.245414034 0.069196679
0.129791290 0.245414034 0.068943709
0.143959165 0.245667130 0.066666931
0.156103954 0.248703524 0.072738931
0.168247953 0.249336034 0.068437971
0.184946030 0.249336034 0.066413969
0.201517671 0.250221401 0.065907970
0.216698050 0.253763080 0.065654933
0.228842825 0.262871444 0.068690546
0.255155027 0.269576043 0.062112782
0.284250200 0.277166188 0.053004779
0.312207133 0.285262614 0.044022951
0.342567980 0.288299024 0.031878933
0.378747702 0.299178064 0.027324613
0.416824698 0.309424281 0.019607974
0.456293374 0.316002101 0.010499905
0.495888978 0.316255093 0.007463520
0.532574058 0.322327822 0.001517999
0.578115106 0.328400016 0.000000000
0.623656273 0.334472001 0.002276990
0.666920066 0.339784980 0.007084033
0.712460399 0.342820615 0.004048423
0.763567328 0.341049910 0.001265167
0.814674079 0.341049820 0.004807199
0.865780711 0.342188090 0.010246977
0.917393982 0.336116076 0.004174968
0.069070190 0.272738397 0.064010002
0.087286964 0.278811157 0.067046389
0.086907417 0.270714670 0.062365998
0.089437269 0.267425567 0.061986268
0.094750017 0.270208806 0.065022133
0.100569010 0.276027828 0.067679003
0.115749657 0.273497492 0.069196679
0.129791290 0.272738397 0.068943709
0.143453091 0.271979481 0.063630812
0.153067574 0.269955873 0.054522187
0.165211573 0.275901407 0.063504048
0.185452089 0.276660413 0.063377582
0.202783063 0.276660413 0.061100587
0.213662460 0.278051853 0.056546561
0.228842825 0.287160188 0.053510178
0.253004789 0.293864787 0.046932410
0.282479435 0.301454604 0.037824407
0.312207133 0.309930116 0.029981019
0.342567980 0.315623373 0.025806157
0.381277382 0.321442395 0.013662161
0.418216020 0.330676645 0.011005597
0.456293374 0.338772655 0.007463714
0.495888978 0.343580216 0.004427910
0.538393795 0.349652231 0.001391519
0.584187388 0.355724394 0.000000000
0.628589630 0.361796379 0.000000000
0.670208693 0.366856396 0.001265006
0.718532383 0.367109358 0.001012039
0.772042572 0.370145649 0.000632584
0.820746124 0.368374616 0.001771217
0.867551982 0.368374407 0.006072388
0.914357603 0.369513243 0.007210577
0.043517016 0.300062776 0.057938002
0.047312193 0.303731769 0.053763591
0.059076644 0.303352207 0.061100975
0.066160761 0.298291951 0.056293678
0.075268753 0.300569236 0.055913746
0.087413013 0.300568998 0.058950134
0.101201847 0.303858280 0.057178885
0.117773913 0.304111302 0.061859623
0.133712828 0.303352207 0.058823809
0.147754505 0.298671454 0.046679039
0.159772009 0.306767792 0.047691077
0.173940241 0.306768060 0.048703466
0.197090492 0.305249959 0.050601006
0.213789001 0.304237813 0.049841970
0.235420600 0.309045196 0.046805590
0.260214984 0.318152964 0.038962819
0.289057583 0.322707176 0.028336622
0.317520350 0.331941575 0.017710218
0.342567980 0.345097899 0.009361041
0.378874183 0.351169974 0.007589995
0.420240253 0.355344713 0.003036004
0.459709048 0.363440722 0.005060002
0.500822425 0.370778263 0.006072199
0.545603991 0.374572992 0.000759096
0.588108718 0.382922262 0.002277288
0.635041177 0.387729466 0.001012132
0.677545846 0.392283499 0.000000000
0.724224806 0.394180775 0.000000000
0.773307562 0.396837622 0.000000000
0.826185524 0.398102790 0.000000000
0.872106194 0.397469997 0.001518196
0.916128814 0.400505990 0.003036004
0.023782814 0.330423564 0.044275817
0.019228626 0.333459586 0.044275809
0.022644240 0.330676615 0.042884592
0.030487016 0.330170542 0.044402655
0.045287818 0.333586395 0.039595008
0.061606564 0.333965629 0.043769751
0.082858942 0.332953513 0.043263685
0.104111321 0.335989892 0.040606849
0.120809712 0.337508082 0.045920528
0.139784813 0.332194388 0.037571035
0.156736001 0.334598243 0.032510817
0.172422439 0.340164453 0.030487077
0.191018179 0.339405537 0.030866815
0.214294866 0.337381184 0.035673786
0.233523175 0.339152396 0.030107401
0.263250977 0.340923578 0.028336627
0.290575385 0.350031555 0.019228626
0.320303559 0.353700370 0.009614006
0.343327016 0.368374377 0.001011999
0.380012542 0.378494382 0.000000000
0.418722451 0.385705113 0.000000000
0.462239116 0.390765250 0.001012128
0.505123317 0.399747014 0.006325195
0.547881126 0.404174656 0.003036191
0.592662573 0.408728480 0.000759096
0.639341950 0.415053874 0.002403808
0.686148226 0.418090105 0.001011999
0.733712792 0.421125740 0.003035997
0.778873980 0.427198023 0.000000000
0.826185524 0.426945001 0.000000000
0.876913130 0.428716213 0.000000000
0.920683026 0.432384580 0.000000000
0.009867433 0.363820523 0.024288440
0.002656614 0.367488712 0.028463036
0.002150775 0.364073128 0.028083649
0.004554433 0.362428695 0.025047857
0.010246981 0.364706069 0.017837016
0.027198032 0.370019138 0.023909014
0.050474208 0.369133383 0.023023449
0.079696141 0.369386226 0.022011317
0.107400112 0.370904624 0.019860547
0.128652513 0.367868215 0.022896931
0.151169896 0.366097391 0.016192148
0.172295943 0.366603553 0.012397268
0.193421990 0.373434484 0.011512015
0.217710063 0.376217127 0.016824987
0.231372803 0.376217127 0.008475599
0.259709358 0.374446332 0.009614226
0.289437175 0.375585169 0.008475801
0.317394108 0.383428544 0.000000001
0.344718575 0.389500558 0.000000001
0.383174956 0.401138544 0.000000001
0.424541175 0.411385298 0.001264990
0.464136690 0.420493603 0.000379553
0.509424090 0.429474711 0.003289424
0.548893154 0.435547352 0.003289424
0.592915833 0.439974844 0.001644712
0.639974535 0.444275796 0.000000000
0.692599654 0.446806103 0.001011998
0.744465649 0.449715257 0.007083992
0.790006578 0.456799358 0.003795002
0.833017051 0.460088491 0.000632576
0.879443109 0.458443761 0.001264990
0.928020000 0.464516550 0.001264990
0.000759032 0.397217035 0.009108027
0.000759034 0.403288990 0.006072415
0.002150777 0.400505990 0.003795225
0.002656842 0.399493992 0.003289226
0.001138583 0.404174536 0.005692998
0.004174964 0.401138902 0.011764990
0.018595662 0.401391983 0.005186675
0.046299435 0.402783245 0.001771033
0.080455184 0.404301107 0.001518004
0.110436484 0.401265472 0.001644522
0.137507856 0.404048085 0.001771035
0.164326236 0.400506020 0.003036254
0.190891668 0.402277023 0.004427996
0.217710063 0.412649989 0.004680965
0.241998821 0.412649989 0.001644583
0.270082593 0.412650019 0.005312990
0.297659963 0.412397027 0.008096024
0.323466152 0.413788646 0.006072004
0.353826970 0.416824996 0.000000007
0.392283350 0.428462982 0.000000007
0.437444419 0.438709736 0.003794996
0.481214255 0.447818160 0.005312999
0.518532515 0.456799924 0.000253038
0.558000922 0.462871909 0.000253033
0.602023900 0.468944013 0.000253032
0.647564948 0.476154625 0.000000000
0.695636034 0.483238965 0.001011998
0.753320336 0.483238965 0.007083986
0.805186450 0.486148089 0.007842993
0.848956108 0.489690185 0.005566230
0.891587138 0.491334945 0.004554346
0.940163970 0.491841018 0.007336993
0.000000000 0.438962728 0.005060352
0.002783356 0.433902740 0.002024030
0.004933583 0.437823981 0.003289417
0.005439809 0.436179399 0.002783357
0.002403809 0.438076943 0.003542452
0.000632579 0.435041308 0.002403639
0.003668965 0.439595371 0.003415639
0.021126043 0.438456684 0.001644708
0.054143071 0.438456386 0.005060257
0.094623625 0.437444508 0.011132003
0.127640501 0.443011224 0.002783359
0.163061395 0.441998839 0.000759101
0.193421990 0.440101385 0.001138643
0.220493346 0.446300089 0.001138643
0.244781464 0.446300089 0.000632583
0.276281029 0.451107085 0.000000000
0.307020992 0.451866090 0.002276996
0.333206564 0.452498496 0.002909572
0.357115626 0.455534369 0.003289360
0.393042386 0.461353391 0.005566004
0.434408456 0.469702840 0.001771008
0.480202377 0.478937715 0.004300993
0.522327840 0.489563853 0.005313012
0.567109287 0.492979050 0.000000001
0.606578171 0.499051005 0.000000000
0.651106954 0.503731668 0.000000000
0.697153747 0.509551048 0.000000000
0.748007357 0.514105022 0.001517990
0.797722518 0.516761839 0.002276996
0.849209189 0.518026710 0.002276996
0.892725945 0.520936370 0.001138643
0.935609996 0.524731398 0.002276996
0.001897740 0.481467456 0.009614252
0.003036387 0.473497719 0.002783353
0.002277229 0.483365178 0.004048030
0.004048004 0.480075628 0.003289257
0.002403808 0.477925003 0.002403808
0.002403805 0.477925390 0.002403805
0.004427578 0.474889457 0.003794996
0.007463965 0.480961472 0.002150708
0.026439272 0.481720328 0.003922001
0.061733060 0.485135943 0.009614261
0.114610873 0.479569733 0.008855129
0.153953016 0.485262454 0.003795484
0.190006539 0.483364701 0.000759096
0.218849063 0.485641986 0.000000000
0.249715447 0.487286747 0.000000000
0.281214386 0.490196466 0.000000000
0.316129357 0.491714269 0.000000000
0.347880989 0.491967320 0.000000000
0.374193460 0.495003253 0.001771230
0.407463491 0.498924464 0.002909651
0.443896174 0.503099203 0.005945744
0.485388845 0.509171724 0.000885612
0.529032230 0.519291759 0.004048004
0.572801948 0.524098575 0.001517999
0.615686059 0.529411495 0.000000000
