Assets/EldamarStudio/100 Retro LUTs Pack/LUTs/cube/William LUT.cube
LUT_3D_SIZE 5
DOMAIN_MIN 0.000000 0.000000 0.000000
DOMAIN_MAX 0.903226 0.903226 0.903226
0.137254998 0.047059000 0.070588000
0.171916410 0.054901998 0.072232708
0.247184977 0.069322996 0.069955580
0.430740118 0.098039001 0.057938125
0.741808712 0.053257372 0.014295013
0.131688714 0.125869706 0.077799000
0.160784006 0.129791290 0.074130297
0.247817978 0.152687699 0.076786712
0.435041249 0.191904128 0.049588583
0.744844675 0.184946582 0.002530012
0.069070190 0.272738397 0.064010002
0.129791290 0.272738397 0.068943709
0.228842825 0.287160188 0.053510178
0.456293374 0.338772655 0.007463714
0.772042572 0.370145649 0.000632584
0.003922000 0.521948278 0.013662002
0.006451582 0.521442235 0.005186583
0.252245665 0.532194793 0.000000000
0.498545259 0.543580234 0.002909872
0.808601975 0.578747272 0.003036126
0.006578155 0.842504561 0.006578155
0.002909876 0.842631400 0.001012124
0.284756184 0.845034599 0.003921838
0.604554057 0.850221395 0.002656833
0.901454389 0.850347579 0.000000000
0.127767280 0.051613003 0.147754416
0.168626994 0.058823999 0.150031716
0.240607411 0.067678705 0.151043832
0.428209960 0.046552893 0.140543997
0.741176426 0.001644708 0.127767041
0.123845711 0.124224991 0.139278993
0.152309000 0.132067993 0.138266712
0.240607411 0.143200397 0.141555697
0.438962430 0.159519002 0.132700562
0.748386562 0.137760863 0.117014579
0.056673188 0.271094114 0.140543997
0.113978729 0.271094114 0.138266698
0.235420406 0.287160188 0.132700577
0.461226821 0.327008396 0.113345705
0.774825871 0.350158095 0.045287728
0.000000000 0.526628256 0.019608025
0.003542291 0.527640760 0.019607868
0.241998374 0.531182706 0.008222573
0.501581371 0.542568147 0.002909872
0.820999563 0.574952543 0.001012124
0.004554003 0.845414460 0.004554003
0.000000000 0.845414281 0.002656833
0.242757812 0.847691417 0.000632584
0.601897240 0.851865768 0.000000000
0.907400191 0.841366351 0.001012124
0.096015424 0.054901998 0.289057791
0.141176417 0.064389706 0.285768390
0.226312816 0.071853004 0.283870816
0.434408695 0.007843000 0.328905821
0.756230235 0.000000000 0.333585978
0.078304604 0.136369690 0.284503818
0.129411578 0.130423710 0.283491671
0.232511103 0.132700577 0.287666410
0.445793957 0.106767870 0.309930563
0.769639492 0.001644708 0.309044659
0.003922000 0.269449800 0.295635790
0.047817901 0.271094114 0.280582219
0.232131407 0.284503400 0.285135984
0.479949504 0.290702283 0.279316813
0.803415418 0.283744812 0.271473378
0.001012128 0.523972273 0.258570701
0.000000000 0.528905749 0.264769226
0.201771110 0.533459961 0.252119094
0.511069238 0.544844866 0.249715388
0.836052775 0.555976868 0.231625810
0.000632584 0.851612568 0.139152423
0.001012124 0.847059011 0.140543997
0.013282808 0.850347579 0.109677181
0.573814213 0.853636980 0.086401388
0.917267501 0.843011081 0.018975422
0.002909872 0.051992130 0.535737276
0.004553996 0.056799423 0.528272986
0.240101382 0.031498883 0.527640343
0.438836366 0.002909872 0.515243411
0.764199376 0.000000000 0.565212071
0.003542291 0.130170837 0.525616527
0.000000000 0.132067993 0.525996268
0.230233967 0.121947698 0.528779149
0.452498525 0.081467167 0.533460021
0.781151235 0.001012128 0.558760107
0.000000000 0.297280282 0.533712983
0.003921581 0.286527395 0.529158711
0.205439374 0.284503788 0.521442294
0.486780256 0.270208806 0.523718953
0.818089843 0.231245935 0.541556239
0.000000000 0.534851432 0.524098516
0.000000000 0.538773119 0.528273106
0.070588388 0.541682243 0.531815410
0.524098575 0.540670335 0.525996268
0.856925845 0.536369264 0.535104454
0.006072152 0.847691417 0.536116540
0.002277296 0.852624893 0.544212401
0.002656582 0.854269147 0.530044079
0.517267406 0.857178688 0.518785298
0.909677267 0.847311914 0.508032978
0.000000000 0.015559858 0.845034599
0.000000000 0.001265167 0.841745734
0.223276362 0.000000000 0.839974523
0.538266897 0.001265167 0.841113567
0.854522228 0.000000000 0.845161378
0.001644708 0.122580551 0.843769729
0.002656833 0.112080701 0.841872394
0.194054514 0.074762881 0.851359904
0.545730412 0.000000000 0.850347757
0.860974252 0.000000000 0.846426547
0.000632584 0.302213788 0.852371991
0.001644708 0.297912508 0.851612747
0.011385221 0.295003384 0.840481043
0.535610378 0.273118496 0.849715590
0.885894537 0.193674803 0.850980222
0.002909872 0.585072756 0.852624655
0.000000000 0.582542539 0.843769550
0.000000000 0.576090991 0.849715173
0.510436237 0.564958811 0.852371573
0.896521211 0.547880948 0.849462450
0.001265167 0.879190624 0.843769729
0.003795180 0.877798557 0.843896389
0.005312988 0.873877585 0.830739737
0.542188227 0.874509692 0.846426547
0.889563560 0.869955599 0.858190536
