Assets/EldamarStudio/100 Retro LUTs Pack/LUTs/cube/William LUT.cube
LUT_3D_SIZE 8
DOMAIN_MIN 0.000000 0.000000 0.000000
DOMAIN_MAX 0.903226 0.903226 0.903226
0.137254998 0.047059000 0.070588000
0.154079556 0.047438450 0.067046449
0.179506987 0.054901998 0.073750906
0.216318995 0.059962351 0.063883640
0.285136193 0.083871193 0.069702998
0.395319462 0.096015260 0.062998004
0.549525559 0.095762290 0.054269426
0.741808712 0.053257372 0.014295013
0.140037552 0.087792993 0.081214458
0.142314553 0.087413445 0.073371455
0.174826086 0.091713995 0.078051552
0.217836991 0.099936545 0.074130453
0.285135984 0.114357993 0.065022185
0.393801272 0.136748731 0.061227191
0.557621956 0.142820999 0.041872010
0.749019504 0.118532427 0.008349168
0.128652900 0.141809002 0.081593908
0.144338906 0.141809002 0.077672102
0.164579093 0.144971102 0.065022089
0.216698453 0.158633649 0.070967548
0.281847179 0.178621188 0.069070004
0.399873555 0.200506002 0.056167159
0.563567281 0.212270901 0.027577907
0.747627676 0.211258844 0.004048011
0.107527003 0.223655641 0.081720710
0.122074351 0.218089640 0.082100354
0.155344918 0.227198079 0.073750995
0.193421990 0.234281987 0.063883640
0.286274552 0.260467827 0.057811555
0.410499811 0.284629643 0.026185913
0.577609122 0.303858250 0.001138644
0.765338421 0.313472480 0.000000000
0.023782814 0.330423564 0.044275817
0.045287818 0.333586395 0.039595008
0.120809712 0.337508082 0.045920528
0.191018179 0.339405537 0.030866815
0.290575385 0.350031555 0.019228626
0.418722451 0.385705113 0.000000000
0.592662573 0.408728480 0.000759096
0.778873980 0.427198023 0.000000000
0.001897740 0.481467456 0.009614252
0.002403808 0.477925003 0.002403808
0.026439272 0.481720328 0.003922001
0.190006539 0.483364701 0.000759096
0.316129357 0.491714269 0.000000000
0.443896174 0.503099203 0.005945744
0.615686059 0.529411495 0.000000000
0.799240589 0.547121823 0.000000000
0.000000000 0.663251519 0.000000000
0.000379548 0.657305300 0.001644712
0.000000001 0.659961939 0.003162904
0.179380283 0.664516151 0.004427648
0.349652261 0.671094537 0.000759096
0.512207329 0.667172551 0.001644712
0.669070065 0.679569542 0.002277288
0.834535122 0.683238089 0.000000000
0.006578155 0.842504561 0.006578155
0.002403715 0.846299529 0.002656833
0.001897737 0.846932352 0.001265168
0.126502410 0.843516767 0.001138644
0.383048743 0.847311556 0.001518192
0.560025275 0.850221395 0.002656833
0.743200362 0.847691417 0.002277288
0.901454389 0.850347579 0.000000000
0.132573992 0.054522451 0.104237996
0.152941003 0.050600551 0.103858545
0.177229896 0.059203450 0.107020639
0.212776542 0.067046449 0.105882093
0.276786745 0.079569645 0.103099450
0.395698696 0.089816548 0.107779734
0.553447545 0.077292725 0.092979550
0.737381577 0.014927669 0.067931563
0.134471551 0.091334544 0.108538538
0.145098001 0.088172443 0.099177547
0.170145079 0.095256448 0.117647000
0.217963189 0.100695640 0.107020639
0.290322632 0.112839893 0.099936545
0.400379717 0.125363797 0.101075187
0.569006503 0.123972297 0.089437284
0.760531127 0.093738325 0.062998153
0.126755357 0.142188549 0.098292440
0.141176105 0.143832654 0.104617544
0.158001453 0.145350650 0.106641091
0.202909186 0.155850977 0.097153895
0.280328989 0.173055097 0.099177644
0.403542012 0.192283541 0.092220262
0.564326346 0.202529639 0.073624268
0.744718432 0.197849542 0.034282368
0.095382549 0.221632093 0.096774451
0.116635360 0.219355002 0.102340356
0.139911547 0.227198079 0.099177636
0.206198990 0.227450818 0.103099450
0.290195853 0.257305533 0.091081709
0.418089539 0.279316723 0.073497653
0.589626670 0.303984910 0.035041358
0.782289505 0.308791786 0.002403715
0.011006001 0.333206832 0.078557998
0.037824176 0.329158723 0.087918907
0.114610903 0.335990101 0.076533742
0.199873194 0.335483819 0.081341162
0.290069640 0.349652022 0.061479911
0.423276633 0.380138934 0.022770368
0.599367499 0.409993738 0.000000000
0.793295145 0.421378970 0.000000000
0.003162807 0.477925003 0.002403808
0.000000000 0.479949296 0.002024260
0.003415552 0.483112097 0.000000000
0.189120635 0.484123796 0.000759096
0.315370291 0.489689946 0.000000000
0.445540905 0.499430627 0.002403808
0.617078006 0.525869906 0.000000000
0.802656472 0.544844925 0.000759092
0.001897740 0.661227286 0.003289004
0.000000000 0.661986291 0.007589993
0.001644712 0.659582436 0.006072284
0.164959073 0.663883507 0.001138644
0.354965001 0.669323325 0.002277191
0.515622735 0.672991753 0.003415545
0.678684235 0.682732522 0.003794996
0.854016423 0.688425183 0.002024159
0.004807297 0.846046984 0.003542452
0.000379548 0.845920324 0.001265167
0.000759096 0.844655156 0.002403714
0.094244301 0.846299827 0.001518095
0.374699652 0.848070562 0.002277191
0.564326406 0.849715471 0.001265167
0.740037739 0.850347579 0.003415832
0.911068857 0.846046984 0.002909560
0.126249090 0.048576999 0.161417007
0.140037552 0.051359549 0.163440645
0.168626994 0.060341995 0.159898996
0.212270990 0.072612457 0.162935093
0.285895079 0.065907896 0.173181191
0.397849351 0.032890361 0.156989351
0.558760405 0.001644712 0.156609997
0.745224476 0.002656832 0.144971102
0.124351449 0.082226187 0.160658002
0.138014004 0.091334544 0.150411099
0.155218095 0.092472993 0.148007199
0.209614456 0.098039091 0.166983098
0.285388827 0.096521102 0.161037460
0.402403444 0.087160006 0.153574005
0.574446559 0.060973920 0.154459193
0.764199793 0.001265168 0.144971386
0.119291902 0.137128085 0.154459015
0.121189356 0.145730108 0.167741999
0.158381000 0.144971102 0.151929095
0.202150285 0.153573990 0.159519449
0.288298309 0.161290303 0.158381015
0.412650466 0.171157449 0.156483352
0.565844357 0.175711527 0.144212395
0.755976856 0.154206276 0.135230839
0.082226455 0.220872998 0.155977100
0.104870453 0.222137734 0.158380896
0.142694101 0.222390994 0.160278559
0.194686636 0.232637286 0.158380896
0.286147833 0.252245277 0.146109745
0.419101804 0.271473825 0.143453196
0.591271460 0.288804352 0.131055996
0.778367639 0.285389006 0.106135219
0.007084097 0.330423564 0.149778709
0.017963462 0.330802917 0.147375107
0.106135011 0.332700461 0.147374913
0.186717629 0.335483730 0.138393447
0.293611377 0.344465464 0.130170912
0.429474741 0.375458717 0.121062547
0.605692565 0.400126368 0.097532913
0.799999893 0.409614265 0.054902088
0.004048004 0.480328828 0.100822106
0.002024260 0.479822546 0.102466650
0.008349265 0.484123796 0.088425353
0.176596820 0.489690006 0.091460921
0.307906628 0.489310473 0.079063728
0.446679562 0.499051183 0.044402730
0.626691878 0.522706985 0.008728817
0.813409090 0.537254751 0.001265172
0.005439805 0.661479950 0.000000001
0.001138547 0.661353827 0.004048006
0.001517998 0.665654778 0.002403808
0.122833468 0.662492037 0.004933717
0.348387271 0.668437719 0.003289004
0.513219595 0.676533759 0.000379548
0.682479262 0.684376597 0.003162904
0.853510618 0.688045740 0.004048205
0.000000000 0.847691417 0.001265169
0.001265168 0.844022572 0.000379548
0.000000000 0.843390465 0.002656833
0.034535278 0.849082768 0.000758999
0.357874721 0.849462271 0.003035996
0.551296353 0.849588692 0.002530012
0.739152312 0.846426547 0.001518193
0.909677505 0.843137383 0.003795181
0.114231355 0.052118644 0.237697631
0.128652900 0.056040641 0.239721999
0.160025001 0.063883640 0.235800177
0.194434002 0.072865002 0.237065345
0.271347553 0.068690643 0.247438267
0.401264727 0.019987527 0.266160458
0.563567281 0.000000000 0.267931998
0.755091608 0.000000000 0.253510654
0.104364000 0.092473090 0.236938626
0.113219544 0.097279996 0.229095623
0.156103924 0.092472993 0.238962993
0.198229089 0.095256351 0.229475081
0.279190540 0.090955183 0.251865625
0.401644468 0.063756816 0.262618601
0.569133282 0.003668552 0.257179022
0.767109573 0.001518189 0.248324096
0.102593362 0.144591644 0.231878370
0.107906453 0.147248179 0.231119186
0.149778917 0.143832743 0.235420540
0.202529743 0.151296914 0.237318188
0.286906719 0.148893103 0.243263632
0.411385119 0.134092197 0.239974737
0.583175421 0.094750270 0.238583356
0.765717864 0.013662513 0.230992988
0.045667369 0.218089640 0.246046990
0.067804910 0.224414736 0.232257724
0.129158467 0.224414736 0.235041082
0.190638617 0.229854628 0.228209913
0.302593440 0.240480989 0.236179635
0.421758354 0.247944564 0.228715986
0.597090185 0.251106650 0.230866641
0.787476063 0.237950638 0.222011641
0.004807003 0.331941366 0.234661639
0.001138547 0.335989982 0.233143643
0.059709184 0.333586395 0.226059645
0.185452446 0.333965749 0.230739638
0.291967183 0.344845027 0.219987288
0.440607488 0.369133651 0.219481185
0.613915145 0.384060740 0.208349079
0.805692434 0.382542729 0.202656448
0.000759096 0.477925211 0.210752904
0.002277095 0.481214613 0.212017640
0.000759097 0.481467456 0.205692545
0.143327177 0.487666249 0.204553902
0.306767970 0.492599458 0.202024370
0.458697349 0.498292089 0.195572451
0.632637560 0.516002536 0.178873822
0.820366621 0.524984241 0.157368675
0.002277288 0.665654480 0.154585719
0.000379548 0.663504303 0.153194353
0.003162710 0.662238836 0.144718617
0.025047265 0.663883507 0.138898998
0.322706997 0.671726823 0.133839250
0.511954248 0.676407397 0.111195356
0.683111846 0.679569840 0.097280070
0.860847533 0.678304553 0.072991900
0.002656833 0.847691417 0.003668656
0.000759096 0.847058833 0.005819156
0.000759096 0.849209189 0.001518189
0.005439801 0.847438395 0.004048201
0.308791846 0.851613045 0.002403808
0.533839285 0.851359844 0.001265167
0.732068062 0.849968135 0.000000000
0.914484560 0.847691417 0.002656833
0.060215019 0.056420192 0.347881198
0.090575621 0.059203450 0.344212562
0.138014108 0.061986096 0.340544075
0.196711093 0.069449648 0.347374737
0.269450188 0.065148808 0.338267177
0.397343725 0.016572079 0.377862126
0.563440740 0.000000000 0.393042475
0.753447235 0.000000000 0.391524166
0.041745983 0.093232185 0.348260641
0.083112366 0.094117805 0.346110195
0.135357454 0.096015446 0.340164512
0.197090551 0.094876997 0.337128550
0.274130195 0.091713995 0.337128550
0.403162450 0.054396007 0.375584811
0.576849937 0.000000000 0.389247268
0.769133151 0.000379548 0.393674850
0.023150012 0.148007274 0.339152366
0.050348073 0.152435452 0.341429353
0.116129003 0.150411099 0.341429263
0.191397905 0.149652004 0.340290755
0.272485971 0.148134008 0.339911282
0.411764562 0.133333191 0.361416847
0.584566712 0.068058632 0.377482533
0.778494418 0.000000001 0.382922292
0.007084001 0.228716195 0.337128520
0.000379548 0.226691619 0.344718158
0.071220562 0.225173622 0.340670198
0.180012271 0.232637286 0.338013858
0.290828645 0.230993271 0.342441618
0.436938584 0.229601279 0.358507454
0.611638188 0.201770633 0.357115358
0.809360921 0.152688295 0.352308333
0.007843000 0.333459556 0.339784980
0.000379548 0.333586395 0.341555983
0.005439808 0.337508082 0.349272460
0.152814910 0.339784980 0.338519841
0.296647370 0.343706369 0.334092349
0.449841648 0.351549357 0.337887645
0.630866647 0.351676285 0.333459556
0.821378648 0.343453348 0.339152396
0.005060257 0.482985258 0.340290934
0.003162904 0.484503359 0.336116195
0.001518192 0.484882921 0.332068175
0.056293458 0.491587490 0.330929816
0.290828645 0.490828663 0.323971748
0.465528458 0.498798281 0.325743169
0.646173298 0.505375981 0.319038630
0.836179793 0.507147610 0.318026483
0.000000000 0.668690741 0.325743258
0.004680709 0.664642632 0.321062654
0.002277094 0.667931616 0.315623164
0.002276998 0.670335174 0.308032900
0.277545840 0.673371494 0.302214086
0.496900737 0.675648510 0.298292279
0.692726016 0.674003839 0.299936771
0.873624206 0.671474040 0.293864787
0.000000000 0.847564876 0.261226743
0.000000000 0.849209189 0.259709090
0.002783166 0.851992488 0.255408019
0.000000000 0.854142725 0.251486421
0.211891308 0.847564876 0.246426374
0.505123019 0.853004396 0.244022578
0.723845780 0.851992309 0.229348496
0.913472354 0.843769789 0.226945326
0.001897740 0.057052262 0.491208196
0.005060257 0.057305805 0.494117469
0.061732922 0.055787615 0.489310563
0.186211541 0.050727263 0.487159967
0.284883171 0.028336369 0.481846899
0.397343725 0.007970003 0.477798998
0.575331867 0.001897740 0.510309517
0.765970826 0.000759092 0.532574475
0.000000000 0.093738258 0.495635659
0.000000000 0.093864739 0.490449131
0.048956715 0.087919004 0.494623601
0.185073003 0.083238713 0.483744353
0.292726278 0.071600109 0.484376878
0.412523657 0.037065271 0.489690006
0.584313810 0.000379548 0.520429850
0.784187198 0.000000000 0.538646460
0.004301258 0.150917366 0.485641807
0.003542452 0.148766369 0.481973559
0.017710535 0.148513347 0.484250605
0.165591553 0.145224452 0.482479215
0.288045198 0.140037745 0.484250546
0.409487814 0.130803362 0.481340468
0.594054401 0.045287631 0.512713730
0.787223339 0.000000000 0.529664576
0.002024260 0.244402289 0.495256215
0.006451812 0.232511073 0.498924464
0.002277095 0.233143628 0.482226342
0.150284648 0.230360284 0.493105739
0.295382619 0.227450624 0.491840482
0.438962549 0.219101742 0.491840541
0.613029778 0.199493647 0.507400334
0.814421475 0.141429648 0.523213089
0.004048004 0.353067428 0.482352972
0.003542452 0.350284845 0.487412721
0.001897546 0.350031555 0.488551348
0.069323018 0.348892897 0.483870983
0.293358445 0.347754359 0.494876474
0.454648614 0.345730633 0.490069658
0.642631114 0.341429174 0.495635659
0.836432517 0.324478209 0.504237831
0.002024260 0.487286717 0.479569733
0.000000000 0.485262454 0.477545470
0.000000000 0.491208196 0.484756470
0.004048004 0.492346585 0.482732624
0.262365818 0.496774018 0.476154268
0.467425734 0.499177724 0.483491719
0.655281544 0.497532994 0.490955204
0.847058654 0.492599577 0.488551557
0.000379548 0.667172551 0.499177724
0.001897740 0.666287363 0.498292059
0.006957707 0.670967877 0.491587371
0.007463646 0.673750937 0.495888770
0.216698378 0.678051591 0.486274481
0.482858747 0.681593776 0.480708420
0.684123516 0.674509823 0.480202287
0.885895073 0.675395072 0.484376758
0.002024260 0.847438574 0.497406483
0.005312988 0.846426547 0.502087295
0.001517992 0.851612926 0.498165816
0.000759096 0.852751553 0.488298565
0.032637645 0.860215008 0.458823562
0.461859375 0.856166840 0.460847348
0.703225791 0.855154932 0.457052439
0.911954582 0.847058833 0.459709197
0.000000000 0.042505004 0.667805552
0.003922000 0.042505004 0.669449866
0.000000000 0.033902906 0.661606848
0.154206291 0.009867013 0.667172849
0.317647249 0.002277288 0.670335412
0.451486468 0.002277288 0.656799555
0.611258864 0.002277288 0.663251519
0.776470602 0.000000000 0.661606431
0.003289004 0.086021282 0.681087792
0.000000000 0.083238520 0.669070303
0.007084000 0.074383557 0.672106028
0.148892894 0.058697160 0.675395310
0.314484447 0.013029722 0.675015569
0.472991735 0.000379548 0.670335233
0.621125817 0.000000000 0.666666806
0.800632596 0.000000000 0.678937554
0.000759096 0.151296720 0.662997961
0.000379548 0.149652004 0.666540265
0.000000000 0.146615997 0.660594702
0.110056743 0.138646096 0.671979785
0.310942292 0.119291708 0.664642632
0.467552096 0.075015828 0.665907800
0.622644126 0.004048108 0.663883567
0.799240947 0.001518192 0.666666985
0.000000000 0.240480989 0.666666925
0.001644712 0.237697914 0.677798867
0.002276998 0.234914556 0.670588195
0.027703982 0.238077059 0.665528238
0.301075339 0.228209913 0.669956028
0.471220642 0.214800999 0.666413844
0.651612937 0.178747714 0.671094537
0.824920952 0.131815225 0.675648093
0.002277288 0.381404191 0.669829011
0.000759096 0.377102911 0.669323206
0.002403808 0.363946557 0.666413605
0.000379548 0.357748091 0.669955969
0.264136553 0.349778533 0.662998080
0.475648165 0.348387182 0.673877418
0.659582853 0.338266790 0.662997961
0.845667541 0.325869799 0.664642572
0.003794996 0.517394483 0.665022254
0.000379548 0.517394483 0.664263129
0.000759096 0.515496731 0.664263189
0.003921709 0.516002417 0.661100388
0.211132288 0.512713432 0.663883567
0.461733460 0.502340198 0.665022075
0.668058038 0.504237413 0.665148735
0.855660856 0.504870474 0.672865391
0.003289004 0.685768247 0.672738850
0.000379548 0.686906993 0.660341561
0.000000000 0.682732463 0.659961760
0.003289004 0.684629917 0.668311238
0.186464459 0.688171804 0.670967877
0.473244429 0.690701962 0.669829369
0.681846857 0.689689875 0.670082271
0.883744538 0.686401010 0.680708051
0.004553996 0.849336028 0.676407516
0.002277288 0.851992309 0.669955790
0.000379546 0.853510320 0.666666865
0.003922000 0.854901612 0.677546084
0.124604374 0.860467851 0.679949343
0.454648912 0.862365246 0.674762845
0.691208065 0.859455764 0.665781319
0.897406578 0.850980341 0.662238836
0.000000000 0.015559858 0.845034599
0.001265167 0.005060025 0.840986788
0.000000000 0.001265167 0.843769729
0.053636927 0.001265167 0.835167468
0.323719025 0.001518192 0.846173227
0.502593398 0.000000000 0.840607345
0.676154256 0.000000000 0.844402432
0.854522228 0.000000000 0.845161378
0.002277285 0.077292845 0.858823538
0.000379548 0.065528169 0.843769729
0.002277285 0.045287561 0.845034659
0.036432642 0.005692727 0.839468598
0.323718995 0.001138644 0.853257537
0.510562956 0.000000000 0.851106882
0.682858944 0.000000000 0.850853980
0.866287231 0.000000000 0.851233304
0.001897737 0.144591838 0.843769729
0.002656736 0.143326998 0.841113091
0.003162904 0.134851098 0.845161617
0.011764919 0.121821545 0.848450124
0.309677452 0.087539472 0.836938679
0.498418629 0.012650217 0.845793664
0.679822743 0.000759097 0.851612926
0.866540253 0.000000000 0.851739407
0.006704646 0.245920464 0.851233363
0.000759096 0.243137449 0.849462509
0.002530012 0.243390471 0.844908357
0.000000000 0.239595264 0.854395807
0.277672261 0.227956995 0.851992548
0.500189424 0.199620470 0.854269385
0.692725956 0.152435347 0.854901731
0.888930917 0.036306284 0.851992548
0.001138640 0.389753163 0.857558548
0.000000000 0.385831565 0.849209249
0.000759096 0.374826252 0.853510439
0.004174630 0.365591377 0.849335790
0.208728775 0.363314360 0.856799603
0.477671981 0.354585350 0.853004277
0.691840589 0.338013947 0.855407834
0.898038805 0.307400376 0.854522586
0.002656833 0.543580174 0.852877736
0.002277285 0.538646460 0.846932113
0.001517998 0.538266718 0.849588692
0.005819256 0.532068312 0.847311676
0.079696558 0.526375890 0.847058654
0.453004360 0.522960484 0.849082708
0.689563751 0.511701465 0.845034659
0.893991172 0.500316381 0.845667481
0.002277288 0.717014551 0.846805632
0.000758992 0.714357793 0.848450303
0.000000000 0.712713063 0.845540643
0.002403811 0.711954355 0.853763223
0.079317018 0.712713182 0.853889883
0.464895487 0.711068809 0.853510559
0.683744073 0.697280407 0.851612747
0.890575111 0.706641138 0.852245450
0.001265167 0.879190624 0.843769729
0.000000000 0.880202115 0.839215755
0.003542261 0.873244524 0.848197281
0.004807010 0.872612417 0.843137145
0.085009463 0.874762595 0.842378438
0.481214106 0.873750508 0.848956585
0.710056961 0.866413713 0.848829627
0.889563560 0.869955599 0.858190536
